; generated by PrusaSlicer 2.3.0+linux-x64 on 2021-02-16 at 01:33:34 UTC

; 

; external perimeters extrusion width = 0.45mm
; perimeters extrusion width = 0.45mm
; infill extrusion width = 0.45mm
; solid infill extrusion width = 0.45mm
; top infill extrusion width = 0.40mm
; first layer extrusion width = 0.42mm

M73 P0 R30
M201 X9000 Y9000 Z500 E10000 ; sets maximum accelerations, mm/sec^2
M203 X500 Y500 Z12 E120 ; sets maximum feedrates, mm/sec
M204 P2000 R1500 T2000 ; sets acceleration (P, T) and retract acceleration (R), mm/sec^2
M205 X10.00 Y10.00 Z0.20 E4.50 ; sets the jerk limits, mm/sec
M205 S0 T0 ; sets the minimum extruding and travel feed rate, mm/sec
M107
;TYPE:Custom
M862.3 P "MK2.5" ; printer model check
M862.1 P0.4 ; nozzle diameter check
M115 U3.9.3 ; tell printer latest fw version
G90 ; use absolute coordinates
M83 ; extruder relative mode
M104 S215 ; set extruder temp
M140 S60 ; set bed temp
M190 S60 ; wait for bed temp
M109 S215 ; wait for extruder temp
G28 W ; home all without mesh bed level
G80 ; mesh bed leveling
G1 Y-3.0 F1000.0 ; go outside print area
G92 E0.0
G1 X60.0 E9.0 F1000.0 ; intro line
G1 X100.0 E12.5 F1000.0 ; intro line
G92 E0.0
G21 ; set units to millimeters
G90 ; use absolute coordinates
M83 ; use relative distances for extrusion
M900 K0.05 ; Filament gcode LA 1.5
M900 K30 ; Filament gcode LA 1.0
;LAYER_CHANGE
;Z:0.2
;HEIGHT:0.2
;BEFORE_LAYER_CHANGE
G92 E0.0
;0.2


G1 E-0.80000 F2100.000
G1 Z0.400 F10800.000
;AFTER_LAYER_CHANGE
;0.2
G1 X6.789 Y5.535
G1 Z0.200
G1 E0.80000 F2100.000
M204 S1000
;TYPE:Skirt
;WIDTH:0.42
G1 F1200.000
G1 X7.598 Y5.392 E0.02579
G1 X242.401 Y5.392 E7.36206
M73 P1 R30
G1 X243.303 Y5.571 E0.02884
G1 X244.072 Y6.082 E0.02896
G1 X244.588 Y6.848 E0.02896
G1 X244.774 Y7.748 E0.02884
G1 X244.774 Y202.243 E6.09823
G1 X244.715 Y202.757 E0.01621
G1 X244.548 Y203.242 E0.01609
G1 X244.281 Y203.680 E0.01609
G1 X243.924 Y204.053 E0.01621
G1 X243.211 Y204.465 E0.02579
G1 X242.402 Y204.608 E0.02579
G1 X7.599 Y204.608 E7.36206
M73 P2 R29
G1 X7.086 Y204.551 E0.01621
G1 X6.596 Y204.385 E0.01621
G1 X6.155 Y204.116 E0.01621
G1 X5.781 Y203.758 E0.01621
G1 X5.370 Y203.046 E0.02579
G1 X5.226 Y202.236 E0.02579
G1 X5.226 Y7.765 E6.09752
G1 X5.283 Y7.251 E0.01621
G1 X5.450 Y6.762 E0.01621
G1 X5.719 Y6.320 E0.01621
G1 X6.076 Y5.947 E0.01621
G1 X6.737 Y5.565 E0.02390
; printing object 3x3_cali_rl.stl id:0 copy 0
;WIPE_START
G1 F8640.000
G1 X7.598 Y5.392 E-0.20297
G1 X10.011 Y5.392 E-0.55703
;WIPE_END
G1 E-0.04000 F2100.000
G1 Z0.600 F10800.000
G1 X125.018 Y119.031
G1 Z0.200
G1 E0.80000 F2100.000
;TYPE:Perimeter
G1 F1200.000
G1 X137.316 Y119.031 E0.38559
G1 X137.316 Y106.850 E0.38192
G1 X163.872 Y106.850 E0.83262
M73 P3 R29
G1 X163.872 Y116.067 E0.28900
G1 X187.297 Y116.067 E0.73450
G1 X187.297 Y106.850 E0.28900
G1 X213.184 Y106.850 E0.81165
G1 X213.184 Y119.031 E0.38192
G1 X225.663 Y119.031 E0.39127
G1 X225.663 Y173.018 E1.69275
G1 X213.184 Y173.018 E0.39127
G1 X213.184 Y186.026 E0.40785
G1 X137.316 Y186.026 E2.37878
G1 X137.316 Y173.018 E0.40785
G1 X125.018 Y173.018 E0.38559
G1 X125.018 Y119.091 E1.69087
G1 X125.395 Y119.408 F10800.000
;TYPE:External perimeter
G1 F1200.000
G1 X137.693 Y119.408 E0.38559
G1 X137.693 Y107.227 E0.38192
G1 X163.494 Y107.227 E0.80898
M73 P4 R29
G1 X163.494 Y116.444 E0.28900
G1 X187.674 Y116.444 E0.75815
G1 X187.674 Y107.227 E0.28900
G1 X212.807 Y107.227 E0.78801
G1 X212.807 Y119.408 E0.38192
G1 X225.286 Y119.408 E0.39127
G1 X225.286 Y172.641 E1.66911
G1 X212.807 Y172.641 E0.39127
G1 X212.807 Y185.649 E0.40785
G1 X137.693 Y185.649 E2.35513
G1 X137.693 Y172.641 E0.40785
G1 X125.395 Y172.641 E0.38559
G1 X125.395 Y119.468 E1.66723
G1 X125.365 Y119.009 F10800.000
;WIPE_START
G1 F8640.000
G1 X128.687 Y119.452 E-0.76000
;WIPE_END
G1 E-0.04000 F2100.000
G1 Z0.600 F10800.000
G1 X137.316 Y102.424
G1 Z0.200
M73 P5 R29
G1 E0.80000 F2100.000
;TYPE:Perimeter
G1 F1200.000
G1 X137.316 Y90.605 E0.37058
G1 X125.266 Y90.605 E0.37782
G1 X125.266 Y36.982 E1.68132
G1 X137.316 Y36.982 E0.37782
G1 X137.316 Y24.948 E0.37732
G1 X213.184 Y24.948 E2.37878
M73 P5 R28
G1 X213.184 Y36.982 E0.37732
G1 X225.911 Y36.982 E0.39904
G1 X225.911 Y90.605 E1.68132
G1 X213.184 Y90.605 E0.39904
G1 X213.184 Y102.424 E0.37058
G1 X187.297 Y102.424 E0.81165
G1 X187.297 Y92.641 E0.30673
G1 X163.872 Y92.641 E0.73450
G1 X163.872 Y102.424 E0.30673
G1 X137.376 Y102.424 E0.83074
M73 P6 R28
G1 X137.693 Y102.047 F10800.000
;TYPE:External perimeter
G1 F1200.000
G1 X137.693 Y90.228 E0.37058
G1 X125.643 Y90.228 E0.37782
G1 X125.643 Y37.359 E1.65767
G1 X137.693 Y37.359 E0.37782
G1 X137.693 Y25.325 E0.37732
G1 X212.807 Y25.325 E2.35513
G1 X212.807 Y37.359 E0.37732
G1 X225.534 Y37.359 E0.39904
G1 X225.534 Y90.228 E1.65767
G1 X212.807 Y90.228 E0.39904
G1 X212.807 Y102.047 E0.37058
G1 X187.674 Y102.047 E0.78801
G1 X187.674 Y92.264 E0.30673
G1 X163.494 Y92.264 E0.75815
G1 X163.494 Y102.047 E0.30673
M73 P7 R28
G1 X137.753 Y102.047 E0.80710
G1 X137.296 Y102.095 F10800.000
;WIPE_START
G1 F8640.000
G1 X137.737 Y98.755 E-0.76000
;WIPE_END
G1 E-0.04000 F2100.000
G1 Z0.600 F10800.000
G1 X121.840 Y90.605
G1 Z0.200
G1 E0.80000 F2100.000
;TYPE:Perimeter
G1 F1200.000
G1 X108.890 Y90.605 E0.40604
G1 X108.890 Y102.424 E0.37058
G1 X85.180 Y102.424 E0.74342
G1 X85.180 Y92.641 E0.30673
G1 X61.754 Y92.641 E0.73450
G1 X61.754 Y102.424 E0.30673
G1 X36.816 Y102.424 E0.78191
G1 X36.816 Y90.605 E0.37058
G1 X24.815 Y90.605 E0.37628
G1 X24.815 Y36.982 E1.68132
G1 X36.816 Y36.982 E0.37628
G1 X36.816 Y24.966 E0.37674
G1 X108.890 Y24.966 E2.25984
G1 X108.890 Y36.982 E0.37674
G1 X121.840 Y36.982 E0.40604
G1 X121.840 Y90.545 E1.67944
M73 P8 R28
G1 X121.463 Y90.228 F10800.000
;TYPE:External perimeter
G1 F1200.000
G1 X108.513 Y90.228 E0.40604
G1 X108.513 Y102.047 E0.37058
G1 X85.557 Y102.047 E0.71978
G1 X85.557 Y92.264 E0.30673
G1 X61.377 Y92.264 E0.75815
G1 X61.377 Y102.047 E0.30673
G1 X37.193 Y102.047 E0.75826
G1 X37.193 Y90.228 E0.37058
G1 X25.192 Y90.228 E0.37628
G1 X25.192 Y37.359 E1.65767
M73 P8 R27
G1 X37.193 Y37.359 E0.37628
G1 X37.193 Y25.343 E0.37674
G1 X108.513 Y25.343 E2.23619
G1 X108.513 Y37.359 E0.37674
G1 X121.463 Y37.359 E0.40604
M73 P9 R27
G1 X121.463 Y90.168 E1.65579
G1 X121.495 Y90.626 F10800.000
;WIPE_START
G1 F8640.000
G1 X118.172 Y90.183 E-0.76000
;WIPE_END
G1 E-0.04000 F2100.000
G1 Z0.600 F10800.000
G1 X108.890 Y106.850
G1 Z0.200
G1 E0.80000 F2100.000
;TYPE:Perimeter
G1 F1200.000
G1 X108.890 Y119.031 E0.38192
G1 X121.592 Y119.031 E0.39827
G1 X121.592 Y173.018 E1.69275
G1 X108.890 Y173.018 E0.39827
G1 X108.890 Y186.180 E0.41267
G1 X36.816 Y186.180 E2.25984
G1 X36.816 Y173.018 E0.41267
G1 X24.567 Y173.018 E0.38406
G1 X24.567 Y119.031 E1.69275
G1 X36.816 Y119.031 E0.38406
G1 X36.816 Y106.850 E0.38192
G1 X61.754 Y106.850 E0.78191
M73 P10 R27
G1 X61.754 Y116.067 E0.28900
G1 X85.180 Y116.067 E0.73450
G1 X85.180 Y106.850 E0.28900
G1 X108.830 Y106.850 E0.74154
G1 X108.513 Y107.227 F10800.000
;TYPE:External perimeter
G1 F1200.000
G1 X108.513 Y119.408 E0.38192
G1 X121.215 Y119.408 E0.39827
G1 X121.215 Y172.641 E1.66911
G1 X108.513 Y172.641 E0.39827
G1 X108.513 Y185.803 E0.41267
G1 X37.193 Y185.803 E2.23619
G1 X37.193 Y172.641 E0.41267
G1 X24.944 Y172.641 E0.38406
G1 X24.944 Y119.408 E1.66911
G1 X37.193 Y119.408 E0.38406
G1 X37.193 Y107.227 E0.38192
G1 X61.377 Y107.227 E0.75826
M73 P11 R27
G1 X61.377 Y116.444 E0.28900
G1 X85.557 Y116.444 E0.75815
G1 X85.557 Y107.227 E0.28900
G1 X108.453 Y107.227 E0.71790
G1 X108.910 Y107.176 F10800.000
;WIPE_START
G1 F8640.000
G1 X108.469 Y110.518 E-0.76000
;WIPE_END
G1 E-0.04000 F2100.000
G1 Z0.600 F10800.000
G1 X36.816 Y20.540
G1 Z0.200
G1 E0.80000 F2100.000
;TYPE:Perimeter
G1 F1200.000
G1 X108.890 Y20.540 E2.25984
G1 X108.890 Y8.556 E0.37576
G1 X137.316 Y8.556 E0.89127
G1 X137.316 Y20.522 E0.37519
G1 X213.184 Y20.522 E2.37878
G1 X213.184 Y8.556 E0.37519
G1 X241.610 Y8.556 E0.89127
M73 P11 R26
G1 X241.610 Y36.982 E0.89127
M73 P12 R26
G1 X229.337 Y36.982 E0.38481
G1 X229.337 Y90.605 E1.68132
G1 X241.610 Y90.605 E0.38481
G1 X241.610 Y119.031 E0.89127
G1 X229.089 Y119.031 E0.39259
G1 X229.089 Y173.018 E1.69275
G1 X241.610 Y173.018 E0.39259
G1 X241.610 Y201.444 E0.89127
G1 X213.184 Y201.444 E0.89127
G1 X213.184 Y190.452 E0.34465
G1 X137.316 Y190.452 E2.37878
G1 X137.316 Y201.444 E0.34465
M73 P13 R26
G1 X108.890 Y201.444 E0.89127
G1 X108.890 Y190.606 E0.33983
G1 X36.816 Y190.606 E2.25984
G1 X36.816 Y201.444 E0.33983
G1 X8.390 Y201.444 E0.89127
G1 X8.390 Y173.018 E0.89127
G1 X21.141 Y173.018 E0.39980
G1 X21.141 Y119.031 E1.69275
G1 X8.390 Y119.031 E0.39980
G1 X8.390 Y90.605 E0.89127
G1 X21.389 Y90.605 E0.40758
G1 X21.389 Y36.982 E1.68132
G1 X8.390 Y36.982 E0.40758
M73 P14 R26
G1 X8.390 Y8.556 E0.89127
G1 X36.816 Y8.556 E0.89127
G1 X36.816 Y20.480 E0.37388
G1 X37.193 Y20.163 F10800.000
;TYPE:External perimeter
G1 F1200.000
G1 X108.513 Y20.163 E2.23619
G1 X108.513 Y8.179 E0.37576
G1 X137.693 Y8.179 E0.91492
G1 X137.693 Y20.145 E0.37519
G1 X212.807 Y20.145 E2.35513
G1 X212.807 Y8.179 E0.37519
G1 X241.987 Y8.179 E0.91492
G1 X241.987 Y37.359 E0.91492
G1 X229.714 Y37.359 E0.38481
G1 X229.714 Y90.228 E1.65767
M73 P15 R26
G1 X241.987 Y90.228 E0.38481
G1 X241.987 Y119.408 E0.91492
G1 X229.466 Y119.408 E0.39259
M73 P15 R25
G1 X229.466 Y172.641 E1.66911
G1 X241.987 Y172.641 E0.39259
G1 X241.987 Y201.821 E0.91492
G1 X212.807 Y201.821 E0.91492
G1 X212.807 Y190.829 E0.34465
G1 X137.693 Y190.829 E2.35513
G1 X137.693 Y201.821 E0.34465
G1 X108.513 Y201.821 E0.91492
G1 X108.513 Y190.983 E0.33983
M73 P16 R25
G1 X37.193 Y190.983 E2.23619
G1 X37.193 Y201.821 E0.33983
G1 X8.013 Y201.821 E0.91492
G1 X8.013 Y172.641 E0.91492
G1 X20.764 Y172.641 E0.39980
G1 X20.764 Y119.408 E1.66911
G1 X8.013 Y119.408 E0.39980
G1 X8.013 Y90.228 E0.91492
G1 X21.012 Y90.228 E0.40758
G1 X21.012 Y37.359 E1.65767
G1 X8.013 Y37.359 E0.40758
G1 X8.013 Y8.179 E0.91492
M73 P17 R25
G1 X37.193 Y8.179 E0.91492
G1 X37.193 Y20.103 E0.37388
G1 X37.347 Y20.532 F10800.000
;WIPE_START
G1 F8640.000
G1 X40.485 Y20.106 E-0.76000
;WIPE_END
G1 E-0.04000 F2100.000
G1 Z0.600 F10800.000
G1 X186.644 Y92.754
G1 Z0.200
G1 E0.80000 F2100.000
;TYPE:Solid infill
;WIDTH:0.420159
G1 F1200.000
G1 X187.015 Y93.125 E0.01644
G1 X187.015 Y93.658 E0.01673
G1 X186.280 Y92.924 E0.03258
G1 X185.747 Y92.924 E0.01673
G1 X187.015 Y94.192 E0.05625
G1 X187.015 Y94.725 E0.01673
G1 X185.213 Y92.924 E0.07991
G1 X184.680 Y92.924 E0.01673
G1 X187.015 Y95.259 E0.10358
G1 X187.015 Y95.792 E0.01673
G1 X184.146 Y92.924 E0.12724
G1 X183.613 Y92.924 E0.01673
G1 X187.015 Y96.326 E0.15091
G1 X187.015 Y96.859 E0.01673
G1 X183.079 Y92.924 E0.17458
G1 X182.546 Y92.924 E0.01673
G1 X187.015 Y97.393 E0.19824
G1 X187.015 Y97.926 E0.01673
G1 X182.012 Y92.924 E0.22191
G1 X181.479 Y92.924 E0.01673
G1 X187.015 Y98.460 E0.24557
G1 X187.015 Y98.993 E0.01673
G1 X180.945 Y92.924 E0.26924
G1 X180.412 Y92.924 E0.01673
G1 X187.015 Y99.527 E0.29291
G1 X187.015 Y100.060 E0.01673
G1 X179.878 Y92.924 E0.31657
G1 X179.345 Y92.924 E0.01673
G1 X187.015 Y100.594 E0.34024
G1 X187.015 Y101.127 E0.01673
G1 X178.811 Y92.924 E0.36391
G1 X178.278 Y92.924 E0.01673
G1 X187.184 Y101.831 E0.39510
;WIPE_START
G1 F8640.000
G1 X184.857 Y99.503 E-0.76000
;WIPE_END
G1 E-0.04000 F2100.000
G1 Z0.600 F10800.000
G1 X240.625 Y90.718
G1 Z0.200
G1 E0.80000 F2100.000
G1 F1200.000
G1 X241.327 Y91.420 E0.03115
G1 X241.327 Y91.954 E0.01673
G1 X240.261 Y90.888 E0.04729
G1 X239.727 Y90.888 E0.01673
G1 X241.327 Y92.487 E0.07096
G1 X241.327 Y93.021 E0.01673
G1 X239.194 Y90.888 E0.09463
G1 X238.660 Y90.888 E0.01673
G1 X241.327 Y93.554 E0.11829
G1 X241.327 Y94.088 E0.01673
G1 X238.127 Y90.888 E0.14196
G1 X237.593 Y90.888 E0.01673
G1 X241.327 Y94.621 E0.16562
G1 X241.327 Y95.155 E0.01673
G1 X237.060 Y90.888 E0.18929
G1 X236.526 Y90.888 E0.01673
G1 X241.327 Y95.688 E0.21296
G1 X241.327 Y96.222 E0.01673
G1 X235.993 Y90.888 E0.23662
G1 X235.459 Y90.888 E0.01673
G1 X241.327 Y96.755 E0.26029
G1 X241.327 Y97.289 E0.01673
G1 X234.926 Y90.888 E0.28395
G1 X234.392 Y90.888 E0.01673
G1 X241.327 Y97.822 E0.30762
G1 X241.327 Y98.356 E0.01673
G1 X233.859 Y90.888 E0.33129
G1 X233.325 Y90.888 E0.01673
G1 X241.327 Y98.889 E0.35495
G1 X241.327 Y99.423 E0.01673
G1 X232.792 Y90.888 E0.37862
G1 X232.258 Y90.888 E0.01673
G1 X241.327 Y99.956 E0.40228
G1 X241.327 Y100.490 E0.01673
G1 X231.725 Y90.888 E0.42595
G1 X231.191 Y90.888 E0.01673
G1 X241.327 Y101.023 E0.44962
M73 P18 R25
G1 X241.327 Y101.557 E0.01673
G1 X230.658 Y90.888 E0.47328
G1 X230.124 Y90.888 E0.01673
G1 X241.327 Y102.090 E0.49695
G1 X241.327 Y102.624 E0.01673
G1 X229.421 Y90.718 E0.52814
;WIPE_START
G1 F8640.000
G1 X231.749 Y93.045 E-0.76000
;WIPE_END
G1 E-0.04000 F2100.000
G1 Z0.600 F10800.000
G1 X241.497 Y9.431
G1 Z0.200
G1 E0.80000 F2100.000
G1 F1200.000
G1 X240.904 Y8.838 E0.02630
G1 X240.370 Y8.838 E0.01673
G1 X241.327 Y9.795 E0.04244
G1 X241.327 Y10.329 E0.01673
G1 X239.837 Y8.838 E0.06611
G1 X239.303 Y8.838 E0.01673
G1 X241.327 Y10.862 E0.08977
G1 X241.327 Y11.396 E0.01673
G1 X238.770 Y8.838 E0.11344
G1 X238.236 Y8.838 E0.01673
G1 X241.327 Y11.929 E0.13711
G1 X241.327 Y12.463 E0.01673
G1 X237.703 Y8.838 E0.16077
G1 X237.169 Y8.838 E0.01673
G1 X241.327 Y12.996 E0.18444
G1 X241.327 Y13.530 E0.01673
G1 X236.636 Y8.838 E0.20810
G1 X236.102 Y8.838 E0.01673
G1 X241.327 Y14.063 E0.23177
G1 X241.327 Y14.597 E0.01673
G1 X235.569 Y8.838 E0.25544
G1 X235.035 Y8.838 E0.01673
G1 X241.327 Y15.130 E0.27910
G1 X241.327 Y15.664 E0.01673
G1 X234.502 Y8.838 E0.30277
G1 X233.968 Y8.838 E0.01673
G1 X241.327 Y16.197 E0.32643
G1 X241.327 Y16.731 E0.01673
G1 X233.435 Y8.838 E0.35010
G1 X232.901 Y8.838 E0.01673
G1 X241.327 Y17.264 E0.37377
G1 X241.327 Y17.798 E0.01673
G1 X232.368 Y8.838 E0.39743
G1 X231.834 Y8.838 E0.01673
G1 X241.327 Y18.331 E0.42110
G1 X241.327 Y18.865 E0.01673
G1 X231.301 Y8.838 E0.44477
M73 P18 R24
G1 X230.767 Y8.838 E0.01673
G1 X241.327 Y19.398 E0.46843
G1 X241.327 Y19.932 E0.01673
G1 X230.234 Y8.838 E0.49210
G1 X229.700 Y8.838 E0.01673
G1 X241.327 Y20.465 E0.51576
G1 X241.327 Y20.999 E0.01673
G1 X229.167 Y8.838 E0.53943
G1 X228.633 Y8.838 E0.01673
G1 X241.327 Y21.532 E0.56310
G1 X241.327 Y22.066 E0.01673
G1 X228.100 Y8.838 E0.58676
G1 X227.566 Y8.838 E0.01673
G1 X241.327 Y22.599 E0.61043
G1 X241.327 Y23.133 E0.01673
G1 X227.033 Y8.838 E0.63409
M73 P19 R24
G1 X226.499 Y8.838 E0.01673
G1 X241.327 Y23.666 E0.65776
G1 X241.327 Y24.200 E0.01673
G1 X225.966 Y8.838 E0.68143
G1 X225.432 Y8.838 E0.01673
G1 X241.327 Y24.733 E0.70509
G1 X241.327 Y25.267 E0.01673
G1 X224.899 Y8.838 E0.72876
G1 X224.365 Y8.838 E0.01673
G1 X241.327 Y25.800 E0.75242
G1 X241.327 Y26.334 E0.01673
G1 X223.832 Y8.838 E0.77609
G1 X223.298 Y8.838 E0.01673
G1 X241.327 Y26.867 E0.79976
G1 X241.327 Y27.401 E0.01673
G1 X222.765 Y8.838 E0.82342
G1 X222.231 Y8.838 E0.01673
G1 X241.327 Y27.934 E0.84709
G1 X241.327 Y28.468 E0.01673
G1 X221.698 Y8.838 E0.87076
G1 X221.164 Y8.838 E0.01673
G1 X241.327 Y29.001 E0.89442
G1 X241.327 Y29.535 E0.01673
G1 X220.631 Y8.838 E0.91809
G1 X220.097 Y8.838 E0.01673
G1 X241.327 Y30.068 E0.94175
G1 X241.327 Y30.602 E0.01673
G1 X219.564 Y8.838 E0.96542
M73 P20 R24
G1 X219.030 Y8.838 E0.01673
G1 X241.327 Y31.135 E0.98909
G1 X241.327 Y31.669 E0.01673
G1 X218.497 Y8.838 E1.01275
G1 X217.963 Y8.838 E0.01673
G1 X241.327 Y32.202 E1.03642
G1 X241.327 Y32.736 E0.01673
G1 X217.430 Y8.838 E1.06008
G1 X216.896 Y8.838 E0.01673
G1 X241.327 Y33.269 E1.08375
G1 X241.327 Y33.803 E0.01673
G1 X216.363 Y8.838 E1.10742
G1 X215.829 Y8.838 E0.01673
G1 X241.327 Y34.336 E1.13108
G1 X241.327 Y34.870 E0.01673
G1 X215.296 Y8.838 E1.15475
G1 X214.762 Y8.838 E0.01673
G1 X241.327 Y35.403 E1.17842
G1 X241.327 Y35.937 E0.01673
G1 X214.229 Y8.838 E1.20208
M73 P21 R24
G1 X213.695 Y8.838 E0.01673
G1 X241.327 Y36.470 E1.22575
G1 X241.327 Y36.699 E0.00717
G1 X241.022 Y36.699 E0.00956
G1 X213.467 Y9.143 E1.22237
G1 X213.467 Y9.677 E0.01673
G1 X240.489 Y36.699 E1.19870
G1 X239.955 Y36.699 E0.01673
G1 X213.467 Y10.210 E1.17504
G1 X213.467 Y10.744 E0.01673
G1 X239.422 Y36.699 E1.15137
G1 X238.888 Y36.699 E0.01673
G1 X213.467 Y11.277 E1.12771
