; generated by PrusaSlicer 2.2.0+linux-x64 on 2020-11-16 at 19:17:03 UTC

; 

; external perimeters extrusion width = 0.45mm
; perimeters extrusion width = 0.45mm
; infill extrusion width = 0.45mm
; solid infill extrusion width = 0.45mm
; top infill extrusion width = 0.40mm
; first layer extrusion width = 0.42mm

M73 P0 R30
M201 X9000 Y9000 Z500 E10000 ; sets maximum accelerations, mm/sec^2
M203 X500 Y500 Z12 E120 ; sets maximum feedrates, mm/sec
M204 P2000 R1500 T2000 ; sets acceleration (P, T) and retract acceleration (R), mm/sec^2
M205 X10.00 Y10.00 Z0.20 E4.50 ; sets the jerk limits, mm/sec
M205 S0 T0 ; sets the minimum extruding and travel feed rate, mm/sec
M107
M862.3 P "MK2.5" ; printer model check
M862.1 P0.4 ; nozzle diameter check
M115 U3.9.1 ; tell printer latest fw version
G90 ; use absolute coordinates
M83 ; extruder relative mode
M104 S215 ; set extruder temp
M140 S60 ; set bed temp
M190 S60 ; wait for bed temp
M109 S215 ; wait for extruder temp
G28 W ; home all without mesh bed level
G80 ; mesh bed leveling
G1 Y-3.0 F1000.0 ; go outside print area
G92 E0.0
G1 X60.0 E9.0 F1000.0 ; intro line
M73 P0 R29
G1 X100.0 E12.5 F1000.0 ; intro line
G92 E0.0
G21 ; set units to millimeters
G90 ; use absolute coordinates
M83 ; use relative distances for extrusion
M900 K0.05 ; Filament gcode LA 1.5
M900 K30 ; Filament gcode LA 1.0
;BEFORE_LAYER_CHANGE
G92 E0.0
;0.2


G1 E-0.80000 F2100.00000
G1 Z0.600 F10800.000
;AFTER_LAYER_CHANGE
;0.2
;CURRENT_Z: 0.2
G1 X127.513 Y82.439
G1 Z0.200
G1 E0.80000 F2100.00000
M204 S1000
G1 F1200.000
G1 X128.384 Y82.991 E0.03233
G1 X128.991 Y83.825 E0.03233
G1 X129.248 Y84.823 E0.03233
G1 X129.247 Y125.193 E1.26576
G1 X129.094 Y125.925 E0.02345
G1 X128.747 Y126.592 E0.02358
G1 X128.233 Y127.141 E0.02358
G1 X127.589 Y127.530 E0.02358
G1 X126.640 Y127.751 E0.03056
G1 X123.307 Y127.747 E0.10449
G1 X122.351 Y127.503 E0.03094
G1 X121.543 Y126.938 E0.03094
G1 X120.985 Y126.123 E0.03094
G1 X120.751 Y125.165 E0.03094
G1 X120.753 Y84.807 E1.26537
G1 X120.904 Y84.079 E0.02333
G1 X121.245 Y83.418 E0.02333
G1 X121.748 Y82.875 E0.02320
G1 X122.381 Y82.484 E0.02333
G1 X123.339 Y82.251 E0.03094
G1 X126.504 Y82.246 E0.09922
G1 X127.454 Y82.428 E0.03032
G1 X127.381 Y82.792 F10800.000
G1 F1200.000
G1 X128.134 Y83.274 E0.02802
G1 X128.656 Y83.999 E0.02802
G1 X128.873 Y84.869 E0.02813
G1 X128.871 Y125.167 E1.26351
G1 X128.732 Y125.817 E0.02083
G1 X128.419 Y126.403 E0.02083
G1 X127.956 Y126.879 E0.02083
G1 X127.379 Y127.209 E0.02083
G1 X126.596 Y127.375 E0.02508
G1 X123.333 Y127.371 E0.10233
G1 X122.503 Y127.158 E0.02684
G1 X121.803 Y126.665 E0.02684
G1 X121.324 Y125.956 E0.02684
G1 X121.126 Y125.123 E0.02684
G1 X121.129 Y84.833 E1.26328
G1 X121.265 Y84.190 E0.02060
G1 X121.572 Y83.609 E0.02060
G1 X122.026 Y83.135 E0.02060
G1 X122.597 Y82.801 E0.02071
G1 X123.392 Y82.625 E0.02555
G1 X126.504 Y82.623 E0.09756
G1 X127.322 Y82.781 E0.02614
G1 F8640.000
G1 X128.134 Y83.274 E-0.21926
G1 X128.656 Y83.999 E-0.20633
G1 X128.873 Y84.869 E-0.20719
G1 X128.873 Y85.420 E-0.12721
G1 E-0.04000 F2100.00000
G1 Z0.800 F10800.000
G1 X125.713 Y85.787
G1 Z0.200
G1 E0.80000 F2100.00000
G1 F1200.000
G1 X125.713 Y124.213 E1.20482
G1 X124.287 Y124.213 E0.04471
G1 X124.287 Y85.787 E1.20482
G1 X125.653 Y85.787 E0.04283
G1 X126.090 Y85.410 F10800.000
G1 F1200.000
G1 X126.090 Y124.590 E1.22846
G1 X123.910 Y124.590 E0.06835
G1 X123.910 Y85.410 E1.22846
G1 X126.030 Y85.410 E0.06647
G1 X126.083 Y85.810 F10800.000
G1 F8640.000
G1 X126.035 Y88.701 E-0.76000
G1 E-0.04000 F2100.00000
G1 Z0.800 F10800.000
G1 X125.163 Y124.100
G1 Z0.200
G1 E0.80000 F2100.00000
G1 F1200.000
G1 X124.570 Y123.507 E0.02629
G1 X124.570 Y122.974 E0.01673
G1 X125.430 Y123.834 E0.03816
G1 X125.430 Y123.300 E0.01673
G1 X124.570 Y122.440 E0.03816
G1 X124.570 Y121.907 E0.01673
G1 X125.430 Y122.767 E0.03816
G1 X125.430 Y122.234 E0.01673
G1 X124.570 Y121.373 E0.03816
G1 X124.570 Y120.840 E0.01673
G1 X125.430 Y121.700 E0.03816
G1 X125.430 Y121.167 E0.01673
G1 X124.570 Y120.306 E0.03816
G1 X124.570 Y119.773 E0.01673
G1 X125.430 Y120.633 E0.03816
G1 X125.430 Y120.100 E0.01673
G1 X124.570 Y119.239 E0.03816
G1 X124.570 Y118.706 E0.01673
G1 X125.430 Y119.566 E0.03816
G1 X125.430 Y119.033 E0.01673
G1 X124.570 Y118.173 E0.03816
G1 X124.570 Y117.639 E0.01673
G1 X125.430 Y118.499 E0.03816
G1 X125.430 Y117.966 E0.01673
G1 X124.570 Y117.106 E0.03816
G1 X124.570 Y116.572 E0.01673
G1 X125.430 Y117.433 E0.03816
G1 X125.430 Y116.899 E0.01673
G1 X124.570 Y116.039 E0.03816
G1 X124.570 Y115.505 E0.01673
G1 X125.430 Y116.366 E0.03816
G1 X125.430 Y115.832 E0.01673
G1 X124.570 Y114.972 E0.03816
G1 X124.570 Y114.439 E0.01673
G1 X125.430 Y115.299 E0.03816
G1 X125.430 Y114.765 E0.01673
G1 X124.570 Y113.905 E0.03816
G1 X124.570 Y113.372 E0.01673
G1 X125.430 Y114.232 E0.03816
G1 X125.430 Y113.698 E0.01673
G1 X124.570 Y112.838 E0.03816
G1 X124.570 Y112.305 E0.01673
G1 X125.430 Y113.165 E0.03816
G1 X125.430 Y112.632 E0.01673
G1 X124.570 Y111.771 E0.03816
G1 X124.570 Y111.238 E0.01673
G1 X125.430 Y112.098 E0.03816
G1 X125.430 Y111.565 E0.01673
G1 X124.570 Y110.704 E0.03816
G1 X124.570 Y110.171 E0.01673
G1 X125.430 Y111.031 E0.03816
G1 X125.430 Y110.498 E0.01673
G1 X124.570 Y109.638 E0.03816
G1 X124.570 Y109.104 E0.01673
G1 X125.430 Y109.964 E0.03816
G1 X125.430 Y109.431 E0.01673
G1 X124.570 Y108.571 E0.03816
G1 X124.570 Y108.037 E0.01673
G1 X125.430 Y108.898 E0.03816
G1 X125.430 Y108.364 E0.01673
G1 X124.570 Y107.504 E0.03816
G1 X124.570 Y106.970 E0.01673
G1 X125.430 Y107.831 E0.03816
G1 X125.430 Y107.297 E0.01673
G1 X124.570 Y106.437 E0.03816
G1 X124.570 Y105.904 E0.01673
G1 X125.430 Y106.764 E0.03816
G1 X125.430 Y106.230 E0.01673
G1 X124.570 Y105.370 E0.03816
G1 X124.570 Y104.837 E0.01673
G1 X125.430 Y105.697 E0.03816
G1 X125.430 Y105.163 E0.01673
G1 X124.570 Y104.303 E0.03816
G1 X124.570 Y103.770 E0.01673
G1 X125.430 Y104.630 E0.03816
G1 X125.430 Y104.097 E0.01673
G1 X124.570 Y103.236 E0.03816
G1 X124.570 Y102.703 E0.01673
G1 X125.430 Y103.563 E0.03816
G1 X125.430 Y103.030 E0.01673
G1 X124.570 Y102.169 E0.03816
G1 X124.570 Y101.636 E0.01673
G1 X125.430 Y102.496 E0.03816
G1 X125.430 Y101.963 E0.01673
G1 X124.570 Y101.103 E0.03816
G1 X124.570 Y100.569 E0.01673
G1 X125.430 Y101.429 E0.03816
G1 X125.430 Y100.896 E0.01673
G1 X124.570 Y100.036 E0.03816
G1 X124.570 Y99.502 E0.01673
G1 X125.430 Y100.362 E0.03816
G1 X125.430 Y99.829 E0.01673
G1 X124.570 Y98.969 E0.03816
G1 X124.570 Y98.435 E0.01673
G1 X125.430 Y99.296 E0.03816
G1 X125.430 Y98.762 E0.01673
G1 X124.570 Y97.902 E0.03816
G1 X124.570 Y97.368 E0.01673
G1 X125.430 Y98.229 E0.03816
G1 X125.430 Y97.695 E0.01673
G1 X124.570 Y96.835 E0.03816
G1 X124.570 Y96.302 E0.01673
G1 X125.430 Y97.162 E0.03816
G1 X125.430 Y96.628 E0.01673
G1 X124.570 Y95.768 E0.03816
G1 X124.570 Y95.235 E0.01673
G1 X125.430 Y96.095 E0.03816
G1 X125.430 Y95.562 E0.01673
G1 X124.570 Y94.701 E0.03816
G1 X124.570 Y94.168 E0.01673
G1 X125.430 Y95.028 E0.03816
G1 X125.430 Y94.495 E0.01673
G1 X124.570 Y93.634 E0.03816
G1 X124.570 Y93.101 E0.01673
G1 X125.430 Y93.961 E0.03816
G1 X125.430 Y93.428 E0.01673
G1 X124.570 Y92.568 E0.03816
G1 X124.570 Y92.034 E0.01673
G1 X125.430 Y92.894 E0.03816
G1 X125.430 Y92.361 E0.01673
G1 X124.570 Y91.501 E0.03816
G1 X124.570 Y90.967 E0.01673
G1 X125.430 Y91.827 E0.03816
G1 X125.430 Y91.294 E0.01673
G1 X124.570 Y90.434 E0.03816
G1 X124.570 Y89.900 E0.01673
G1 X125.430 Y90.761 E0.03816
G1 X125.430 Y90.227 E0.01673
G1 X124.570 Y89.367 E0.03816
G1 X124.570 Y88.833 E0.01673
G1 X125.430 Y89.694 E0.03816
G1 X125.430 Y89.160 E0.01673
G1 X124.570 Y88.300 E0.03816
G1 X124.570 Y87.767 E0.01673
G1 X125.430 Y88.627 E0.03816
G1 X125.430 Y88.093 E0.01673
G1 X124.570 Y87.233 E0.03816
G1 X124.570 Y86.700 E0.01673
G1 X125.430 Y87.560 E0.03816
G1 X125.430 Y87.026 E0.01673
G1 X124.570 Y86.166 E0.03816
G1 X124.570 Y86.070 E0.00302
G1 X125.007 Y86.070 E0.01371
G1 X125.600 Y86.663 E0.02630
M106 S255
;BEFORE_LAYER_CHANGE
G92 E0.0
;0.4


G1 F8640.000
G1 X125.007 Y86.070 E-0.19359
G1 X124.570 Y86.070 E-0.10093
G1 X124.570 Y86.166 E-0.02225
G1 X125.430 Y87.026 E-0.28091
G1 X125.430 Y87.560 E-0.12317
G1 X125.310 Y87.440 E-0.03916
G1 E-0.04000 F2100.00000
G1 Z0.800 F10800.000
;AFTER_LAYER_CHANGE
;0.4
;CURRENT_Z: 0.4
M104 S210 ; set temperature
G1 X128.991 Y83.825
G1 Z0.400
G1 E0.80000 F2100.00000
G1 F1576
G1 X129.248 Y84.823 E0.03233
G1 X129.247 Y125.193 E1.26576
G1 X129.094 Y125.925 E0.02345
G1 X128.747 Y126.592 E0.02358
G1 X128.233 Y127.141 E0.02358
G1 X127.589 Y127.530 E0.02358
G1 X126.640 Y127.751 E0.03056
G1 X123.307 Y127.747 E0.10449
G1 X122.351 Y127.503 E0.03094
G1 X121.543 Y126.938 E0.03094
G1 X120.985 Y126.123 E0.03094
G1 X120.751 Y125.165 E0.03094
G1 X120.753 Y84.807 E1.26537
G1 X120.904 Y84.079 E0.02333
G1 X121.245 Y83.418 E0.02333
G1 X121.748 Y82.875 E0.02320
G1 X122.381 Y82.484 E0.02333
G1 X123.339 Y82.251 E0.03094
G1 X126.504 Y82.246 E0.09922
G1 X127.513 Y82.439 E0.03221
G1 X128.384 Y82.991 E0.03233
G1 X128.955 Y83.776 E0.03045
G1 X128.653 Y83.994 F10800.000
G1 F1576
G1 X128.873 Y84.869 E0.02831
G1 X128.871 Y125.167 E1.26351
G1 X128.732 Y125.817 E0.02083
G1 X128.419 Y126.403 E0.02083
G1 X127.956 Y126.879 E0.02083
G1 X127.379 Y127.209 E0.02083
G1 X126.596 Y127.375 E0.02508
G1 X123.333 Y127.371 E0.10233
G1 X122.503 Y127.158 E0.02684
G1 X121.803 Y126.665 E0.02684
G1 X121.324 Y125.956 E0.02684
G1 X121.126 Y125.123 E0.02684
G1 X121.129 Y84.833 E1.26328
G1 X121.265 Y84.190 E0.02060
G1 X121.572 Y83.609 E0.02060
G1 X122.026 Y83.135 E0.02060
G1 X122.597 Y82.801 E0.02071
G1 X123.392 Y82.625 E0.02555
G1 X126.504 Y82.623 E0.09756
G1 X127.381 Y82.792 E0.02802
G1 X128.134 Y83.274 E0.02802
G1 X128.618 Y83.945 E0.02595
G1 F8640.000
G1 X128.873 Y84.869 E-0.22140
G1 X128.873 Y87.202 E-0.53860
G1 E-0.04000 F2100.00000
G1 Z1.000 F10800.000
G1 X125.868 Y85.632
G1 Z0.400
G1 E0.80000 F2100.00000
M204 S800
G1 F1576
G1 X125.868 Y124.368 E1.31116
G1 X124.132 Y124.368 E0.05876
G1 X124.132 Y85.632 E1.31116
G1 X125.808 Y85.632 E0.05673
M204 S1000
G1 X126.275 Y85.225 F10800.000
M204 S800
G1 F1576
G1 X126.275 Y124.775 E1.33872
G1 X123.725 Y124.775 E0.08631
G1 X123.725 Y85.225 E1.33872
G1 X126.215 Y85.225 E0.08428
M204 S1000
G1 X126.266 Y85.625 F10800.000
G1 F8640.000
G1 X126.220 Y88.516 E-0.76000
G1 E-0.04000 F2100.00000
G1 Z1.000 F10800.000
G1 X124.915 Y124.246
G1 Z0.400
G1 E0.80000 F2100.00000
M204 S2000
G1 F1576
G1 X125.563 Y123.599 E0.03125
G1 X125.563 Y123.018 E0.01982
G1 X124.518 Y124.063 E0.05043
G1 X124.437 Y124.063 E0.00275
G1 X124.437 Y123.563 E0.01707
G1 X125.563 Y122.437 E0.05433
G1 X125.563 Y121.857 E0.01982
G1 X124.437 Y122.982 E0.05433
G1 X124.437 Y122.401 E0.01982
G1 X125.563 Y121.276 E0.05433
G1 X125.563 Y120.695 E0.01982
G1 X124.437 Y121.821 E0.05433
G1 X124.437 Y121.240 E0.01982
G1 X125.563 Y120.115 E0.05433
G1 X125.563 Y119.534 E0.01982
G1 X124.437 Y120.659 E0.05433
G1 X124.437 Y120.079 E0.01982
G1 X125.563 Y118.953 E0.05433
G1 X125.563 Y118.373 E0.01982
G1 X124.437 Y119.498 E0.05433
G1 X124.437 Y118.917 E0.01982
G1 X125.563 Y117.792 E0.05433
G1 X125.563 Y117.212 E0.01982
G1 X124.437 Y118.337 E0.05433
G1 X124.437 Y117.756 E0.01982
G1 X125.563 Y116.631 E0.05433
G1 X125.563 Y116.050 E0.01982
G1 X124.437 Y117.175 E0.05433
G1 X124.437 Y116.595 E0.01982
G1 X125.563 Y115.470 E0.05433
G1 X125.563 Y114.889 E0.01982
G1 X124.437 Y116.014 E0.05433
G1 X124.437 Y115.434 E0.01982
G1 X125.563 Y114.308 E0.05433
G1 X125.563 Y113.728 E0.01982
G1 X124.437 Y114.853 E0.05433
G1 X124.437 Y114.272 E0.01982
G1 X125.563 Y113.147 E0.05433
G1 X125.563 Y112.566 E0.01982
G1 X124.437 Y113.692 E0.05433
G1 X124.437 Y113.111 E0.01982
G1 X125.563 Y111.986 E0.05433
G1 X125.563 Y111.405 E0.01982
G1 X124.437 Y112.530 E0.05433
G1 X124.437 Y111.950 E0.01982
G1 X125.563 Y110.824 E0.05433
G1 X125.563 Y110.244 E0.01982
G1 X124.437 Y111.369 E0.05433
G1 X124.437 Y110.788 E0.01982
G1 X125.563 Y109.663 E0.05433
G1 X125.563 Y109.082 E0.01982
G1 X124.437 Y110.208 E0.05433
G1 X124.437 Y109.627 E0.01982
G1 X125.563 Y108.502 E0.05433
G1 X125.563 Y107.921 E0.01982
G1 X124.437 Y109.046 E0.05433
G1 X124.437 Y108.466 E0.01982
G1 X125.563 Y107.341 E0.05433
G1 X125.563 Y106.760 E0.01982
G1 X124.437 Y107.885 E0.05433
G1 X124.437 Y107.304 E0.01982
G1 X125.563 Y106.179 E0.05433
G1 X125.563 Y105.599 E0.01982
G1 X124.437 Y106.724 E0.05433
G1 X124.437 Y106.143 E0.01982
G1 X125.563 Y105.018 E0.05433
G1 X125.563 Y104.437 E0.01982
G1 X124.437 Y105.563 E0.05433
G1 X124.437 Y104.982 E0.01982
G1 X125.563 Y103.857 E0.05433
G1 X125.563 Y103.276 E0.01982
G1 X124.437 Y104.401 E0.05433
G1 X124.437 Y103.821 E0.01982
G1 X125.563 Y102.695 E0.05433
G1 X125.563 Y102.115 E0.01982
G1 X124.437 Y103.240 E0.05433
G1 X124.437 Y102.659 E0.01982
G1 X125.563 Y101.534 E0.05433
G1 X125.563 Y100.953 E0.01982
G1 X124.437 Y102.079 E0.05433
G1 X124.437 Y101.498 E0.01982
G1 X125.563 Y100.373 E0.05433
G1 X125.563 Y99.792 E0.01982
G1 X124.437 Y100.917 E0.05433
G1 X124.437 Y100.337 E0.01982
G1 X125.563 Y99.212 E0.05433
G1 X125.563 Y98.631 E0.01982
G1 X124.437 Y99.756 E0.05433
G1 X124.437 Y99.175 E0.01982
G1 X125.563 Y98.050 E0.05433
G1 X125.563 Y97.470 E0.01982
G1 X124.437 Y98.595 E0.05433
G1 X124.437 Y98.014 E0.01982
G1 X125.563 Y96.889 E0.05433
G1 X125.563 Y96.308 E0.01982
G1 X124.437 Y97.433 E0.05433
G1 X124.437 Y96.853 E0.01982
G1 X125.563 Y95.728 E0.05433
G1 X125.563 Y95.147 E0.01982
G1 X124.437 Y96.272 E0.05433
G1 X124.437 Y95.692 E0.01982
G1 X125.563 Y94.566 E0.05433
G1 X125.563 Y93.986 E0.01982
G1 X124.437 Y95.111 E0.05433
G1 X124.437 Y94.530 E0.01982
G1 X125.563 Y93.405 E0.05433
G1 X125.563 Y92.824 E0.01982
G1 X124.437 Y93.950 E0.05433
G1 X124.437 Y93.369 E0.01982
G1 X125.563 Y92.244 E0.05433
G1 X125.563 Y91.663 E0.01982
G1 X124.437 Y92.788 E0.05433
G1 X124.437 Y92.208 E0.01982
G1 X125.563 Y91.082 E0.05433
G1 X125.563 Y90.502 E0.01982
G1 X124.437 Y91.627 E0.05433
G1 X124.437 Y91.046 E0.01982
G1 X125.563 Y89.921 E0.05433
G1 X125.563 Y89.341 E0.01982
G1 X124.437 Y90.466 E0.05433
G1 X124.437 Y89.885 E0.01982
G1 X125.563 Y88.760 E0.05433
G1 X125.563 Y88.179 E0.01982
G1 X124.437 Y89.304 E0.05433
G1 X124.437 Y88.724 E0.01982
G1 X125.563 Y87.599 E0.05433
G1 X125.563 Y87.018 E0.01982
G1 X124.437 Y88.143 E0.05433
G1 X124.437 Y87.563 E0.01982
G1 X125.563 Y86.437 E0.05433
G1 X125.563 Y85.937 E0.01707
G1 X125.482 Y85.937 E0.00276
G1 X124.437 Y86.982 E0.05043
G1 X124.437 Y86.401 E0.01982
G1 X125.084 Y85.754 E0.03124
M204 S1000
;BEFORE_LAYER_CHANGE
G92 E0.0
;0.6


G1 F8640.000
G1 X124.437 Y86.401 E-0.21128
G1 X124.437 Y86.982 E-0.13407
G1 X125.482 Y85.937 E-0.34107
G1 X125.563 Y85.937 E-0.01864
G1 X125.563 Y86.175 E-0.05493
G1 E-0.04000 F2100.00000
G1 Z1.000 F10800.000
;AFTER_LAYER_CHANGE
;0.6
;CURRENT_Z: 0.6
G1 X128.991 Y83.825
G1 Z0.600
G1 E0.80000 F2100.00000
G1 F1575
G1 X129.248 Y84.823 E0.03233
G1 X129.247 Y125.193 E1.26576
G1 X129.094 Y125.925 E0.02345
G1 X128.747 Y126.592 E0.02358
G1 X128.233 Y127.141 E0.02358
G1 X127.589 Y127.530 E0.02358
G1 X126.640 Y127.751 E0.03056
G1 X123.307 Y127.747 E0.10449
G1 X122.351 Y127.503 E0.03094
G1 X121.543 Y126.938 E0.03094
G1 X120.985 Y126.123 E0.03094
G1 X120.751 Y125.165 E0.03094
G1 X120.753 Y84.807 E1.26537
G1 X120.904 Y84.079 E0.02333
G1 X121.245 Y83.418 E0.02333
G1 X121.748 Y82.875 E0.02320
G1 X122.381 Y82.484 E0.02333
G1 X123.339 Y82.251 E0.03094
G1 X126.504 Y82.246 E0.09922
G1 X127.513 Y82.439 E0.03221
G1 X128.384 Y82.991 E0.03233
G1 X128.955 Y83.776 E0.03045
G1 X128.653 Y83.994 F10800.000
G1 F1575
G1 X128.873 Y84.869 E0.02831
G1 X128.871 Y125.167 E1.26351
G1 X128.732 Y125.817 E0.02083
G1 X128.419 Y126.403 E0.02083
G1 X127.956 Y126.879 E0.02083
G1 X127.379 Y127.209 E0.02083
G1 X126.596 Y127.375 E0.02508
G1 X123.333 Y127.371 E0.10233
G1 X122.503 Y127.158 E0.02684
G1 X121.803 Y126.665 E0.02684
G1 X121.324 Y125.956 E0.02684
G1 X121.126 Y125.123 E0.02684
G1 X121.129 Y84.833 E1.26328
G1 X121.265 Y84.190 E0.02060
G1 X121.572 Y83.609 E0.02060
G1 X122.026 Y83.135 E0.02060
G1 X122.597 Y82.801 E0.02071
G1 X123.392 Y82.625 E0.02555
G1 X126.504 Y82.623 E0.09756
G1 X127.381 Y82.792 E0.02802
G1 X128.134 Y83.274 E0.02802
