; generated by PrusaSlicer 2.8.0 on 2024-09-21 at 14:29:03 UTC

; 

; external perimeters extrusion width = 0.45mm
; perimeters extrusion width = 0.45mm
; infill extrusion width = 0.45mm
; solid infill extrusion width = 0.45mm
; top infill extrusion width = 0.40mm
; first layer extrusion width = 0.42mm

M73 P0 R26
M201 X9000 Y9000 Z500 E10000 ; sets maximum accelerations, mm/sec^2
M203 X500 Y500 Z12 E120 ; sets maximum feedrates, mm / sec
M204 S2000 T1500 ; sets acceleration (S) and retract acceleration (R), mm/sec^2
M205 X10.00 Y10.00 Z0.20 E4.50 ; sets the jerk limits, mm/sec
M205 S0 T0 ; sets the minimum extruding and travel feed rate, mm/sec

; printing object base_escritorio1.stl id:0 copy 0
; stop printing object base_escritorio1.stl id:0 copy 0

;TYPE:Custom
M862.3 P "MK2.5" ; printer model check
M862.1 P0.4 ; nozzle diameter check
M115 U3.11.0 ; tell printer latest fw version
G90 ; use absolute coordinates
M83 ; extruder relative mode
M104 S215 ; set extruder temp
M140 S60 ; set bed temp
M190 S60 ; wait for bed temp
M109 S215 ; wait for extruder temp
G28 W ; home all without mesh bed level
G80 ; mesh bed leveling

G1 Z0.2 F720
G1 Y-3 F1000 ; go outside print area
G92 E0
G1 X60 E9 F1000 ; intro line
G1 X100 E12.5 F1000 ; intro line

G92 E0
G21 ; set units to millimeters
G90 ; use absolute coordinates
M83 ; use relative distances for extrusion
M900 K0.05 ; Filament gcode LA 1.5
M900 K30 ; Filament gcode LA 1.0
M107
;LAYER_CHANGE
;Z:0.2
;HEIGHT:0.2
G1 E-.8 F2100
G1 Z.6 F720
G1 X121.327 Y83.637 F10800
G1 Z.2 F720
G1 E.8 F2100
M204 S800
;TYPE:Skirt/Brim
;WIDTH:0.42
G1 F1200
G1 X122.383 Y82.69 E.04447
G1 X123.5 Y82.434 E.03593
G1 X126.49 Y82.434 E.09375
G1 X127.853 Y82.827 E.04448
G1 X128.799 Y83.883 E.04445
G1 X129.055 Y84.999 E.0359
G1 X129.066 Y124.999 E1.25417
G1 X128.674 Y126.363 E.0445
G1 X127.617 Y127.31 E.0445
G1 X126.5 Y127.566 E.03593
G1 X123.5 Y127.566 E.09406
G1 X122.137 Y127.173 E.04448
G1 X121.19 Y126.117 E.04447
G1 X120.934 Y125 E.03593
G1 X120.934 Y85 E1.25417
G1 X121.31 Y83.694 E.04261
M204 S1000
G1 X121.31 Y83.694 F10800
G1 X121.684 Y83.811
M204 S800
G1 F1200
G1 X121.702 Y83.752 E.00193
G1 X122.735 Y82.949 E.04102
G1 X123.5 Y82.811 E.02437
G1 X126.49 Y82.811 E.09375
G1 X127.738 Y83.202 E.04101
G1 X128.54 Y84.235 E.041
G1 X128.678 Y84.999 E.02434
G1 X128.689 Y124.999 E1.25417
G1 X128.298 Y126.248 E.04104
G1 X127.265 Y127.05 E.041
G1 X126.5 Y127.189 E.02438
G1 X123.5 Y127.189 E.09406
G1 X122.252 Y126.798 E.04101
G1 X121.449 Y125.765 E.04102
G1 X121.311 Y125 E.02437
G1 X121.311 Y85 E1.25417
G1 X121.666 Y83.869 E.03717
M73 P1 R26
M204 S1000
;WIPE_START
G1 F8640
G1 X121.684 Y83.811 E-.01402
G1 X121.702 Y83.752 E-.01424
G1 X122.735 Y82.949 E-.30211
G1 X123.5 Y82.811 E-.17949
G1 X124.756 Y82.811 E-.29014
;WIPE_END
G1 Z.6 F720
; printing object base_escritorio1.stl id:0 copy 0
G1 X125.713 Y124.213 F10800
G1 Z.2 F720
G1 E.8 F2100
M204 S800
;TYPE:Perimeter
;WIDTH:0.419999
G1 F1200
G1 X124.287 Y124.213 E.04471
G1 X124.287 Y85.787 E1.20482
G1 X125.713 Y85.787 E.04471
G1 X125.713 Y86.5 E.02236
G1 X125.713 Y124.153 E1.18058
M204 S1000
G1 X125.713 Y124.153 F10800
G1 X126.09 Y124.59
M204 S800
;TYPE:External perimeter
G1 F1200
G1 X123.91 Y124.59 E.06835
G1 X123.91 Y85.41 E1.22846
G1 X126.09 Y85.41 E.06835
G1 X126.09 Y86.5 E.03418
G1 X126.09 Y124.53 E1.1924
M204 S1000
;WIPE_START
G1 F8640
G1 X126.09 Y124.59 E-.01385
G1 X123.91 Y124.59 E-.50337
G1 X123.91 Y123.365 E-.28278
;WIPE_END
G1 Z.6 F720
G1 X125.6 Y86.663 F10800
G1 Z.2 F720
G1 E.8 F2100
M204 S800
;TYPE:Solid infill
;WIDTH:0.420118
G1 F1200
G1 X125.007 Y86.07 E.0263
G1 X124.57 Y86.07 E.01371
G1 X124.57 Y86.166 E.00301
G1 X125.43 Y87.026 E.03815
G1 X125.43 Y87.56 E.01675
G1 X124.57 Y86.7 E.03815
G1 X124.57 Y87.233 E.01672
G1 X125.43 Y88.093 E.03815
G1 X125.43 Y88.627 E.01675
G1 X124.57 Y87.767 E.03815
G1 X124.57 Y88.3 E.01672
G1 X125.43 Y89.16 E.03815
G1 X125.43 Y89.694 E.01675
G1 X124.57 Y88.834 E.03815
G1 X124.57 Y89.367 E.01672
G1 X125.43 Y90.227 E.03815
G1 X125.43 Y90.761 E.01675
G1 X124.57 Y89.9 E.03817
G1 X124.57 Y90.434 E.01675
G1 X125.43 Y91.294 E.03815
G1 X125.43 Y91.827 E.01672
G1 X124.57 Y90.967 E.03815
G1 X124.57 Y91.501 E.01675
G1 X125.43 Y92.361 E.03815
G1 X125.43 Y92.894 E.01672
G1 X124.57 Y92.034 E.03815
G1 X124.57 Y92.568 E.01675
G1 X125.43 Y93.428 E.03815
G1 X125.43 Y93.961 E.01672
G1 X124.57 Y93.101 E.03815
G1 X124.57 Y93.634 E.01672
G1 X125.43 Y94.495 E.03817
G1 X125.43 Y95.028 E.01672
G1 X124.57 Y94.168 E.03815
G1 X124.57 Y94.701 E.01672
G1 X125.43 Y95.562 E.03817
G1 X125.43 Y96.095 E.01672
G1 X124.57 Y95.235 E.03815
G1 X124.57 Y95.768 E.01672
G1 X125.43 Y96.628 E.03815
G1 X125.43 Y97.162 E.01675
G1 X124.57 Y96.302 E.03815
G1 X124.57 Y96.835 E.01672
G1 X125.43 Y97.695 E.03815
G1 X125.43 Y98.229 E.01675
G1 X124.57 Y97.369 E.03815
G1 X124.57 Y97.902 E.01672
G1 X125.43 Y98.762 E.03815
G1 X125.43 Y99.296 E.01675
G1 X124.57 Y98.435 E.03817
G1 X124.57 Y98.969 E.01675
G1 X125.43 Y99.829 E.03815
G1 X125.43 Y100.362 E.01672
G1 X124.57 Y99.502 E.03815
G1 X124.57 Y100.036 E.01675
G1 X125.43 Y100.896 E.03815
G1 X125.43 Y101.429 E.01672
G1 X124.57 Y100.569 E.03815
G1 X124.57 Y101.103 E.01675
G1 X125.43 Y101.963 E.03815
G1 X125.43 Y102.496 E.01672
G1 X124.57 Y101.636 E.03815
G1 X124.57 Y102.17 E.01675
G1 X125.43 Y103.03 E.03815
G1 X125.43 Y103.563 E.01672
G1 X124.57 Y102.703 E.03815
G1 X124.57 Y103.236 E.01672
G1 X125.43 Y104.097 E.03817
G1 X125.43 Y104.63 E.01672
G1 X124.57 Y103.77 E.03815
G1 X124.57 Y104.303 E.01672
G1 X125.43 Y105.163 E.03815
G1 X125.43 Y105.697 E.01675
G1 X124.57 Y104.837 E.03815
G1 X124.57 Y105.37 E.01672
G1 X125.43 Y106.23 E.03815
G1 X125.43 Y106.764 E.01675
G1 X124.57 Y105.904 E.03815
G1 X124.57 Y106.437 E.01672
G1 X125.43 Y107.297 E.03815
G1 X125.43 Y107.831 E.01675
G1 X124.57 Y106.97 E.03817
G1 X124.57 Y107.504 E.01675
G1 X125.43 Y108.364 E.03815
G1 X125.43 Y108.897 E.01672
G1 X124.57 Y108.037 E.03815
G1 X124.57 Y108.571 E.01675
G1 X125.43 Y109.431 E.03815
G1 X125.43 Y109.964 E.01672
G1 X124.57 Y109.104 E.03815
G1 X124.57 Y109.638 E.01675
G1 X125.43 Y110.498 E.03815
G1 X125.43 Y111.031 E.01672
G1 X124.57 Y110.171 E.03815
G1 X124.57 Y110.705 E.01675
G1 X125.43 Y111.565 E.03815
G1 X125.43 Y112.098 E.01672
G1 X124.57 Y111.238 E.03815
G1 X124.57 Y111.771 E.01672
G1 X125.43 Y112.632 E.03817
G1 X125.43 Y113.165 E.01672
G1 X124.57 Y112.305 E.03815
G1 X124.57 Y112.838 E.01672
G1 X125.43 Y113.698 E.03815
G1 X125.43 Y114.232 E.01675
G1 X124.57 Y113.372 E.03815
G1 X124.57 Y113.905 E.01672
G1 X125.43 Y114.765 E.03815
G1 X125.43 Y115.299 E.01675
G1 X124.57 Y114.439 E.03815
G1 X124.57 Y114.972 E.01672
G1 X125.43 Y115.832 E.03815
G1 X125.43 Y116.366 E.01675
G1 X124.57 Y115.505 E.03817
G1 X124.57 Y116.039 E.01675
M73 P2 R26
G1 X125.43 Y116.899 E.03815
G1 X125.43 Y117.432 E.01672
G1 X124.57 Y116.572 E.03815
G1 X124.57 Y117.106 E.01675
G1 X125.43 Y117.966 E.03815
G1 X125.43 Y118.499 E.01672
G1 X124.57 Y117.639 E.03815
G1 X124.57 Y118.173 E.01675
G1 X125.43 Y119.033 E.03815
G1 X125.43 Y119.566 E.01672
G1 X124.57 Y118.706 E.03815
G1 X124.57 Y119.24 E.01675
G1 X125.43 Y120.1 E.03815
G1 X125.43 Y120.633 E.01672
G1 X124.57 Y119.773 E.03815
G1 X124.57 Y120.306 E.01672
G1 X125.43 Y121.167 E.03817
G1 X125.43 Y121.7 E.01672
G1 X124.57 Y120.84 E.03815
G1 X124.57 Y121.373 E.01672
G1 X125.43 Y122.233 E.03815
G1 X125.43 Y122.767 E.01675
G1 X124.57 Y121.907 E.03815
G1 X124.57 Y122.44 E.01672
G1 X125.43 Y123.3 E.03815
G1 X125.43 Y123.834 E.01675
G1 X124.57 Y122.974 E.03815
G1 X124.57 Y123.507 E.01672
G1 X125.163 Y124.1 E.0263
M204 S1000
M106 S84.15
;LAYER_CHANGE
;Z:0.4
;HEIGHT:0.2
;BEFORE_LAYER_CHANGE
G92 E0.0
;0.4


;WIPE_START
G1 F8640
G1 X124.57 Y123.507 E-.19364
G1 X124.57 Y122.974 E-.12307
G1 X125.43 Y123.834 E-.28083
G1 X125.43 Y123.3 E-.1233
G1 X125.188 Y123.058 E-.07916
;WIPE_END
G1 Z.4 F720
;AFTER_LAYER_CHANGE
;0.4
;CURRENT_Z: 0.4
M104 S210 ; set temperature
; stop printing object base_escritorio1.stl id:0 copy 0
G1 Z.8
G1 X129.065 Y123.057 F10800
G1 Z.4 F720
G1 E.8 F2100
;TYPE:Skirt/Brim
;WIDTH:0.42
G1 F2192
G1 X129.066 Y124.999 E.06089
G1 X128.674 Y126.363 E.0445
G1 X127.617 Y127.31 E.0445
G1 X126.5 Y127.566 E.03593
G1 X123.5 Y127.566 E.09406
G1 X122.137 Y127.173 E.04448
G1 X121.19 Y126.117 E.04447
G1 X120.934 Y125 E.03593
G1 X120.934 Y85 E1.25417
G1 X121.327 Y83.637 E.04448
G1 X122.383 Y82.69 E.04447
G1 X123.5 Y82.434 E.03593
G1 X126.49 Y82.434 E.09375
G1 X127.853 Y82.827 E.04448
G1 X128.799 Y83.883 E.04445
G1 X129.055 Y84.999 E.0359
G1 X129.065 Y122.997 E1.1914
G1 X128.688 Y122.997 F10800
G1 F2192
G1 X128.689 Y124.999 E.06277
G1 X128.298 Y126.248 E.04104
G1 X127.265 Y127.05 E.041
G1 X126.5 Y127.189 E.02438
G1 X123.5 Y127.189 E.09406
G1 X122.252 Y126.798 E.04101
G1 X121.449 Y125.765 E.04102
G1 X121.311 Y125 E.02437
G1 X121.311 Y85 E1.25417
G1 X121.702 Y83.752 E.04101
G1 X122.735 Y82.949 E.04102
G1 X123.5 Y82.811 E.02437
G1 X126.49 Y82.811 E.09375
G1 X127.738 Y83.202 E.04101
G1 X128.54 Y84.235 E.041
G1 X128.678 Y84.999 E.02434
G1 X128.688 Y122.937 E1.18952
;WIPE_START
G1 F8640
G1 X128.688 Y122.997 E-.01385
G1 X128.689 Y124.999 E-.46227
G1 X128.298 Y126.248 E-.3022
G1 X128.224 Y126.306 E-.02168
;WIPE_END
G1 Z.8 F720
; printing object base_escritorio1.stl id:0 copy 0
G1 X125.868 Y124.368 F10800
G1 Z.4 F720
G1 E.8 F2100
M204 S800
;TYPE:Perimeter
;WIDTH:0.449999
G1 F2192
G1 X124.132 Y124.368 E.05876
G1 X124.132 Y85.632 E1.31117
G1 X125.868 Y85.632 E.05876
M73 P2 R25
G1 X125.868 Y86.5 E.02938
G1 X125.868 Y124.308 E1.27975
M204 S1000
G1 X125.868 Y124.308 F10800
G1 X126.275 Y124.775
M204 S800
;TYPE:External perimeter
G1 F2192
G1 X123.725 Y124.775 E.08631
G1 X123.725 Y85.225 E1.33872
G1 X126.275 Y85.225 E.08631
G1 X126.275 Y86.5 E.04316
G1 X126.275 Y124.715 E1.29353
M204 S1000
;WIPE_START
G1 F8640
G1 X126.275 Y124.775 E-.01385
G1 X123.725 Y124.775 E-.5888
G1 X123.725 Y123.92 E-.19735
;WIPE_END
G1 Z.8 F720
G1 X124.437 Y85.937 F10800
G1 Z.4 F720
G1 E.8 F2100
M204 S2000
;TYPE:Solid infill
G1 F2192
G1 X125.563 Y85.937 E.03811
G1 X125.563 Y124.063 E1.29052
G1 X124.437 Y124.063 E.03811
G1 X124.437 Y86.141 E1.28361
G1 X124.82 Y86.32 E.01431
;WIDTH:0.401955
G1 X125.18 Y86.32 E.01075
G1 X125.18 Y123.68 E1.11534
G1 X124.82 Y123.68 E.01075
M73 P3 R25
G1 X124.82 Y86.524 E1.10925
M204 S1000
M106 S170.85
;LAYER_CHANGE
;Z:0.6
;HEIGHT:0.2
;BEFORE_LAYER_CHANGE
G92 E0.0
;0.6


;WIPE_START
G1 F8640
G1 X124.82 Y89.989 E-.8
;WIPE_END
G1 Z.6 F720
;AFTER_LAYER_CHANGE
;0.6
;CURRENT_Z: 0.6
; stop printing object base_escritorio1.stl id:0 copy 0
G1 Z1
G1 X120.934 Y89.989 F10800
G1 Z.6 F720
G1 E.8 F2100
;TYPE:Skirt/Brim
;WIDTH:0.42
G1 F2223
G1 X120.934 Y85 E.15643
G1 X121.327 Y83.637 E.04448
G1 X122.383 Y82.69 E.04447
G1 X123.5 Y82.434 E.03593
G1 X126.49 Y82.434 E.09375
G1 X127.853 Y82.827 E.04448
G1 X128.799 Y83.883 E.04445
G1 X129.055 Y84.999 E.0359
G1 X129.066 Y124.999 E1.25417
G1 X128.674 Y126.363 E.0445
G1 X127.617 Y127.31 E.0445
G1 X126.5 Y127.566 E.03593
G1 X123.5 Y127.566 E.09406
G1 X122.137 Y127.173 E.04448
G1 X121.19 Y126.117 E.04447
G1 X120.934 Y125 E.03593
G1 X120.934 Y90.049 E1.09586
G1 X120.934 Y90.049 F10800
G1 X121.311 Y90.049
G1 F2223
G1 X121.311 Y85 E.15831
G1 X121.702 Y83.752 E.04101
G1 X122.735 Y82.949 E.04102
G1 X123.5 Y82.811 E.02437
G1 X126.49 Y82.811 E.09375
G1 X127.738 Y83.202 E.04101
G1 X128.54 Y84.235 E.041
G1 X128.678 Y84.999 E.02434
G1 X128.689 Y124.999 E1.25417
G1 X128.298 Y126.248 E.04104
G1 X127.265 Y127.05 E.041
G1 X126.5 Y127.189 E.02438
G1 X123.5 Y127.189 E.09406
G1 X122.252 Y126.798 E.04101
G1 X121.449 Y125.765 E.04102
G1 X121.311 Y125 E.02437
G1 X121.311 Y90.109 E1.09398
;WIPE_START
G1 F8640
G1 X121.311 Y90.049 E-.01385
G1 X121.311 Y86.644 E-.78615
;WIPE_END
G1 Z1 F720
; printing object base_escritorio1.stl id:0 copy 0
G1 X125.868 Y124.368 F10800
G1 Z.6 F720
G1 E.8 F2100
M204 S800
;TYPE:Perimeter
;WIDTH:0.449999
G1 F2223
G1 X124.132 Y124.368 E.05876
G1 X124.132 Y85.632 E1.31117
G1 X125.868 Y85.632 E.05876
G1 X125.868 Y86.5 E.02938
G1 X125.868 Y124.308 E1.27975
M204 S1000
G1 X125.868 Y124.308 F10800
G1 X126.275 Y124.775
M204 S800
;TYPE:External perimeter
G1 F2223
G1 X123.725 Y124.775 E.08631
G1 X123.725 Y85.225 E1.33872
G1 X126.275 Y85.225 E.08631
G1 X126.275 Y86.5 E.04316
G1 X126.275 Y124.715 E1.29353
M204 S1000
;WIPE_START
G1 F8640
G1 X126.275 Y124.775 E-.01385
G1 X123.725 Y124.775 E-.5888
G1 X123.725 Y123.92 E-.19735
;WIPE_END
G1 Z1 F720
G1 X124.437 Y86.141 F10800
G1 Z.6 F720
G1 E.8 F2100
M204 S2000
;TYPE:Solid infill
G1 F2223
G1 X124.437 Y124.063 E1.28361
G1 X125.563 Y124.063 E.03811
G1 X125.563 Y85.937 E1.29052
G1 X124.437 Y85.937 E.03811
G1 X124.82 Y86.32 E.01833
;WIDTH:0.401953
G1 X125.18 Y86.32 E.01075
G1 X125.18 Y123.68 E1.11533
G1 X124.82 Y123.68 E.01075
M73 P4 R25
G1 X124.82 Y86.524 E1.10924
M204 S1000
M106 S255
;LAYER_CHANGE
;Z:0.8
;HEIGHT:0.2
;BEFORE_LAYER_CHANGE
G92 E0.0
;0.8


;WIPE_START
G1 F8640
G1 X124.82 Y89.989 E-.8
;WIPE_END
G1 Z.8 F720
;AFTER_LAYER_CHANGE
;0.8
;CURRENT_Z: 0.8
G1 Z1.2
G1 X125.868 Y124.368 F10800
G1 Z.8 F720
G1 E.8 F2100
M204 S800
;TYPE:Perimeter
;WIDTH:0.449999
G1 F1346
G1 X124.132 Y124.368 E.05876
G1 X124.132 Y85.632 E1.31117
G1 X125.868 Y85.632 E.05876
G1 X125.868 Y86.5 E.02938
G1 X125.868 Y124.308 E1.27975
M204 S1000
G1 X125.868 Y124.308 F10800
G1 X126.275 Y124.775
M204 S800
;TYPE:External perimeter
G1 F1346
G1 X123.725 Y124.775 E.08631
G1 X123.725 Y85.225 E1.33872
G1 X126.275 Y85.225 E.08631
G1 X126.275 Y86.5 E.04316
G1 X126.275 Y124.715 E1.29353
M204 S1000
;WIPE_START
G1 F8640
G1 X126.275 Y124.775 E-.01385
G1 X123.725 Y124.775 E-.5888
G1 X123.725 Y123.92 E-.19735
;WIPE_END
G1 Z1.2 F720
G1 X124.437 Y85.937 F10800
G1 Z.8 F720
G1 E.8 F2100
M204 S2000
;TYPE:Solid infill
G1 F1346
G1 X125.563 Y85.937 E.03811
G1 X125.563 Y124.063 E1.29052
G1 X124.437 Y124.063 E.03811
G1 X124.437 Y86.141 E1.28361
G1 X124.82 Y86.32 E.01431
;WIDTH:0.401955
G1 X125.18 Y86.32 E.01075
G1 X125.18 Y123.68 E1.11534
G1 X124.82 Y123.68 E.01075
G1 X124.82 Y86.524 E1.10925
M204 S1000
;LAYER_CHANGE
;Z:1
;HEIGHT:0.2
;BEFORE_LAYER_CHANGE
G92 E0.0
;1


;WIPE_START
G1 F8640
M73 P5 R25
G1 X124.82 Y89.989 E-.8
;WIPE_END
G1 Z1 F720
;AFTER_LAYER_CHANGE
;1
;CURRENT_Z: 1
G1 Z1.4
G1 X125.868 Y124.368 F10800
G1 Z1 F720
G1 E.8 F2100
M204 S800
;TYPE:Perimeter
;WIDTH:0.449999
G1 F932
G1 X124.132 Y124.368 E.05876
G1 X124.132 Y85.632 E1.31117
G1 X125.868 Y85.632 E.05876
G1 X125.868 Y86.5 E.02938
G1 X125.868 Y124.308 E1.27975
M204 S1000
G1 X125.868 Y124.308 F10800
G1 X126.275 Y124.775
M204 S800
;TYPE:External perimeter
G1 F932
G1 X123.725 Y124.775 E.08631
G1 X123.725 Y85.225 E1.33872
G1 X126.275 Y85.225 E.08631
G1 X126.275 Y86.5 E.04316
G1 X126.275 Y124.715 E1.29353
M204 S1000
;WIPE_START
G1 F8640
G1 X126.275 Y124.775 E-.01385
G1 X123.725 Y124.775 E-.5888
G1 X123.725 Y123.92 E-.19735
;WIPE_END
G1 Z1.4 F720
G1 X125.292 Y124.063 F10800
G1 Z1 F720
G1 E.8 F2100
M204 S2000
;TYPE:Internal infill
;WIDTH:0.45
G1 F932
G1 X125.563 Y124.063 E.00917
G1 X125.563 Y121.834 E.07545
G1 X124.437 Y120.708 E.0539
G1 X124.437 Y118.526 E.07386
G1 X125.563 Y118.225 E.03945
G1 X125.563 Y113.198 E.17016
G1 X124.437 Y112.073 E.05388
G1 X124.437 Y112.204 E.00443
G1 X125.563 Y111.903 E.03945
G1 X125.563 Y109.403 E.08462
M204 S1000
;WIPE_START
G1 F8640
G1 X125.563 Y111.903 E-.57726
G1 X124.631 Y112.152 E-.22274
;WIPE_END
G1 Z1.4 F720
G1 X124.437 Y103.437 F10800
G1 Z1 F720
G1 E.8 F2100
M204 S2000
G1 F932
G1 X125.563 Y104.563 E.0539
G1 X125.563 Y105.581 E.03446
G1 X124.437 Y105.883 E.03946
G1 X124.437 Y104.368 E.05128
G1 X125.563 Y100.168 E.14719
G1 X125.563 Y99.26 E.03073
G1 X124.437 Y99.561 E.03945
G1 X124.437 Y97.061 E.08462
M204 S1000
;WIPE_START
G1 F8640
G1 X124.437 Y99.561 E-.57726
G1 X125.369 Y99.312 E-.22274
;WIPE_END
G1 Z1.4 F720
G1 X125.563 Y98.427 F10800
G1 Z1 F720
G1 E.8 F2100
M204 S2000
G1 F932
G1 X125.563 Y95.927 E.08462
G1 X124.437 Y94.802 E.05388
M73 P6 R25
G1 X124.437 Y93.24 E.05287
G1 X125.563 Y92.938 E.03946
G1 X125.563 Y90.438 E.08462
M204 S1000
;WIPE_START
G1 F8640
G1 X125.563 Y92.938 E-.57726
G1 X124.632 Y93.188 E-.22274
;WIPE_END
G1 Z1.4 F720
