; generated by PrusaSlicer 2.6.0-alpha6+linux-x64-GTK3 on 2023-05-08 at 03:34:09 UTC

; 

; external perimeters extrusion width = 0.45mm
; perimeters extrusion width = 0.45mm
; infill extrusion width = 0.45mm
; solid infill extrusion width = 0.45mm
; top infill extrusion width = 0.40mm
; first layer extrusion width = 0.42mm

M73 P0 R26
M201 X9000 Y9000 Z500 E10000 ; sets maximum accelerations, mm/sec^2
M203 X500 Y500 Z12 E120 ; sets maximum feedrates, mm / sec
M204 S2000 T1500 ; sets acceleration (S) and retract acceleration (R), mm/sec^2
M205 X10.00 Y10.00 Z0.20 E4.50 ; sets the jerk limits, mm/sec
M205 S0 T0 ; sets the minimum extruding and travel feed rate, mm/sec
;TYPE:Custom
M862.3 P "MK2.5" ; printer model check
M862.1 P0.4 ; nozzle diameter check
M115 U3.11.0 ; tell printer latest fw version
G90 ; use absolute coordinates
M83 ; extruder relative mode
M104 S215 ; set extruder temp
M140 S60 ; set bed temp
M190 S60 ; wait for bed temp
M109 S215 ; wait for extruder temp
G28 W ; home all without mesh bed level
G80 ; mesh bed leveling

G1 Z0.2 F720
G1 Y-3 F1000 ; go outside print area
G92 E0
G1 X60 E9 F1000 ; intro line
G1 X100 E12.5 F1000 ; intro line

G92 E0
G21 ; set units to millimeters
G90 ; use absolute coordinates
M83 ; use relative distances for extrusion
M900 K0.05 ; Filament gcode LA 1.5
M900 K30 ; Filament gcode LA 1.0
M107
;LAYER_CHANGE
;Z:0.2
;HEIGHT:0.2
;BEFORE_LAYER_CHANGE
G92 E0.0
;0.2


G1 E-.8 F2100
G1 Z.4 F720
;AFTER_LAYER_CHANGE
;0.2
;CURRENT_Z: 0.2
G1 X121.139 Y83.583 F10800
G1 Z.2 F720
G1 E.8 F2100
M204 S800
;TYPE:Skirt/Brim
;WIDTH:0.42
G1 F1200
G1 X122.205 Y82.569 E.04613
G1 X123.5 Y82.246 E.04185
G1 X126.49 Y82.246 E.09375
G1 X127.907 Y82.639 E.04611
G1 X128.92 Y83.705 E.04611
G1 X129.244 Y84.999 E.04182
G1 X129.254 Y124.999 E1.25417
G1 X128.862 Y126.417 E.04613
G1 X127.796 Y127.43 E.04611
G1 X126.5 Y127.754 E.04189
G1 X123.5 Y127.754 E.09406
G1 X122.083 Y127.361 E.04611
G1 X121.069 Y126.295 E.04613
G1 X120.746 Y125 E.04185
G1 X120.746 Y85 E1.25417
G1 X121.123 Y83.64 E.04425
M204 S1000
G1 X121.497 Y83.753 F10800
M204 S800
G1 F1200
G1 X121.515 Y83.693 E.00196
G1 X122.56 Y82.817 E.04275
G1 X123.5 Y82.623 E.03009
G1 X126.49 Y82.623 E.09375
G1 X127.797 Y83.015 E.04278
G1 X128.673 Y84.06 E.04275
G1 X128.867 Y84.999 E.03006
G1 X128.877 Y124.999 E1.25417
G1 X128.486 Y126.306 E.04277
G1 X127.44 Y127.183 E.0428
G1 X126.5 Y127.377 E.03009
G1 X123.5 Y127.377 E.09406
G1 X122.193 Y126.985 E.04278
G1 X121.317 Y125.94 E.04275
G1 X121.123 Y125 E.03009
G1 X121.123 Y85 E1.25417
G1 X121.479 Y83.81 E.03895
M204 S1000
; printing object base_escritorio1.stl id:0 copy 0
;WIPE_START
M73 P1 R26
G1 F8640
G1 X121.515 Y83.693 E-.02827
G1 X122.56 Y82.817 E-.31486
G1 X123.5 Y82.623 E-.22162
G1 X124.519 Y82.623 E-.23525
;WIPE_END
G1 Z.6 F720
G1 X124.287 Y85.787 F10800
G1 Z.2 F720
G1 E.8 F2100
M204 S800
;TYPE:Perimeter
;WIDTH:0.419999
G1 F1200
G1 X125.713 Y85.787 E.04471
G1 X125.713 Y124.213 E1.20482
G1 X124.287 Y124.213 E.04471
G1 X124.287 Y85.847 E1.20294
M204 S1000
G1 X123.91 Y85.41 F10800
M204 S800
;TYPE:External perimeter
G1 F1200
G1 X126.09 Y85.41 E.06835
G1 X126.09 Y124.59 E1.22846
G1 X123.91 Y124.59 E.06835
G1 X123.91 Y85.47 E1.22658
M204 S1000
G1 X124.26 Y85.604 F10800
;WIPE_START
G1 F8640
G1 X126.09 Y85.41 E-.50356
G1 X126.09 Y86.694 E-.29644
;WIPE_END
G1 Z.6 F720
G1 X125.6 Y86.663 F10800
G1 Z.2 F720
G1 E.8 F2100
M204 S800
;TYPE:Solid infill
;WIDTH:0.420118
G1 F1200
G1 X125.007 Y86.07 E.0263
G1 X124.57 Y86.07 E.01371
G1 X124.57 Y86.166 E.00301
G1 X125.43 Y87.026 E.03815
G1 X125.43 Y87.56 E.01675
G1 X124.57 Y86.7 E.03815
G1 X124.57 Y87.233 E.01672
G1 X125.43 Y88.093 E.03815
G1 X125.43 Y88.627 E.01675
G1 X124.57 Y87.767 E.03815
G1 X124.57 Y88.3 E.01672
G1 X125.43 Y89.16 E.03815
G1 X125.43 Y89.694 E.01675
G1 X124.57 Y88.834 E.03815
G1 X124.57 Y89.367 E.01672
G1 X125.43 Y90.227 E.03815
G1 X125.43 Y90.761 E.01675
G1 X124.57 Y89.9 E.03817
G1 X124.57 Y90.434 E.01675
G1 X125.43 Y91.294 E.03815
G1 X125.43 Y91.827 E.01672
G1 X124.57 Y90.967 E.03815
G1 X124.57 Y91.501 E.01675
G1 X125.43 Y92.361 E.03815
G1 X125.43 Y92.894 E.01672
G1 X124.57 Y92.034 E.03815
G1 X124.57 Y92.568 E.01675
G1 X125.43 Y93.428 E.03815
G1 X125.43 Y93.961 E.01672
G1 X124.57 Y93.101 E.03815
G1 X124.57 Y93.634 E.01672
G1 X125.43 Y94.495 E.03817
G1 X125.43 Y95.028 E.01672
G1 X124.57 Y94.168 E.03815
G1 X124.57 Y94.701 E.01672
G1 X125.43 Y95.562 E.03817
G1 X125.43 Y96.095 E.01672
G1 X124.57 Y95.235 E.03815
G1 X124.57 Y95.768 E.01672
G1 X125.43 Y96.628 E.03815
G1 X125.43 Y97.162 E.01675
G1 X124.57 Y96.302 E.03815
G1 X124.57 Y96.835 E.01672
G1 X125.43 Y97.695 E.03815
G1 X125.43 Y98.229 E.01675
G1 X124.57 Y97.369 E.03815
G1 X124.57 Y97.902 E.01672
G1 X125.43 Y98.762 E.03815
G1 X125.43 Y99.296 E.01675
G1 X124.57 Y98.435 E.03817
G1 X124.57 Y98.969 E.01675
G1 X125.43 Y99.829 E.03815
G1 X125.43 Y100.362 E.01672
G1 X124.57 Y99.502 E.03815
G1 X124.57 Y100.036 E.01675
G1 X125.43 Y100.896 E.03815
G1 X125.43 Y101.429 E.01672
G1 X124.57 Y100.569 E.03815
G1 X124.57 Y101.103 E.01675
G1 X125.43 Y101.963 E.03815
G1 X125.43 Y102.496 E.01672
G1 X124.57 Y101.636 E.03815
G1 X124.57 Y102.17 E.01675
G1 X125.43 Y103.03 E.03815
G1 X125.43 Y103.563 E.01672
G1 X124.57 Y102.703 E.03815
G1 X124.57 Y103.236 E.01672
G1 X125.43 Y104.097 E.03817
G1 X125.43 Y104.63 E.01672
G1 X124.57 Y103.77 E.03815
G1 X124.57 Y104.303 E.01672
G1 X125.43 Y105.163 E.03815
G1 X125.43 Y105.697 E.01675
G1 X124.57 Y104.837 E.03815
G1 X124.57 Y105.37 E.01672
G1 X125.43 Y106.23 E.03815
G1 X125.43 Y106.764 E.01675
G1 X124.57 Y105.904 E.03815
G1 X124.57 Y106.437 E.01672
G1 X125.43 Y107.297 E.03815
G1 X125.43 Y107.831 E.01675
G1 X124.57 Y106.97 E.03817
G1 X124.57 Y107.504 E.01675
G1 X125.43 Y108.364 E.03815
G1 X125.43 Y108.897 E.01672
G1 X124.57 Y108.037 E.03815
G1 X124.57 Y108.571 E.01675
G1 X125.43 Y109.431 E.03815
G1 X125.43 Y109.964 E.01672
G1 X124.57 Y109.104 E.03815
G1 X124.57 Y109.638 E.01675
G1 X125.43 Y110.498 E.03815
G1 X125.43 Y111.031 E.01672
G1 X124.57 Y110.171 E.03815
G1 X124.57 Y110.705 E.01675
G1 X125.43 Y111.565 E.03815
G1 X125.43 Y112.098 E.01672
G1 X124.57 Y111.238 E.03815
G1 X124.57 Y111.771 E.01672
G1 X125.43 Y112.632 E.03817
G1 X125.43 Y113.165 E.01672
G1 X124.57 Y112.305 E.03815
G1 X124.57 Y112.838 E.01672
G1 X125.43 Y113.698 E.03815
G1 X125.43 Y114.232 E.01675
G1 X124.57 Y113.372 E.03815
G1 X124.57 Y113.905 E.01672
G1 X125.43 Y114.765 E.03815
G1 X125.43 Y115.299 E.01675
G1 X124.57 Y114.439 E.03815
G1 X124.57 Y114.972 E.01672
G1 X125.43 Y115.832 E.03815
G1 X125.43 Y116.366 E.01675
G1 X124.57 Y115.505 E.03817
G1 X124.57 Y116.039 E.01675
G1 X125.43 Y116.899 E.03815
G1 X125.43 Y117.432 E.01672
G1 X124.57 Y116.572 E.03815
G1 X124.57 Y117.106 E.01675
G1 X125.43 Y117.966 E.03815
G1 X125.43 Y118.499 E.01672
G1 X124.57 Y117.639 E.03815
G1 X124.57 Y118.173 E.01675
M73 P2 R26
G1 X125.43 Y119.033 E.03815
G1 X125.43 Y119.566 E.01672
G1 X124.57 Y118.706 E.03815
G1 X124.57 Y119.24 E.01675
G1 X125.43 Y120.1 E.03815
G1 X125.43 Y120.633 E.01672
G1 X124.57 Y119.773 E.03815
G1 X124.57 Y120.306 E.01672
G1 X125.43 Y121.167 E.03817
G1 X125.43 Y121.7 E.01672
G1 X124.57 Y120.84 E.03815
G1 X124.57 Y121.373 E.01672
G1 X125.43 Y122.233 E.03815
G1 X125.43 Y122.767 E.01675
G1 X124.57 Y121.907 E.03815
G1 X124.57 Y122.44 E.01672
G1 X125.43 Y123.3 E.03815
G1 X125.43 Y123.834 E.01675
G1 X124.57 Y122.974 E.03815
G1 X124.57 Y123.507 E.01672
G1 X125.163 Y124.1 E.0263
M204 S1000
; stop printing object base_escritorio1.stl id:0 copy 0
M106 S84.15
;LAYER_CHANGE
;Z:0.4
;HEIGHT:0.2
;BEFORE_LAYER_CHANGE
G92 E0.0
;0.4


;WIPE_START
M73 P2 R25
G1 F8640
G1 X124.57 Y123.507 E-.19364
G1 X124.57 Y122.974 E-.12307
G1 X125.43 Y123.834 E-.28083
G1 X125.43 Y123.3 E-.1233
G1 X125.188 Y123.058 E-.07916
;WIPE_END
G1 Z.6 F720
;AFTER_LAYER_CHANGE
;0.4
;CURRENT_Z: 0.4
M104 S210 ; set temperature
G1 X129.254 Y123.057 F10800
G1 Z.4 F720
G1 E.8 F2100
;TYPE:Skirt/Brim
;WIDTH:0.42
G1 F2182
G1 X129.254 Y124.999 E.06089
G1 X128.862 Y126.417 E.04613
G1 X127.796 Y127.43 E.04611
G1 X126.5 Y127.754 E.04189
G1 X123.5 Y127.754 E.09406
G1 X122.083 Y127.361 E.04611
G1 X121.069 Y126.295 E.04613
G1 X120.746 Y125 E.04185
G1 X120.746 Y85 E1.25417
G1 X121.139 Y83.583 E.04611
G1 X122.205 Y82.569 E.04613
G1 X123.5 Y82.246 E.04185
G1 X126.49 Y82.246 E.09375
G1 X127.907 Y82.639 E.04611
G1 X128.92 Y83.705 E.04611
G1 X129.244 Y84.999 E.04182
G1 X129.254 Y122.997 E1.1914
G1 X128.877 Y122.997 F10800
G1 F2182
G1 X128.877 Y124.999 E.06277
G1 X128.486 Y126.306 E.04277
G1 X127.44 Y127.183 E.0428
G1 X126.5 Y127.377 E.03009
G1 X123.5 Y127.377 E.09406
G1 X122.193 Y126.985 E.04278
G1 X121.317 Y125.94 E.04275
G1 X121.123 Y125 E.03009
G1 X121.123 Y85 E1.25417
G1 X121.515 Y83.693 E.04278
G1 X122.56 Y82.817 E.04275
G1 X123.5 Y82.623 E.03009
G1 X126.49 Y82.623 E.09375
G1 X127.797 Y83.015 E.04278
G1 X128.673 Y84.06 E.04275
G1 X128.867 Y84.999 E.03006
G1 X128.877 Y122.937 E1.18952
; printing object base_escritorio1.stl id:0 copy 0
;WIPE_START
G1 F8640
G1 X128.877 Y124.999 E-.47612
G1 X128.486 Y126.306 E-.31501
G1 X128.457 Y126.331 E-.00887
;WIPE_END
G1 Z.8 F720
G1 X124.132 Y85.632 F10800
G1 Z.4 F720
G1 E.8 F2100
M204 S800
;TYPE:Perimeter
;WIDTH:0.449999
G1 F2182
G1 X125.868 Y85.632 E.05876
G1 X125.868 Y124.368 E1.31117
G1 X124.132 Y124.368 E.05876
G1 X124.132 Y85.692 E1.30913
M204 S1000
G1 X123.725 Y85.225 F10800
M204 S800
;TYPE:External perimeter
G1 F2182
G1 X126.275 Y85.225 E.08631
G1 X126.275 Y124.775 E1.33872
G1 X123.725 Y124.775 E.08631
G1 X123.725 Y85.285 E1.33669
M204 S1000
G1 X124.076 Y85.418 F10800
G1 X124.437 Y85.937
M204 S2000
;TYPE:Solid infill
G1 F2182
G1 X124.437 Y124.063 E1.29052
G1 X125.563 Y124.063 E.03811
G1 X125.563 Y85.937 E1.29052
G1 X124.497 Y85.937 E.03608
M204 S1000
G1 X124.82 Y86.32 F10800
M204 S2000
;WIDTH:0.401955
G1 F2182
G1 X124.82 Y123.68 E1.11534
G1 X125.18 Y123.68 E.01075
M73 P3 R25
G1 X125.18 Y86.32 E1.11534
G1 X124.88 Y86.32 E.00896
M204 S1000
; stop printing object base_escritorio1.stl id:0 copy 0
M106 S170.85
;LAYER_CHANGE
;Z:0.6
;HEIGHT:0.2
;BEFORE_LAYER_CHANGE
G92 E0.0
;0.6


;WIPE_START
G1 F8640
G1 X125.18 Y86.32 E-.06927
G1 X125.18 Y89.485 E-.73073
;WIPE_END
G1 Z.8 F720
;AFTER_LAYER_CHANGE
;0.6
;CURRENT_Z: 0.6
G1 X129.245 Y89.484 F10800
G1 Z.6 F720
G1 E.8 F2100
;TYPE:Skirt/Brim
;WIDTH:0.42
G1 F2148
G1 X129.254 Y124.999 E1.11355
G1 X128.862 Y126.417 E.04613
G1 X127.796 Y127.43 E.04611
G1 X126.5 Y127.754 E.04189
G1 X123.5 Y127.754 E.09406
G1 X122.083 Y127.361 E.04611
G1 X121.069 Y126.295 E.04613
G1 X120.746 Y125 E.04185
G1 X120.746 Y85 E1.25417
G1 X121.139 Y83.583 E.04611
G1 X122.205 Y82.569 E.04613
G1 X123.5 Y82.246 E.04185
G1 X126.49 Y82.246 E.09375
G1 X127.907 Y82.639 E.04611
G1 X128.92 Y83.705 E.04611
G1 X129.244 Y84.999 E.04182
G1 X129.245 Y89.424 E.13874
G1 X128.868 Y89.424 F10800
G1 F2148
G1 X128.877 Y124.999 E1.11543
G1 X128.486 Y126.306 E.04277
G1 X127.44 Y127.183 E.0428
G1 X126.5 Y127.377 E.03009
G1 X123.5 Y127.377 E.09406
G1 X122.193 Y126.985 E.04278
G1 X121.317 Y125.94 E.04275
G1 X121.123 Y125 E.03009
G1 X121.123 Y85 E1.25417
G1 X121.515 Y83.693 E.04278
G1 X122.56 Y82.817 E.04275
G1 X123.5 Y82.623 E.03009
G1 X126.49 Y82.623 E.09375
G1 X127.797 Y83.015 E.04278
G1 X128.673 Y84.06 E.04275
G1 X128.867 Y84.999 E.03006
G1 X128.868 Y89.364 E.13686
; printing object base_escritorio1.stl id:0 copy 0
;WIPE_START
G1 F8640
G1 X128.869 Y92.829 E-.8
;WIPE_END
G1 Z1 F720
G1 X124.132 Y85.632 F10800
G1 Z.6 F720
G1 E.8 F2100
M204 S800
;TYPE:Perimeter
;WIDTH:0.449999
G1 F2148
G1 X125.868 Y85.632 E.05876
G1 X125.868 Y124.368 E1.31117
G1 X124.132 Y124.368 E.05876
G1 X124.132 Y85.692 E1.30913
M204 S1000
G1 X123.725 Y85.225 F10800
M204 S800
;TYPE:External perimeter
G1 F2148
G1 X126.275 Y85.225 E.08631
G1 X126.275 Y124.775 E1.33872
G1 X123.725 Y124.775 E.08631
G1 X123.725 Y85.285 E1.33669
M204 S1000
G1 X124.076 Y85.418 F10800
G1 X124.437 Y85.937
M204 S2000
;TYPE:Solid infill
G1 F2148
G1 X124.437 Y124.063 E1.29052
G1 X125.563 Y124.063 E.03811
G1 X125.563 Y85.937 E1.29052
G1 X124.497 Y85.937 E.03608
M204 S1000
G1 X124.82 Y86.32 F10800
M204 S2000
;WIDTH:0.401955
G1 F2148
G1 X124.82 Y123.68 E1.11534
G1 X125.18 Y123.68 E.01075
G1 X125.18 Y86.32 E1.11534
M73 P4 R25
G1 X124.88 Y86.32 E.00896
M204 S1000
; stop printing object base_escritorio1.stl id:0 copy 0
M106 S255
;LAYER_CHANGE
;Z:0.8
;HEIGHT:0.2
;BEFORE_LAYER_CHANGE
G92 E0.0
;0.8


;WIPE_START
G1 F8640
G1 X125.18 Y86.32 E-.06927
G1 X125.18 Y89.485 E-.73073
;WIPE_END
G1 Z1 F720
;AFTER_LAYER_CHANGE
;0.8
;CURRENT_Z: 0.8
; printing object base_escritorio1.stl id:0 copy 0
G1 X124.132 Y85.632 F10800
G1 Z.8 F720
G1 E.8 F2100
M204 S800
;TYPE:Perimeter
;WIDTH:0.449999
G1 F1309
G1 X125.868 Y85.632 E.05876
G1 X125.868 Y124.368 E1.31117
G1 X124.132 Y124.368 E.05876
G1 X124.132 Y85.692 E1.30913
M204 S1000
G1 X123.725 Y85.225 F10800
M204 S800
;TYPE:External perimeter
G1 F1309
G1 X126.275 Y85.225 E.08631
G1 X126.275 Y124.775 E1.33872
G1 X123.725 Y124.775 E.08631
G1 X123.725 Y85.285 E1.33669
M204 S1000
G1 X124.076 Y85.418 F10800
;WIPE_START
G1 F8640
G1 X126.275 Y85.225 E-.58897
G1 X126.275 Y86.139 E-.21103
;WIPE_END
G1 Z1.2 F720
G1 X124.437 Y86.5 F10800
G1 Z.8 F720
G1 E.8 F2100
M204 S2000
;TYPE:Solid infill
G1 F1309
G1 X124.437 Y124.063 E1.27146
G1 X125.563 Y124.063 E.03811
G1 X125.563 Y85.937 E1.29052
G1 X124.437 Y85.937 E.03811
G1 X124.437 Y86.44 E.01703
M204 S1000
G1 X124.82 Y86.5 F10800
M204 S2000
;WIDTH:0.401955
G1 F1309
G1 X124.82 Y123.68 E1.10997
G1 X125.18 Y123.68 E.01075
G1 X125.18 Y86.32 E1.11534
G1 X124.82 Y86.32 E.01075
M73 P5 R25
G1 X124.82 Y86.44 E.00358
M204 S1000
; stop printing object base_escritorio1.stl id:0 copy 0
;LAYER_CHANGE
;Z:1
;HEIGHT:0.2
;BEFORE_LAYER_CHANGE
G92 E0.0
;1


;WIPE_START
G1 F8640
G1 X124.82 Y86.32 E-.02771
G1 X125.18 Y86.32 E-.08312
G1 X125.18 Y89.305 E-.68917
;WIPE_END
G1 Z1.2 F720
;AFTER_LAYER_CHANGE
;1
;CURRENT_Z: 1
; printing object base_escritorio1.stl id:0 copy 0
G1 X124.132 Y85.632 F10800
G1 Z1 F720
G1 E.8 F2100
M204 S800
;TYPE:Perimeter
;WIDTH:0.449999
G1 F917
G1 X125.868 Y85.632 E.05876
G1 X125.868 Y124.368 E1.31117
G1 X124.132 Y124.368 E.05876
G1 X124.132 Y85.692 E1.30913
M204 S1000
G1 X123.725 Y85.225 F10800
M204 S800
;TYPE:External perimeter
G1 F917
G1 X126.275 Y85.225 E.08631
G1 X126.275 Y124.775 E1.33872
G1 X123.725 Y124.775 E.08631
G1 X123.725 Y85.285 E1.33669
M204 S1000
G1 X124.076 Y85.418 F10800
;WIPE_START
G1 F8640
G1 X126.275 Y85.225 E-.58897
G1 X126.275 Y86.139 E-.21103
;WIPE_END
G1 Z1.4 F720
G1 X125.563 Y86.413 F10800
G1 Z1 F720
G1 E.8 F2100
M204 S2000
;TYPE:Internal infill
;WIDTH:0.45
G1 F917
G1 X125.563 Y85.937 E.01611
G1 X124.437 Y85.937 E.03811
G1 X124.437 Y86.167 E.00779
G1 X125.563 Y87.292 E.05388
G1 X125.563 Y86.617 E.02285
G1 X124.437 Y86.918 E.03945
G1 X124.437 Y89.418 E.08462
M204 S1000
;WIPE_START
G1 F8640
G1 X124.437 Y86.918 E-.57726
G1 X125.369 Y86.669 E-.22274
;WIPE_END
G1 Z1.4 F720
G1 X125.563 Y90.438 F10800
G1 Z1 F720
G1 E.8 F2100
M204 S2000
G1 F917
G1 X125.563 Y92.938 E.08462
G1 X124.437 Y93.24 E.03946
M73 P5 R24
G1 X124.437 Y94.802 E.05287
G1 X125.563 Y95.927 E.05388
G1 X125.563 Y98.427 E.08462
M204 S1000
;WIPE_START
G1 F8640
G1 X125.563 Y95.927 E-.57726
G1 X124.881 Y95.245 E-.22274
;WIPE_END
G1 Z1.4 F720
G1 X124.437 Y97.061 F10800
G1 Z1 F720
G1 E.8 F2100
M204 S2000
G1 F917
G1 X124.437 Y99.561 E.08462
G1 X125.563 Y99.26 E.03945
G1 X125.563 Y100.168 E.03073
G1 X124.437 Y104.368 E.14719
G1 X124.437 Y105.883 E.05128
G1 X125.563 Y105.581 E.03946
G1 X125.563 Y104.563 E.03446
G1 X124.437 Y103.437 E.0539
M204 S1000
;WIPE_START
G1 F8640
G1 X125.563 Y104.563 E-.36769
G1 X125.563 Y105.581 E-.23506
G1 X124.738 Y105.802 E-.19725
;WIPE_END
G1 Z1.4 F720
G1 X125.563 Y109.403 F10800
G1 Z1 F720
G1 E.8 F2100
M204 S2000
G1 F917
G1 X125.563 Y111.903 E.08462
G1 X124.437 Y112.204 E.03945
G1 X124.437 Y112.073 E.00443
G1 X125.563 Y113.198 E.05388
G1 X125.563 Y118.225 E.17016
G1 X124.437 Y118.526 E.03945
M73 P6 R24
G1 X124.437 Y120.708 E.07386
G1 X125.563 Y121.834 E.0539
G1 X125.563 Y124.063 E.07545
G1 X125.292 Y124.063 E.00917
M204 S1000
