; generated by PrusaSlicer 2.5.0+linux-x64-GTK3 on 2022-09-09 at 20:20:53 UTC

; 

; external perimeters extrusion width = 0.45mm
; perimeters extrusion width = 0.45mm
; infill extrusion width = 0.45mm
; solid infill extrusion width = 0.45mm
; top infill extrusion width = 0.40mm
; first layer extrusion width = 0.42mm

M73 P0 R26
M201 X9000 Y9000 Z500 E10000 ; sets maximum accelerations, mm/sec^2
M203 X500 Y500 Z12 E120 ; sets maximum feedrates, mm / sec
M204 P2000 R1500 T2000 ; sets acceleration (P, T) and retract acceleration (R), mm/sec^2
M205 X10.00 Y10.00 Z0.20 E4.50 ; sets the jerk limits, mm/sec
M205 S0 T0 ; sets the minimum extruding and travel feed rate, mm/sec
M107
;TYPE:Custom
M862.3 P "MK2.5" ; printer model check
M862.1 P0.4 ; nozzle diameter check
M115 U3.11.0 ; tell printer latest fw version
G90 ; use absolute coordinates
M83 ; extruder relative mode
M104 S215 ; set extruder temp
M140 S60 ; set bed temp
M190 S60 ; wait for bed temp
M109 S215 ; wait for extruder temp
G28 W ; home all without mesh bed level
G80 ; mesh bed leveling

G1 Z0.2 F720
G1 Y-3 F1000 ; go outside print area
G92 E0
G1 X60 E9 F1000 ; intro line
G1 X100 E12.5 F1000 ; intro line

G92 E0
G21 ; set units to millimeters
G90 ; use absolute coordinates
M83 ; use relative distances for extrusion
M900 K0.05 ; Filament gcode LA 1.5
M900 K30 ; Filament gcode LA 1.0
M107
;LAYER_CHANGE
;Z:0.2
;HEIGHT:0.2
;BEFORE_LAYER_CHANGE
G92 E0.0
;0.2


G1 E-.8 F2100
G1 Z.4 F720
;AFTER_LAYER_CHANGE
;0.2
;CURRENT_Z: 0.2
G1 X121.139 Y83.583 F10800
G1 Z.2 F720
G1 E.8 F2100
M204 S800
;TYPE:Skirt/Brim
;WIDTH:0.42
G1 F1200
G1 X122.205 Y82.569 E.04612
G1 X123.5 Y82.246 E.04186
G1 X126.5 Y82.246 E.09406
G1 X127.917 Y82.639 E.04612
G1 X128.931 Y83.705 E.04612
G1 X129.254 Y85 E.04186
G1 X129.254 Y125 E1.25417
G1 X128.861 Y126.417 E.04612
G1 X127.795 Y127.431 E.04612
G1 X126.5 Y127.754 E.04186
G1 X123.5 Y127.754 E.09406
G1 X122.083 Y127.361 E.04612
G1 X121.069 Y126.295 E.04612
G1 X120.746 Y125 E.04186
G1 X120.746 Y85 E1.25417
G1 X121.123 Y83.64 E.04424
M204 S1000
G1 X121.497 Y83.752 F10800
M204 S800
G1 F1200
G1 X121.515 Y83.693 E.00195
G1 X122.56 Y82.817 E.04278
G1 X123.5 Y82.623 E.03008
G1 X126.5 Y82.623 E.09406
G1 X127.807 Y83.015 E.04278
G1 X128.683 Y84.06 E.04278
G1 X128.877 Y85 E.03008
G1 X128.877 Y125 E1.25417
G1 X128.485 Y126.307 E.04278
G1 X127.44 Y127.183 E.04278
G1 X126.5 Y127.377 E.03008
G1 X123.5 Y127.377 E.09406
G1 X122.193 Y126.985 E.04278
G1 X121.317 Y125.94 E.04278
G1 X121.123 Y125 E.03008
G1 X121.123 Y85 E1.25417
G1 X121.479 Y83.81 E.03895
M204 S1000
; printing object base_escritorio1.stl id:0 copy 0
;WIPE_START
M73 P1 R26
G1 F8640
G1 X121.515 Y83.693 E-.0282
G1 X122.56 Y82.817 E-.31505
G1 X123.5 Y82.623 E-.22155
G1 X124.345 Y82.623 E-.1952
;WIPE_END
G1 E-.04 F2100
G1 Z.6 F720
G1 X124.287 Y85.787 F10800
G1 Z.2 F720
G1 E.8 F2100
M204 S800
;TYPE:Perimeter
;WIDTH:0.419999
G1 F1200
G1 X125.713 Y85.787 E.04471
G1 X125.713 Y124.213 E1.20481
G1 X124.287 Y124.213 E.04471
G1 X124.287 Y85.847 E1.20293
M204 S1000
G1 X123.91 Y85.41 F10800
M204 S800
;TYPE:External perimeter
G1 F1200
G1 X126.09 Y85.41 E.06835
G1 X126.09 Y124.59 E1.22846
G1 X123.91 Y124.59 E.06835
G1 X123.91 Y85.47 E1.22658
M204 S1000
G1 X124.26 Y85.604 F10800
;WIPE_START
G1 F8640
G1 X126.09 Y85.41 E-.50356
G1 X126.09 Y86.521 E-.25644
;WIPE_END
G1 E-.04 F2100
G1 Z.6 F720
G1 X125.6 Y86.663 F10800
G1 Z.2 F720
G1 E.8 F2100
M204 S800
;TYPE:Solid infill
;WIDTH:0.420119
G1 F1200
G1 X125.007 Y86.07 E.0263
G1 X124.57 Y86.07 E.01371
G1 X124.57 Y86.166 E.00302
G1 X125.43 Y87.026 E.03816
G1 X125.43 Y87.56 E.01673
G1 X124.57 Y86.7 E.03816
G1 X124.57 Y87.233 E.01673
G1 X125.43 Y88.093 E.03816
G1 X125.43 Y88.627 E.01673
G1 X124.57 Y87.767 E.03816
G1 X124.57 Y88.3 E.01673
G1 X125.43 Y89.16 E.03816
G1 X125.43 Y89.694 E.01673
G1 X124.57 Y88.833 E.03816
G1 X124.57 Y89.367 E.01673
G1 X125.43 Y90.227 E.03816
G1 X125.43 Y90.761 E.01673
G1 X124.57 Y89.9 E.03816
G1 X124.57 Y90.434 E.01673
G1 X125.43 Y91.294 E.03816
G1 X125.43 Y91.827 E.01673
G1 X124.57 Y90.967 E.03816
G1 X124.57 Y91.501 E.01673
G1 X125.43 Y92.361 E.03816
G1 X125.43 Y92.894 E.01673
G1 X124.57 Y92.034 E.03816
G1 X124.57 Y92.567 E.01673
G1 X125.43 Y93.428 E.03816
G1 X125.43 Y93.961 E.01673
G1 X124.57 Y93.101 E.03816
G1 X124.57 Y93.634 E.01673
G1 X125.43 Y94.495 E.03816
G1 X125.43 Y95.028 E.01673
G1 X124.57 Y94.168 E.03816
G1 X124.57 Y94.701 E.01673
G1 X125.43 Y95.562 E.03816
G1 X125.43 Y96.095 E.01673
G1 X124.57 Y95.235 E.03816
G1 X124.57 Y95.768 E.01673
G1 X125.43 Y96.628 E.03816
G1 X125.43 Y97.162 E.01673
G1 X124.57 Y96.302 E.03816
G1 X124.57 Y96.835 E.01673
G1 X125.43 Y97.695 E.03816
G1 X125.43 Y98.229 E.01673
G1 X124.57 Y97.368 E.03816
G1 X124.57 Y97.902 E.01673
G1 X125.43 Y98.762 E.03816
G1 X125.43 Y99.296 E.01673
G1 X124.57 Y98.435 E.03816
G1 X124.57 Y98.969 E.01673
G1 X125.43 Y99.829 E.03816
G1 X125.43 Y100.362 E.01673
G1 X124.57 Y99.502 E.03816
G1 X124.57 Y100.036 E.01673
G1 X125.43 Y100.896 E.03816
G1 X125.43 Y101.429 E.01673
G1 X124.57 Y100.569 E.03816
G1 X124.57 Y101.103 E.01673
G1 X125.43 Y101.963 E.03816
G1 X125.43 Y102.496 E.01673
G1 X124.57 Y101.636 E.03816
G1 X124.57 Y102.169 E.01673
G1 X125.43 Y103.03 E.03816
G1 X125.43 Y103.563 E.01673
G1 X124.57 Y102.703 E.03816
G1 X124.57 Y103.236 E.01673
G1 X125.43 Y104.097 E.03816
G1 X125.43 Y104.63 E.01673
G1 X124.57 Y103.77 E.03816
G1 X124.57 Y104.303 E.01673
G1 X125.43 Y105.163 E.03816
G1 X125.43 Y105.697 E.01673
G1 X124.57 Y104.837 E.03816
G1 X124.57 Y105.37 E.01673
G1 X125.43 Y106.23 E.03816
G1 X125.43 Y106.764 E.01673
G1 X124.57 Y105.903 E.03816
G1 X124.57 Y106.437 E.01673
G1 X125.43 Y107.297 E.03816
G1 X125.43 Y107.831 E.01673
G1 X124.57 Y106.97 E.03816
G1 X124.57 Y107.504 E.01673
G1 X125.43 Y108.364 E.03816
G1 X125.43 Y108.898 E.01673
G1 X124.57 Y108.037 E.03816
G1 X124.57 Y108.571 E.01673
G1 X125.43 Y109.431 E.03816
G1 X125.43 Y109.964 E.01673
G1 X124.57 Y109.104 E.03816
G1 X124.57 Y109.638 E.01673
G1 X125.43 Y110.498 E.03816
G1 X125.43 Y111.031 E.01673
G1 X124.57 Y110.171 E.03816
G1 X124.57 Y110.704 E.01673
G1 X125.43 Y111.565 E.03816
G1 X125.43 Y112.098 E.01673
G1 X124.57 Y111.238 E.03816
G1 X124.57 Y111.771 E.01673
G1 X125.43 Y112.632 E.03816
G1 X125.43 Y113.165 E.01673
G1 X124.57 Y112.305 E.03816
G1 X124.57 Y112.838 E.01673
G1 X125.43 Y113.698 E.03816
G1 X125.43 Y114.232 E.01673
G1 X124.57 Y113.372 E.03816
G1 X124.57 Y113.905 E.01673
G1 X125.43 Y114.765 E.03816
G1 X125.43 Y115.299 E.01673
G1 X124.57 Y114.439 E.03816
G1 X124.57 Y114.972 E.01673
G1 X125.43 Y115.832 E.03816
G1 X125.43 Y116.366 E.01673
G1 X124.57 Y115.505 E.03816
G1 X124.57 Y116.039 E.01673
G1 X125.43 Y116.899 E.03816
G1 X125.43 Y117.433 E.01673
G1 X124.57 Y116.572 E.03816
G1 X124.57 Y117.106 E.01673
G1 X125.43 Y117.966 E.03816
G1 X125.43 Y118.499 E.01673
G1 X124.57 Y117.639 E.03816
G1 X124.57 Y118.173 E.01673
G1 X125.43 Y119.033 E.03816
G1 X125.43 Y119.566 E.01673
G1 X124.57 Y118.706 E.03816
G1 X124.57 Y119.239 E.01673
M73 P2 R26
G1 X125.43 Y120.1 E.03816
G1 X125.43 Y120.633 E.01673
G1 X124.57 Y119.773 E.03816
G1 X124.57 Y120.306 E.01673
G1 X125.43 Y121.167 E.03816
G1 X125.43 Y121.7 E.01673
G1 X124.57 Y120.84 E.03816
G1 X124.57 Y121.373 E.01673
G1 X125.43 Y122.234 E.03816
G1 X125.43 Y122.767 E.01673
G1 X124.57 Y121.907 E.03816
G1 X124.57 Y122.44 E.01673
G1 X125.43 Y123.3 E.03816
G1 X125.43 Y123.834 E.01673
G1 X124.57 Y122.974 E.03816
G1 X124.57 Y123.507 E.01673
G1 X125.163 Y124.1 E.02629
M204 S1000
; stop printing object base_escritorio1.stl id:0 copy 0
M106 S84.15
;LAYER_CHANGE
;Z:0.4
;HEIGHT:0.2
;BEFORE_LAYER_CHANGE
G92 E0.0
;0.4


;WIPE_START
G1 F8640
G1 X124.57 Y123.507 E-.19357
G1 X124.57 Y122.974 E-.12317
G1 X125.43 Y123.834 E-.28091
G1 X125.43 Y123.3 E-.12317
G1 X125.31 Y123.18 E-.03917
;WIPE_END
G1 E-.04 F2100
G1 Z.6 F720
;AFTER_LAYER_CHANGE
;0.4
;CURRENT_Z: 0.4
M104 S210 ; set temperature
G1 X129.254 Y123.18 F10800
G1 Z.4 F720
G1 E.8 F2100
;TYPE:Skirt/Brim
;WIDTH:0.42
G1 F2185
G1 X129.254 Y125 E.05705
G1 X128.861 Y126.417 E.04612
G1 X127.795 Y127.431 E.04612
G1 X126.5 Y127.754 E.04186
G1 X123.5 Y127.754 E.09406
G1 X122.083 Y127.361 E.04612
G1 X121.069 Y126.295 E.04612
G1 X120.746 Y125 E.04186
G1 X120.746 Y85 E1.25417
G1 X121.139 Y83.583 E.04612
G1 X122.205 Y82.569 E.04612
G1 X123.5 Y82.246 E.04186
G1 X126.5 Y82.246 E.09406
G1 X127.917 Y82.639 E.04612
G1 X128.931 Y83.705 E.04612
G1 X129.254 Y85 E.04186
G1 X129.254 Y123.12 E1.19524
G1 X128.877 Y123.12 F10800
G1 F2185
G1 X128.877 Y125 E.05893
G1 X128.485 Y126.307 E.04278
G1 X127.44 Y127.183 E.04278
G1 X126.5 Y127.377 E.03008
G1 X123.5 Y127.377 E.09406
G1 X122.193 Y126.985 E.04278
G1 X121.317 Y125.94 E.04278
G1 X121.123 Y125 E.03008
G1 X121.123 Y85 E1.25417
G1 X121.515 Y83.693 E.04278
G1 X122.56 Y82.817 E.04278
G1 X123.5 Y82.623 E.03008
G1 X126.5 Y82.623 E.09406
G1 X127.807 Y83.015 E.04278
G1 X128.683 Y84.06 E.04278
G1 X128.877 Y85 E.03008
G1 X128.877 Y123.06 E1.19336
; printing object base_escritorio1.stl id:0 copy 0
;WIPE_START
G1 F8640
G1 X128.877 Y125 E-.44785
G1 X128.489 Y126.295 E-.31215
;WIPE_END
G1 E-.04 F2100
G1 Z.8 F720
G1 X124.132 Y85.632 F10800
G1 Z.4 F720
G1 E.8 F2100
M204 S800
;TYPE:Perimeter
;WIDTH:0.449999
G1 F2185
G1 X125.868 Y85.632 E.05876
G1 X125.868 Y124.368 E1.31116
G1 X124.132 Y124.368 E.05876
G1 X124.132 Y85.692 E1.30913
M204 S1000
G1 X123.725 Y85.225 F10800
M204 S800
;TYPE:External perimeter
M73 P2 R25
G1 F2185
G1 X126.275 Y85.225 E.08631
G1 X126.275 Y124.775 E1.33872
G1 X123.725 Y124.775 E.08631
G1 X123.725 Y85.285 E1.33669
M204 S1000
G1 X124.076 Y85.418 F10800
;WIPE_START
G1 F8640
G1 X126.275 Y85.225 E-.58897
G1 X126.275 Y85.966 E-.17103
;WIPE_END
G1 E-.04 F2100
G1 Z.8 F720
G1 X125.746 Y123.415 F10800
G1 Z.4 F720
G1 E.8 F2100
M204 S2000
;TYPE:Solid infill
;WIDTH:0.453499
G1 F2185
G1 X125.099 Y124.063 E.03124
G1 X124.518 Y124.063 E.01982
G1 X125.563 Y123.018 E.05043
G1 X125.563 Y122.437 E.01982
G1 X124.437 Y123.563 E.05433
G1 X124.437 Y122.982 E.01982
G1 X125.563 Y121.857 E.05433
G1 X125.563 Y121.276 E.01982
G1 X124.437 Y122.401 E.05433
G1 X124.437 Y121.821 E.01982
G1 X125.563 Y120.695 E.05433
G1 X125.563 Y120.115 E.01982
G1 X124.437 Y121.24 E.05433
G1 X124.437 Y120.659 E.01982
G1 X125.563 Y119.534 E.05433
G1 X125.563 Y118.953 E.01982
G1 X124.437 Y120.079 E.05433
G1 X124.437 Y119.498 E.01982
G1 X125.563 Y118.373 E.05433
G1 X125.563 Y117.792 E.01982
G1 X124.437 Y118.917 E.05433
G1 X124.437 Y118.337 E.01982
G1 X125.563 Y117.212 E.05433
G1 X125.563 Y116.631 E.01982
G1 X124.437 Y117.756 E.05433
G1 X124.437 Y117.175 E.01982
G1 X125.563 Y116.05 E.05433
G1 X125.563 Y115.47 E.01982
G1 X124.437 Y116.595 E.05433
G1 X124.437 Y116.014 E.01982
G1 X125.563 Y114.889 E.05433
G1 X125.563 Y114.308 E.01982
G1 X124.437 Y115.434 E.05433
G1 X124.437 Y114.853 E.01982
G1 X125.563 Y113.728 E.05433
G1 X125.563 Y113.147 E.01982
G1 X124.437 Y114.272 E.05433
G1 X124.437 Y113.692 E.01982
G1 X125.563 Y112.566 E.05433
G1 X125.563 Y111.986 E.01982
G1 X124.437 Y113.111 E.05433
G1 X124.437 Y112.53 E.01982
G1 X125.563 Y111.405 E.05433
G1 X125.563 Y110.824 E.01982
G1 X124.437 Y111.95 E.05433
G1 X124.437 Y111.369 E.01982
G1 X125.563 Y110.244 E.05433
G1 X125.563 Y109.663 E.01982
G1 X124.437 Y110.788 E.05433
G1 X124.437 Y110.208 E.01982
G1 X125.563 Y109.082 E.05433
G1 X125.563 Y108.502 E.01982
G1 X124.437 Y109.627 E.05433
G1 X124.437 Y109.046 E.01982
G1 X125.563 Y107.921 E.05433
G1 X125.563 Y107.341 E.01982
G1 X124.437 Y108.466 E.05433
G1 X124.437 Y107.885 E.01982
G1 X125.563 Y106.76 E.05433
G1 X125.563 Y106.179 E.01982
G1 X124.437 Y107.304 E.05433
G1 X124.437 Y106.724 E.01982
G1 X125.563 Y105.599 E.05433
G1 X125.563 Y105.018 E.01982
G1 X124.437 Y106.143 E.05433
G1 X124.437 Y105.563 E.01982
G1 X125.563 Y104.437 E.05433
G1 X125.563 Y103.857 E.01982
G1 X124.437 Y104.982 E.05433
G1 X124.437 Y104.401 E.01982
G1 X125.563 Y103.276 E.05433
G1 X125.563 Y102.695 E.01982
G1 X124.437 Y103.821 E.05433
G1 X124.437 Y103.24 E.01982
G1 X125.563 Y102.115 E.05433
G1 X125.563 Y101.534 E.01982
G1 X124.437 Y102.659 E.05433
G1 X124.437 Y102.079 E.01982
M73 P3 R25
G1 X125.563 Y100.953 E.05433
G1 X125.563 Y100.373 E.01982
G1 X124.437 Y101.498 E.05433
G1 X124.437 Y100.917 E.01982
G1 X125.563 Y99.792 E.05433
G1 X125.563 Y99.212 E.01982
G1 X124.437 Y100.337 E.05433
G1 X124.437 Y99.756 E.01982
G1 X125.563 Y98.631 E.05433
G1 X125.563 Y98.05 E.01982
G1 X124.437 Y99.175 E.05433
G1 X124.437 Y98.595 E.01982
G1 X125.563 Y97.47 E.05433
G1 X125.563 Y96.889 E.01982
G1 X124.437 Y98.014 E.05433
G1 X124.437 Y97.434 E.01982
G1 X125.563 Y96.308 E.05433
G1 X125.563 Y95.728 E.01982
G1 X124.437 Y96.853 E.05433
G1 X124.437 Y96.272 E.01982
G1 X125.563 Y95.147 E.05433
G1 X125.563 Y94.566 E.01982
G1 X124.437 Y95.692 E.05433
G1 X124.437 Y95.111 E.01982
G1 X125.563 Y93.986 E.05433
G1 X125.563 Y93.405 E.01982
G1 X124.437 Y94.53 E.05433
G1 X124.437 Y93.95 E.01982
G1 X125.563 Y92.824 E.05433
G1 X125.563 Y92.244 E.01982
G1 X124.437 Y93.369 E.05433
G1 X124.437 Y92.788 E.01982
G1 X125.563 Y91.663 E.05433
G1 X125.563 Y91.082 E.01982
G1 X124.437 Y92.208 E.05433
G1 X124.437 Y91.627 E.01982
G1 X125.563 Y90.502 E.05433
G1 X125.563 Y89.921 E.01982
G1 X124.437 Y91.046 E.05433
G1 X124.437 Y90.466 E.01982
G1 X125.563 Y89.341 E.05433
G1 X125.563 Y88.76 E.01982
G1 X124.437 Y89.885 E.05433
G1 X124.437 Y89.304 E.01982
G1 X125.563 Y88.179 E.05433
G1 X125.563 Y87.599 E.01982
G1 X124.437 Y88.724 E.05433
G1 X124.437 Y88.143 E.01982
G1 X125.563 Y87.018 E.05433
G1 X125.563 Y86.437 E.01982
G1 X124.437 Y87.563 E.05433
G1 X124.437 Y86.982 E.01982
G1 X125.482 Y85.937 E.05043
G1 X124.901 Y85.937 E.01982
G1 X124.254 Y86.584 E.03124
M204 S1000
; stop printing object base_escritorio1.stl id:0 copy 0
M106 S170.85
;LAYER_CHANGE
;Z:0.6
;HEIGHT:0.2
;BEFORE_LAYER_CHANGE
G92 E0.0
;0.6


;WIPE_START
G1 F8640
G1 X124.901 Y85.937 E-.21128
G1 X125.482 Y85.937 E-.13407
G1 X124.437 Y86.982 E-.34107
G1 X124.437 Y87.3 E-.07357
;WIPE_END
G1 E-.04 F2100
G1 Z.8 F720
;AFTER_LAYER_CHANGE
;0.6
;CURRENT_Z: 0.6
G1 X120.746 Y87.3 F10800
G1 Z.6 F720
G1 E.8 F2100
;TYPE:Skirt/Brim
;WIDTH:0.42
G1 F2123
G1 X120.746 Y85 E.07213
G1 X121.139 Y83.583 E.04612
G1 X122.205 Y82.569 E.04612
G1 X123.5 Y82.246 E.04186
G1 X126.5 Y82.246 E.09406
G1 X127.917 Y82.639 E.04612
G1 X128.931 Y83.705 E.04612
G1 X129.254 Y85 E.04186
G1 X129.254 Y125 E1.25417
G1 X128.861 Y126.417 E.04612
G1 X127.795 Y127.431 E.04612
G1 X126.5 Y127.754 E.04186
G1 X123.5 Y127.754 E.09406
G1 X122.083 Y127.361 E.04612
G1 X121.069 Y126.295 E.04612
G1 X120.746 Y125 E.04186
G1 X120.746 Y87.36 E1.18016
G1 X121.123 Y87.36 F10800
G1 F2123
G1 X121.123 Y85 E.07401
G1 X121.515 Y83.693 E.04278
G1 X122.56 Y82.817 E.04278
G1 X123.5 Y82.623 E.03008
G1 X126.5 Y82.623 E.09406
G1 X127.807 Y83.015 E.04278
G1 X128.683 Y84.06 E.04278
G1 X128.877 Y85 E.03008
G1 X128.877 Y125 E1.25417
G1 X128.485 Y126.307 E.04278
G1 X127.44 Y127.183 E.04278
G1 X126.5 Y127.377 E.03008
G1 X123.5 Y127.377 E.09406
G1 X122.193 Y126.985 E.04278
G1 X121.317 Y125.94 E.04278
G1 X121.123 Y125 E.03008
G1 X121.123 Y87.42 E1.17828
; printing object base_escritorio1.stl id:0 copy 0
;WIPE_START
G1 F8640
G1 X121.123 Y85 E-.5589
G1 X121.373 Y84.166 E-.2011
;WIPE_END
G1 E-.04 F2100
G1 Z1 F720
G1 X124.132 Y85.632 F10800
G1 Z.6 F720
G1 E.8 F2100
M204 S800
;TYPE:Perimeter
;WIDTH:0.449999
G1 F2123
G1 X125.868 Y85.632 E.05876
G1 X125.868 Y124.368 E1.31116
G1 X124.132 Y124.368 E.05876
G1 X124.132 Y85.692 E1.30913
M204 S1000
G1 X123.725 Y85.225 F10800
M204 S800
;TYPE:External perimeter
G1 F2123
G1 X126.275 Y85.225 E.08631
G1 X126.275 Y124.775 E1.33872
G1 X123.725 Y124.775 E.08631
G1 X123.725 Y85.285 E1.33669
M204 S1000
G1 X124.076 Y85.418 F10800
;WIPE_START
G1 F8640
G1 X126.275 Y85.225 E-.58897
G1 X126.275 Y85.966 E-.17103
;WIPE_END
G1 E-.04 F2100
G1 Z1 F720
G1 X125.746 Y86.585 F10800
G1 Z.6 F720
G1 E.8 F2100
M204 S2000
;TYPE:Solid infill
;WIDTH:0.453499
G1 F2123
G1 X125.099 Y85.937 E.03124
G1 X124.518 Y85.937 E.01982
G1 X125.563 Y86.982 E.05043
G1 X125.563 Y87.563 E.01982
G1 X124.437 Y86.437 E.05433
G1 X124.437 Y87.018 E.01982
G1 X125.563 Y88.143 E.05433
