; generated by PrusaSlicer 2.6.0-alpha6+linux-x64-GTK3 on 2023-05-08 at 03:34:07 UTC

; 

; external perimeters extrusion width = 0.45mm
; perimeters extrusion width = 0.45mm
; infill extrusion width = 0.45mm
; solid infill extrusion width = 0.45mm
; top infill extrusion width = 0.40mm
; first layer extrusion width = 0.42mm

M73 P0 R266
M201 X9000 Y9000 Z500 E10000 ; sets maximum accelerations, mm/sec^2
M203 X500 Y500 Z12 E120 ; sets maximum feedrates, mm / sec
M204 S2000 T1500 ; sets acceleration (S) and retract acceleration (R), mm/sec^2
M205 X10.00 Y10.00 Z0.20 E4.50 ; sets the jerk limits, mm/sec
M205 S0 T0 ; sets the minimum extruding and travel feed rate, mm/sec
;TYPE:Custom
M862.3 P "MK2.5" ; printer model check
M862.1 P0.4 ; nozzle diameter check
M115 U3.11.0 ; tell printer latest fw version
G90 ; use absolute coordinates
M83 ; extruder relative mode
M104 S215 ; set extruder temp
M140 S60 ; set bed temp
M190 S60 ; wait for bed temp
M109 S215 ; wait for extruder temp
G28 W ; home all without mesh bed level
G80 ; mesh bed leveling

G1 Z0.2 F720
G1 Y-3 F1000 ; go outside print area
G92 E0
G1 X60 E9 F1000 ; intro line
G1 X100 E12.5 F1000 ; intro line

G92 E0
G21 ; set units to millimeters
G90 ; use absolute coordinates
M83 ; use relative distances for extrusion
M900 K0.05 ; Filament gcode LA 1.5
M900 K30 ; Filament gcode LA 1.0
M107
;LAYER_CHANGE
;Z:0.2
;HEIGHT:0.2
;BEFORE_LAYER_CHANGE
G92 E0.0
;0.2


G1 E-.8 F2100
G1 Z.4 F720
;AFTER_LAYER_CHANGE
;0.2
;CURRENT_Z: 0.2
G1 X110.906 Y86.526 F10800
G1 Z.2 F720
G1 E.8 F2100
M204 S800
;TYPE:Skirt/Brim
;WIDTH:0.42
G1 F1200
G1 X111.819 Y85.626 E.0402
G1 X112.874 Y85.038 E.03787
G1 X114.091 Y84.711 E.03951
G1 X129.209 Y84.702 E.47401
G1 X130.292 Y84.944 E.03479
G1 X131.332 Y85.453 E.0363
G1 X132.364 Y86.367 E.04322
G1 X133.082 Y87.48 E.04153
G1 X133.478 Y88.822 E.04387
G1 X133.502 Y93.692 E.1527
G1 X135.828 Y93.7 E.07293
G1 X137.073 Y94.015 E.04027
G1 X138.216 Y94.66 E.04115
G1 X139.33 Y95.832 E.0507
G1 X139.78 Y96.716 E.0311
G1 X140.086 Y97.882 E.0378
G1 X140.115 Y100.901 E.09466
G1 X139.765 Y102.326 E.04601
G1 X139.092 Y103.476 E.04178
G1 X138.18 Y104.375 E.04015
G1 X137.126 Y104.962 E.03783
G1 X135.909 Y105.289 E.03951
G1 X121.503 Y105.313 E.45169
G1 X121.442 Y121.341 E.50255
G1 X121.356 Y121.789 E.0143
G1 X120.989 Y122.716 E.03126
G1 X120.3 Y123.706 E.03782
G1 X119.387 Y124.512 E.03819
G1 X118.649 Y124.915 E.02636
G1 X117.829 Y125.2 E.02722
G1 X114.336 Y125.317 E.10958
G1 X112.83 Y124.947 E.04862
G1 X111.726 Y124.294 E.04022
G1 X110.794 Y123.338 E.04186
G1 X110.202 Y122.234 E.03928
G1 X109.887 Y120.918 E.04243
G1 X109.887 Y89.081 E.99823
G1 X110.235 Y87.675 E.04541
M73 P0 R265
G1 X110.876 Y86.578 E.03984
M204 S1000
G1 X111.189 Y86.776 F10800
M204 S800
G1 F1200
G1 X112.065 Y85.913 E.03856
G1 X113.035 Y85.38 E.0347
G1 X114.164 Y85.082 E.03661
G1 X129.149 Y85.075 E.46984
G1 X130.149 Y85.293 E.03209
G1 X131.104 Y85.754 E.03325
G1 X132.062 Y86.593 E.03993
G1 X132.75 Y87.662 E.03986
G1 X133.101 Y88.851 E.03887
G1 X133.127 Y94.067 E.16355
G1 X135.802 Y94.077 E.08387
G1 X136.955 Y94.374 E.03733
G1 X137.964 Y94.941 E.03629
G1 X139.008 Y96.029 E.04728
G1 X139.421 Y96.834 E.02837
G1 X139.71 Y97.909 E.0349
G1 X139.737 Y100.88 E.09316
G1 X139.406 Y102.207 E.04288
G1 X138.781 Y103.262 E.03845
G1 X137.936 Y104.087 E.03703
G1 X136.966 Y104.62 E.0347
G1 X135.837 Y104.918 E.03661
G1 X121.128 Y104.936 E.46119
G1 X121.065 Y121.322 E.51378
G1 X120.999 Y121.667 E.01101
G1 X120.646 Y122.556 E.02999
G1 X120.005 Y123.471 E.03503
G1 X119.155 Y124.213 E.03538
G1 X118.484 Y124.575 E.02391
G1 X117.733 Y124.834 E.02491
G1 X114.35 Y124.94 E.10612
G1 X112.996 Y124.607 E.04372
G1 X111.978 Y124.012 E.03697
G1 X111.083 Y123.094 E.0402
G1 X110.563 Y122.121 E.03459
G1 X110.264 Y120.895 E.03957
G1 X110.264 Y89.104 E.99678
G1 X110.575 Y87.84 E.04081
G1 X111.159 Y86.828 E.03663
M204 S1000
G1 X111.484 Y87.018 F10800
M204 S800
G1 F1200
G1 X112.309 Y86.202 E.03638
G1 X113.193 Y85.723 E.03152
G1 X114.235 Y85.453 E.03375
G1 X129.09 Y85.448 E.46577
G1 X130.008 Y85.644 E.02943
G1 X130.877 Y86.057 E.03017
G1 X131.761 Y86.822 E.03665
G1 X132.398 Y87.797 E.03652
G1 X132.724 Y88.88 E.03546
G1 X132.752 Y94.443 E.17443
G1 X135.777 Y94.454 E.09485
G1 X136.836 Y94.732 E.03433
G1 X137.713 Y95.224 E.03153
G1 X138.686 Y96.228 E.04384
G1 X139.063 Y96.954 E.02565
G1 X139.333 Y97.938 E.03199
G1 X139.36 Y100.86 E.09162
G1 X139.066 Y102.04 E.03813
G1 X138.499 Y103.01 E.03523
G1 X137.691 Y103.798 E.03539
G1 X136.807 Y104.277 E.03152
G1 X135.766 Y104.547 E.03372
G1 X120.752 Y104.559 E.47075
G1 X120.688 Y121.303 E.525
G1 X120.642 Y121.544 E.00769
G1 X120.304 Y122.396 E.02874
G1 X119.711 Y123.233 E.03216
G1 X118.925 Y123.914 E.03261
G1 X118.348 Y124.224 E.02054
G1 X117.638 Y124.468 E.02354
G1 X114.366 Y124.562 E.10263
G1 X113.115 Y124.248 E.04044
G1 X112.192 Y123.701 E.03364
G1 X111.372 Y122.852 E.03701
G1 X110.923 Y122.007 E.03
G1 X110.641 Y120.872 E.03667
G1 X110.641 Y89.127 E.99534
G1 X110.934 Y87.958 E.03779
G1 X111.454 Y87.07 E.03227
M204 S1000
G1 X111.777 Y87.262 F10800
M204 S800
G1 F1200
G1 X111.812 Y87.205 E.0021
G1 X112.551 Y86.491 E.03222
G1 X113.31 Y86.082 E.02703
G1 X114.306 Y85.824 E.03226
G1 X129.033 Y85.821 E.46175
G1 X129.869 Y85.995 E.02677
G1 X130.652 Y86.361 E.0271
G1 X131.462 Y87.053 E.0334
G1 X132.046 Y87.935 E.03317
G1 X132.347 Y88.911 E.03202
G1 X132.376 Y94.819 E.18524
G1 X135.75 Y94.831 E.10579
G1 X136.715 Y95.09 E.03133
G1 X137.463 Y95.507 E.02685
G1 X138.366 Y96.429 E.04046
G1 X138.706 Y97.076 E.02292
G1 X138.956 Y97.967 E.02902
G1 X138.983 Y100.838 E.09002
G1 X138.708 Y101.92 E.035
G1 X138.188 Y102.795 E.03191
G1 X137.449 Y103.509 E.03222
G1 X136.691 Y103.918 E.02701
G1 X135.694 Y104.176 E.03229
G1 X120.376 Y104.182 E.48029
G1 X120.311 Y121.285 E.53626
G1 X120.285 Y121.422 E.00437
G1 X119.962 Y122.236 E.02746
G1 X119.447 Y122.963 E.02793
G1 X118.694 Y123.615 E.03123
G1 X118.211 Y123.872 E.01715
G1 X117.543 Y124.102 E.02215
G1 X114.382 Y124.184 E.09914
G1 X113.282 Y123.909 E.03555
G1 X112.444 Y123.419 E.03044
G1 X111.691 Y122.648 E.03379
G1 X111.283 Y121.891 E.02696
G1 X111.018 Y120.848 E.03374
G1 X111.018 Y89.151 E.99384
G1 X111.292 Y88.079 E.03469
G1 X111.747 Y87.314 E.02791
M204 S1000
G1 X112.065 Y87.503 F10800
M204 S800
G1 F1200
G1 X112.092 Y87.459 E.00162
G1 X112.794 Y86.781 E.0306
G1 X113.426 Y86.441 E.0225
G1 X114.377 Y86.195 E.0308
G1 X129.014 Y86.198 E.45893
G1 X129.732 Y86.347 E.02299
G1 X130.43 Y86.666 E.02406
G1 X131.165 Y87.286 E.03015
G1 X131.695 Y88.076 E.02983
G1 X131.97 Y88.942 E.02849
G1 X132.001 Y95.194 E.19603
G1 X135.723 Y95.208 E.1167
G1 X136.593 Y95.448 E.0283
G1 X137.215 Y95.792 E.02229
G1 X138.047 Y96.631 E.03705
G1 X138.349 Y97.2 E.0202
G1 X138.579 Y97.997 E.02601
G1 X138.605 Y100.816 E.08839
G1 X138.35 Y101.799 E.03184
G1 X137.908 Y102.541 E.02708
G1 X137.206 Y103.219 E.0306
G1 X136.574 Y103.558 E.02249
G1 X135.623 Y103.805 E.03081
G1 X120.001 Y103.805 E.48982
G1 X119.934 Y121.266 E.54748
G1 X119.62 Y122.075 E.02721
G1 X119.154 Y122.724 E.02505
G1 X118.466 Y123.314 E.02842
G1 X118.071 Y123.522 E.014
G1 X117.502 Y123.726 E.01895
G1 X114.399 Y123.807 E.09733
G1 X113.403 Y123.551 E.03224
G1 X112.659 Y123.109 E.02713
G1 X111.981 Y122.406 E.03062
G1 X111.642 Y121.774 E.02249
G1 X111.395 Y120.823 E.03081
G1 X111.395 Y89.176 E.99227
G1 X111.65 Y88.201 E.0316
G1 X112.034 Y87.555 E.02356
M204 S1000
G1 X112.352 Y87.745 F10800
M204 S800
G1 F1200
G1 X113.037 Y87.07 E.03015
G1 X113.544 Y86.8 E.01801
G1 X114.403 Y86.572 E.02787
G1 X128.995 Y86.575 E.45752
G1 X129.598 Y86.7 E.01931
G1 X130.208 Y86.972 E.02094
G1 X130.901 Y87.557 E.02844
G1 X131.345 Y88.219 E.02499
G1 X131.593 Y88.974 E.02492
G1 X131.626 Y95.571 E.20685
G1 X135.648 Y95.578 E.12611
G1 X136.47 Y95.805 E.02674
G1 X137.006 Y96.107 E.01929
G1 X137.728 Y96.835 E.03215
G1 X137.994 Y97.328 E.01756
G1 X138.202 Y98.028 E.0229
G1 X138.228 Y100.794 E.08673
G1 X137.993 Y101.676 E.02862
G1 X137.629 Y102.287 E.0223
G1 X136.963 Y102.929 E.029
G1 X136.456 Y103.2 E.01803
G1 X135.598 Y103.428 E.02784
G1 X119.625 Y103.428 E.50082
G1 X119.557 Y121.212 E.55761
G1 X119.299 Y121.877 E.02236
G1 X118.89 Y122.455 E.0222
G1 X118.27 Y122.992 E.02572
G1 X117.931 Y123.171 E.01202
G1 X117.403 Y123.36 E.01758
G1 X114.417 Y123.429 E.09365
G1 X113.525 Y123.194 E.02892
G1 X112.913 Y122.829 E.02234
G1 X112.271 Y122.163 E.029
G1 X112 Y121.656 E.01803
G1 X111.772 Y120.798 E.02784
G1 X111.772 Y89.201 E.9907
G1 X112.007 Y88.324 E.02847
G1 X112.322 Y87.796 E.01928
M204 S1000
G1 X112.64 Y87.986 F10800
M204 S800
G1 F1200
G1 X113.241 Y87.388 E.02658
G1 X113.666 Y87.157 E.01517
G1 X114.428 Y86.949 E.02477
G1 X128.974 Y86.953 E.45608
G1 X129.499 Y87.064 E.01682
G1 X130.026 Y87.304 E.01816
G1 X130.635 Y87.825 E.02513
G1 X131.016 Y88.404 E.02173
G1 X131.225 Y89.061 E.02162
G1 X131.25 Y95.949 E.21597
G1 X135.572 Y95.949 E.13551
G1 X136.346 Y96.162 E.02517
G1 X136.796 Y96.421 E.01628
G1 X137.411 Y97.04 E.02736
G1 X137.64 Y97.458 E.01494
G1 X137.826 Y98.059 E.01973
G1 X137.851 Y100.77 E.08501
G1 X137.636 Y101.551 E.0254
G1 X137.347 Y102.035 E.01767
G1 X136.759 Y102.611 E.02581
G1 X136.334 Y102.842 E.01517
G1 X135.572 Y103.051 E.02477
G1 X119.249 Y103.051 E.5118
G1 X119.193 Y121.111 E.56626
G1 X118.975 Y121.682 E.01916
G1 X118.623 Y122.187 E.0193
G1 X118.072 Y122.67 E.02297
G1 X117.79 Y122.821 E.01003
G1 X117.305 Y122.995 E.01616
G1 X114.438 Y123.052 E.08991
G1 X113.65 Y122.837 E.02561
G1 X113.165 Y122.547 E.01772
G1 X112.589 Y121.959 E.02581
G1 X112.358 Y121.534 E.01517
G1 X112.149 Y120.772 E.02477
G1 X112.149 Y89.227 E.98907
G1 X112.364 Y88.449 E.02531
G1 X112.609 Y88.038 E.015
M204 S1000
G1 X112.928 Y88.228 F10800
M204 S800
G1 F1200
G1 X113.449 Y87.704 E.02317
G1 X113.791 Y87.514 E.01227
G1 X114.455 Y87.326 E.02164
G1 X128.953 Y87.33 E.45457
G1 X129.396 Y87.427 E.01422
G1 X129.842 Y87.634 E.01542
G1 X130.366 Y88.091 E.0218
G1 X130.684 Y88.585 E.01842
G1 X130.857 Y89.144 E.01835
G1 X130.874 Y96.326 E.22519
G1 X135.545 Y96.326 E.14646
G1 X136.22 Y96.518 E.022
G1 X136.548 Y96.707 E.01187
G1 X137.095 Y97.248 E.02412
G1 X137.286 Y97.589 E.01225
G1 X137.457 Y98.144 E.01821
G1 X137.474 Y100.745 E.08155
G1 X137.281 Y101.423 E.0221
G1 X137.064 Y101.785 E.01323
G1 X136.551 Y102.296 E.0227
G1 X136.209 Y102.486 E.01227
G1 X135.545 Y102.674 E.02164
G1 X118.873 Y102.674 E.52274
G1 X118.828 Y121.008 E.57485
G1 X118.631 Y121.526 E.01738
G1 X118.356 Y121.92 E.01507
G1 X117.872 Y122.35 E.0203
G1 X117.649 Y122.471 E.00795
G1 X117.208 Y122.629 E.01469
G1 X114.461 Y122.674 E.08614
G1 X113.777 Y122.481 E.02228
G1 X113.415 Y122.264 E.01323
G1 X112.904 Y121.752 E.02268
G1 X112.714 Y121.409 E.01229
G1 X112.526 Y120.745 E.02164
G1 X112.526 Y89.254 E.98738
G1 X112.719 Y88.577 E.02207
G1 X112.897 Y88.28 E.01086
M204 S1000
G1 X113.216 Y88.471 F10800
M204 S800
G1 F1200
G1 X113.66 Y88.018 E.01989
G1 X113.921 Y87.868 E.00944
G1 X114.483 Y87.703 E.01836
G1 X128.931 Y87.707 E.45301
G1 X129.29 Y87.79 E.01155
G1 X129.655 Y87.962 E.01265
G1 X130.095 Y88.354 E.01848
G1 X130.331 Y88.72 E.01365
G1 X130.488 Y89.228 E.01667
G1 X130.497 Y96.703 E.23437
G1 X135.517 Y96.703 E.1574
G1 X136.091 Y96.873 E.01877
G1 X136.304 Y96.994 E.00768
G1 X136.782 Y97.459 E.02091
G1 X136.932 Y97.721 E.00947
G1 X137.088 Y98.228 E.01663
G1 X137.097 Y100.717 E.07804
G1 X136.927 Y101.292 E.0188
G1 X136.78 Y101.537 E.00896
G1 X136.34 Y101.982 E.01962
G1 X136.079 Y102.131 E.00942
G1 X135.517 Y102.297 E.01837
G1 X118.496 Y102.297 E.53368
G1 X118.463 Y120.91 E.5836
G1 X118.306 Y121.334 E.01418
G1 X118.086 Y121.656 E.01223
G1 X117.669 Y122.031 E.01758
G1 X117.506 Y122.122 E.00585
G1 X117.11 Y122.264 E.01319
G1 X114.485 Y122.297 E.08231
G1 X113.908 Y122.127 E.01886
G1 X113.663 Y121.98 E.00896
G1 X113.218 Y121.54 E.01962
G1 X113.069 Y121.28 E.0094
G1 X112.903 Y120.717 E.0184
G1 X112.903 Y89.283 E.98559
G1 X113.073 Y88.708 E.0188
G1 X113.185 Y88.522 E.00681
M204 S1000
G1 X113.503 Y88.714 F10800
M204 S800
G1 F1200
G1 X113.875 Y88.328 E.01681
G1 X114.055 Y88.221 E.00657
G1 X114.513 Y88.08 E.01503
G1 X128.909 Y88.084 E.45138
G1 X129.147 Y88.139 E.00766
G1 X129.467 Y88.29 E.01109
G1 X129.822 Y88.615 E.01509
G1 X129.979 Y88.857 E.00904
G1 X130.119 Y89.312 E.01493
G1 X130.119 Y97.08 E.24356
G1 X135.487 Y97.08 E.16831
G1 X135.96 Y97.226 E.01552
G1 X136.061 Y97.284 E.00365
G1 X136.472 Y97.675 E.01779
G1 X136.579 Y97.855 E.00657
G1 X136.72 Y98.312 E.015
G1 X136.72 Y100.688 E.0745
G1 X136.574 Y101.157 E.0154
G1 X136.493 Y101.291 E.00491
G1 X136.125 Y101.672 E.01661
G1 X135.945 Y101.779 E.00657
G1 X135.487 Y101.92 E.01503
G1 X118.119 Y101.92 E.54456
G1 X118.097 Y120.814 E.59241
G1 X117.978 Y121.146 E.01106
G1 X117.813 Y121.395 E.00937
G1 X117.462 Y121.716 E.01491
G1 X117.362 Y121.773 E.00361
G1 X117.013 Y121.898 E.01162
G1 X114.513 Y121.92 E.07839
G1 X114.043 Y121.774 E.01543
G1 X113.909 Y121.694 E.00489
G1 X113.528 Y121.325 E.01663
G1 X113.421 Y121.145 E.00657
G1 X113.28 Y120.688 E.015
G1 X113.28 Y89.312 E.98377
G1 X113.426 Y88.843 E.0154
G1 X113.472 Y88.766 E.00281
M204 S1000
G1 X113.791 Y88.959 F10800
M204 S800
G1 F1200
G1 X114.097 Y88.633 E.01402
G1 X114.198 Y88.571 E.00372
G1 X114.544 Y88.457 E.01142
G1 X128.887 Y88.461 E.44971
G1 X129.004 Y88.488 E.00376
G1 X129.278 Y88.618 E.00951
G1 X129.546 Y88.873 E.0116
G1 X129.629 Y89 E.00476
G1 X129.742 Y89.344 E.01135
G1 X129.742 Y97.457 E.25438
G1 X135.456 Y97.457 E.17916
G1 X135.847 Y97.594 E.01299
G1 X136.166 Y97.896 E.01377
G1 X136.229 Y97.997 E.00373
G1 X136.343 Y98.344 E.01145
G1 X136.343 Y100.656 E.07249
G1 X136.205 Y101.047 E.013
G1 X135.903 Y101.366 E.01377
G1 X135.802 Y101.429 E.00373
G1 X135.456 Y101.543 E.01142
G1 X117.742 Y101.543 E.55541
G1 X117.731 Y120.717 E.60119
G1 X117.631 Y120.997 E.00932
G1 X117.54 Y121.134 E.00516
G1 X117.247 Y121.405 E.01251
G1 X116.917 Y121.532 E.01109
G1 X114.544 Y121.543 E.0744
G1 X114.153 Y121.406 E.01299
G1 X113.834 Y121.103 E.01379
G1 X113.771 Y121.002 E.00373
G1 X113.657 Y120.656 E.01142
G1 X113.657 Y89.344 E.98177
G1 X113.766 Y89.013 E.01093
M204 S1000
M73 P0 R264
G1 X114.111 Y89.166 F10800
M204 S800
G1 F1200
G1 X114.328 Y88.932 E.01001
G1 X114.579 Y88.834 E.00845
G1 X128.866 Y88.841 E.44796
G1 X129.085 Y88.944 E.00759
G1 X129.266 Y89.125 E.00803
G1 X129.365 Y89.379 E.00855
G1 X129.365 Y97.834 E.2651
G1 X135.421 Y97.834 E.18988
G1 X135.634 Y97.91 E.00709
G1 X135.868 Y98.127 E.01001
G1 X135.965 Y98.379 E.00847
G1 X135.965 Y100.621 E.0703
G1 X135.889 Y100.834 E.00709
G1 X135.672 Y101.068 E.01001
G1 X135.421 Y101.166 E.00845
G1 X117.365 Y101.166 E.56613
G1 X117.365 Y120.621 E.61
G1 X117.268 Y120.872 E.00844
G1 X117.033 Y121.089 E.01003
G1 X116.82 Y121.166 E.0071
G1 X114.579 Y121.166 E.07026
G1 X114.366 Y121.089 E.0071
G1 X114.132 Y120.872 E.01001
G1 X114.035 Y120.621 E.00844
G1 X114.035 Y89.379 E.97957
G1 X114.091 Y89.223 E.0052
M204 S1000
G1 X114.435 Y89.365 F10800
M204 S800
G1 F1200
G1 X114.552 Y89.24 E.00537
G1 X114.621 Y89.211 E.00235
G1 X128.779 Y89.211 E.44391
G1 X128.848 Y89.24 E.00235
G1 X128.959 Y89.352 E.00494
G1 X128.988 Y89.421 E.00235
G1 X128.988 Y98.211 E.2756
G1 X135.379 Y98.211 E.20039
G1 X135.448 Y98.24 E.00235
G1 X135.56 Y98.351 E.00494
G1 X135.588 Y98.421 E.00236
G1 X135.588 Y100.579 E.06766
G1 X135.56 Y100.648 E.00233
G1 X135.448 Y100.76 E.00497
G1 X135.379 Y100.788 E.00233
G1 X116.988 Y100.788 E.57664
G1 X116.988 Y120.579 E.62053
G1 X116.959 Y120.648 E.00235
G1 X116.848 Y120.76 E.00494
G1 X116.779 Y120.789 E.00235
G1 X114.621 Y120.789 E.06766
G1 X114.552 Y120.76 E.00235
G1 X114.44 Y120.648 E.00497
G1 X114.412 Y120.579 E.00233
G1 X114.412 Y89.421 E.97694
M204 S1000
; printing object escritorio_lateral2.stl id:0 copy 0
;WIPE_START
G1 F8640
G1 X114.552 Y89.24 E-.05284
G1 X114.621 Y89.211 E-.01728
G1 X117.782 Y89.211 E-.72988
;WIPE_END
G1 Z.6 F720
G1 X116.487 Y99.6 F10800
G1 Z.2 F720
G1 E.8 F2100
M204 S800
;TYPE:Perimeter
;WIDTH:0.419999
G1 F1200
G1 X116.113 Y99.724 E.01235
;WIDTH:0.455584
G1 X115.906 Y100.101 E.01476
;WIDTH:0.491168
G1 X115.7 Y100.478 E.01601
G1 X115.682 Y99.989 E.01824
;WIDTH:0.455584
G1 X115.664 Y99.5 E.01679
