; generated by PrusaSlicer 2.8.0 on 2024-09-21 at 14:29:04 UTC

; 

; external perimeters extrusion width = 0.45mm
; perimeters extrusion width = 0.45mm
; infill extrusion width = 0.45mm
; solid infill extrusion width = 0.45mm
; top infill extrusion width = 0.40mm
; first layer extrusion width = 0.42mm

M73 P0 R217
M201 X9000 Y9000 Z500 E10000 ; sets maximum accelerations, mm/sec^2
M203 X500 Y500 Z12 E120 ; sets maximum feedrates, mm / sec
M204 S2000 T1500 ; sets acceleration (S) and retract acceleration (R), mm/sec^2
M205 X10.00 Y10.00 Z0.20 E4.50 ; sets the jerk limits, mm/sec
M205 S0 T0 ; sets the minimum extruding and travel feed rate, mm/sec

; printing object escritorio_conector_duto.stl id:0 copy 0
; stop printing object escritorio_conector_duto.stl id:0 copy 0

;TYPE:Custom
M862.3 P "MK2.5" ; printer model check
M862.1 P0.4 ; nozzle diameter check
M115 U3.11.0 ; tell printer latest fw version
G90 ; use absolute coordinates
M83 ; extruder relative mode
M104 S215 ; set extruder temp
M140 S60 ; set bed temp
M190 S60 ; wait for bed temp
M109 S215 ; wait for extruder temp
G28 W ; home all without mesh bed level
G80 ; mesh bed leveling

G1 Z0.2 F720
G1 Y-3 F1000 ; go outside print area
G92 E0
G1 X60 E9 F1000 ; intro line
G1 X100 E12.5 F1000 ; intro line

G92 E0
G21 ; set units to millimeters
G90 ; use absolute coordinates
M83 ; use relative distances for extrusion
M900 K0.05 ; Filament gcode LA 1.5
M900 K30 ; Filament gcode LA 1.0
M107
;LAYER_CHANGE
;Z:0.2
;HEIGHT:0.2
G1 E-.8 F2100
G1 Z.6 F720
G1 X23.202 Y23.752 F10800
G1 Z.2 F720
G1 E.8 F2100
M204 S800
;TYPE:Skirt/Brim
;WIDTH:0.42
G1 F1200
G1 X24.235 Y22.95 E.041
G1 X25 Y22.812 E.02437
G1 X225 Y22.812 E6.27086
G1 X226.248 Y23.202 E.041
G1 X227.051 Y24.235 E.04102
G1 X227.189 Y25 E.02437
G1 X227.189 Y185 E5.01669
G1 X226.798 Y186.248 E.04101
M73 P0 R216
G1 X225.765 Y187.05 E.041
G1 X225 Y187.188 E.02437
G1 X25 Y187.188 E6.27086
G1 X23.752 Y186.798 E.041
G1 X22.949 Y185.765 E.04102
G1 X22.811 Y185 E.02437
G1 X22.811 Y25 E5.01669
G1 X23.184 Y23.809 E.03913
M204 S1000
;WIPE_START
G1 F8640
G1 X23.202 Y23.752 E-.0138
G1 X24.235 Y22.95 E-.30197
G1 X25 Y22.812 E-.17949
G1 X26.32 Y22.812 E-.30474
;WIPE_END
G1 Z.6 F720
; printing object escritorio_conector_duto.stl id:0 copy 0
G1 X126.463 Y184.928 F10800
G1 Z.2 F720
G1 E.8 F2100
M204 S800
;TYPE:External perimeter
;WIDTH:0.425513
G1 F1200
G1 X127.302 Y184.887 E.02672
;WIDTH:0.468105
G1 X128.141 Y184.846 E.0297
;WIDTH:0.510697
G1 X128.981 Y184.804 E.03271
;WIDTH:0.55329
G1 X129.82 Y184.763 E.03565
;WIDTH:0.595882
G1 X130.659 Y184.722 E.03862
;WIDTH:0.638474
G1 X131.499 Y184.681 E.04165
M204 S1000
;WIPE_START
G1 F8640
G1 X130.659 Y184.722 E-.19419
G1 X129.82 Y184.763 E-.19396
G1 X128.981 Y184.804 E-.19396
G1 X128.141 Y184.846 E-.1942
G1 X128.039 Y184.851 E-.02369
;WIPE_END
G1 Z.6 F720
G1 X123.537 Y184.928 F10800
G1 Z.2 F720
G1 E.8 F2100
M204 S800
;WIDTH:0.425513
G1 F1200
G1 X122.698 Y184.887 E.02672
;WIDTH:0.468106
G1 X121.859 Y184.846 E.0297
;WIDTH:0.510698
G1 X121.019 Y184.804 E.03271
;WIDTH:0.553291
G1 X120.18 Y184.763 E.03565
;WIDTH:0.595884
G1 X119.341 Y184.722 E.03862
;WIDTH:0.638476
G1 X118.501 Y184.681 E.04165
M204 S1000
;WIPE_START
G1 F8640
G1 X119.341 Y184.722 E-.19419
G1 X120.18 Y184.763 E-.19396
G1 X121.019 Y184.804 E-.19396
G1 X121.859 Y184.846 E-.1942
G1 X121.961 Y184.851 E-.02369
;WIPE_END
G1 Z.6 F720
G1 X38.947 Y169.007 F10800
G1 Z.2 F720
G1 E.8 F2100
M204 S800
;TYPE:Perimeter
;WIDTH:0.419999
G1 F1200
G1 X39.558 Y169.322 E.02155
G1 X40.18 Y169.823 E.02504
G1 X40.617 Y170.351 E.02149
G1 X40.976 Y171 E.02325
G1 X41.202 Y171.708 E.0233
G1 X41.285 Y172.445 E.02325
G1 X41.223 Y173.184 E.02325
G1 X41.019 Y173.897 E.02325
G1 X40.678 Y174.558 E.02332
G1 X40.215 Y175.138 E.02327
G1 X39.65 Y175.616 E.0232
G1 X39.001 Y175.976 E.02327
G1 X38.293 Y176.202 E.0233
G1 X37.555 Y176.285 E.02329
G1 X36.816 Y176.223 E.02325
G1 X36.104 Y176.019 E.02322
G1 X35.443 Y175.678 E.02332
G1 X34.863 Y175.216 E.02325
G1 X34.384 Y174.65 E.02325
G1 X34.024 Y174.001 E.02327
G1 X33.798 Y173.293 E.0233
G1 X33.715 Y172.555 E.02329
G1 X33.777 Y171.816 E.02325
G1 X33.981 Y171.104 E.02322
G1 X34.322 Y170.443 E.02332
G1 X34.784 Y169.863 E.02325
G1 X35.351 Y169.383 E.02329
G1 X36 Y169.024 E.02325
G1 X36.708 Y168.798 E.0233
G1 X37.396 Y168.72 E.02171
G1 X38.176 Y168.776 E.02452
G1 X38.894 Y168.98 E.0234
M204 S1000
G1 X38.894 Y168.98 F10800
G1 X38.805 Y169.351
M204 S800
;TYPE:External perimeter
G1 F1200
G1 X39.38 Y169.654 E.02038
G1 X39.912 Y170.089 E.02155
G1 X40.325 Y170.591 E.02038
G1 X40.644 Y171.178 E.02095
G1 X40.841 Y171.817 E.02097
G1 X40.91 Y172.481 E.02093
G1 X40.848 Y173.148 E.021
G1 X40.658 Y173.788 E.02093
G1 X40.345 Y174.38 E.021
G1 X39.924 Y174.898 E.02093
G1 X39.411 Y175.325 E.02093
G1 X38.823 Y175.644 E.02097
G1 X38.184 Y175.841 E.02097
G1 X37.518 Y175.91 E.02099
G1 X36.853 Y175.848 E.02094
G1 X36.213 Y175.658 E.02093
G1 X35.621 Y175.345 E.021
G1 X35.102 Y174.924 E.02095
G1 X34.675 Y174.411 E.02093
G1 X34.356 Y173.823 E.02097
G1 X34.159 Y173.184 E.02097
G1 X34.09 Y172.518 E.02099
G1 X34.152 Y171.853 E.02094
G1 X34.342 Y171.213 E.02093
G1 X34.654 Y170.621 E.02098
G1 X35.075 Y170.102 E.02095
G1 X35.59 Y169.675 E.02098
G1 X36.178 Y169.356 E.02097
G1 X36.817 Y169.159 E.02097
G1 X37.432 Y169.095 E.01939
G1 X38.145 Y169.152 E.02243
G1 X38.749 Y169.33 E.01974
M204 S1000
;WIPE_START
G1 F8640
G1 X38.805 Y169.351 E-.01381
G1 X39.38 Y169.654 E-.15008
G1 X39.912 Y170.089 E-.15868
G1 X40.325 Y170.591 E-.1501
G1 X40.644 Y171.178 E-.15426
G1 X40.841 Y171.817 E-.1544
G1 X40.849 Y171.897 E-.01867
;WIPE_END
G1 Z.6 F720
G1 X41.28 Y37.5 F10800
G1 Z.2 F720
G1 E.8 F2100
M204 S800
;TYPE:Perimeter
G1 F1200
G1 X41.223 Y38.184 E.02152
G1 X41.019 Y38.896 E.02322
G1 X40.678 Y39.557 E.02332
G1 X40.216 Y40.137 E.02325
G1 X39.65 Y40.616 E.02325
G1 X39.001 Y40.976 E.02327
G1 X38.293 Y41.202 E.0233
G1 X37.555 Y41.285 E.02329
G1 X36.816 Y41.223 E.02325
G1 X36.104 Y41.019 E.02322
G1 X35.443 Y40.678 E.02332
G1 X34.863 Y40.216 E.02325
G1 X34.383 Y39.649 E.02329
G1 X34.024 Y39 E.02325
G1 X33.777 Y38.184 E.02673
G1 X33.715 Y37.556 E.01979
G1 X33.777 Y36.816 E.02328
G1 X33.981 Y36.103 E.02325
G1 X34.322 Y35.442 E.02332
G1 X34.784 Y34.862 E.02325
G1 X35.351 Y34.383 E.02327
G1 X36 Y34.024 E.02325
G1 X36.708 Y33.798 E.0233
G1 X37.396 Y33.72 E.02171
G1 X38.176 Y33.776 E.02452
G1 X38.897 Y33.981 E.0235
G1 X39.558 Y34.322 E.02332
G1 X40.138 Y34.785 E.02327
G1 X40.616 Y35.35 E.0232
G1 X40.976 Y35.999 E.02327
G1 X41.202 Y36.707 E.0233
G1 X41.284 Y37.441 E.02316
M204 S1000
G1 X41.284 Y37.441 F10800
G1 X40.908 Y37.5
M204 S800
;TYPE:External perimeter
G1 F1200
G1 X40.848 Y38.147 E.02037
G1 X40.658 Y38.787 E.02093
G1 X40.345 Y39.379 E.021
G1 X39.924 Y39.898 E.02095
G1 X39.411 Y40.325 E.02093
G1 X38.823 Y40.644 E.02097
G1 X38.184 Y40.841 E.02097
G1 X37.518 Y40.91 E.02099
G1 X36.853 Y40.848 E.02094
G1 X36.213 Y40.658 E.02093
G1 X35.621 Y40.346 E.02098
G1 X35.102 Y39.925 E.02095
G1 X34.675 Y39.409 E.021
G1 X34.356 Y38.822 E.02095
G1 X34.152 Y38.147 E.02211
G1 X34.09 Y37.519 E.01979
G1 X34.152 Y36.852 E.021
G1 X34.342 Y36.212 E.02093
G1 X34.654 Y35.62 E.02098
G1 X35.076 Y35.102 E.02095
G1 X35.59 Y34.675 E.02095
G1 X36.178 Y34.356 E.02097
G1 X36.817 Y34.159 E.02097
G1 X37.432 Y34.095 E.01939
G1 X38.145 Y34.152 E.02243
G1 X38.788 Y34.342 E.02102
G1 X39.38 Y34.655 E.021
G1 X39.898 Y35.076 E.02093
G1 X40.325 Y35.589 E.02093
G1 X40.644 Y36.177 E.02097
G1 X40.841 Y36.816 E.02097
G1 X40.905 Y37.441 E.0197
M204 S1000
;WIPE_START
G1 F8640
G1 X40.908 Y37.5 E-.01364
G1 X40.848 Y38.147 E-.15004
G1 X40.658 Y38.787 E-.15415
G1 X40.345 Y39.379 E-.15462
G1 X39.924 Y39.898 E-.15431
G1 X39.411 Y40.325 E-.15412
G1 X39.338 Y40.364 E-.01912
;WIPE_END
G1 Z.6 F720
G1 X209.357 Y35.398 F10800
G1 Z.2 F720
G1 E.8 F2100
M204 S800
;TYPE:Perimeter
G1 F1200
G1 X209.785 Y34.862 E.02151
G1 X210.35 Y34.384 E.0232
G1 X210.999 Y34.024 E.02327
G1 X211.707 Y33.798 E.0233
G1 X212.396 Y33.72 E.02174
G1 X213.175 Y33.776 E.02449
G1 X213.896 Y33.981 E.0235
G1 X214.557 Y34.322 E.02332
G1 X215.137 Y34.784 E.02325
G1 X215.616 Y35.35 E.02325
G1 X215.976 Y35.999 E.02327
G1 X216.202 Y36.707 E.0233
G1 X216.285 Y37.445 E.02329
G1 X216.223 Y38.184 E.02325
G1 X216.019 Y38.896 E.02322
G1 X215.678 Y39.557 E.02332
G1 X215.216 Y40.137 E.02325
G1 X214.649 Y40.617 E.02329
G1 X214 Y40.976 E.02325
G1 X213.292 Y41.202 E.0233
G1 X212.556 Y41.285 E.02322
G1 X211.816 Y41.223 E.02328
G1 X211.103 Y41.019 E.02325
G1 X210.442 Y40.678 E.02332
G1 X209.862 Y40.216 E.02325
G1 X209.383 Y39.649 E.02327
G1 X209.024 Y39 E.02325
G1 X208.798 Y38.292 E.0233
G1 X208.715 Y37.556 E.02322
G1 X208.777 Y36.816 E.02328
G1 X208.981 Y36.103 E.02325
G1 X209.32 Y35.446 E.02318
M204 S1000
G1 X209.32 Y35.446 F10800
G1 X209.666 Y35.605
M204 S800
;TYPE:External perimeter
G1 F1200
G1 X210.076 Y35.102 E.02035
G1 X210.589 Y34.675 E.02093
G1 X211.177 Y34.356 E.02097
G1 X211.816 Y34.159 E.02097
G1 X212.433 Y34.095 E.01945
G1 X213.144 Y34.152 E.02236
G1 X213.787 Y34.342 E.02102
G1 X214.379 Y34.655 E.021
G1 X214.898 Y35.076 E.02095
G1 X215.325 Y35.589 E.02093
G1 X215.644 Y36.177 E.02097
G1 X215.841 Y36.816 E.02097
G1 X215.91 Y37.482 E.02099
G1 X215.848 Y38.147 E.02094
G1 X215.658 Y38.787 E.02093
G1 X215.346 Y39.379 E.02098
G1 X214.925 Y39.898 E.02095
G1 X214.41 Y40.325 E.02098
G1 X213.822 Y40.644 E.02097
G1 X213.183 Y40.841 E.02097
G1 X212.519 Y40.91 E.02093
G1 X211.852 Y40.848 E.021
G1 X211.212 Y40.658 E.02093
G1 X210.62 Y40.346 E.02098
G1 X210.102 Y39.924 E.02095
G1 X209.675 Y39.41 E.02095
G1 X209.356 Y38.822 E.02097
G1 X209.159 Y38.183 E.02097
G1 X209.09 Y37.519 E.02093
G1 X209.152 Y36.852 E.021
G1 X209.342 Y36.212 E.02093
G1 X209.635 Y35.656 E.01971
M204 S1000
;WIPE_START
G1 F8640
G1 X209.666 Y35.605 E-.01378
G1 X210.076 Y35.102 E-.14984
G1 X210.589 Y34.675 E-.15412
G1 X211.177 Y34.356 E-.15446
G1 X211.816 Y34.159 E-.1544
G1 X212.433 Y34.095 E-.14323
G1 X212.563 Y34.105 E-.03017
;WIPE_END
G1 Z.6 F720
G1 X211.053 Y175.993 F10800
G1 Z.2 F720
G1 E.8 F2100
M204 S800
;TYPE:Perimeter
G1 F1200
G1 X210.442 Y175.678 E.02155
G1 X209.862 Y175.215 E.02327
G1 X209.384 Y174.65 E.0232
G1 X209.024 Y174.001 E.02327
G1 X208.798 Y173.293 E.0233
G1 X208.715 Y172.555 E.02329
G1 X208.777 Y171.816 E.02325
G1 X208.981 Y171.104 E.02322
G1 X209.322 Y170.443 E.02332
G1 X209.862 Y169.784 E.02671
G1 X210.35 Y169.384 E.01978
G1 X210.999 Y169.024 E.02327
G1 X211.707 Y168.798 E.0233
G1 X212.396 Y168.72 E.02174
G1 X213.175 Y168.776 E.02449
G1 X213.896 Y168.981 E.0235
G1 X214.557 Y169.322 E.02332
G1 X215.137 Y169.784 E.02325
G1 X215.617 Y170.351 E.02329
G1 X215.976 Y171 E.02325
G1 X216.202 Y171.708 E.0233
G1 X216.285 Y172.445 E.02325
G1 X216.223 Y173.184 E.02325
G1 X216.019 Y173.897 E.02325
G1 X215.678 Y174.558 E.02332
G1 X215.216 Y175.138 E.02325
G1 X214.649 Y175.617 E.02327
G1 X214 Y175.976 E.02325
G1 X213.292 Y176.202 E.0233
G1 X212.556 Y176.285 E.02322
G1 X211.816 Y176.223 E.02328
G1 X211.106 Y176.02 E.02315
M204 S1000
G1 X211.106 Y176.02 F10800
G1 X211.195 Y175.649
M204 S800
;TYPE:External perimeter
G1 F1200
G1 X210.62 Y175.345 E.02039
G1 X210.102 Y174.924 E.02093
G1 X209.675 Y174.411 E.02093
G1 X209.356 Y173.823 E.02097
G1 X209.159 Y173.184 E.02097
G1 X209.09 Y172.518 E.02099
G1 X209.152 Y171.853 E.02094
G1 X209.342 Y171.213 E.02093
G1 X209.655 Y170.621 E.021
G1 X209.992 Y170.204 E.01681
G1 X210.589 Y169.675 E.02501
G1 X211.177 Y169.356 E.02097
G1 X211.816 Y169.159 E.02097
G1 X212.433 Y169.095 E.01945
G1 X213.144 Y169.152 E.02236
G1 X213.787 Y169.342 E.02102
G1 X214.379 Y169.654 E.02098
G1 X214.898 Y170.075 E.02095
G1 X215.325 Y170.591 E.021
G1 X215.644 Y171.178 E.02095
G1 X215.841 Y171.817 E.02097
G1 X215.91 Y172.481 E.02093
G1 X215.848 Y173.148 E.021
G1 X215.658 Y173.788 E.02093
G1 X215.346 Y174.38 E.02098
G1 X214.924 Y174.898 E.02095
G1 X214.41 Y175.325 E.02095
G1 X213.822 Y175.644 E.02097
G1 X213.183 Y175.841 E.02097
G1 X212.519 Y175.91 E.02093
G1 X211.852 Y175.848 E.021
G1 X211.251 Y175.67 E.01965
M204 S1000
;WIPE_START
G1 F8640
G1 X211.195 Y175.649 E-.01381
G1 X210.62 Y175.345 E-.15018
G1 X210.102 Y174.924 E-.15413
G1 X209.675 Y174.411 E-.15412
G1 X209.356 Y173.823 E-.15446
G1 X209.159 Y173.184 E-.1544
G1 X209.151 Y173.103 E-.0189
;WIPE_END
G1 Z.6 F720
G1 X109.815 Y184.214 F10800
G1 Z.2 F720
G1 E.8 F2100
M204 S800
;TYPE:Perimeter
G1 F1200
G1 X25.787 Y184.213 E2.63463
G1 X25.787 Y25.787 E4.96733
G1 X224.213 Y25.787 E6.2215
G1 X224.213 Y31.079 E.16593
G1 X224.213 Y184.213 E4.8014
G1 X140.185 Y184.214 E2.63463
M73 P0 R215
G1 X154.054 Y179.995 E.45453
G1 X167.15 Y172.983 E.46577
G1 X178.627 Y163.549 E.46582
G1 X188.045 Y152.058 E.46584
G1 X195.038 Y138.951 E.46579
G1 X199.34 Y124.731 E.46581
G1 X200.786 Y109.944 E.46585
G1 X199.34 Y95.27 E.46232
G1 X195.038 Y81.05 E.46581
G1 X188.188 Y68.21 E.4563
G1 X187.985 Y67.852 E.0129
G1 X178.549 Y56.372 E.46593
G1 X167.058 Y46.957 E.46578
G1 X153.951 Y39.962 E.46582
G1 X139.84 Y35.681 E.46235
G1 X125.055 Y34.214 E.46585
G1 X110.269 Y35.66 E.46582
G1 X96.049 Y39.962 E.46581
G1 X82.942 Y46.957 E.46582
G1 X71.451 Y56.372 E.46578
G1 X61.955 Y67.942 E.46931
G1 X54.962 Y81.05 E.46582
G1 X50.66 Y95.27 E.46581
G1 X49.214 Y110.055 E.46578
G1 X50.681 Y124.84 E.46585
G1 X55.005 Y139.053 E.4658
G1 X62.014 Y152.146 E.46564
G1 X71.373 Y163.549 E.46254
G1 X82.85 Y172.983 E.46582
G1 X95.946 Y179.995 E.46577
G1 X109.757 Y184.196 E.45262
M204 S1000
;WIPE_START
G1 F8640
G1 X109.815 Y184.214 E-.01402
G1 X106.411 Y184.214 E-.78598
;WIPE_END
G1 Z.6 F720
G1 X118.401 Y184.715 F10800
G1 Z.2 F720
G1 E.8 F2100
M204 S800
;TYPE:External perimeter
;WIDTH:0.592118
G1 F1200
G1 X118.368 Y184.727 E.0016
;WIDTH:0.545759
G1 X118.302 Y184.75 E.00292
;WIDTH:0.4994
G1 X118.235 Y184.773 E.00269
;WIDTH:0.453042
G1 X118.169 Y184.797 E.00239
;WIDTH:0.406683
G1 X118.102 Y184.82 E.00214
;WIDTH:0.409488
G1 X117.04 Y184.795 E.03238
;WIDTH:0.427005
G1 X113.069 Y184.604 E.12697
;WIDTH:0.433251
G1 X112.746 Y184.596 E.01049
;WIDTH:0.459997
G1 X112.065 Y184.571 E.02363
;WIDTH:0.502553
G1 X111.171 Y184.549 E.03418
;WIDTH:0.545108
G1 X110.277 Y184.528 E.03734
G1 X110.176 Y184.544 E.00427
;WIDTH:0.51338
G1 X102.802 Y184.567 E.28846
;WIDTH:0.46669
G1 X95.429 Y184.591 E.2598
;WIDTH:0.419999
G1 X25.41 Y184.59 E2.19539
G1 X25.41 Y25.41 E4.99097
G1 X224.59 Y25.41 E6.24514
G1 X224.59 Y31.079 E.17775
M73 P1 R215
G1 X224.59 Y184.59 E4.81322
G1 X154.571 Y184.591 E2.19539
M73 P1 R214
;WIDTH:0.456004
G1 X149.655 Y184.573 E.16886
;WIDTH:0.492009
G1 X144.74 Y184.555 E.18354
;WIDTH:0.528014
G1 X139.824 Y184.537 E.19829
;WIDTH:0.545108
G1 X138.829 Y184.549 E.04155
;WIDTH:0.502553
G1 X137.935 Y184.571 E.03418
;WIDTH:0.459997
G1 X137.932 Y184.571 E.0001
;WIDTH:0.459687
G1 X136.936 Y184.604 E.03453
;WIDTH:0.427134
G1 X132.96 Y184.795 E.12717
;WIDTH:0.409487
G1 X132.833 Y184.797 E.00387
;WIDTH:0.406268
G1 X131.898 Y184.82 E.02826
;WIDTH:0.406682
G1 X131.831 Y184.797 E.00214
;WIDTH:0.45304
G1 X131.765 Y184.773 E.00239
;WIDTH:0.499399
G1 X131.698 Y184.75 E.00269
;WIDTH:0.545757
G1 X131.632 Y184.727 E.00292
;WIDTH:0.592116
G1 X131.565 Y184.704 E.00323
;WIDTH:0.638474
G1 X131.499 Y184.681 E.00346
G1 X131.563 Y184.651 E.0035
;WIDTH:0.592116
G1 X131.626 Y184.621 E.00319
;WIDTH:0.545757
G1 X131.69 Y184.592 E.00294
;WIDTH:0.499399
G1 X131.754 Y184.562 E.00268
;WIDTH:0.45304
G1 X131.818 Y184.533 E.0024
;WIDTH:0.406682
G1 X131.882 Y184.503 E.00214
;WIDTH:0.409487
G1 X132.941 Y184.429 E.03236
;WIDTH:0.427006
G1 X136.912 Y184.221 E.127
;WIDTH:0.433252
G1 X137.233 Y184.206 E.01043
;WIDTH:0.459687
G1 X137.908 Y184.155 E.02346
;WIDTH:0.502398
G1 X138.804 Y184.091 E.03432
;WIDTH:0.545108
G1 X139.7 Y184.027 E.03751
G1 X139.746 Y184.009 E.00206
;WIDTH:0.528014
G1 X144.445 Y182.565 E.19829
;WIDTH:0.492009
G1 X149.143 Y181.121 E.18353
;WIDTH:0.456004
G1 X153.842 Y179.677 E.16885
;WIDTH:0.419999
G1 X166.911 Y172.691 E.46464
G1 X178.336 Y163.309 E.46353
G1 X187.712 Y151.88 E.4635
G1 X194.677 Y138.842 E.46347
G1 X198.965 Y124.694 E.46353
G1 X200.41 Y109.981 E.46353
G1 X198.965 Y95.307 E.46232
G1 X194.677 Y81.159 E.46353
