; generated by PrusaSlicer 2.2.0+linux-x64 on 2020-11-30 at 03:19:29 UTC

; 

; external perimeters extrusion width = 0.45mm
; perimeters extrusion width = 0.45mm
; infill extrusion width = 0.45mm
; solid infill extrusion width = 0.45mm
; top infill extrusion width = 0.40mm
; first layer extrusion width = 0.42mm

M73 P0 R359
M201 X9000 Y9000 Z500 E10000 ; sets maximum accelerations, mm/sec^2
M203 X500 Y500 Z12 E120 ; sets maximum feedrates, mm/sec
M204 P2000 R1500 T2000 ; sets acceleration (P, T) and retract acceleration (R), mm/sec^2
M205 X10.00 Y10.00 Z0.20 E4.50 ; sets the jerk limits, mm/sec
M205 S0 T0 ; sets the minimum extruding and travel feed rate, mm/sec
M107
M862.3 P "MK2.5" ; printer model check
M862.1 P0.4 ; nozzle diameter check
M115 U3.9.1 ; tell printer latest fw version
G90 ; use absolute coordinates
M83 ; extruder relative mode
M104 S215 ; set extruder temp
M140 S60 ; set bed temp
M190 S60 ; wait for bed temp
M109 S215 ; wait for extruder temp
G28 W ; home all without mesh bed level
G80 ; mesh bed leveling
G1 Y-3.0 F1000.0 ; go outside print area
G92 E0.0
G1 X60.0 E9.0 F1000.0 ; intro line
M73 P0 R359
G1 X100.0 E12.5 F1000.0 ; intro line
G92 E0.0
G21 ; set units to millimeters
G90 ; use absolute coordinates
M83 ; use relative distances for extrusion
M900 K0.05 ; Filament gcode LA 1.5
M900 K30 ; Filament gcode LA 1.0
;BEFORE_LAYER_CHANGE
G92 E0.0
;0.2


G1 E-0.80000 F2100.00000
G1 Z0.600 F10800.000
;AFTER_LAYER_CHANGE
;0.2
;CURRENT_Z: 0.2
G1 X133.599 Y93.594
G1 Z0.200
G1 E0.80000 F2100.00000
M204 S1000
G1 F1200.000
G1 X136.176 Y93.608 E0.08078
G1 X137.279 Y93.899 E0.03578
G1 X138.385 Y94.544 E0.04014
G1 X139.500 Y95.740 E0.05129
G1 X139.910 Y96.554 E0.02856
G1 X140.205 Y97.729 E0.03799
G1 X140.214 Y101.205 E0.10900
G1 X139.883 Y102.523 E0.04258
G1 X139.221 Y103.627 E0.04038
G1 X138.325 Y104.506 E0.03935
G1 X137.338 Y105.075 E0.03572
G1 X136.153 Y105.395 E0.03849
G1 X121.613 Y105.413 E0.45587
G1 X121.613 Y121.117 E0.49239
G1 X121.386 Y122.255 E0.03638
G1 X120.821 Y123.366 E0.03908
G1 X119.965 Y124.304 E0.03980
G1 X119.117 Y124.899 E0.03250
G1 X118.148 Y125.289 E0.03275
G1 X114.030 Y125.416 E0.12918
G1 X112.679 Y125.084 E0.04363
G1 X111.571 Y124.419 E0.04051
G1 X110.664 Y123.484 E0.04083
G1 X110.088 Y122.445 E0.03726
G1 X109.787 Y121.210 E0.03986
G1 X109.787 Y88.791 E1.01648
G1 X110.117 Y87.477 E0.04247
G1 X110.779 Y86.373 E0.04037
G1 X111.675 Y85.494 E0.03935
G1 X112.662 Y84.925 E0.03573
G1 X113.848 Y84.605 E0.03850
G1 X129.464 Y84.598 E0.48965
G1 X130.465 Y84.817 E0.03213
G1 X131.440 Y85.291 E0.03397
G1 X132.458 Y86.186 E0.04252
G1 X133.188 Y87.260 E0.04070
G1 X133.563 Y88.442 E0.03891
G1 X133.599 Y93.534 E0.15964
G1 X133.225 Y93.969 F10800.000
G1 F1200.000
G1 X136.149 Y93.985 E0.09167
G1 X137.157 Y94.257 E0.03273
G1 X138.129 Y94.823 E0.03529
G1 X139.177 Y95.936 E0.04795
G1 X139.551 Y96.668 E0.02576
G1 X139.828 Y97.754 E0.03513
G1 X139.837 Y101.183 E0.10753
G1 X139.545 Y102.354 E0.03784
G1 X138.939 Y103.375 E0.03722
G1 X138.079 Y104.219 E0.03779
G1 X137.173 Y104.735 E0.03266
G1 X136.080 Y105.024 E0.03546
G1 X121.236 Y105.036 E0.46542
G1 X121.236 Y121.099 E0.50364
G1 X121.038 Y122.108 E0.03223
G1 X120.497 Y123.172 E0.03743
G1 X119.703 Y124.032 E0.03672
G1 X118.920 Y124.576 E0.02989
G1 X118.040 Y124.926 E0.02969
G1 X114.046 Y125.038 E0.12528
G1 X112.799 Y124.725 E0.04031
G1 X111.789 Y124.110 E0.03709
G1 X110.953 Y123.241 E0.03780
G1 X110.448 Y122.329 E0.03268
G1 X110.164 Y121.186 E0.03693
G1 X110.164 Y88.814 E1.01502
G1 X110.455 Y87.645 E0.03775
G1 X111.061 Y86.625 E0.03722
G1 X111.921 Y85.781 E0.03779
G1 X112.827 Y85.265 E0.03266
G1 X113.920 Y84.976 E0.03547
G1 X129.405 Y84.971 E0.48553
G1 X130.324 Y85.167 E0.02944
G1 X131.211 Y85.591 E0.03083
G1 X132.192 Y86.453 E0.04095
G1 X132.838 Y87.403 E0.03599
G1 X133.186 Y88.475 E0.03535
G1 X133.225 Y93.909 E0.17038
G1 X132.850 Y94.344 F10800.000
G1 F1200.000
G1 X136.121 Y94.362 E0.10255
G1 X137.033 Y94.613 E0.02965
G1 X137.875 Y95.102 E0.03053
G1 X138.855 Y96.134 E0.04462
G1 X139.191 Y96.785 E0.02297
G1 X139.451 Y97.779 E0.03222
G1 X139.460 Y101.160 E0.10601
G1 X139.187 Y102.234 E0.03474
G1 X138.629 Y103.159 E0.03387
G1 X137.834 Y103.931 E0.03475
G1 X137.011 Y104.393 E0.02960
G1 X136.009 Y104.653 E0.03245
G1 X120.859 Y104.659 E0.47502
G1 X120.859 Y121.081 E0.51490
G1 X120.689 Y121.963 E0.02814
G1 X120.202 Y122.936 E0.03413
G1 X119.440 Y123.762 E0.03522
G1 X118.761 Y124.234 E0.02594
G1 X117.932 Y124.563 E0.02795
G1 X114.062 Y124.661 E0.12138
G1 X112.969 Y124.388 E0.03533
G1 X112.041 Y123.829 E0.03395
G1 X111.269 Y123.034 E0.03475
G1 X110.807 Y122.211 E0.02959
G1 X110.541 Y121.162 E0.03394
G1 X110.541 Y88.838 E1.01352
G1 X110.813 Y87.766 E0.03466
G1 X111.371 Y86.841 E0.03387
G1 X112.166 Y86.069 E0.03475
G1 X112.989 Y85.607 E0.02960
G1 X113.991 Y85.347 E0.03246
G1 X129.348 Y85.344 E0.48151
G1 X130.185 Y85.518 E0.02678
G1 X130.982 Y85.893 E0.02763
G1 X131.925 Y86.721 E0.03935
G1 X132.489 Y87.548 E0.03136
G1 X132.810 Y88.508 E0.03175
G1 X132.850 Y94.284 E0.18110
G1 X132.476 Y94.719 F10800.000
G1 F1200.000
G1 X136.093 Y94.739 E0.11340
G1 X136.907 Y94.970 E0.02653
G1 X137.622 Y95.383 E0.02589
G1 X138.534 Y96.334 E0.04131
G1 X138.833 Y96.904 E0.02018
G1 X139.074 Y97.805 E0.02926
G1 X139.082 Y101.136 E0.10445
G1 X138.829 Y102.111 E0.03157
G1 X138.321 Y102.940 E0.03051
G1 X137.591 Y103.643 E0.03176
G1 X136.893 Y104.035 E0.02510
G1 X135.938 Y104.282 E0.03093
G1 X120.482 Y104.282 E0.48460
G1 X120.482 Y121.064 E0.52619
G1 X120.340 Y121.818 E0.02404
G1 X119.877 Y122.742 E0.03242
G1 X119.179 Y123.488 E0.03203
G1 X118.566 Y123.910 E0.02335
G1 X117.826 Y124.200 E0.02489
G1 X114.080 Y124.283 E0.11749
G1 X113.091 Y124.030 E0.03202
G1 X112.260 Y123.521 E0.03056
G1 X111.557 Y122.791 E0.03176
G1 X111.165 Y122.093 E0.02510
G1 X110.918 Y121.138 E0.03093
G1 X110.918 Y88.862 E1.01198
G1 X111.171 Y87.889 E0.03152
G1 X111.679 Y87.060 E0.03051
G1 X112.409 Y86.357 E0.03176
G1 X113.107 Y85.965 E0.02510
G1 X114.063 Y85.718 E0.03094
G1 X129.329 Y85.721 E0.47867
G1 X130.047 Y85.870 E0.02300
G1 X130.755 Y86.195 E0.02440
G1 X131.659 Y86.989 E0.03773
G1 X132.141 Y87.695 E0.02681
G1 X132.433 Y88.542 E0.02809
G1 X132.476 Y94.659 E0.19178
G1 X132.102 Y95.095 F10800.000
G1 F1200.000
G1 X136.015 Y95.109 E0.12271
G1 X136.780 Y95.326 E0.02494
G1 X137.408 Y95.694 E0.02282
G1 X138.214 Y96.534 E0.03650
G1 X138.475 Y97.025 E0.01743
G1 X138.697 Y97.832 E0.02623
G1 X138.705 Y101.112 E0.10284
G1 X138.472 Y101.986 E0.02838
G1 X138.041 Y102.687 E0.02579
G1 X137.382 Y103.328 E0.02883
G1 X136.771 Y103.677 E0.02206
G1 X135.913 Y103.905 E0.02785
G1 X120.105 Y103.905 E0.49563
G1 X120.105 Y121.048 E0.53749
G1 X119.990 Y121.676 E0.02003
G1 X119.582 Y122.506 E0.02899
G1 X118.918 Y123.215 E0.03046
G1 X118.373 Y123.586 E0.02069
G1 X117.722 Y123.836 E0.02184
G1 X114.100 Y123.906 E0.11360
G1 X113.215 Y123.673 E0.02870
G1 X112.513 Y123.241 E0.02582
G1 X111.872 Y122.582 E0.02883
G1 X111.523 Y121.971 E0.02206
G1 X111.295 Y121.113 E0.02785
G1 X111.295 Y88.887 E1.01041
G1 X111.528 Y88.014 E0.02835
G1 X111.959 Y87.313 E0.02579
G1 X112.618 Y86.672 E0.02883
G1 X113.229 Y86.323 E0.02206
G1 X114.088 Y86.095 E0.02786
G1 X129.310 Y86.098 E0.47728
G1 X129.913 Y86.223 E0.01932
G1 X130.528 Y86.497 E0.02110
G1 X131.392 Y87.257 E0.03607
G1 X131.795 Y87.846 E0.02237
G1 X132.056 Y88.578 E0.02437
G1 X132.101 Y95.035 E0.20246
G1 X131.726 Y95.472 F10800.000
G1 F1200.000
G1 X135.937 Y95.479 E0.13204
G1 X136.653 Y95.682 E0.02332
G1 X137.192 Y96.004 E0.01970
G1 X137.895 Y96.737 E0.03184
G1 X138.119 Y97.149 E0.01471
G1 X138.320 Y97.859 E0.02314
G1 X138.328 Y101.086 E0.10119
G1 X138.117 Y101.859 E0.02510
G1 X137.735 Y102.465 E0.02248
G1 X137.138 Y103.040 E0.02597
G1 X136.648 Y103.320 E0.01770
G1 X135.887 Y103.528 E0.02474
G1 X119.728 Y103.528 E0.50665
G1 X119.728 Y121.032 E0.54882
G1 X119.639 Y121.534 E0.01599
G1 X119.257 Y122.313 E0.02721
G1 X118.661 Y122.939 E0.02711
G1 X118.182 Y123.260 E0.01807
G1 X117.621 Y123.471 E0.01880
G1 X114.121 Y123.529 E0.10974
G1 X113.342 Y123.317 E0.02532
G1 X112.735 Y122.935 E0.02250
G1 X112.160 Y122.338 E0.02597
G1 X111.880 Y121.848 E0.01770
G1 X111.672 Y121.087 E0.02474
G1 X111.672 Y88.913 E1.00878
G1 X111.883 Y88.141 E0.02509
G1 X112.265 Y87.535 E0.02248
G1 X112.862 Y86.960 E0.02597
G1 X113.352 Y86.680 E0.01770
G1 X114.113 Y86.472 E0.02475
G1 X129.289 Y86.476 E0.47583
G1 X129.814 Y86.587 E0.01681
G1 X130.345 Y86.828 E0.01829
G1 X131.122 Y87.521 E0.03266
G1 X131.467 Y88.035 E0.01939
G1 X131.690 Y88.671 E0.02115
G1 X131.726 Y95.412 E0.21133
G1 X131.350 Y95.849 F10800.000
G1 F1200.000
G1 X135.860 Y95.849 E0.14140
G1 X136.524 Y96.037 E0.02165
G1 X136.974 Y96.313 E0.01652
G1 X137.578 Y96.942 E0.02735
G1 X137.764 Y97.277 E0.01203
G1 X137.943 Y97.888 E0.01995
G1 X137.951 Y101.060 E0.09947
G1 X137.762 Y101.729 E0.02178
G1 X137.458 Y102.209 E0.01783
G1 X136.893 Y102.752 E0.02454
G1 X136.522 Y102.964 E0.01339
G1 X135.860 Y103.151 E0.02158
G1 X119.351 Y103.151 E0.51763
G1 X119.351 Y121.017 E0.56017
G1 X119.287 Y121.397 E0.01207
G1 X118.962 Y122.075 E0.02359
G1 X118.403 Y122.663 E0.02545
G1 X117.994 Y122.932 E0.01535
G1 X117.522 Y123.106 E0.01578
G1 X114.145 Y123.151 E0.10589
G1 X113.472 Y122.962 E0.02192
G1 X112.991 Y122.658 E0.01784
G1 X112.448 Y122.093 E0.02454
G1 X112.236 Y121.722 E0.01339
G1 X112.049 Y121.060 E0.02158
G1 X112.049 Y88.940 E1.00710
G1 X112.238 Y88.271 E0.02179
G1 X112.542 Y87.791 E0.01783
G1 X113.107 Y87.248 E0.02454
G1 X113.478 Y87.036 E0.01340
G1 X114.140 Y86.849 E0.02159
G1 X129.268 Y86.853 E0.47433
G1 X129.711 Y86.950 E0.01423
G1 X130.159 Y87.158 E0.01548
G1 X130.851 Y87.784 E0.02924
G1 X131.139 Y88.220 E0.01641
G1 X131.323 Y88.763 E0.01796
G1 X131.350 Y95.789 E0.22030
G1 X130.974 Y96.226 F10800.000
G1 F1200.000
G1 X135.832 Y96.226 E0.15232
G1 X136.393 Y96.391 E0.01834
G1 X136.720 Y96.592 E0.01204
G1 X137.263 Y97.151 E0.02442
G1 X137.409 Y97.406 E0.00921
G1 X137.574 Y97.968 E0.01838
G1 X137.574 Y101.032 E0.09607
G1 X137.408 Y101.595 E0.01842
G1 X137.180 Y101.953 E0.01328
G1 X136.649 Y102.463 E0.02311
G1 X136.394 Y102.609 E0.00919
G1 X135.832 Y102.774 E0.01838
G1 X118.974 Y102.774 E0.52857
G1 X118.974 Y121.004 E0.57159
G1 X118.935 Y121.260 E0.00812
G1 X118.636 Y121.883 E0.02167
G1 X118.149 Y122.384 E0.02189
G1 X117.809 Y122.603 E0.01269
G1 X117.425 Y122.741 E0.01278
G1 X114.170 Y122.774 E0.10207
G1 X113.605 Y122.608 E0.01848
G1 X113.247 Y122.380 E0.01328
G1 X112.737 Y121.849 E0.02311
G1 X112.591 Y121.594 E0.00919
G1 X112.426 Y121.032 E0.01838
G1 X112.426 Y88.968 E1.00534
G1 X112.592 Y88.405 E0.01842
G1 X112.820 Y88.047 E0.01328
G1 X113.351 Y87.537 E0.02311
G1 X113.606 Y87.391 E0.00919
G1 X114.168 Y87.226 E0.01838
G1 X129.246 Y87.230 E0.47275
G1 X129.605 Y87.313 E0.01157
G1 X129.971 Y87.485 E0.01268
G1 X130.576 Y88.043 E0.02581
G1 X130.808 Y88.403 E0.01341
G1 X130.955 Y88.851 E0.01480
G1 X130.974 Y96.166 E0.22936
G1 X130.597 Y96.603 F10800.000
G1 F1200.000
G1 X135.802 Y96.603 E0.16321
G1 X136.258 Y96.744 E0.01494
G1 X136.468 Y96.874 E0.00775
G1 X136.951 Y97.364 E0.02159
G1 X137.056 Y97.541 E0.00643
G1 X137.197 Y97.998 E0.01500
G1 X137.197 Y101.002 E0.09421
G1 X137.056 Y101.458 E0.01495
G1 X136.902 Y101.698 E0.00894
G1 X136.436 Y102.151 E0.02038
G1 X136.259 Y102.256 E0.00643
G1 X135.802 Y102.397 E0.01500
G1 X118.597 Y102.397 E0.53947
G1 X118.597 Y120.988 E0.58291
G1 X118.567 Y121.170 E0.00579
G1 X118.313 Y121.687 E0.01806
G1 X117.897 Y122.102 E0.01842
G1 X117.661 Y122.256 E0.00882
G1 X117.328 Y122.375 E0.01108
G1 X114.198 Y122.397 E0.09815
G1 X113.742 Y122.256 E0.01497
G1 X113.502 Y122.102 E0.00894
G1 X113.049 Y121.636 E0.02038
G1 X112.944 Y121.459 E0.00643
G1 X112.803 Y121.002 E0.01500
G1 X112.803 Y88.998 E1.00349
G1 X112.944 Y88.542 E0.01495
G1 X113.098 Y88.302 E0.00894
G1 X113.564 Y87.849 E0.02038
G1 X113.741 Y87.744 E0.00643
G1 X114.198 Y87.603 E0.01500
G1 X129.224 Y87.607 E0.47114
G1 X129.462 Y87.662 E0.00767
G1 X129.782 Y87.813 E0.01109
G1 X130.301 Y88.301 E0.02233
G1 X130.457 Y88.543 E0.00904
G1 X130.587 Y88.940 E0.01310
G1 X130.597 Y96.543 E0.23838
G1 X130.220 Y96.980 F10800.000
G1 F1200.000
G1 X135.771 Y96.980 E0.17404
G1 X136.117 Y97.094 E0.01144
G1 X136.217 Y97.156 E0.00369
G1 X136.644 Y97.583 E0.01893
G1 X136.706 Y97.683 E0.00369
G1 X136.820 Y98.029 E0.01144
G1 X136.820 Y100.971 E0.09222
G1 X136.707 Y101.315 E0.01136
G1 X136.623 Y101.444 E0.00482
G1 X136.218 Y101.844 E0.01785
G1 X136.117 Y101.906 E0.00371
G1 X135.771 Y102.020 E0.01144
G1 X118.220 Y102.020 E0.55030
M73 P0 R358
G1 X118.220 Y120.971 E0.59419
G1 X118.201 Y121.079 E0.00345
G1 X118.024 Y121.443 E0.01270
G1 X117.644 Y121.822 E0.01682
G1 X117.513 Y121.908 E0.00492
G1 X117.232 Y122.009 E0.00936
G1 X114.229 Y122.020 E0.09415
G1 X113.885 Y121.907 E0.01135
G1 X113.756 Y121.823 E0.00482
G1 X113.356 Y121.418 E0.01785
G1 X113.294 Y121.317 E0.00371
G1 X113.180 Y120.971 E0.01144
G1 X113.180 Y89.029 E1.00150
G1 X113.293 Y88.685 E0.01136
G1 X113.377 Y88.556 E0.00482
G1 X113.782 Y88.156 E0.01785
G1 X113.883 Y88.094 E0.00371
G1 X114.229 Y87.980 E0.01144
G1 X129.202 Y87.984 E0.46945
G1 X129.319 Y88.011 E0.00377
G1 X129.592 Y88.140 E0.00947
G1 X130.023 Y88.557 E0.01880
G1 X130.107 Y88.685 E0.00479
G1 X130.220 Y89.029 E0.01136
G1 X130.220 Y96.920 E0.24741
G1 X129.843 Y97.357 F10800.000
G1 F1200.000
G1 X135.736 Y97.357 E0.18477
G1 X135.963 Y97.439 E0.00757
G1 X136.343 Y97.810 E0.01666
G1 X136.443 Y98.064 E0.00856
G1 X136.443 Y100.936 E0.09002
G1 X136.361 Y101.163 E0.00757
G1 X135.990 Y101.543 E0.01666
G1 X135.736 Y101.643 E0.00856
G1 X117.843 Y101.643 E0.56102
G1 X117.843 Y120.950 E0.60536
G1 X117.733 Y121.200 E0.00856
G1 X117.390 Y121.543 E0.01522
G1 X117.136 Y121.643 E0.00856
G1 X114.264 Y121.643 E0.09002
G1 X114.037 Y121.561 E0.00757
G1 X113.657 Y121.190 E0.01666
G1 X113.557 Y120.936 E0.00856
G1 X113.557 Y89.064 E0.99930
G1 X113.639 Y88.837 E0.00757
G1 X114.010 Y88.457 E0.01666
G1 X114.264 Y88.357 E0.00856
G1 X129.150 Y88.357 E0.46672
G1 X129.400 Y88.467 E0.00856
G1 X129.743 Y88.810 E0.01522
G1 X129.843 Y89.064 E0.00856
G1 X129.843 Y97.297 E0.25814
G1 X129.466 Y97.734 F10800.000
G1 F1200.000
G1 X135.694 Y97.734 E0.19528
G1 X135.763 Y97.763 E0.00235
G1 X136.037 Y98.037 E0.01215
G1 X136.066 Y98.106 E0.00235
G1 X136.066 Y100.894 E0.08740
G1 X136.037 Y100.963 E0.00235
G1 X135.763 Y101.237 E0.01215
G1 X135.694 Y101.266 E0.00235
G1 X117.466 Y101.266 E0.57153
G1 X117.466 Y120.894 E0.61542
G1 X117.437 Y120.963 E0.00235
G1 X117.163 Y121.237 E0.01215
G1 X117.094 Y121.266 E0.00235
G1 X114.306 Y121.266 E0.08740
G1 X114.237 Y121.237 E0.00235
G1 X113.963 Y120.963 E0.01215
G1 X113.934 Y120.894 E0.00235
G1 X113.934 Y89.106 E0.99667
G1 X113.963 Y89.037 E0.00235
G1 X114.237 Y88.763 E0.01215
G1 X114.306 Y88.734 E0.00235
G1 X129.094 Y88.734 E0.46365
G1 X129.163 Y88.763 E0.00235
G1 X129.437 Y89.037 E0.01215
G1 X129.466 Y89.106 E0.00235
G1 X129.466 Y97.674 E0.26865
G1 X129.089 Y98.111 F10800.000
G1 F1200.000
G1 X135.578 Y98.111 E0.20348
G1 X135.689 Y98.222 E0.00490
G1 X135.689 Y100.778 E0.08015
G1 X135.578 Y100.889 E0.00490
G1 X117.089 Y100.889 E0.57973
G1 X117.089 Y120.778 E0.62362
G1 X116.978 Y120.889 E0.00490
G1 X114.422 Y120.889 E0.08015
G1 X114.311 Y120.778 E0.00490
G1 X114.311 Y89.222 E0.98942
G1 X114.422 Y89.111 E0.00490
G1 X128.978 Y89.111 E0.45640
G1 X129.089 Y89.222 E0.00490
G1 X129.089 Y98.051 E0.27684
G1 X128.490 Y98.710 F10800.000
G1 F1200.000
G1 X135.090 Y98.710 E0.20694
G1 X135.090 Y100.290 E0.04954
G1 X116.490 Y100.290 E0.58319
G1 X116.490 Y120.290 E0.62709
G1 X114.910 Y120.290 E0.04954
G1 X114.910 Y89.710 E0.95881
G1 X128.490 Y89.710 E0.42579
G1 X128.490 Y98.650 E0.28031
G1 X128.619 Y99.089 F10800.000
G1 X128.113 Y99.087
G1 F1200.000
G1 X134.713 Y99.087 E0.20694
G1 X134.713 Y99.913 E0.02589
G1 X116.113 Y99.913 E0.58319
G1 X116.113 Y119.913 E0.62709
G1 X115.287 Y119.913 E0.02589
G1 X115.287 Y90.087 E0.93517
G1 X128.113 Y90.087 E0.40215
G1 X128.113 Y99.027 E0.28031
G1 X127.736 Y99.464 F10800.000
G1 F1200.000
G1 X134.336 Y99.464 E0.20694
G1 X134.336 Y99.536 E0.00225
G1 X115.736 Y99.536 E0.58319
G1 X115.736 Y119.536 E0.62709
