; generated by PrusaSlicer 2.5.0+linux-x64-GTK3 on 2022-09-09 at 20:20:52 UTC

; 

; external perimeters extrusion width = 0.45mm
; perimeters extrusion width = 0.45mm
; infill extrusion width = 0.45mm
; solid infill extrusion width = 0.45mm
; top infill extrusion width = 0.40mm
; first layer extrusion width = 0.42mm

M73 P0 R262
M201 X9000 Y9000 Z500 E10000 ; sets maximum accelerations, mm/sec^2
M203 X500 Y500 Z12 E120 ; sets maximum feedrates, mm / sec
M204 P2000 R1500 T2000 ; sets acceleration (P, T) and retract acceleration (R), mm/sec^2
M205 X10.00 Y10.00 Z0.20 E4.50 ; sets the jerk limits, mm/sec
M205 S0 T0 ; sets the minimum extruding and travel feed rate, mm/sec
M107
;TYPE:Custom
M862.3 P "MK2.5" ; printer model check
M862.1 P0.4 ; nozzle diameter check
M115 U3.11.0 ; tell printer latest fw version
G90 ; use absolute coordinates
M83 ; extruder relative mode
M104 S215 ; set extruder temp
M140 S60 ; set bed temp
M190 S60 ; wait for bed temp
M109 S215 ; wait for extruder temp
G28 W ; home all without mesh bed level
G80 ; mesh bed leveling

G1 Z0.2 F720
G1 Y-3 F1000 ; go outside print area
G92 E0
G1 X60 E9 F1000 ; intro line
G1 X100 E12.5 F1000 ; intro line

G92 E0
G21 ; set units to millimeters
G90 ; use absolute coordinates
M83 ; use relative distances for extrusion
M900 K0.05 ; Filament gcode LA 1.5
M900 K30 ; Filament gcode LA 1.0
M107
;LAYER_CHANGE
;Z:0.2
;HEIGHT:0.2
;BEFORE_LAYER_CHANGE
G92 E0.0
;0.2


G1 E-.8 F2100
G1 Z.4 F720
;AFTER_LAYER_CHANGE
;0.2
;CURRENT_Z: 0.2
G1 X111.236 Y94.653 F10800
G1 Z.2 F720
G1 E.8 F2100
M204 S800
;TYPE:Skirt/Brim
;WIDTH:0.42
G1 F1200
G1 X112.205 Y93.862 E.03921
G1 X112.967 Y93.503 E.02641
G1 X114.141 Y93.204 E.03797
G1 X126.293 Y93.187 E.38103
G1 X126.332 Y89.251 E.1234
G1 X126.743 Y87.922 E.04362
G1 X127.24 Y87.107 E.02993
G1 X127.901 Y86.395 E.03047
G1 X128.877 Y85.717 E.03725
G1 X130.522 Y85.205 E.05403
G1 X135.777 Y85.199 E.16476
G1 X136.773 Y85.404 E.03187
G1 X137.697 Y85.805 E.03159
G1 X138.81 Y86.693 E.04464
G1 X139.616 Y87.844 E.04407
G1 X140.057 Y89.182 E.04414
G1 X140.114 Y100.461 E.35366
G1 X139.383 Y102.596 E.07078
G1 X138.764 Y103.347 E.0305
G1 X137.795 Y104.138 E.03922
G1 X137.03 Y104.497 E.02651
G1 X135.764 Y104.808 E.04087
G1 X121.504 Y104.814 E.44711
G1 X121.443 Y120.841 E.50254
G1 X121.357 Y121.289 E.0143
G1 X120.989 Y122.217 E.03129
G1 X120.299 Y123.208 E.03787
G1 X119.386 Y124.012 E.03815
G1 X118.682 Y124.4 E.0252
G1 X117.898 Y124.686 E.02616
G1 X114.292 Y124.818 E.11314
G1 X112.105 Y124.084 E.07234
G1 X111.353 Y123.464 E.03056
G1 X110.562 Y122.495 E.03922
G1 X110.203 Y121.73 E.0265
G1 X109.887 Y120.419 E.04229
G1 X109.887 Y97.535 E.7175
G1 X110.617 Y95.403 E.07066
G1 X111.198 Y94.699 E.02862
M204 S1000
G1 X111.487 Y94.936 F10800
M204 S800
G1 F1200
G1 X112.388 Y94.192 E.03663
G1 X113.079 Y93.864 E.02396
G1 X114.211 Y93.575 E.03664
G1 X126.667 Y93.564 E.39056
G1 X126.701 Y89.335 E.1326
G1 X127.078 Y88.097 E.04058
G1 X127.531 Y87.348 E.02742
G1 X128.136 Y86.691 E.02802
G1 X129.018 Y86.069 E.03385
G1 X130.607 Y85.574 E.05218
G1 X135.757 Y85.576 E.16147
G1 X136.675 Y85.769 E.02943
G1 X137.522 Y86.14 E.02898
G1 X138.551 Y86.969 E.04144
G1 X139.29 Y88.035 E.04067
G1 X139.689 Y89.269 E.04066
G1 X139.737 Y100.431 E.34997
G1 X139.069 Y102.384 E.06471
G1 X138.509 Y103.068 E.02773
G1 X137.612 Y103.808 E.03646
G1 X136.921 Y104.136 E.02398
G1 X135.696 Y104.436 E.03955
G1 X121.128 Y104.436 E.45677
G1 X121.066 Y120.822 E.51377
G1 X121 Y121.167 E.011
G1 X120.646 Y122.057 E.03003
G1 X120.004 Y122.972 E.03507
G1 X119.154 Y123.714 E.03537
G1 X118.515 Y124.062 E.02281
G1 X117.798 Y124.321 E.0239
G1 X114.313 Y124.44 E.10933
G1 X112.317 Y123.77 E.06603
G1 X111.632 Y123.209 E.02777
G1 X110.892 Y122.312 E.03646
G1 X110.564 Y121.621 E.02398
G1 X110.264 Y120.396 E.03955
G1 X110.264 Y97.566 E.7158
G1 X110.931 Y95.616 E.06464
G1 X111.449 Y94.982 E.02567
M204 S1000
G1 X111.74 Y95.218 F10800
M204 S800
G1 F1200
G1 X112.573 Y94.521 E.03406
G1 X113.19 Y94.225 E.02147
G1 X114.281 Y93.947 E.03531
G1 X127.043 Y93.941 E.40012
G1 X127.07 Y89.417 E.14185
G1 X127.414 Y88.27 E.03754
G1 X127.822 Y87.588 E.02492
G1 X128.373 Y86.985 E.0256
G1 X129.162 Y86.418 E.03046
G1 X130.636 Y85.951 E.04851
G1 X135.737 Y85.953 E.15991
G1 X136.577 Y86.133 E.02694
G1 X137.346 Y86.474 E.02637
G1 X138.291 Y87.244 E.03824
G1 X138.963 Y88.225 E.03726
G1 X139.321 Y89.355 E.03718
G1 X139.359 Y100.401 E.34634
G1 X138.755 Y102.173 E.05869
G1 X138.253 Y102.791 E.02497
G1 X137.427 Y103.479 E.03371
G1 X136.81 Y103.775 E.02145
G1 X135.672 Y104.059 E.03677
G1 X120.752 Y104.059 E.46781
G1 X120.689 Y120.803 E.525
G1 X120.643 Y121.044 E.00769
G1 X120.304 Y121.896 E.02875
G1 X119.71 Y122.735 E.03223
G1 X118.924 Y123.415 E.03258
G1 X118.35 Y123.723 E.02042
G1 X117.7 Y123.956 E.02167
G1 X114.335 Y124.062 E.10554
G1 X112.528 Y123.456 E.05977
G1 X111.909 Y122.953 E.025
G1 X111.221 Y122.127 E.03371
G1 X110.925 Y121.51 E.02145
G1 X110.641 Y120.372 E.03677
G1 X110.641 Y97.597 E.71409
G1 X111.245 Y95.827 E.05865
G1 X111.702 Y95.264 E.02273
M204 S1000
G1 X111.993 Y95.499 F10800
M204 S800
G1 F1200
G1 X112.76 Y94.85 E.03151
G1 X113.303 Y94.585 E.01892
G1 X114.352 Y94.318 E.03395
G1 X127.418 Y94.318 E.4097
G1 X127.439 Y89.497 E.15115
G1 X127.75 Y88.441 E.03452
G1 X128.115 Y87.826 E.02241
G1 X128.612 Y87.277 E.02322
G1 X129.308 Y86.767 E.02705
G1 X130.666 Y86.328 E.04477
G1 X135.716 Y86.33 E.15831
G1 X136.476 Y86.497 E.02441
G1 X137.168 Y86.807 E.02377
G1 X138.03 Y87.517 E.03502
G1 X138.634 Y88.411 E.03385
G1 X138.952 Y89.439 E.03373
G1 X138.982 Y100.371 E.34276
G1 X138.441 Y101.962 E.05272
G1 X137.996 Y102.515 E.02223
G1 X137.24 Y103.15 E.03097
G1 X136.697 Y103.415 E.01892
G1 X135.648 Y103.682 E.03395
G1 X120.377 Y103.682 E.47883
G1 X120.312 Y120.785 E.53623
G1 X120.285 Y120.922 E.00438
G1 X119.963 Y121.735 E.02745
G1 X119.417 Y122.496 E.02934
G1 X118.695 Y123.115 E.02982
G1 X118.211 Y123.372 E.01721
G1 X117.601 Y123.591 E.02031
G1 X114.358 Y123.685 E.10171
G1 X112.738 Y123.141 E.05357
G1 X112.185 Y122.696 E.02226
G1 X111.55 Y121.94 E.03097
G1 X111.285 Y121.397 E.01892
G1 X111.018 Y120.348 E.03395
G1 X111.018 Y97.628 E.71237
G1 X111.559 Y96.038 E.05269
G1 X111.955 Y95.546 E.0198
M204 S1000
G1 X112.248 Y95.779 F10800
M204 S800
G1 F1200
G1 X112.949 Y95.177 E.02898
G1 X113.417 Y94.945 E.01639
G1 X114.376 Y94.695 E.03107
G1 X127.795 Y94.695 E.42073
G1 X127.809 Y89.576 E.16051
G1 X128.087 Y88.612 E.03144
G1 X128.429 Y88.036 E.02102
G1 X128.878 Y87.545 E.02086
G1 X129.456 Y87.115 E.02257
G1 X130.697 Y86.705 E.04099
G1 X135.694 Y86.707 E.15667
G1 X136.373 Y86.86 E.02183
G1 X136.988 Y87.139 E.02116
G1 X137.767 Y87.788 E.03179
G1 X138.304 Y88.596 E.03042
G1 X138.583 Y89.521 E.03029
G1 X138.605 Y100.34 E.33924
G1 X138.125 Y101.753 E.04679
G1 X137.737 Y102.24 E.01952
G1 X137.051 Y102.823 E.02823
G1 X136.583 Y103.055 E.01639
G1 X135.624 Y103.305 E.03107
G1 X120.001 Y103.305 E.48984
G1 X119.935 Y120.766 E.54747
G1 X119.621 Y121.575 E.02721
G1 X119.155 Y122.224 E.02506
G1 X118.466 Y122.814 E.02843
G1 X118.071 Y123.021 E.01398
G1 X117.502 Y123.225 E.01897
G1 X114.381 Y123.307 E.09788
G1 X112.947 Y122.826 E.04744
G1 X112.46 Y122.437 E.01953
G1 X111.877 Y121.751 E.02823
G1 X111.645 Y121.283 E.01639
G1 X111.395 Y120.324 E.03107
G1 X111.395 Y97.659 E.71063
G1 X111.875 Y96.247 E.04678
G1 X112.21 Y95.826 E.01688
M204 S1000
G1 X112.504 Y96.058 F10800
M204 S800
G1 F1200
G1 X113.14 Y95.502 E.02647
G1 X113.535 Y95.304 E.01386
G1 X114.402 Y95.072 E.02814
G1 X128.172 Y95.072 E.43175
G1 X128.179 Y89.653 E.16992
G1 X128.425 Y88.781 E.0284
G1 X128.721 Y88.275 E.01838
G1 X129.145 Y87.811 E.01971
G1 X129.607 Y87.462 E.01815
G1 X130.729 Y87.082 E.03714
G1 X135.634 Y87.08 E.15379
G1 X136.236 Y87.212 E.01933
G1 X136.808 Y87.472 E.01969
G1 X137.502 Y88.058 E.02848
G1 X137.973 Y88.778 E.02698
G1 X138.214 Y89.6 E.02688
G1 X138.228 Y100.31 E.33579
G1 X137.809 Y101.546 E.04091
G1 X137.477 Y101.967 E.01682
G1 X136.86 Y102.498 E.02551
G1 X136.465 Y102.696 E.01386
G1 X135.598 Y102.928 E.02814
G1 X119.625 Y102.928 E.50082
G1 X119.558 Y120.712 E.55761
G1 X119.299 Y121.377 E.02237
G1 X118.89 Y121.955 E.0222
G1 X118.27 Y122.491 E.0257
G1 X117.931 Y122.671 E.01203
G1 X117.404 Y122.86 E.01757
G1 X114.406 Y122.929 E.09402
G1 X113.155 Y122.509 E.04138
G1 X112.733 Y122.177 E.01683
G1 X112.202 Y121.56 E.02551
G1 X112.004 Y121.165 E.01386
G1 X111.772 Y120.298 E.02814
G1 X111.772 Y97.69 E.70887
G1 X112.191 Y96.454 E.04091
G1 X112.467 Y96.105 E.01397
M204 S1000
G1 X112.762 Y96.335 F10800
M204 S800
G1 F1200
G1 X113.334 Y95.827 E.02398
G1 X113.655 Y95.662 E.01132
G1 X114.428 Y95.449 E.02513
G1 X128.549 Y95.449 E.44277
G1 X128.549 Y89.728 E.17939
G1 X128.763 Y88.95 E.0253
G1 X129.036 Y88.484 E.01693
G1 X129.412 Y88.078 E.01733
G1 X129.762 Y87.807 E.01388
G1 X130.762 Y87.459 E.0332
G1 X135.575 Y87.453 E.15093
G1 X136.099 Y87.564 E.01679
G1 X136.627 Y87.804 E.01817
G1 X137.234 Y88.325 E.0251
G1 X137.64 Y88.956 E.02353
G1 X137.844 Y89.677 E.02349
G1 X137.851 Y100.279 E.33242
G1 X137.492 Y101.339 E.03509
G1 X137.214 Y101.695 E.01416
G1 X136.666 Y102.173 E.0228
G1 X136.345 Y102.338 E.01132
G1 X135.572 Y102.551 E.02513
G1 X119.249 Y102.551 E.5118
G1 X119.193 Y120.61 E.56624
G1 X118.976 Y121.181 E.01916
G1 X118.623 Y121.687 E.01933
G1 X118.072 Y122.17 E.02297
G1 X117.79 Y122.321 E.01003
G1 X117.306 Y122.495 E.01615
G1 X114.431 Y122.552 E.09014
G1 X113.361 Y122.192 E.0354
G1 X113.005 Y121.914 E.01416
G1 X112.527 Y121.366 E.0228
G1 X112.362 Y121.045 E.01132
G1 X112.149 Y120.272 E.02513
G1 X112.149 Y97.721 E.70709
G1 X112.508 Y96.661 E.0351
G1 X112.725 Y96.382 E.01107
M204 S1000
G1 X113.022 Y96.61 F10800
M204 S800
G1 F1200
G1 X113.53 Y96.149 E.02153
G1 X113.778 Y96.018 E.00878
G1 X114.455 Y95.826 E.02204
G1 X128.926 Y95.826 E.45374
G1 X128.926 Y89.755 E.19037
M73 P0 R261
G1 X129.119 Y89.077 E.02209
G1 X129.326 Y88.725 E.0128
G1 X129.677 Y88.347 E.01618
G1 X129.965 Y88.126 E.01138
G1 X130.852 Y87.826 E.02936
G1 X135.554 Y87.83 E.14741
G1 X135.997 Y87.927 E.01422
G1 X136.443 Y88.134 E.01541
G1 X136.966 Y88.591 E.02178
G1 X137.285 Y89.086 E.01847
G1 X137.474 Y89.755 E.02179
G1 X137.474 Y100.248 E.32902
G1 X137.174 Y101.135 E.02934
G1 X136.95 Y101.426 E.01151
G1 X136.47 Y101.851 E.02012
G1 X136.222 Y101.982 E.00878
G1 X135.545 Y102.174 E.02204
G1 X118.873 Y102.174 E.52275
G1 X118.829 Y120.508 E.57486
G1 X118.632 Y121.026 E.01736
G1 X118.356 Y121.42 E.01509
G1 X117.872 Y121.85 E.02029
G1 X117.649 Y121.971 E.00797
G1 X117.208 Y122.129 E.01469
G1 X114.458 Y122.174 E.08625
G1 X113.565 Y121.874 E.02952
G1 X113.274 Y121.65 E.01151
G1 X112.849 Y121.17 E.02012
G1 X112.718 Y120.922 E.00878
G1 X112.526 Y120.245 E.02204
G1 X112.526 Y97.752 E.70527
G1 X112.826 Y96.865 E.02934
G1 X112.985 Y96.658 E.0082
M204 S1000
G1 X113.284 Y96.884 F10800
M204 S800
G1 F1200
G1 X113.731 Y96.469 E.01913
G1 X113.906 Y96.374 E.00624
G1 X114.483 Y96.203 E.01885
G1 X129.303 Y96.203 E.46468
G1 X129.303 Y89.783 E.20131
G1 X129.473 Y89.208 E.0188
G1 X129.616 Y88.967 E.00877
G1 X129.942 Y88.616 E.01502
G1 X130.168 Y88.445 E.00887
G1 X130.883 Y88.203 E.02368
G1 X135.531 Y88.207 E.14574
G1 X135.891 Y88.29 E.01156
G1 X136.256 Y88.462 E.01266
G1 X136.696 Y88.854 E.01848
G1 X136.931 Y89.22 E.01362
G1 X137.097 Y89.783 E.01841
G1 X137.097 Y100.217 E.32717
G1 X136.855 Y100.932 E.02367
G1 X136.684 Y101.159 E.00889
G1 X136.269 Y101.531 E.01749
G1 X136.094 Y101.626 E.00624
G1 X135.517 Y101.797 E.01885
G1 X118.497 Y101.797 E.53367
G1 X118.463 Y120.409 E.58359
G1 X118.306 Y120.834 E.01418
G1 X118.086 Y121.156 E.01225
G1 X117.669 Y121.531 E.01758
G1 X117.507 Y121.622 E.00583
G1 X117.111 Y121.763 E.01319
G1 X114.485 Y121.797 E.08232
G1 X113.768 Y121.555 E.02375
G1 X113.541 Y121.384 E.00889
G1 X113.169 Y120.969 E.01749
G1 X113.074 Y120.794 E.00624
G1 X112.903 Y120.217 E.01885
G1 X112.903 Y97.783 E.70342
G1 X113.145 Y97.068 E.02367
G1 X113.248 Y96.932 E.00534
M204 S1000
G1 X113.55 Y97.155 F10800
M204 S800
G1 F1200
G1 X113.938 Y96.785 E.0168
G1 X114.04 Y96.727 E.0037
G1 X114.512 Y96.58 E.0155
G1 X129.68 Y96.58 E.47558
G1 X129.68 Y89.812 E.2122
G1 X129.826 Y89.342 E.01543
G1 X129.906 Y89.21 E.00486
G1 X130.206 Y88.886 E.01384
G1 X130.367 Y88.766 E.0063
G1 X130.914 Y88.58 E.0181
G1 X135.509 Y88.584 E.14409
G1 X135.747 Y88.639 E.00767
G1 X136.068 Y88.791 E.01111
G1 X136.423 Y89.115 E.01508
G1 X136.579 Y89.357 E.00902
G1 X136.72 Y89.812 E.01495
G1 X136.72 Y100.186 E.32526
G1 X136.534 Y100.733 E.0181
G1 X136.415 Y100.894 E.00628
G1 X136.062 Y101.215 E.01495
G1 X135.96 Y101.273 E.0037
G1 X135.488 Y101.42 E.0155
G1 X118.12 Y101.42 E.54455
G1 X118.098 Y120.314 E.59241
G1 X117.979 Y120.646 E.01107
G1 X117.813 Y120.895 E.00936
G1 X117.462 Y121.216 E.01492
G1 X117.362 Y121.273 E.0036
G1 X117.014 Y121.398 E.01162
G1 X114.514 Y121.42 E.07837
G1 X113.967 Y121.234 E.01811
G1 X113.806 Y121.115 E.00628
G1 X113.485 Y120.762 E.01495
G1 X113.427 Y120.66 E.0037
G1 X113.28 Y120.188 E.0155
G1 X113.28 Y97.814 E.70152
G1 X113.466 Y97.267 E.0181
G1 X113.514 Y97.203 E.00252
M204 S1000
G1 X113.819 Y97.421 F10800
M204 S800
G1 F1200
G1 X114.152 Y97.095 E.01461
G1 X114.544 Y96.957 E.01303
G1 X130.057 Y96.957 E.4864
G1 X130.057 Y89.844 E.22303
G1 X130.195 Y89.452 E.01303
G1 X130.468 Y89.157 E.01261
G1 X130.563 Y89.089 E.00367
G1 X130.945 Y88.957 E.01267
G1 X135.487 Y88.961 E.1424
G1 X135.604 Y88.988 E.00377
G1 X135.878 Y89.118 E.0095
G1 X136.147 Y89.373 E.0116
G1 X136.23 Y89.5 E.00476
G1 X136.343 Y89.844 E.01136
G1 X136.343 Y100.154 E.32327
G1 X136.211 Y100.537 E.01267
G1 X136.143 Y100.632 E.00367
G1 X135.848 Y100.905 E.01261
G1 X135.456 Y101.043 E.01303
G1 X117.743 Y101.043 E.55538
G1 X117.732 Y120.217 E.60121
G1 X117.631 Y120.497 E.00933
G1 X117.54 Y120.634 E.00514
G1 X117.248 Y120.905 E.01251
G1 X116.917 Y121.032 E.01111
G1 X114.545 Y121.043 E.07437
G1 X114.163 Y120.911 E.01266
G1 X114.068 Y120.843 E.00367
G1 X113.776 Y120.517 E.01371
G1 X113.657 Y120.156 E.01193
G1 X113.657 Y97.846 E.69952
G1 X113.787 Y97.471 E.01242
M204 S1000
G1 X114.116 Y97.652 F10800
M204 S800
G1 F1200
G1 X114.366 Y97.411 E.0109
G1 X114.579 Y97.334 E.00709
G1 X130.434 Y97.334 E.49713
G1 X130.434 Y89.879 E.23375
G1 X130.511 Y89.666 E.00709
G1 X130.728 Y89.432 E.01002
G1 X130.979 Y89.334 E.00845
G1 X135.435 Y89.334 E.13971
G1 X135.685 Y89.444 E.00856
G1 X135.884 Y89.652 E.00902
G1 X135.966 Y89.879 E.00757
G1 X135.966 Y100.121 E.32112
G1 X135.868 Y100.372 E.00845
G1 X135.634 Y100.589 E.01002
G1 X135.421 Y100.666 E.00709
G1 X117.366 Y100.666 E.56611
G1 X117.366 Y120.121 E.61
G1 X117.268 Y120.372 E.00845
G1 X117.034 Y120.589 E.01002
G1 X116.821 Y120.666 E.00709
G1 X114.579 Y120.666 E.07028
G1 X114.328 Y120.568 E.00845
G1 X114.111 Y120.334 E.01002
G1 X114.034 Y120.121 E.00709
G1 X114.034 Y97.879 E.69737
G1 X114.096 Y97.708 E.00569
M204 S1000
G1 X114.44 Y97.852 F10800
M204 S800
G1 F1200
G1 X114.552 Y97.74 E.00495
G1 X114.621 Y97.711 E.00235
G1 X130.811 Y97.711 E.50764
G1 X130.811 Y89.921 E.24426
G1 X130.84 Y89.852 E.00235
G1 X130.952 Y89.74 E.00495
G1 X131.021 Y89.711 E.00235
G1 X135.379 Y89.711 E.13664
G1 X135.448 Y89.74 E.00235
G1 X135.56 Y89.852 E.00495
G1 X135.589 Y89.921 E.00235
G1 X135.589 Y100.079 E.31849
G1 X135.56 Y100.148 E.00235
G1 X135.448 Y100.26 E.00495
G1 X135.379 Y100.289 E.00235
G1 X116.989 Y100.289 E.57662
G1 X116.989 Y120.079 E.62051
G1 X116.96 Y120.148 E.00235
G1 X116.848 Y120.26 E.00495
G1 X116.779 Y120.289 E.00235
G1 X114.621 Y120.289 E.06766
G1 X114.552 Y120.26 E.00235
G1 X114.44 Y120.148 E.00495
G1 X114.411 Y120.079 E.00235
G1 X114.417 Y97.907 E.69518
M204 S1000
; printing object escritorio_lateral1.stl id:0 copy 0
;WIPE_START
G1 F8640
G1 X114.552 Y97.74 E-.04953
G1 X114.621 Y97.711 E-.01732
G1 X117.623 Y97.711 E-.69315
;WIPE_END
G1 E-.04 F2100
G1 Z.6 F720
G1 X116.374 Y99.087 F10800
G1 Z.2 F720
G1 E.8 F2100
M204 S800
;TYPE:Perimeter
;WIDTH:0.506512
G1 F1200
G1 X116.257 Y99.157 E.00525
;WIDTH:0.470852
G1 X116.007 Y99.307 E.01039
;WIDTH:0.463438
G1 X115.853 Y99.643 E.01291
;WIDTH:0.491684
G1 X115.7 Y99.979 E.01378
G1 X115.686 Y99.475 E.01879
;WIDTH:0.463438
