; generated by PrusaSlicer 2.2.0+linux-x64 on 2020-11-30 at 03:19:30 UTC

; 

; external perimeters extrusion width = 0.45mm
; perimeters extrusion width = 0.45mm
; infill extrusion width = 0.45mm
; solid infill extrusion width = 0.45mm
; top infill extrusion width = 0.40mm
; first layer extrusion width = 0.42mm

M73 P0 R353
M201 X9000 Y9000 Z500 E10000 ; sets maximum accelerations, mm/sec^2
M203 X500 Y500 Z12 E120 ; sets maximum feedrates, mm/sec
M204 P2000 R1500 T2000 ; sets acceleration (P, T) and retract acceleration (R), mm/sec^2
M205 X10.00 Y10.00 Z0.20 E4.50 ; sets the jerk limits, mm/sec
M205 S0 T0 ; sets the minimum extruding and travel feed rate, mm/sec
M107
M862.3 P "MK2.5" ; printer model check
M862.1 P0.4 ; nozzle diameter check
M115 U3.9.1 ; tell printer latest fw version
G90 ; use absolute coordinates
M83 ; extruder relative mode
M104 S215 ; set extruder temp
M140 S60 ; set bed temp
M190 S60 ; wait for bed temp
M109 S215 ; wait for extruder temp
G28 W ; home all without mesh bed level
G80 ; mesh bed leveling
G1 Y-3.0 F1000.0 ; go outside print area
G92 E0.0
G1 X60.0 E9.0 F1000.0 ; intro line
M73 P0 R353
G1 X100.0 E12.5 F1000.0 ; intro line
G92 E0.0
G21 ; set units to millimeters
G90 ; use absolute coordinates
M83 ; use relative distances for extrusion
M900 K0.05 ; Filament gcode LA 1.5
M900 K30 ; Filament gcode LA 1.0
;BEFORE_LAYER_CHANGE
G92 E0.0
;0.2


G1 E-0.80000 F2100.00000
G1 Z0.600 F10800.000
;AFTER_LAYER_CHANGE
;0.2
;CURRENT_Z: 0.2
G1 X121.613 Y104.914
G1 Z0.200
G1 E0.80000 F2100.00000
M204 S1000
G1 F1200.000
G1 X121.613 Y120.617 E0.49238
G1 X121.386 Y121.755 E0.03638
G1 X120.821 Y122.866 E0.03907
G1 X119.935 Y123.830 E0.04106
G1 X119.080 Y124.418 E0.03253
G1 X118.085 Y124.802 E0.03346
G1 X113.993 Y124.917 E0.12834
G1 X112.031 Y124.265 E0.06481
G1 X111.392 Y123.761 E0.02554
G1 X110.494 Y122.749 E0.04242
G1 X110.085 Y121.933 E0.02862
G1 X109.787 Y120.710 E0.03947
G1 X109.787 Y97.253 E0.73546
G1 X110.435 Y95.330 E0.06363
G1 X110.939 Y94.692 E0.02550
G1 X111.951 Y93.794 E0.04242
G1 X112.767 Y93.385 E0.02861
G1 X113.898 Y93.098 E0.03658
G1 X126.191 Y93.087 E0.38544
G1 X126.214 Y89.085 E0.12548
G1 X126.517 Y87.979 E0.03595
G1 X127.109 Y86.960 E0.03695
G1 X128.117 Y85.962 E0.04449
G1 X129.139 Y85.394 E0.03666
G1 X130.276 Y85.102 E0.03681
G1 X136.122 Y85.104 E0.18329
G1 X137.006 Y85.297 E0.02835
G1 X137.854 Y85.671 E0.02906
G1 X139.060 Y86.687 E0.04947
G1 X139.771 Y87.727 E0.03949
G1 X140.166 Y88.955 E0.04044
G1 X140.214 Y100.744 E0.36965
G1 X139.565 Y102.670 E0.06370
G1 X139.061 Y103.308 E0.02550
G1 X138.049 Y104.206 E0.04242
G1 X137.232 Y104.615 E0.02864
G1 X136.055 Y104.908 E0.03804
G1 X121.673 Y104.914 E0.45092
G1 X121.236 Y104.536 F10800.000
G1 F1200.000
G1 X121.236 Y120.599 E0.50364
G1 X121.038 Y121.608 E0.03223
G1 X120.497 Y122.672 E0.03743
G1 X119.703 Y123.532 E0.03672
G1 X118.920 Y124.076 E0.02989
G1 X118.040 Y124.426 E0.02969
G1 X114.015 Y124.539 E0.12624
G1 X112.238 Y123.948 E0.05872
G1 X111.661 Y123.496 E0.02298
G1 X110.818 Y122.556 E0.03960
G1 X110.445 Y121.820 E0.02585
G1 X110.164 Y120.686 E0.03664
G1 X110.164 Y97.284 E0.73377
G1 X110.752 Y95.537 E0.05778
G1 X111.204 Y94.961 E0.02295
G1 X112.144 Y94.118 E0.03960
G1 X112.880 Y93.745 E0.02587
G1 X113.968 Y93.469 E0.03518
G1 X126.566 Y93.464 E0.39500
G1 X126.591 Y89.112 E0.13643
G1 X126.873 Y88.104 E0.03284
G1 X127.392 Y87.210 E0.03239
G1 X128.364 Y86.248 E0.04289
G1 X129.258 Y85.753 E0.03205
G1 X130.301 Y85.479 E0.03381
G1 X136.101 Y85.481 E0.18185
G1 X136.905 Y85.660 E0.02581
G1 X137.675 Y86.004 E0.02644
G1 X138.796 Y86.957 E0.04614
G1 X139.442 Y87.915 E0.03623
G1 X139.798 Y89.041 E0.03702
G1 X139.836 Y100.715 E0.36603
G1 X139.248 Y102.463 E0.05783
G1 X138.796 Y103.039 E0.02295
G1 X137.856 Y103.882 E0.03960
G1 X137.120 Y104.255 E0.02585
G1 X135.986 Y104.536 E0.03664
G1 X121.296 Y104.536 E0.46059
G1 X120.859 Y104.159 F10800.000
G1 F1200.000
G1 X120.859 Y120.581 E0.51491
G1 X120.689 Y121.463 E0.02814
G1 X120.202 Y122.436 E0.03413
G1 X119.440 Y123.262 E0.03522
G1 X118.761 Y123.734 E0.02594
G1 X117.932 Y124.063 E0.02795
G1 X114.039 Y124.161 E0.12211
G1 X112.444 Y123.631 E0.05269
G1 X111.929 Y123.230 E0.02045
G1 X111.142 Y122.360 E0.03679
G1 X110.805 Y121.706 E0.02308
G1 X110.541 Y120.662 E0.03376
G1 X110.541 Y97.314 E0.73206
G1 X111.069 Y95.743 E0.05197
G1 X111.470 Y95.229 E0.02043
G1 X112.340 Y94.442 E0.03679
G1 X112.994 Y94.105 E0.02308
G1 X114.038 Y93.841 E0.03376
G1 X126.941 Y93.841 E0.40459
G1 X126.961 Y89.187 E0.14590
G1 X127.212 Y88.272 E0.02977
G1 X127.705 Y87.422 E0.03080
G1 X128.609 Y86.536 E0.03971
G1 X129.378 Y86.111 E0.02755
G1 X130.326 Y85.856 E0.03077
G1 X136.079 Y85.859 E0.18038
G1 X136.801 Y86.024 E0.02323
G1 X137.494 Y86.336 E0.02384
G1 X138.530 Y87.226 E0.04280
G1 X139.113 Y88.100 E0.03296
G1 X139.429 Y89.124 E0.03361
G1 X139.459 Y100.685 E0.36247
G1 X138.931 Y102.257 E0.05199
G1 X138.530 Y102.771 E0.02043
G1 X137.660 Y103.558 E0.03679
G1 X137.006 Y103.895 E0.02308
G1 X135.962 Y104.159 E0.03376
G1 X120.919 Y104.159 E0.47166
G1 X120.482 Y103.782 F10800.000
G1 F1200.000
G1 X120.482 Y120.564 E0.52619
G1 X120.340 Y121.318 E0.02404
G1 X119.877 Y122.242 E0.03242
G1 X119.179 Y122.988 E0.03203
G1 X118.566 Y123.410 E0.02335
G1 X117.826 Y123.700 E0.02489
G1 X114.063 Y123.784 E0.11802
G1 X112.649 Y123.313 E0.04673
G1 X112.196 Y122.963 E0.01795
G1 X111.464 Y122.163 E0.03399
G1 X111.165 Y121.589 E0.02030
G1 X110.918 Y120.638 E0.03082
G1 X110.918 Y97.345 E0.73033
G1 X111.387 Y95.949 E0.04619
G1 X111.737 Y95.496 E0.01793
G1 X112.537 Y94.764 E0.03399
G1 X113.111 Y94.465 E0.02030
G1 X114.062 Y94.218 E0.03082
G1 X127.318 Y94.218 E0.41562
G1 X127.331 Y89.263 E0.15536
G1 X127.569 Y88.396 E0.02818
G1 X128.016 Y87.636 E0.02765
G1 X128.853 Y86.824 E0.03656
G1 X129.500 Y86.468 E0.02316
G1 X130.352 Y86.233 E0.02770
G1 X136.057 Y86.236 E0.17886
G1 X136.696 Y86.386 E0.02059
G1 X137.312 Y86.667 E0.02125
G1 X138.262 Y87.492 E0.03945
G1 X138.782 Y88.283 E0.02968
G1 X139.060 Y89.206 E0.03021
G1 X139.082 Y100.655 E0.35896
G1 X138.613 Y102.051 E0.04620
G1 X138.263 Y102.504 E0.01793
G1 X137.463 Y103.236 E0.03399
G1 X136.889 Y103.535 E0.02030
G1 X135.938 Y103.782 E0.03082
G1 X120.542 Y103.782 E0.48272
G1 X120.105 Y103.405 F10800.000
G1 F1200.000
G1 X120.105 Y120.548 E0.53749
G1 X119.990 Y121.176 E0.02003
G1 X119.582 Y122.006 E0.02899
G1 X118.918 Y122.715 E0.03046
G1 X118.373 Y123.086 E0.02069
G1 X117.722 Y123.336 E0.02184
G1 X114.088 Y123.406 E0.11397
G1 X112.853 Y122.994 E0.04083
G1 X112.461 Y122.695 E0.01547
G1 X111.785 Y121.964 E0.03121
G1 X111.523 Y121.471 E0.01752
G1 X111.295 Y120.613 E0.02783
G1 X111.295 Y97.376 E0.72858
G1 X111.706 Y96.153 E0.04045
G1 X112.005 Y95.761 E0.01546
G1 X112.736 Y95.085 E0.03121
G1 X113.229 Y94.823 E0.01752
G1 X114.087 Y94.595 E0.02783
G1 X127.695 Y94.595 E0.42665
G1 X127.702 Y89.338 E0.16482
G1 X127.925 Y88.521 E0.02656
G1 X128.326 Y87.852 E0.02444
G1 X129.096 Y87.114 E0.03344
G1 X129.624 Y86.825 E0.01889
G1 X130.379 Y86.610 E0.02461
G1 X135.992 Y86.608 E0.17597
G1 X136.591 Y86.749 E0.01929
G1 X137.129 Y86.997 E0.01859
G1 X137.993 Y87.758 E0.03609
G1 X138.450 Y88.464 E0.02639
G1 X138.691 Y89.286 E0.02684
G1 X138.705 Y100.624 E0.35552
G1 X138.294 Y101.847 E0.04045
G1 X137.995 Y102.239 E0.01546
G1 X137.264 Y102.915 E0.03121
G1 X136.771 Y103.177 E0.01752
G1 X135.913 Y103.405 E0.02783
G1 X120.165 Y103.405 E0.49375
G1 X119.728 Y103.028 F10800.000
G1 F1200.000
G1 X119.728 Y120.532 E0.54882
G1 X119.639 Y121.034 E0.01599
G1 X119.257 Y121.813 E0.02721
G1 X118.661 Y122.439 E0.02711
G1 X118.182 Y122.760 E0.01807
G1 X117.621 Y122.971 E0.01880
G1 X114.114 Y123.029 E0.10995
G1 X113.055 Y122.675 E0.03501
G1 X112.725 Y122.425 E0.01301
G1 X112.104 Y121.762 E0.02845
G1 X111.880 Y121.349 E0.01474
G1 X111.672 Y120.587 E0.02477
G1 X111.672 Y97.406 E0.72681
G1 X112.025 Y96.355 E0.03476
G1 X112.275 Y96.025 E0.01301
G1 X112.938 Y95.404 E0.02845
G1 X113.351 Y95.180 E0.01474
G1 X114.113 Y94.972 E0.02477
G1 X128.072 Y94.972 E0.43767
G1 X128.072 Y89.413 E0.17429
G1 X128.282 Y88.647 E0.02490
G1 X128.634 Y88.071 E0.02116
G1 X129.336 Y87.405 E0.03036
G1 X129.750 Y87.181 E0.01476
G1 X130.408 Y86.987 E0.02149
G1 X135.929 Y86.980 E0.17312
G1 X136.451 Y87.099 E0.01677
G1 X136.944 Y87.328 E0.01706
G1 X137.722 Y88.021 E0.03265
G1 X138.117 Y88.642 E0.02309
G1 X138.321 Y89.362 E0.02348
G1 X138.328 Y100.594 E0.35215
G1 X137.975 Y101.645 E0.03476
G1 X137.725 Y101.975 E0.01301
G1 X137.062 Y102.596 E0.02845
G1 X136.649 Y102.820 E0.01474
G1 X135.887 Y103.028 E0.02477
G1 X119.788 Y103.028 E0.50476
G1 X119.351 Y102.651 F10800.000
G1 F1200.000
G1 X119.351 Y120.517 E0.56017
G1 X119.287 Y120.897 E0.01207
G1 X118.962 Y121.575 E0.02359
G1 X118.403 Y122.163 E0.02545
G1 X117.994 Y122.432 E0.01535
G1 X117.522 Y122.606 E0.01578
G1 X114.142 Y122.651 E0.10599
G1 X113.257 Y122.355 E0.02926
G1 X112.986 Y122.153 E0.01059
G1 X112.422 Y121.557 E0.02573
G1 X112.237 Y121.224 E0.01196
G1 X112.049 Y120.560 E0.02162
G1 X112.049 Y97.437 E0.72501
G1 X112.345 Y96.557 E0.02912
G1 X112.547 Y96.286 E0.01059
G1 X113.143 Y95.722 E0.02573
G1 X113.476 Y95.537 E0.01196
G1 X114.140 Y95.349 E0.02162
G1 X128.449 Y95.349 E0.44865
G1 X128.449 Y89.440 E0.18527
G1 X128.637 Y88.776 E0.02165
G1 X128.913 Y88.326 E0.01652
G1 X129.542 Y87.722 E0.02735
G1 X129.877 Y87.536 E0.01203
G1 X130.488 Y87.357 E0.01996
G1 X135.869 Y87.353 E0.16870
G1 X136.311 Y87.450 E0.01422
G1 X136.759 Y87.658 E0.01548
G1 X137.450 Y88.283 E0.02920
G1 X137.762 Y88.771 E0.01818
G1 X137.951 Y89.440 E0.02179
G1 X137.951 Y100.563 E0.34875
G1 X137.655 Y101.443 E0.02912
G1 X137.453 Y101.714 E0.01059
G1 X136.857 Y102.278 E0.02573
G1 X136.524 Y102.463 E0.01196
G1 X135.860 Y102.651 E0.02162
G1 X119.411 Y102.651 E0.51575
G1 X118.974 Y102.274 F10800.000
G1 F1200.000
G1 X118.974 Y120.504 E0.57159
G1 X118.935 Y120.760 E0.00812
G1 X118.636 Y121.383 E0.02167
G1 X118.149 Y121.884 E0.02189
G1 X117.809 Y122.103 E0.01269
G1 X117.425 Y122.241 E0.01278
G1 X114.170 Y122.274 E0.10208
G1 X113.456 Y122.034 E0.02361
G1 X113.246 Y121.879 E0.00819
G1 X112.737 Y121.349 E0.02305
G1 X112.591 Y121.094 E0.00919
G1 X112.426 Y120.532 E0.01838
G1 X112.426 Y97.468 E0.72316
G1 X112.666 Y96.756 E0.02355
G1 X112.821 Y96.546 E0.00819
G1 X113.351 Y96.037 E0.02305
G1 X113.606 Y95.891 E0.00919
G1 X114.168 Y95.726 E0.01838
G1 X128.826 Y95.726 E0.45959
G1 X128.826 Y89.468 E0.19622
G1 X128.991 Y88.907 E0.01834
G1 X129.192 Y88.580 E0.01204
G1 X129.751 Y88.037 E0.02442
G1 X130.006 Y87.891 E0.00921
G1 X130.568 Y87.726 E0.01839
G1 X135.846 Y87.730 E0.16547
G1 X136.205 Y87.813 E0.01156
G1 X136.571 Y87.985 E0.01268
G1 X137.176 Y88.543 E0.02580
G1 X137.408 Y88.905 E0.01347
G1 X137.574 Y89.468 E0.01841
G1 X137.574 Y100.532 E0.34691
G1 X137.334 Y101.244 E0.02355
G1 X137.179 Y101.454 E0.00819
G1 X136.649 Y101.963 E0.02305
G1 X136.394 Y102.109 E0.00919
G1 X135.832 Y102.274 E0.01838
G1 X119.034 Y102.274 E0.52669
G1 X118.597 Y101.897 F10800.000
G1 F1200.000
G1 X118.597 Y120.488 E0.58291
G1 X118.567 Y120.670 E0.00579
G1 X118.313 Y121.187 E0.01806
G1 X117.897 Y121.602 E0.01842
G1 X117.661 Y121.756 E0.00882
G1 X117.328 Y121.875 E0.01108
G1 X114.199 Y121.897 E0.09811
G1 X113.654 Y121.712 E0.01807
G1 X113.504 Y121.603 E0.00580
G1 X113.049 Y121.136 E0.02044
G1 X112.944 Y120.959 E0.00643
G1 X112.803 Y120.502 E0.01500
G1 X112.803 Y97.499 E0.72126
G1 X112.988 Y96.954 E0.01806
G1 X113.097 Y96.804 E0.00580
G1 X113.564 Y96.349 E0.02044
G1 X113.741 Y96.244 E0.00643
G1 X114.198 Y96.103 E0.01500
G1 X129.203 Y96.103 E0.47049
G1 X129.203 Y89.498 E0.20711
G1 X129.344 Y89.042 E0.01494
G1 X129.474 Y88.832 E0.00775
G1 X129.964 Y88.349 E0.02159
G1 X130.141 Y88.244 E0.00643
G1 X130.598 Y88.103 E0.01500
G1 X135.824 Y88.107 E0.16387
G1 X136.062 Y88.162 E0.00767
G1 X136.382 Y88.313 E0.01109
G1 X136.901 Y88.801 E0.02233
G1 X137.056 Y89.042 E0.00898
G1 X137.197 Y89.498 E0.01495
G1 X137.197 Y100.501 E0.34501
G1 X137.012 Y101.046 E0.01806
G1 X136.903 Y101.196 E0.00580
G1 X136.436 Y101.651 E0.02044
G1 X136.259 Y101.756 E0.00643
G1 X135.802 Y101.897 E0.01500
G1 X118.657 Y101.897 E0.53759
G1 X118.220 Y101.520 F10800.000
G1 F1200.000
G1 X118.220 Y120.471 E0.59419
G1 X118.201 Y120.579 E0.00345
G1 X118.024 Y120.943 E0.01270
G1 X117.644 Y121.322 E0.01682
G1 X117.513 Y121.408 E0.00492
G1 X117.232 Y121.509 E0.00936
G1 X114.230 Y121.520 E0.09411
G1 X113.848 Y121.388 E0.01268
G1 X113.759 Y121.325 E0.00343
G1 X113.356 Y120.918 E0.01795
G1 X113.294 Y120.817 E0.00371
G1 X113.180 Y120.471 E0.01144
G1 X113.180 Y97.531 E0.71926
M73 P0 R352
G1 X113.312 Y97.148 E0.01270
G1 X113.375 Y97.059 E0.00343
G1 X113.782 Y96.656 E0.01795
G1 X113.883 Y96.594 E0.00371
G1 X114.229 Y96.480 E0.01144
G1 X129.580 Y96.480 E0.48132
G1 X129.580 Y89.529 E0.21794
G1 X129.694 Y89.183 E0.01144
G1 X129.756 Y89.083 E0.00369
G1 X130.183 Y88.656 E0.01893
G1 X130.283 Y88.594 E0.00369
G1 X130.629 Y88.480 E0.01143
G1 X135.802 Y88.484 E0.16218
G1 X135.919 Y88.511 E0.00377
G1 X136.192 Y88.640 E0.00947
G1 X136.623 Y89.057 E0.01880
G1 X136.707 Y89.185 E0.00479
G1 X136.820 Y89.529 E0.01136
G1 X136.820 Y100.469 E0.34301
G1 X136.688 Y100.852 E0.01270
G1 X136.625 Y100.941 E0.00343
G1 X136.218 Y101.344 E0.01795
G1 X136.117 Y101.406 E0.00371
G1 X135.771 Y101.520 E0.01144
G1 X118.280 Y101.520 E0.54841
G1 X117.843 Y101.143 F10800.000
G1 F1200.000
G1 X117.843 Y120.450 E0.60536
G1 X117.733 Y120.700 E0.00856
G1 X117.390 Y121.043 E0.01522
G1 X117.136 Y121.143 E0.00856
G1 X114.264 Y121.143 E0.09002
G1 X114.010 Y121.043 E0.00856
G1 X113.657 Y120.690 E0.01566
G1 X113.557 Y120.436 E0.00856
G1 X113.557 Y97.564 E0.71711
G1 X113.657 Y97.310 E0.00856
G1 X114.010 Y96.957 E0.01566
G1 X114.264 Y96.857 E0.00856
G1 X129.957 Y96.857 E0.49204
G1 X129.957 Y89.564 E0.22866
G1 X130.057 Y89.310 E0.00856
G1 X130.410 Y88.957 E0.01566
G1 X130.664 Y88.857 E0.00856
G1 X135.750 Y88.857 E0.15945
G1 X136.000 Y88.967 E0.00856
G1 X136.361 Y89.337 E0.01622
G1 X136.443 Y89.564 E0.00757
G1 X136.443 Y100.436 E0.34086
G1 X136.343 Y100.690 E0.00856
G1 X135.963 Y101.061 E0.01666
G1 X135.736 Y101.143 E0.00757
G1 X117.903 Y101.143 E0.55914
G1 X117.466 Y100.766 F10800.000
G1 F1200.000
G1 X117.466 Y120.394 E0.61542
G1 X117.437 Y120.463 E0.00235
G1 X117.163 Y120.737 E0.01215
G1 X117.094 Y120.766 E0.00235
G1 X114.306 Y120.766 E0.08740
G1 X114.237 Y120.737 E0.00235
G1 X113.963 Y120.463 E0.01215
G1 X113.934 Y120.394 E0.00235
G1 X113.934 Y97.606 E0.71448
G1 X113.963 Y97.537 E0.00235
G1 X114.237 Y97.263 E0.01215
G1 X114.306 Y97.234 E0.00235
G1 X130.334 Y97.234 E0.50255
G1 X130.334 Y89.606 E0.23917
G1 X130.363 Y89.537 E0.00235
G1 X130.637 Y89.263 E0.01215
G1 X130.706 Y89.234 E0.00235
G1 X135.694 Y89.234 E0.15638
G1 X135.763 Y89.263 E0.00235
G1 X136.037 Y89.537 E0.01215
G1 X136.066 Y89.606 E0.00235
G1 X136.066 Y100.394 E0.33823
G1 X136.037 Y100.463 E0.00235
G1 X135.763 Y100.737 E0.01215
G1 X135.694 Y100.766 E0.00235
G1 X117.526 Y100.766 E0.56965
G1 X117.089 Y100.389 F10800.000
G1 F1200.000
G1 X117.089 Y120.278 E0.62362
G1 X116.978 Y120.389 E0.00490
G1 X114.422 Y120.389 E0.08015
G1 X114.311 Y120.278 E0.00490
G1 X114.311 Y97.722 E0.70723
G1 X114.422 Y97.611 E0.00490
G1 X130.711 Y97.611 E0.51075
G1 X130.711 Y89.722 E0.24737
G1 X130.822 Y89.611 E0.00490
G1 X135.578 Y89.611 E0.14913
G1 X135.689 Y89.722 E0.00490
G1 X135.689 Y100.278 E0.33098
G1 X135.578 Y100.389 E0.00490
G1 X117.149 Y100.389 E0.57785
G1 X116.490 Y99.790 F10800.000
G1 F1200.000
G1 X116.490 Y119.790 E0.62709
G1 X114.910 Y119.790 E0.04954
G1 X114.910 Y98.210 E0.67663
G1 X131.310 Y98.210 E0.51421
G1 X131.310 Y90.210 E0.25083
G1 X135.090 Y90.210 E0.11852
G1 X135.090 Y99.790 E0.30037
G1 X116.550 Y99.790 E0.58131
G1 X116.095 Y99.853 F10800.000
G1 X116.113 Y99.413
G1 F1200.000
G1 X116.113 Y119.413 E0.62709
G1 X115.287 Y119.413 E0.02589
G1 X115.287 Y98.587 E0.65298
G1 X131.687 Y98.587 E0.51421
G1 X131.687 Y90.587 E0.25083
G1 X134.713 Y90.587 E0.09487
G1 X134.713 Y99.413 E0.27673
G1 X116.173 Y99.413 E0.58131
G1 X115.736 Y99.036 F10800.000
G1 F1200.000
G1 X115.736 Y119.036 E0.62709
G1 X115.664 Y119.036 E0.00225
G1 X115.664 Y98.964 E0.62933
