; generated by PrusaSlicer 2.8.0 on 2024-09-21 at 14:29:02 UTC

; 

; external perimeters extrusion width = 0.45mm
; perimeters extrusion width = 0.45mm
; infill extrusion width = 0.45mm
; solid infill extrusion width = 0.45mm
; top infill extrusion width = 0.40mm
; first layer extrusion width = 0.42mm

M73 P0 R154
M201 X9000 Y9000 Z500 E10000 ; sets maximum accelerations, mm/sec^2
M203 X500 Y500 Z12 E120 ; sets maximum feedrates, mm / sec
M204 S2000 T1500 ; sets acceleration (S) and retract acceleration (R), mm/sec^2
M205 X10.00 Y10.00 Z0.20 E4.50 ; sets the jerk limits, mm/sec
M205 S0 T0 ; sets the minimum extruding and travel feed rate, mm/sec

; printing object escritorio_conector_duto2.stl id:0 copy 0
; stop printing object escritorio_conector_duto2.stl id:0 copy 0

;TYPE:Custom
M862.3 P "MK2.5" ; printer model check
M862.1 P0.4 ; nozzle diameter check
M115 U3.11.0 ; tell printer latest fw version
G90 ; use absolute coordinates
M83 ; extruder relative mode
M104 S215 ; set extruder temp
M140 S60 ; set bed temp
M190 S60 ; wait for bed temp
M109 S215 ; wait for extruder temp
G28 W ; home all without mesh bed level
G80 ; mesh bed leveling

G1 Z0.2 F720
G1 Y-3 F1000 ; go outside print area
M73 P0 R153
G92 E0
G1 X60 E9 F1000 ; intro line
G1 X100 E12.5 F1000 ; intro line

G92 E0
G21 ; set units to millimeters
G90 ; use absolute coordinates
M83 ; use relative distances for extrusion
M900 K0.05 ; Filament gcode LA 1.5
M900 K30 ; Filament gcode LA 1.0
M107
;LAYER_CHANGE
;Z:0.2
;HEIGHT:0.2
G1 E-.8 F2100
G1 Z.6 F720
G1 X23.202 Y23.752 F10800
G1 Z.2 F720
G1 E.8 F2100
M204 S800
;TYPE:Skirt/Brim
;WIDTH:0.42
G1 F1200
G1 X24.235 Y22.95 E.041
G1 X25 Y22.812 E.02437
G1 X225 Y22.812 E6.27086
G1 X226.248 Y23.203 E.04101
G1 X227.051 Y24.236 E.04102
G1 X227.189 Y25 E.02434
G1 X227.189 Y185 E5.01669
G1 X226.798 Y186.248 E.04101
G1 X225.765 Y187.05 E.041
G1 X225 Y187.188 E.02437
G1 X25 Y187.188 E6.27086
G1 X23.752 Y186.797 E.04101
G1 X22.949 Y185.764 E.04102
G1 X22.811 Y185 E.02434
G1 X22.811 Y25 E5.01669
G1 X23.184 Y23.809 E.03913
M204 S1000
;WIPE_START
G1 F8640
G1 X23.202 Y23.752 E-.0138
G1 X24.235 Y22.95 E-.30197
G1 X25 Y22.812 E-.17949
G1 X26.32 Y22.812 E-.30474
;WIPE_END
G1 Z.6 F720
; printing object escritorio_conector_duto2.stl id:0 copy 0
G1 X123.537 Y184.928 F10800
G1 Z.2 F720
G1 E.8 F2100
M204 S800
;TYPE:External perimeter
;WIDTH:0.425514
G1 F1200
G1 X122.697 Y184.887 E.02675
;WIDTH:0.468107
G1 X121.858 Y184.845 E.0297
;WIDTH:0.5107
G1 X121.018 Y184.804 E.03271
;WIDTH:0.553294
G1 X120.179 Y184.763 E.03565
;WIDTH:0.595887
G1 X119.34 Y184.722 E.03862
;WIDTH:0.63848
G1 X118.5 Y184.68 E.04165
M204 S1000
;WIPE_START
G1 F8640
G1 X119.34 Y184.722 E-.1942
G1 X120.179 Y184.763 E-.19396
G1 X121.018 Y184.804 E-.19396
G1 X121.858 Y184.845 E-.19419
G1 X121.961 Y184.85 E-.02369
;WIPE_END
G1 Z.6 F720
G1 X126.463 Y184.928 F10800
G1 Z.2 F720
G1 E.8 F2100
M204 S800
;WIDTH:0.425514
G1 F1200
G1 X127.303 Y184.887 E.02675
;WIDTH:0.468107
G1 X128.142 Y184.845 E.0297
;WIDTH:0.5107
G1 X128.981 Y184.804 E.03267
;WIDTH:0.553294
G1 X129.821 Y184.763 E.03569
;WIDTH:0.595887
G1 X130.66 Y184.722 E.03862
;WIDTH:0.63848
G1 X131.5 Y184.68 E.04165
M204 S1000
;WIPE_START
G1 F8640
G1 X130.66 Y184.722 E-.1942
G1 X129.821 Y184.763 E-.19396
G1 X128.981 Y184.804 E-.19419
G1 X128.142 Y184.845 E-.19396
G1 X128.039 Y184.85 E-.02369
;WIPE_END
G1 Z.6 F720
G1 X211.053 Y169.007 F10800
G1 Z.2 F720
G1 E.8 F2100
M204 S800
;TYPE:Perimeter
;WIDTH:0.419999
G1 F1200
G1 X211.708 Y168.798 E.02156
G1 X212.445 Y168.715 E.02325
G1 X213.185 Y168.777 E.02328
G1 X213.897 Y168.981 E.02322
G1 X214.557 Y169.322 E.02329
G1 X215.137 Y169.784 E.02325
G1 X215.617 Y170.351 E.02329
G1 X215.976 Y171 E.02325
G1 X216.202 Y171.707 E.02327
G1 X216.285 Y172.444 E.02325
G1 X216.223 Y173.184 E.02328
G1 X216.019 Y173.897 E.02325
G1 X215.678 Y174.557 E.02329
G1 X215.216 Y175.137 E.02325
G1 X214.649 Y175.616 E.02327
G1 X214 Y175.976 E.02327
G1 X213.294 Y176.202 E.02324
G1 X212.555 Y176.285 E.02332
G1 X211.817 Y176.224 E.02322
G1 X211.102 Y176.018 E.02333
G1 X210.443 Y175.677 E.02326
G1 X209.863 Y175.216 E.02323
G1 X209.384 Y174.648 E.0233
G1 X209.024 Y174.001 E.02322
G1 X208.798 Y173.293 E.0233
G1 X208.715 Y172.554 E.02332
G1 X208.776 Y171.817 E.02319
G1 X208.982 Y171.102 E.02333
G1 X209.322 Y170.443 E.02325
G1 X209.863 Y169.784 E.02673
G1 X210.396 Y169.35 E.02155
G1 X210.996 Y169.026 E.02138
M204 S1000
G1 X210.996 Y169.026 F10800
G1 X211.195 Y169.351
M204 S800
;TYPE:External perimeter
G1 F1200
G1 X211.817 Y169.159 E.02041
G1 X212.482 Y169.09 E.02096
G1 X213.147 Y169.152 E.02094
G1 X213.787 Y169.342 E.02093
G1 X214.379 Y169.654 E.02098
G1 X214.898 Y170.075 E.02095
G1 X215.325 Y170.59 E.02098
G1 X215.644 Y171.178 E.02097
G1 X215.841 Y171.817 E.02097
G1 X215.91 Y172.481 E.02093
G1 X215.848 Y173.147 E.02097
G1 X215.658 Y173.788 E.02096
G1 X215.346 Y174.379 E.02095
G1 X214.925 Y174.898 E.02095
G1 X214.41 Y175.325 E.02098
G1 X213.822 Y175.643 E.02096
G1 X213.184 Y175.841 E.02095
G1 X212.518 Y175.91 E.02099
G1 X211.853 Y175.849 E.02094
G1 X211.211 Y175.657 E.02101
G1 X210.621 Y175.345 E.02093
G1 X210.102 Y174.924 E.02095
G1 X209.675 Y174.409 E.02098
G1 X209.357 Y173.823 E.0209
G1 X209.158 Y173.183 E.02101
G1 X209.09 Y172.518 E.02096
G1 X209.151 Y171.853 E.02094
G1 X209.343 Y171.212 E.02098
G1 X209.655 Y170.621 E.02095
G1 X209.993 Y170.202 E.01688
G1 X210.606 Y169.664 E.02557
G1 X211.141 Y169.376 E.01905
M204 S1000
;WIPE_START
G1 F8640
G1 X211.195 Y169.351 E-.01374
G1 X211.817 Y169.159 E-.15031
G1 X212.482 Y169.09 E-.15437
G1 X213.147 Y169.152 E-.15422
G1 X213.787 Y169.342 E-.15415
G1 X214.379 Y169.654 E-.15452
G1 X214.442 Y169.705 E-.01869
;WIPE_END
G1 Z.6 F720
G1 X209.827 Y40.173 F10800
G1 Z.2 F720
G1 E.8 F2100
M204 S800
;TYPE:Perimeter
G1 F1200
G1 X209.384 Y39.649 E.02151
G1 X209.024 Y39 E.02327
G1 X208.798 Y38.294 E.02324
G1 X208.715 Y37.555 E.02332
G1 X208.776 Y36.817 E.02322
G1 X208.982 Y36.102 E.02333
G1 X209.323 Y35.443 E.02326
G1 X209.784 Y34.863 E.02323
G1 X210.352 Y34.384 E.0233
G1 X210.999 Y34.025 E.0232
G1 X211.707 Y33.798 E.02331
G1 X212.446 Y33.715 E.02332
G1 X213.183 Y33.776 E.02319
G1 X213.898 Y33.982 E.02333
G1 X214.557 Y34.322 E.02325
G1 X215.137 Y34.784 E.02325
G1 X215.617 Y35.352 E.02332
G1 X215.976 Y35.999 E.0232
G1 X216.202 Y36.708 E.02333
G1 X216.285 Y37.445 E.02325
G1 X216.223 Y38.185 E.02328
G1 X216.019 Y38.897 E.02322
G1 X215.678 Y39.557 E.02329
G1 X215.216 Y40.138 E.02327
G1 X214.649 Y40.617 E.02327
G1 X214 Y40.976 E.02325
G1 X213.293 Y41.202 E.02327
G1 X212.556 Y41.285 E.02325
G1 X211.816 Y41.223 E.02328
G1 X211.08 Y41.012 E.02401
G1 X210.443 Y40.678 E.02255
G1 X209.866 Y40.219 E.02312
M204 S1000
G1 X209.866 Y40.219 F10800
G1 X210.09 Y39.91
M204 S800
;TYPE:External perimeter
G1 F1200
G1 X209.675 Y39.41 E.02037
G1 X209.357 Y38.822 E.02096
G1 X209.159 Y38.184 E.02095
G1 X209.09 Y37.518 E.02099
G1 X209.151 Y36.854 E.02091
G1 X209.343 Y36.211 E.02104
G1 X209.655 Y35.621 E.02093
G1 X210.076 Y35.102 E.02095
G1 X210.591 Y34.675 E.02098
G1 X211.177 Y34.357 E.0209
G1 X211.817 Y34.159 E.02101
G1 X212.482 Y34.09 E.02096
G1 X213.147 Y34.151 E.02094
G1 X213.788 Y34.343 E.02098
G1 X214.379 Y34.655 E.02095
G1 X214.898 Y35.076 E.02095
G1 X215.325 Y35.591 E.02098
G1 X215.644 Y36.177 E.02092
G1 X215.841 Y36.817 E.021
G1 X215.91 Y37.482 E.02096
G1 X215.848 Y38.147 E.02094
G1 X215.658 Y38.788 E.02096
G1 X215.346 Y39.379 E.02095
G1 X214.925 Y39.898 E.02095
G1 X214.41 Y40.325 E.02098
G1 X213.822 Y40.644 E.02097
G1 X213.183 Y40.841 E.02097
G1 X212.519 Y40.91 E.02093
G1 X211.853 Y40.848 E.02097
G1 X211.204 Y40.656 E.02122
G1 X210.621 Y40.346 E.0207
G1 X210.134 Y39.951 E.01966
M204 S1000
;WIPE_START
G1 F8640
G1 X210.09 Y39.91 E-.01389
G1 X209.675 Y39.41 E-.15004
G1 X209.357 Y38.822 E-.15435
G1 X209.159 Y38.184 E-.15425
G1 X209.09 Y37.518 E-.1546
G1 X209.151 Y36.854 E-.15397
G1 X209.174 Y36.776 E-.0189
;WIPE_END
G1 Z.6 F720
G1 X36.053 Y40.993 F10800
G1 Z.2 F720
G1 E.8 F2100
M204 S800
;TYPE:Perimeter
G1 F1200
G1 X35.443 Y40.678 E.02153
G1 X34.863 Y40.216 E.02325
G1 X34.383 Y39.649 E.02329
G1 X34.024 Y39 E.02325
G1 X33.777 Y38.185 E.0267
G1 X33.715 Y37.556 E.01982
G1 X33.777 Y36.816 E.02328
G1 X33.981 Y36.103 E.02325
G1 X34.322 Y35.443 E.02329
G1 X34.784 Y34.863 E.02325
G1 X35.351 Y34.384 E.02327
G1 X36 Y34.024 E.02327
G1 X36.706 Y33.798 E.02324
G1 X37.445 Y33.715 E.02332
G1 X38.183 Y33.776 E.02322
G1 X38.898 Y33.982 E.02333
G1 X39.547 Y34.316 E.02289
G1 X40.136 Y34.783 E.02357
G1 X40.616 Y35.352 E.02334
G1 X40.975 Y35.999 E.0232
G1 X41.202 Y36.707 E.02331
G1 X41.285 Y37.446 E.02332
G1 X41.224 Y38.183 E.02319
G1 X41.018 Y38.898 E.02333
G1 X40.678 Y39.557 E.02325
G1 X40.216 Y40.138 E.02327
G1 X39.648 Y40.617 E.0233
G1 X39.001 Y40.976 E.0232
G1 X38.292 Y41.202 E.02333
G1 X37.555 Y41.285 E.02325
G1 X36.815 Y41.223 E.02328
G1 X36.107 Y41.02 E.02309
M204 S1000
G1 X36.196 Y40.649 F10800
M204 S800
;TYPE:External perimeter
G1 F1200
G1 X35.621 Y40.346 E.02038
G1 X35.102 Y39.925 E.02095
G1 X34.675 Y39.41 E.02098
G1 X34.356 Y38.822 E.02097
G1 X34.152 Y38.147 E.02211
G1 X34.09 Y37.519 E.01979
G1 X34.152 Y36.853 E.02097
G1 X34.342 Y36.212 E.02096
G1 X34.654 Y35.621 E.02095
G1 X35.075 Y35.102 E.02095
G1 X35.59 Y34.675 E.02098
G1 X36.178 Y34.357 E.02096
G1 X36.816 Y34.159 E.02095
G1 X37.482 Y34.09 E.02099
G1 X38.147 Y34.151 E.02094
G1 X38.789 Y34.343 E.02101
G1 X39.369 Y34.649 E.02056
G1 X39.897 Y35.075 E.02127
G1 X40.325 Y35.591 E.02102
G1 X40.643 Y36.177 E.0209
G1 X40.842 Y36.817 E.02101
G1 X40.91 Y37.482 E.02096
G1 X40.849 Y38.147 E.02094
G1 X40.657 Y38.788 E.02098
G1 X40.345 Y39.379 E.02095
G1 X39.924 Y39.898 E.02095
G1 X39.409 Y40.325 E.02098
G1 X38.823 Y40.644 E.02092
G1 X38.183 Y40.841 E.021
G1 X37.518 Y40.91 E.02096
G1 X36.853 Y40.848 E.02094
G1 X36.252 Y40.67 E.01965
M204 S1000
;WIPE_START
G1 F8640
G1 X36.196 Y40.649 E-.01381
G1 X35.621 Y40.346 E-.15008
G1 X35.102 Y39.925 E-.15431
G1 X34.675 Y39.41 E-.15447
G1 X34.356 Y38.822 E-.15446
G1 X34.152 Y38.147 E-.16282
G1 X34.148 Y38.104 E-.01005
;WIPE_END
G1 Z.6 F720
G1 X37.5 Y168.719 F10800
G1 Z.2 F720
G1 E.8 F2100
M204 S800
;TYPE:Perimeter
G1 F1200
G1 X38.184 Y168.777 E.02152
G1 X38.897 Y168.981 E.02325
G1 X39.557 Y169.322 E.02329
G1 X40.137 Y169.784 E.02325
G1 X40.616 Y170.351 E.02327
G1 X40.976 Y171 E.02327
G1 X41.202 Y171.706 E.02324
G1 X41.285 Y172.445 E.02332
G1 X41.202 Y173.293 E.02672
G1 X41.018 Y173.898 E.01983
G1 X40.677 Y174.557 E.02326
G1 X40.216 Y175.137 E.02323
G1 X39.648 Y175.616 E.0233
G1 X39.001 Y175.975 E.0232
G1 X38.293 Y176.202 E.02331
G1 X37.554 Y176.285 E.02332
G1 X36.817 Y176.224 E.02319
G1 X36.102 Y176.018 E.02333
G1 X35.443 Y175.678 E.02325
G1 X34.863 Y175.216 E.02325
G1 X34.383 Y174.648 E.02332
G1 X34.024 Y174.001 E.0232
G1 X33.798 Y173.292 E.02333
G1 X33.715 Y172.555 E.02325
G1 X33.777 Y171.815 E.02328
G1 X33.981 Y171.103 E.02322
G1 X34.322 Y170.443 E.02329
G1 X34.784 Y169.862 E.02327
G1 X35.351 Y169.383 E.02327
G1 X36 Y169.024 E.02325
G1 X36.707 Y168.798 E.02327
G1 X37.44 Y168.715 E.02313
M204 S1000
G1 X37.44 Y168.715 F10800
G1 X37.5 Y169.092
M204 S800
;TYPE:External perimeter
G1 F1200
G1 X38.147 Y169.152 E.02037
G1 X38.788 Y169.342 E.02096
G1 X39.379 Y169.654 E.02095
G1 X39.898 Y170.075 E.02095
G1 X40.325 Y170.59 E.02098
G1 X40.643 Y171.178 E.02096
G1 X40.841 Y171.816 E.02095
G1 X40.91 Y172.482 E.02099
G1 X40.842 Y173.183 E.02208
G1 X40.657 Y173.789 E.01987
G1 X40.345 Y174.379 E.02093
G1 X39.924 Y174.898 E.02095
G1 X39.409 Y175.325 E.02098
G1 X38.823 Y175.643 E.0209
G1 X38.183 Y175.841 E.02101
G1 X37.518 Y175.91 E.02096
G1 X36.853 Y175.849 E.02094
G1 X36.212 Y175.657 E.02098
G1 X35.621 Y175.345 E.02095
G1 X35.102 Y174.924 E.02095
G1 X34.675 Y174.409 E.02098
G1 X34.356 Y173.823 E.02092
G1 X34.159 Y173.183 E.021
G1 X34.09 Y172.518 E.02096
G1 X34.152 Y171.853 E.02094
G1 X34.342 Y171.212 E.02096
G1 X34.654 Y170.621 E.02095
G1 X35.075 Y170.102 E.02095
G1 X35.59 Y169.675 E.02098
G1 X36.178 Y169.356 E.02097
G1 X36.817 Y169.159 E.02097
G1 X37.44 Y169.094 E.01964
M204 S1000
;WIPE_START
G1 F8640
G1 X37.5 Y169.092 E-.01386
G1 X38.147 Y169.152 E-.15004
G1 X38.788 Y169.342 E-.15437
G1 X39.379 Y169.654 E-.15431
G1 X39.898 Y170.075 E-.15431
G1 X40.325 Y170.59 E-.15447
G1 X40.363 Y170.661 E-.01864
;WIPE_END
G1 Z.6 F720
G1 X109.814 Y184.213 F10800
G1 Z.2 F720
M73 P0 R152
G1 E.8 F2100
M204 S800
;TYPE:Perimeter
G1 F1200
G1 X25.787 Y184.213 E2.6346
G1 X25.787 Y25.787 E4.96733
G1 X224.213 Y25.787 E6.2215
G1 X224.213 Y31.08 E.16596
G1 X224.213 Y184.213 E4.80137
G1 X140.186 Y184.213 E2.6346
G1 X154.054 Y179.995 E.45449
M73 P1 R152
G1 X167.15 Y172.982 E.46578
G1 X178.628 Y163.55 E.46581
G1 X188.044 Y152.058 E.46583
G1 X195.037 Y138.95 E.46582
G1 X199.34 Y124.73 E.46582
G1 X200.786 Y109.945 E.46578
G1 X199.34 Y95.269 E.46238
G1 X195.037 Y81.049 E.46582
G1 X188.187 Y68.209 E.4563
G1 X187.985 Y67.852 E.01286
G1 X178.549 Y56.373 E.46591
G1 X167.058 Y46.956 E.46582
G1 X153.951 Y39.962 E.46581
G1 X139.84 Y35.681 E.46235
G1 X125.055 Y34.215 E.46585
G1 X110.269 Y35.66 E.46581
G1 X96.049 Y39.962 E.46581
G1 X82.942 Y46.956 E.46581
G1 X71.451 Y56.373 E.46582
G1 X61.956 Y67.942 E.46926
G1 X54.963 Y81.049 E.46579
G1 X50.66 Y95.269 E.46582
G1 X49.214 Y110.056 E.46585
G1 X50.682 Y124.839 E.46579
G1 X55.005 Y139.053 E.46583
G1 X62.014 Y152.146 E.46564
G1 X71.372 Y163.55 E.46254
G1 X82.85 Y172.982 E.46581
G1 X95.946 Y179.995 E.46578
G1 X109.757 Y184.196 E.45262
M204 S1000
;WIPE_START
G1 F8640
G1 X109.814 Y184.213 E-.01373
G1 X106.409 Y184.213 E-.78627
;WIPE_END
G1 Z.6 F720
G1 X118.4 Y184.715 F10800
G1 Z.2 F720
G1 E.8 F2100
M204 S800
;TYPE:External perimeter
;WIDTH:0.592121
G1 F1200
G1 X118.367 Y184.727 E.0016
;WIDTH:0.545761
G1 X118.3 Y184.75 E.00296
;WIDTH:0.499401
G1 X118.234 Y184.773 E.00265
;WIDTH:0.453041
G1 X118.167 Y184.796 E.00242
;WIDTH:0.406681
G1 X118.101 Y184.819 E.00211
;WIDTH:0.409404
G1 X117.04 Y184.795 E.03234
;WIDTH:0.426938
G1 X113.069 Y184.604 E.12695
;WIDTH:0.433165
G1 X112.746 Y184.595 E.01049
;WIDTH:0.459879
G1 X112.065 Y184.57 E.02363
;WIDTH:0.502413
G1 X111.171 Y184.549 E.03417
;WIDTH:0.544947
G1 X110.277 Y184.528 E.03733
G1 X110.176 Y184.544 E.00427
;WIDTH:0.513267
G1 X102.803 Y184.567 E.28836
;WIDTH:0.466633
G1 X95.429 Y184.59 E.2598
;WIDTH:0.419999
G1 X25.41 Y184.59 E2.19539
G1 X25.41 Y25.41 E4.99097
M73 P1 R151
G1 X224.59 Y25.41 E6.24514
G1 X224.59 Y31.08 E.17778
G1 X224.59 Y184.59 E4.81319
G1 X154.571 Y184.59 E2.19539
;WIDTH:0.455961
G1 X149.655 Y184.572 E.16884
;WIDTH:0.491923
G1 X144.74 Y184.554 E.1835
;WIDTH:0.527885
G1 X139.824 Y184.536 E.19824
;WIDTH:0.544946
G1 X138.829 Y184.549 E.04154
;WIDTH:0.502413
G1 X137.935 Y184.57 E.03417
;WIDTH:0.459879
G1 X137.932 Y184.571 E.00011
;WIDTH:0.459568
G1 X136.936 Y184.604 E.03452
;WIDTH:0.427064
G1 X132.96 Y184.795 E.12715
;WIDTH:0.409403
G1 X132.833 Y184.797 E.00387
;WIDTH:0.406179
G1 X131.899 Y184.819 E.02822
;WIDTH:0.406682
G1 X131.833 Y184.796 E.00211
;WIDTH:0.453042
G1 X131.766 Y184.773 E.00242
;WIDTH:0.499401
G1 X131.7 Y184.75 E.00265
;WIDTH:0.545761
G1 X131.633 Y184.727 E.00296
;WIDTH:0.592121
G1 X131.567 Y184.704 E.00319
;WIDTH:0.63848
G1 X131.5 Y184.68 E.00352
G1 X131.564 Y184.651 E.00348
;WIDTH:0.592121
G1 X131.628 Y184.621 E.00323
;WIDTH:0.545761
G1 X131.692 Y184.592 E.00294
;WIDTH:0.499401
G1 X131.756 Y184.562 E.00268
;WIDTH:0.453042
G1 X131.82 Y184.532 E.00241
;WIDTH:0.406682
G1 X131.884 Y184.503 E.00213
;WIDTH:0.409403
G1 X132.941 Y184.429 E.03229
;WIDTH:0.426939
G1 X136.912 Y184.221 E.12697
;WIDTH:0.433165
G1 X137.232 Y184.206 E.0104
;WIDTH:0.459568
G1 X137.908 Y184.155 E.02349
;WIDTH:0.502257
G1 X138.804 Y184.091 E.03431
;WIDTH:0.544946
G1 X139.699 Y184.027 E.03746
G1 X139.746 Y184.009 E.0021
;WIDTH:0.527885
G1 X144.444 Y182.565 E.19819
;WIDTH:0.491923
G1 X149.143 Y181.121 E.18353
;WIDTH:0.455961
G1 X153.842 Y179.677 E.16883
;WIDTH:0.419999
G1 X166.88 Y172.711 E.46349
G1 X178.31 Y163.337 E.46349
G1 X187.712 Y151.88 E.4647
G1 X194.676 Y138.841 E.46348
G1 X198.964 Y124.693 E.46353
G1 X200.411 Y109.982 E.46348
G1 X198.964 Y95.306 E.46239
G1 X194.676 Y81.159 E.4635
