; generated by PrusaSlicer 2.2.0+linux-x64 on 2020-11-16 at 21:58:11 UTC

; 

; external perimeters extrusion width = 0.45mm
; perimeters extrusion width = 0.45mm
; infill extrusion width = 0.45mm
; solid infill extrusion width = 0.45mm
; top infill extrusion width = 0.40mm
; first layer extrusion width = 0.42mm

M73 P0 R6
M201 X9000 Y9000 Z500 E10000 ; sets maximum accelerations, mm/sec^2
M203 X500 Y500 Z12 E120 ; sets maximum feedrates, mm/sec
M204 P2000 R1500 T2000 ; sets acceleration (P, T) and retract acceleration (R), mm/sec^2
M205 X10.00 Y10.00 Z0.20 E4.50 ; sets the jerk limits, mm/sec
M205 S0 T0 ; sets the minimum extruding and travel feed rate, mm/sec
M107
M862.3 P "MK2.5" ; printer model check
M862.1 P0.4 ; nozzle diameter check
M115 U3.9.1 ; tell printer latest fw version
G90 ; use absolute coordinates
M83 ; extruder relative mode
M104 S215 ; set extruder temp
M140 S60 ; set bed temp
M190 S60 ; wait for bed temp
M109 S215 ; wait for extruder temp
G28 W ; home all without mesh bed level
G80 ; mesh bed leveling
G1 Y-3.0 F1000.0 ; go outside print area
G92 E0.0
G1 X60.0 E9.0 F1000.0 ; intro line
M73 P0 R6
G1 X100.0 E12.5 F1000.0 ; intro line
G92 E0.0
G21 ; set units to millimeters
G90 ; use absolute coordinates
M83 ; use relative distances for extrusion
M900 K0.05 ; Filament gcode LA 1.5
M900 K30 ; Filament gcode LA 1.0
;BEFORE_LAYER_CHANGE
G92 E0.0
;0.2


G1 E-0.80000 F2100.00000
G1 Z0.600 F10800.000
;AFTER_LAYER_CHANGE
;0.2
;CURRENT_Z: 0.2
G1 X105.430 Y92.019
G1 Z0.200
G1 E0.80000 F2100.00000
M204 S1000
G1 F1200.000
G1 X106.076 Y91.923 E0.02048
G1 X143.904 Y91.923 E1.18606
G1 X144.788 Y92.095 E0.02825
G1 X145.542 Y92.581 E0.02813
G1 X146.062 Y93.313 E0.02813
G1 X146.274 Y94.185 E0.02813
G1 X146.275 Y115.810 E0.67806
G1 X146.179 Y116.376 E0.01799
G1 X145.952 Y116.899 E0.01787
G1 X145.608 Y117.353 E0.01787
G1 X145.165 Y117.712 E0.01787
G1 X144.570 Y117.981 E0.02048
G1 X143.924 Y118.077 E0.02048
G1 X106.058 Y118.077 E1.18726
G1 X105.475 Y117.993 E0.01846
G1 X104.934 Y117.771 E0.01835
G1 X104.460 Y117.421 E0.01846
G1 X104.088 Y116.965 E0.01846
G1 X103.821 Y116.377 E0.02024
G1 X103.723 Y115.739 E0.02024
G1 X103.724 Y94.228 E0.67448
G1 X103.813 Y93.653 E0.01823
G1 X104.038 Y93.117 E0.01823
G1 X104.387 Y92.652 E0.01823
G1 X104.835 Y92.288 E0.01811
G1 X105.375 Y92.044 E0.01860
G1 F8640.000
G1 X106.076 Y91.923 E-0.16417
G1 X108.656 Y91.923 E-0.59583
G1 E-0.04000 F2100.00000
G1 Z0.800 F10800.000
G1 X107.264 Y95.464
G1 Z0.200
G1 E0.80000 F2100.00000
G1 F1200.000
G1 X119.336 Y95.464 E0.37850
G1 X119.336 Y104.464 E0.28219
G1 X130.664 Y104.464 E0.35519
G1 X130.664 Y95.464 E0.28219
G1 X142.736 Y95.464 E0.37850
G1 X142.736 Y114.536 E0.59798
G1 X142.664 Y114.536 E0.00225
G1 X142.664 Y104.536 E0.31354
G1 X107.336 Y104.536 E1.10769
G1 X107.336 Y114.536 E0.31354
G1 X107.264 Y114.536 E0.00225
G1 X107.264 Y95.524 E0.59610
G1 F8640.000
G1 X110.556 Y95.508 E-0.76000
G1 E-0.04000 F2100.00000
G1 Z0.800 F10800.000
G1 X119.713 Y104.087
G1 Z0.200
G1 E0.80000 F2100.00000
G1 F1200.000
G1 X130.287 Y104.087 E0.33155
G1 X130.287 Y95.087 E0.28219
G1 X143.113 Y95.087 E0.40215
G1 X143.113 Y114.913 E0.62163
G1 X142.287 Y114.913 E0.02589
G1 X142.287 Y104.913 E0.31354
G1 X107.713 Y104.913 E1.08405
G1 X107.713 Y114.913 E0.31354
G1 X106.887 Y114.913 E0.02589
G1 X106.887 Y95.087 E0.62163
G1 X119.713 Y95.087 E0.40215
G1 X119.713 Y104.027 E0.28031
G1 X120.090 Y103.710 F10800.000
G1 F1200.000
G1 X129.910 Y103.710 E0.30790
G1 X129.910 Y94.710 E0.28219
G1 X143.490 Y94.710 E0.42579
G1 X143.490 Y115.290 E0.64527
G1 X141.910 Y115.290 E0.04954
G1 X141.910 Y105.290 E0.31354
G1 X108.090 Y105.290 E1.06040
G1 X108.090 Y115.290 E0.31354
G1 X106.510 Y115.290 E0.04954
G1 X106.510 Y94.710 E0.64527
G1 X120.090 Y94.710 E0.42579
G1 X120.090 Y103.650 E0.28031
G1 X120.219 Y104.089 F10800.000
G1 F8640.000
G1 X123.381 Y103.670 E-0.76000
G1 E-0.04000 F2100.00000
G1 Z0.800 F10800.000
G1 X118.687 Y104.421
G1 Z0.200
G1 E0.80000 F2100.00000
G1 F1200.000
G1 X119.038 Y103.111 E0.04252
G1 X119.038 Y95.762 E0.23044
G1 X114.686 Y95.762 E0.13646
G1 X112.415 Y104.238 E0.27514
G1 X107.562 Y104.238 E0.15215
G1 X107.562 Y98.756 E0.17189
G1 X108.413 Y95.579 E0.10312
G1 F8640.000
G1 X107.562 Y98.756 E-0.75944
G1 X107.562 Y98.758 E-0.00056
G1 E-0.04000 F2100.00000
G1 Z0.800 F10800.000
G1 X107.379 Y97.225
G1 Z0.200
G1 E0.80000 F2100.00000
G1 F1200.000
G1 X113.522 Y95.579 E0.19941
G1 F8640.000
G1 X110.343 Y96.431 E-0.76000
G1 E-0.04000 F2100.00000
G1 Z0.800 F10800.000
G1 X115.986 Y104.421
G1 Z0.200
G1 E0.80000 F2100.00000
G1 F1200.000
G1 X107.562 Y95.997 E0.37353
G1 X107.562 Y95.762 E0.00738
G1 X115.962 Y95.762 E0.26338
G1 X119.221 Y99.021 E0.14452
G1 F8640.000
G1 X116.894 Y96.694 E-0.76000
G1 E-0.04000 F2100.00000
G1 Z0.800 F10800.000
G1 X119.221 Y100.373
G1 Z0.200
G1 E0.80000 F2100.00000
G1 F1200.000
G1 X107.379 Y103.546 E0.38441
G1 F8640.000
G1 X110.558 Y102.695 E-0.76000
G1 E-0.04000 F2100.00000
G1 Z0.800 F10800.000
G1 X137.652 Y104.421
G1 Z0.200
G1 E0.80000 F2100.00000
G1 F1200.000
G1 X139.972 Y95.762 E0.28108
G1 X133.651 Y95.762 E0.19821
G1 X131.330 Y104.421 E0.28108
G1 X130.779 Y103.598 F10800.000
G1 F1200.000
G1 X142.621 Y100.425 E0.38441
G1 F8640.000
G1 X139.442 Y101.277 E-0.76000
G1 E-0.04000 F2100.00000
G1 Z0.800 F10800.000
G1 X142.621 Y96.515
G1 Z0.200
G1 E0.80000 F2100.00000
G1 F1200.000
G1 X141.868 Y95.762 E0.03338
G1 X133.233 Y95.762 E0.27076
G1 X141.709 Y104.238 E0.37584
G1 X133.074 Y104.238 E0.27076
G1 X130.779 Y101.943 E0.10175
G1 F8640.000
G1 X133.074 Y104.238 E-0.74934
G1 X133.120 Y104.238 E-0.01066
G1 E-0.04000 F2100.00000
G1 Z0.800 F10800.000
G1 X130.779 Y97.276
G1 Z0.200
G1 E0.80000 F2100.00000
G1 F1200.000
G1 X137.114 Y95.579 E0.20566
M106 S255
;BEFORE_LAYER_CHANGE
G92 E0.0
;0.4


G1 F8640.000
G1 X133.935 Y96.431 E-0.76000
G1 E-0.04000 F2100.00000
G1 Z0.800 F10800.000
;AFTER_LAYER_CHANGE
;0.4
;CURRENT_Z: 0.4
M104 S210 ; set temperature
G1 X144.788 Y92.095
G1 Z0.400
G1 E0.80000 F2100.00000
G1 F2418
G1 X145.542 Y92.581 E0.02813
G1 X146.062 Y93.313 E0.02813
G1 X146.274 Y94.185 E0.02813
G1 X146.275 Y115.810 E0.67806
G1 X146.179 Y116.376 E0.01799
G1 X145.952 Y116.899 E0.01787
G1 X145.608 Y117.353 E0.01787
G1 X145.165 Y117.712 E0.01787
G1 X144.570 Y117.981 E0.02048
G1 X143.924 Y118.077 E0.02048
G1 X106.058 Y118.077 E1.18726
G1 X105.475 Y117.993 E0.01846
G1 X104.934 Y117.771 E0.01835
G1 X104.460 Y117.421 E0.01846
G1 X104.088 Y116.965 E0.01846
G1 X103.821 Y116.377 E0.02024
G1 X103.723 Y115.739 E0.02024
G1 X103.724 Y94.228 E0.67448
G1 X103.813 Y93.653 E0.01823
G1 X104.038 Y93.117 E0.01823
G1 X104.387 Y92.652 E0.01823
G1 X104.835 Y92.288 E0.01811
G1 X105.430 Y92.019 E0.02048
G1 X106.076 Y91.923 E0.02048
G1 X143.904 Y91.923 E1.18606
G1 X144.729 Y92.084 E0.02637
G1 F8640.000
G1 X145.542 Y92.581 E-0.22012
G1 X146.062 Y93.313 E-0.20719
G1 X146.274 Y94.185 E-0.20719
G1 X146.274 Y94.728 E-0.12550
G1 E-0.04000 F2100.00000
G1 Z1.000 F10800.000
G1 X142.861 Y95.339
G1 Z0.400
G1 E0.80000 F2100.00000
M204 S800
G1 F2418
G1 X142.861 Y114.661 E0.65402
G1 X142.539 Y114.661 E0.01089
G1 X142.539 Y104.661 E0.33849
G1 X107.461 Y104.661 E1.18736
G1 X107.461 Y114.661 E0.33849
G1 X107.139 Y114.661 E0.01089
G1 X107.139 Y95.339 E0.65402
G1 X119.461 Y95.339 E0.41707
G1 X119.461 Y104.339 E0.30464
G1 X130.539 Y104.339 E0.37499
G1 X130.539 Y95.339 E0.30464
G1 X142.801 Y95.339 E0.41504
M204 S1000
G1 F8640.000
G1 X142.811 Y98.631 E-0.76000
G1 E-0.04000 F2100.00000
G1 Z1.000 F10800.000
G1 X119.868 Y103.932
G1 Z0.400
G1 E0.80000 F2100.00000
M204 S800
G1 F2418
G1 X130.132 Y103.932 E0.34743
G1 X130.132 Y94.932 E0.30464
G1 X143.268 Y94.932 E0.44463
G1 X143.268 Y115.068 E0.68157
G1 X142.132 Y115.068 E0.03845
G1 X142.132 Y105.068 E0.33849
G1 X107.868 Y105.068 E1.15980
G1 X107.868 Y115.068 E0.33849
G1 X106.732 Y115.068 E0.03845
G1 X106.732 Y94.932 E0.68157
G1 X119.868 Y94.932 E0.44463
G1 X119.868 Y103.872 E0.30261
M204 S1000
G1 X120.275 Y103.525 F10800.000
M204 S800
G1 F2400.000
G1 X129.725 Y103.525 E0.31987
G1 X129.725 Y94.525 E0.30464
G1 X143.675 Y94.525 E0.47219
G1 X143.675 Y115.475 E0.70913
G1 X141.725 Y115.475 E0.06601
G1 X141.725 Y105.475 E0.33849
G1 X108.275 Y105.475 E1.13224
M73 P16 R5
G1 X108.275 Y115.475 E0.33849
G1 X106.325 Y115.475 E0.06601
G1 X106.325 Y94.525 E0.70913
G1 X120.275 Y94.525 E0.47219
G1 X120.275 Y103.465 E0.30261
M204 S1000
G1 X120.406 Y103.903 F10800.000
G1 F8640.000
G1 X123.566 Y103.486 E-0.76000
G1 E-0.04000 F2100.00000
G1 Z1.000 F10800.000
G1 X118.509 Y104.539
G1 Z0.400
G1 E0.80000 F2100.00000
M204 S2000
G1 F2418
G1 X119.156 Y102.126 E0.08453
G1 X119.156 Y95.644 E0.21941
G1 X114.571 Y95.644 E0.15519
G1 X112.237 Y104.356 E0.30526
G1 X107.444 Y104.356 E0.16221
G1 X107.444 Y98.648 E0.19320
G1 X108.298 Y95.461 E0.11167
M204 S1000
G1 F8640.000
G1 X107.446 Y98.641 E-0.76000
G1 E-0.04000 F2100.00000
G1 Z1.000 F10800.000
G1 X107.261 Y97.403
G1 Z0.400
G1 E0.80000 F2100.00000
M204 S2000
G1 F2418
G1 X114.507 Y95.461 E0.25390
M204 S1000
G1 F8640.000
G1 X111.328 Y96.313 E-0.76000
G1 E-0.04000 F2100.00000
G1 Z1.000 F10800.000
G1 X119.339 Y98.939
G1 Z0.400
G1 E0.80000 F2100.00000
M204 S2000
G1 F2418
G1 X116.044 Y95.644 E0.15770
G1 X107.444 Y95.644 E0.29110
G1 X107.444 Y95.680 E0.00120
G1 X116.120 Y104.356 E0.41530
G1 X107.485 Y104.356 E0.29230
G1 X107.261 Y104.132 E0.01069
M204 S1000
G1 X107.261 Y103.724 F10800.000
M204 S2000
G1 F2418
G1 X119.339 Y100.488 E0.42323
M204 S1000
G1 F8640.000
G1 X116.159 Y101.340 E-0.76000
G1 E-0.04000 F2100.00000
G1 Z1.000 F10800.000
G1 X137.474 Y104.539
G1 Z0.400
G1 E0.80000 F2100.00000
M204 S2000
G1 F2418
G1 X139.857 Y95.644 E0.31168
G1 X133.536 Y95.644 E0.21398
G1 X131.152 Y104.539 E0.31168
M204 S1000
G1 X130.661 Y103.776 F10800.000
M204 S2000
G1 F2418
G1 X142.739 Y100.540 E0.42323
M204 S1000
G1 F8640.000
G1 X139.559 Y101.392 E-0.76000
G1 E-0.04000 F2100.00000
G1 Z1.000 F10800.000
G1 X142.739 Y96.432
G1 Z0.400
G1 E0.80000 F2100.00000
M204 S2000
G1 F2418
G1 X141.951 Y95.644 E0.03772
G1 X133.315 Y95.644 E0.29230
G1 X142.026 Y104.356 E0.41699
G1 X133.391 Y104.356 E0.29230
G1 X130.661 Y101.626 E0.13067
M204 S1000
G1 F8640.000
G1 X132.989 Y103.953 E-0.76000
G1 E-0.04000 F2100.00000
G1 Z1.000 F10800.000
G1 X130.661 Y97.454
G1 Z0.400
G1 E0.80000 F2100.00000
M204 S2000
G1 F2418
G1 X138.099 Y95.461 E0.26065
M204 S1000
;BEFORE_LAYER_CHANGE
G92 E0.0
;0.6


G1 F8640.000
G1 X134.920 Y96.313 E-0.76000
G1 E-0.04000 F2100.00000
G1 Z1.000 F10800.000
;AFTER_LAYER_CHANGE
;0.6
;CURRENT_Z: 0.6
G1 X144.788 Y92.095
G1 Z0.600
G1 E0.80000 F2100.00000
G1 F2421
G1 X145.542 Y92.581 E0.02813
G1 X146.062 Y93.313 E0.02813
G1 X146.274 Y94.185 E0.02813
G1 X146.275 Y115.810 E0.67806
G1 X146.179 Y116.376 E0.01799
G1 X145.952 Y116.899 E0.01787
G1 X145.608 Y117.353 E0.01787
G1 X145.165 Y117.712 E0.01787
G1 X144.570 Y117.981 E0.02048
G1 X143.924 Y118.077 E0.02048
G1 X106.058 Y118.077 E1.18726
G1 X105.475 Y117.993 E0.01846
G1 X104.934 Y117.771 E0.01835
G1 X104.460 Y117.421 E0.01846
G1 X104.088 Y116.965 E0.01846
G1 X103.821 Y116.377 E0.02024
G1 X103.723 Y115.739 E0.02024
G1 X103.724 Y94.228 E0.67448
G1 X103.813 Y93.653 E0.01823
G1 X104.038 Y93.117 E0.01823
G1 X104.387 Y92.652 E0.01823
G1 X104.835 Y92.288 E0.01811
G1 X105.430 Y92.019 E0.02048
G1 X106.076 Y91.923 E0.02048
G1 X143.904 Y91.923 E1.18606
G1 X144.729 Y92.084 E0.02637
G1 F8640.000
G1 X145.542 Y92.581 E-0.22012
G1 X146.062 Y93.313 E-0.20719
G1 X146.274 Y94.185 E-0.20719
G1 X146.274 Y94.728 E-0.12550
G1 E-0.04000 F2100.00000
G1 Z1.200 F10800.000
G1 X142.861 Y95.339
G1 Z0.600
G1 E0.80000 F2100.00000
M204 S800
G1 F2421
G1 X142.861 Y114.661 E0.65402
G1 X142.539 Y114.661 E0.01089
G1 X142.539 Y104.661 E0.33849
G1 X107.461 Y104.661 E1.18736
G1 X107.461 Y114.661 E0.33849
G1 X107.139 Y114.661 E0.01089
G1 X107.139 Y95.339 E0.65402
G1 X119.461 Y95.339 E0.41707
G1 X119.461 Y104.339 E0.30464
G1 X130.539 Y104.339 E0.37499
G1 X130.539 Y95.339 E0.30464
G1 X142.801 Y95.339 E0.41504
M204 S1000
G1 F8640.000
G1 X142.811 Y98.631 E-0.76000
G1 E-0.04000 F2100.00000
G1 Z1.200 F10800.000
G1 X119.868 Y103.932
G1 Z0.600
G1 E0.80000 F2100.00000
M204 S800
G1 F2421
G1 X130.132 Y103.932 E0.34743
G1 X130.132 Y94.932 E0.30464
G1 X143.268 Y94.932 E0.44463
G1 X143.268 Y115.068 E0.68157
G1 X142.132 Y115.068 E0.03845
G1 X142.132 Y105.068 E0.33849
G1 X107.868 Y105.068 E1.15980
G1 X107.868 Y115.068 E0.33849
G1 X106.732 Y115.068 E0.03845
G1 X106.732 Y94.932 E0.68157
G1 X119.868 Y94.932 E0.44463
G1 X119.868 Y103.872 E0.30261
M204 S1000
G1 X120.275 Y103.525 F10800.000
M204 S800
G1 F2400.000
G1 X129.725 Y103.525 E0.31987
G1 X129.725 Y94.525 E0.30464
G1 X143.675 Y94.525 E0.47219
G1 X143.675 Y115.475 E0.70913
G1 X141.725 Y115.475 E0.06601
G1 X141.725 Y105.475 E0.33849
G1 X108.275 Y105.475 E1.13224
G1 X108.275 Y115.475 E0.33849
G1 X106.325 Y115.475 E0.06601
G1 X106.325 Y94.525 E0.70913
G1 X120.275 Y94.525 E0.47219
G1 X120.275 Y103.465 E0.30261
M204 S1000
G1 X120.406 Y103.903 F10800.000
G1 F8640.000
G1 X123.566 Y103.486 E-0.76000
G1 E-0.04000 F2100.00000
G1 Z1.200 F10800.000
G1 X118.363 Y104.539
G1 Z0.600
G1 E0.80000 F2100.00000
M204 S2000
G1 F2421
G1 X119.156 Y101.580 E0.10368
G1 X119.156 Y95.644 E0.20091
G1 X114.424 Y95.644 E0.16014
G1 X112.090 Y104.356 E0.30526
G1 X107.444 Y104.356 E0.15725
G1 X107.444 Y98.101 E0.21170
G1 X108.152 Y95.461 E0.09252
M204 S1000
G1 F8640.000
G1 X107.444 Y98.101 E-0.63112
G1 X107.444 Y98.660 E-0.12888
G1 E-0.04000 F2100.00000
G1 Z1.200 F10800.000
G1 X107.261 Y97.549
G1 Z0.600
G1 E0.80000 F2100.00000
M204 S2000
G1 F2421
G1 X115.053 Y95.461 E0.27305
M204 S1000
G1 F8640.000
G1 X111.874 Y96.313 E-0.76000
G1 E-0.04000 F2100.00000
G1 Z1.200 F10800.000
G1 X119.339 Y98.739
G1 Z0.600
G1 E0.80000 F2100.00000
M204 S2000
G1 F2421
G1 X116.244 Y95.644 E0.14812
G1 X107.609 Y95.644 E0.29230
G1 X116.320 Y104.356 E0.41699
G1 X107.685 Y104.356 E0.29230
G1 X107.261 Y103.932 E0.02027
M204 S1000
G1 X107.261 Y103.871 F10800.000
M204 S2000
G1 F2421
G1 X119.339 Y100.635 E0.42323
M204 S1000
G1 F8640.000
G1 X116.159 Y101.486 E-0.76000
G1 E-0.04000 F2100.00000
G1 Z1.200 F10800.000
G1 X137.328 Y104.539
G1 Z0.600
G1 E0.80000 F2100.00000
M204 S2000
G1 F2421
G1 X139.711 Y95.644 E0.31168
G1 X133.389 Y95.644 E0.21398
G1 X131.006 Y104.539 E0.31168
M204 S1000
G1 X130.661 Y103.922 F10800.000
M204 S2000
G1 F2421
G1 X142.739 Y100.686 E0.42323
M204 S1000
G1 F8640.000
G1 X139.559 Y101.538 E-0.76000
G1 E-0.04000 F2100.00000
G1 Z1.200 F10800.000
G1 X142.739 Y96.232
G1 Z0.600
G1 E0.80000 F2100.00000
M204 S2000
G1 F2421
G1 X142.151 Y95.644 E0.02814
G1 X133.515 Y95.644 E0.29230
G1 X142.226 Y104.356 E0.41699
G1 X133.591 Y104.356 E0.29230
G1 X130.661 Y101.426 E0.14024
M204 S1000
G1 F8640.000
G1 X132.989 Y103.753 E-0.76000
G1 E-0.04000 F2100.00000
G1 Z1.200 F10800.000
G1 X130.661 Y97.601
G1 Z0.600
G1 E0.80000 F2100.00000
M204 S2000
G1 F2421
G1 X138.646 Y95.461 E0.27980
M204 S1000
;BEFORE_LAYER_CHANGE
G92 E0.0
;0.8


G1 F8640.000
G1 X135.466 Y96.313 E-0.76000
G1 E-0.04000 F2100.00000
G1 Z1.200 F10800.000
;AFTER_LAYER_CHANGE
;0.8
;CURRENT_Z: 0.8
G1 X119.461 Y104.339
G1 Z0.800
G1 E0.80000 F2100.00000
M204 S800
G1 F1973
G1 X130.539 Y104.339 E0.37499
G1 X130.539 Y95.339 E0.30464
G1 X142.861 Y95.339 E0.41707
G1 X142.861 Y114.661 E0.65402
G1 X142.539 Y114.661 E0.01089
G1 X142.539 Y104.661 E0.33849
G1 X107.461 Y104.661 E1.18736
G1 X107.461 Y114.661 E0.33849
G1 X107.139 Y114.661 E0.01089
G1 X107.139 Y95.339 E0.65402
G1 X119.461 Y95.339 E0.41707
G1 X119.461 Y104.279 E0.30261
M204 S1000
G1 X119.868 Y103.932 F10800.000
M204 S800
G1 F1973
G1 X130.132 Y103.932 E0.34743
G1 X130.132 Y94.932 E0.30464
G1 X143.268 Y94.932 E0.44463
G1 X143.268 Y115.068 E0.68157
G1 X142.132 Y115.068 E0.03845
G1 X142.132 Y105.068 E0.33849
G1 X107.868 Y105.068 E1.15980
G1 X107.868 Y115.068 E0.33849
G1 X106.732 Y115.068 E0.03845
G1 X106.732 Y94.932 E0.68157
G1 X119.868 Y94.932 E0.44463
G1 X119.868 Y103.872 E0.30261
M204 S1000
G1 X120.275 Y103.525 F10800.000
M204 S800
G1 F1973
G1 X129.725 Y103.525 E0.31987
G1 X129.725 Y94.525 E0.30464
G1 X143.675 Y94.525 E0.47219
G1 X143.675 Y115.475 E0.70913
G1 X141.725 Y115.475 E0.06601
