; generated by PrusaSlicer 2.5.0+linux-x64-GTK3 on 2022-09-09 at 20:20:53 UTC

; 

; external perimeters extrusion width = 0.45mm
; perimeters extrusion width = 0.45mm
; infill extrusion width = 0.45mm
; solid infill extrusion width = 0.45mm
; top infill extrusion width = 0.40mm
; first layer extrusion width = 0.42mm

M73 P0 R266
M201 X9000 Y9000 Z500 E10000 ; sets maximum accelerations, mm/sec^2
M203 X500 Y500 Z12 E120 ; sets maximum feedrates, mm / sec
M204 P2000 R1500 T2000 ; sets acceleration (P, T) and retract acceleration (R), mm/sec^2
M205 X10.00 Y10.00 Z0.20 E4.50 ; sets the jerk limits, mm/sec
M205 S0 T0 ; sets the minimum extruding and travel feed rate, mm/sec
M107
;TYPE:Custom
M862.3 P "MK2.5" ; printer model check
M862.1 P0.4 ; nozzle diameter check
M115 U3.11.0 ; tell printer latest fw version
G90 ; use absolute coordinates
M83 ; extruder relative mode
M104 S215 ; set extruder temp
M140 S60 ; set bed temp
M190 S60 ; wait for bed temp
M109 S215 ; wait for extruder temp
G28 W ; home all without mesh bed level
G80 ; mesh bed leveling

G1 Z0.2 F720
G1 Y-3 F1000 ; go outside print area
G92 E0
G1 X60 E9 F1000 ; intro line
G1 X100 E12.5 F1000 ; intro line

G92 E0
G21 ; set units to millimeters
G90 ; use absolute coordinates
M83 ; use relative distances for extrusion
M900 K0.05 ; Filament gcode LA 1.5
M900 K30 ; Filament gcode LA 1.0
M107
;LAYER_CHANGE
;Z:0.2
;HEIGHT:0.2
;BEFORE_LAYER_CHANGE
G92 E0.0
;0.2


G1 E-.8 F2100
G1 Z.4 F720
;AFTER_LAYER_CHANGE
;0.2
;CURRENT_Z: 0.2
G1 X110.906 Y86.526 F10800
G1 Z.2 F720
G1 E.8 F2100
M204 S800
;TYPE:Skirt/Brim
;WIDTH:0.42
G1 F1200
G1 X111.819 Y85.626 E.04021
G1 X112.874 Y85.038 E.03786
G1 X114.091 Y84.711 E.03952
G1 X129.21 Y84.703 E.47403
G1 X130.292 Y84.944 E.03478
M73 P0 R265
G1 X131.333 Y85.454 E.03632
G1 X132.365 Y86.367 E.04321
G1 X133.082 Y87.48 E.04153
G1 X133.478 Y88.822 E.04388
G1 X133.502 Y93.692 E.15268
G1 X135.828 Y93.7 E.07291
G1 X137.073 Y94.015 E.04028
G1 X138.217 Y94.66 E.04115
G1 X139.331 Y95.833 E.05071
G1 X139.78 Y96.717 E.0311
G1 X140.087 Y97.882 E.03778
G1 X140.115 Y100.901 E.09466
G1 X139.765 Y102.326 E.046
G1 X139.092 Y103.477 E.04179
G1 X138.18 Y104.375 E.04015
G1 X137.126 Y104.962 E.03781
G1 X135.91 Y105.289 E.03951
G1 X121.504 Y105.313 E.45169
G1 X121.443 Y121.341 E.50256
G1 X121.357 Y121.789 E.0143
G1 X120.989 Y122.716 E.03127
G1 X120.3 Y123.706 E.03781
G1 X119.387 Y124.511 E.03817
G1 X118.649 Y124.915 E.02636
G1 X117.829 Y125.199 E.02723
G1 X114.336 Y125.317 E.10959
G1 X112.83 Y124.946 E.04862
G1 X111.725 Y124.294 E.04022
G1 X110.794 Y123.338 E.04186
G1 X110.202 Y122.234 E.03927
G1 X109.887 Y120.918 E.04243
G1 X109.887 Y89.081 E.99821
G1 X110.235 Y87.675 E.04542
G1 X110.876 Y86.578 E.03984
M204 S1000
G1 X111.189 Y86.776 F10800
M204 S800
G1 F1200
G1 X112.065 Y85.913 E.03856
G1 X113.034 Y85.38 E.03469
G1 X114.163 Y85.082 E.03662
G1 X129.149 Y85.075 E.46988
G1 X130.149 Y85.293 E.03208
G1 X131.104 Y85.755 E.03325
G1 X132.062 Y86.594 E.03993
G1 X132.751 Y87.662 E.03984
G1 X133.101 Y88.851 E.03888
G1 X133.127 Y94.068 E.16357
G1 X135.803 Y94.077 E.08388
G1 X136.955 Y94.374 E.03732
G1 X137.964 Y94.942 E.03629
G1 X139.008 Y96.03 E.04728
G1 X139.421 Y96.834 E.02836
G1 X139.71 Y97.91 E.03491
G1 X139.738 Y100.88 E.09313
G1 X139.406 Y102.207 E.04288
G1 X138.781 Y103.262 E.03846
G1 X137.936 Y104.087 E.03703
G1 X136.966 Y104.62 E.0347
G1 X135.837 Y104.918 E.0366
G1 X121.128 Y104.936 E.46119
G1 X121.066 Y121.322 E.51378
G1 X121 Y121.667 E.011
G1 X120.647 Y122.556 E.03001
G1 X120.005 Y123.471 E.03502
G1 X119.156 Y124.213 E.03537
G1 X118.485 Y124.575 E.02391
G1 X117.734 Y124.834 E.0249
G1 X114.35 Y124.939 E.10615
G1 X112.996 Y124.607 E.04371
G1 X111.977 Y124.012 E.03699
G1 X111.082 Y123.094 E.04021
G1 X110.563 Y122.121 E.03458
G1 X110.264 Y120.895 E.03957
G1 X110.264 Y89.104 E.99678
G1 X110.575 Y87.84 E.04082
G1 X111.159 Y86.828 E.03662
M204 S1000
G1 X111.484 Y87.019 F10800
M204 S800
G1 F1200
G1 X112.309 Y86.202 E.03639
G1 X113.193 Y85.723 E.03153
G1 X114.234 Y85.453 E.03374
G1 X129.091 Y85.448 E.46581
G1 X130.008 Y85.644 E.02941
G1 X130.878 Y86.057 E.03018
G1 X131.762 Y86.822 E.03667
G1 X132.398 Y87.797 E.0365
G1 X132.725 Y88.881 E.03547
G1 X132.752 Y94.443 E.17442
G1 X135.777 Y94.454 E.09484
G1 X136.836 Y94.733 E.03434
G1 X137.713 Y95.224 E.03152
G1 X138.687 Y96.229 E.04387
G1 X139.063 Y96.954 E.02563
G1 X139.333 Y97.938 E.03199
G1 X139.36 Y100.86 E.09161
G1 X139.067 Y102.04 E.03814
G1 X138.499 Y103.01 E.03524
G1 X137.691 Y103.798 E.03538
G1 X136.807 Y104.277 E.03153
G1 X135.766 Y104.547 E.03373
G1 X120.752 Y104.559 E.47074
G1 X120.689 Y121.303 E.525
G1 X120.643 Y121.544 E.00769
G1 X120.305 Y122.396 E.02873
G1 X119.711 Y123.233 E.03219
G1 X118.925 Y123.914 E.0326
G1 X118.348 Y124.223 E.02054
G1 X117.638 Y124.468 E.02353
G1 X114.366 Y124.562 E.10265
G1 X113.115 Y124.248 E.04042
G1 X112.192 Y123.701 E.03364
G1 X111.372 Y122.851 E.03703
G1 X110.923 Y122.007 E.02998
G1 X110.641 Y120.871 E.0367
G1 X110.641 Y89.128 E.99531
G1 X110.934 Y87.959 E.03779
G1 X111.454 Y87.07 E.03227
M204 S1000
G1 X111.777 Y87.263 F10800
M204 S800
G1 F1200
G1 X111.812 Y87.205 E.00211
G1 X112.551 Y86.491 E.03222
G1 X113.309 Y86.082 E.02701
G1 X114.306 Y85.824 E.03228
G1 X129.033 Y85.821 E.46177
G1 X129.87 Y85.995 E.02677
G1 X130.653 Y86.361 E.02711
G1 X131.463 Y87.053 E.03341
G1 X132.046 Y87.935 E.03316
G1 X132.348 Y88.911 E.03201
G1 X132.377 Y94.819 E.18525
G1 X135.751 Y94.831 E.10578
G1 X136.715 Y95.091 E.03133
G1 X137.463 Y95.508 E.02684
G1 X138.366 Y96.429 E.04046
G1 X138.706 Y97.076 E.02291
G1 X138.956 Y97.967 E.02902
G1 X138.983 Y100.838 E.09003
G1 X138.708 Y101.92 E.03499
G1 X138.188 Y102.795 E.03191
G1 X137.449 Y103.509 E.03222
G1 X136.691 Y103.918 E.02701
G1 X135.695 Y104.176 E.03227
G1 X120.377 Y104.182 E.48028
G1 X120.312 Y121.285 E.53623
G1 X120.285 Y121.422 E.00438
G1 X119.962 Y122.236 E.02746
G1 X119.447 Y122.963 E.02795
G1 X118.695 Y123.615 E.03121
G1 X118.212 Y123.872 E.01716
G1 X117.543 Y124.102 E.02217
G1 X114.382 Y124.184 E.09916
G1 X113.282 Y123.909 E.03554
G1 X112.443 Y123.419 E.03044
G1 X111.691 Y122.648 E.03377
G1 X111.282 Y121.891 E.02698
G1 X111.018 Y120.848 E.03376
G1 X111.018 Y89.152 E.9938
G1 X111.292 Y88.079 E.03471
G1 X111.747 Y87.314 E.0279
M204 S1000
G1 X112.065 Y87.504 F10800
M204 S800
G1 F1200
G1 X112.091 Y87.459 E.00163
G1 X112.794 Y86.781 E.03062
G1 X113.426 Y86.442 E.02248
G1 X114.377 Y86.195 E.03082
G1 X129.014 Y86.198 E.45893
G1 X129.733 Y86.347 E.023
G1 X130.43 Y86.666 E.02406
G1 X131.165 Y87.286 E.03014
G1 X131.696 Y88.076 E.02984
G1 X131.971 Y88.942 E.02848
G1 X132.002 Y95.195 E.19605
G1 X135.724 Y95.208 E.1167
G1 X136.593 Y95.448 E.02829
G1 X137.215 Y95.793 E.02228
G1 X138.047 Y96.632 E.03705
G1 X138.35 Y97.201 E.02021
G1 X138.579 Y97.997 E.02599
G1 X138.606 Y100.817 E.0884
G1 X138.35 Y101.799 E.03183
G1 X137.909 Y102.541 E.02708
G1 X137.206 Y103.219 E.03062
G1 X136.574 Y103.558 E.02247
G1 X135.623 Y103.805 E.03081
G1 X120.001 Y103.805 E.48982
G1 X119.935 Y121.266 E.54747
G1 X119.621 Y122.075 E.02721
G1 X119.155 Y122.724 E.02506
G1 X118.466 Y123.314 E.02843
G1 X118.071 Y123.521 E.01398
G1 X117.502 Y123.725 E.01897
G1 X114.398 Y123.807 E.09734
G1 X113.403 Y123.551 E.03223
G1 X112.659 Y123.109 E.02714
G1 X111.981 Y122.406 E.03062
G1 X111.642 Y121.774 E.02247
G1 X111.395 Y120.823 E.03081
G1 X111.395 Y89.176 E.99226
G1 X111.65 Y88.201 E.03162
G1 X112.034 Y87.555 E.02356
M204 S1000
G1 X112.352 Y87.745 F10800
M204 S800
G1 F1200
G1 X113.037 Y87.071 E.03013
G1 X113.544 Y86.8 E.01801
G1 X114.402 Y86.572 E.02786
G1 X128.995 Y86.576 E.45754
G1 X129.599 Y86.7 E.01932
G1 X130.208 Y86.972 E.02093
G1 X130.902 Y87.558 E.02846
G1 X131.346 Y88.219 E.02499
G1 X131.594 Y88.974 E.02492
G1 X131.626 Y95.572 E.20685
G1 X135.648 Y95.579 E.12609
G1 X136.47 Y95.805 E.02675
G1 X137.006 Y96.108 E.0193
G1 X137.728 Y96.835 E.03213
G1 X137.994 Y97.328 E.01756
G1 X138.203 Y98.028 E.0229
G1 X138.228 Y100.794 E.08673
G1 X137.993 Y101.676 E.02862
G1 X137.629 Y102.287 E.02231
G1 X136.963 Y102.929 E.029
G1 X136.456 Y103.2 E.01801
G1 X135.598 Y103.428 E.02785
G1 X119.625 Y103.428 E.50081
G1 X119.558 Y121.212 E.55761
G1 X119.299 Y121.877 E.02237
G1 X118.89 Y122.455 E.0222
G1 X118.27 Y122.991 E.0257
G1 X117.931 Y123.171 E.01203
G1 X117.404 Y123.36 E.01757
G1 X114.417 Y123.429 E.09366
G1 X113.525 Y123.193 E.02893
G1 X112.913 Y122.829 E.02235
G1 X112.271 Y122.163 E.029
G1 X112 Y121.656 E.01801
G1 X111.772 Y120.798 E.02785
G1 X111.772 Y89.202 E.99068
G1 X112.007 Y88.324 E.02849
G1 X112.321 Y87.796 E.01926
M204 S1000
G1 X112.64 Y87.986 F10800
M204 S800
G1 F1200
G1 X113.241 Y87.388 E.02658
G1 X113.666 Y87.158 E.01515
G1 X114.428 Y86.949 E.02479
G1 X128.975 Y86.953 E.45609
G1 X129.499 Y87.064 E.01681
G1 X130.027 Y87.304 E.01817
G1 X130.635 Y87.825 E.02513
G1 X131.016 Y88.404 E.02171
G1 X131.226 Y89.061 E.02162
G1 X131.25 Y95.949 E.21598
G1 X135.572 Y95.949 E.13551
G1 X136.346 Y96.162 E.02517
G1 X136.796 Y96.421 E.01627
G1 X137.411 Y97.04 E.02735
G1 X137.64 Y97.459 E.01497
G1 X137.826 Y98.06 E.01972
G1 X137.851 Y100.771 E.085
G1 X137.637 Y101.551 E.02537
G1 X137.347 Y102.035 E.0177
G1 X136.759 Y102.612 E.02582
G1 X136.334 Y102.842 E.01515
G1 X135.572 Y103.051 E.02478
G1 X119.249 Y103.051 E.51179
G1 X119.193 Y121.11 E.56624
G1 X118.976 Y121.681 E.01916
G1 X118.623 Y122.187 E.01933
G1 X118.072 Y122.67 E.02297
G1 X117.79 Y122.821 E.01003
G1 X117.306 Y122.995 E.01615
G1 X114.438 Y123.052 E.08993
G1 X113.65 Y122.837 E.02561
G1 X113.165 Y122.547 E.01772
G1 X112.588 Y121.959 E.02582
G1 X112.358 Y121.534 E.01515
G1 X112.149 Y120.772 E.02478
G1 X112.149 Y89.228 E.98905
G1 X112.363 Y88.449 E.02531
G1 X112.609 Y88.038 E.01503
M204 S1000
G1 X112.928 Y88.228 F10800
M204 S800
G1 F1200
G1 X113.449 Y87.704 E.02317
G1 X113.791 Y87.514 E.01229
G1 X114.455 Y87.326 E.02164
G1 X128.953 Y87.33 E.45459
G1 X129.397 Y87.427 E.01423
G1 X129.843 Y87.634 E.01541
G1 X130.366 Y88.091 E.02178
G1 X130.684 Y88.585 E.01843
G1 X130.857 Y89.144 E.01836
G1 X130.874 Y96.326 E.22519
G1 X135.545 Y96.326 E.14647
G1 X136.22 Y96.518 E.022
G1 X136.549 Y96.707 E.01188
G1 X137.095 Y97.248 E.02412
G1 X137.286 Y97.59 E.01226
G1 X137.457 Y98.144 E.0182
G1 X137.474 Y100.745 E.08155
G1 X137.281 Y101.423 E.0221
G1 X137.064 Y101.785 E.01324
G1 X136.551 Y102.296 E.02269
G1 X136.209 Y102.486 E.01229
G1 X135.545 Y102.674 E.02163
G1 X118.873 Y102.674 E.52274
G1 X118.829 Y121.008 E.57486
G1 X118.632 Y121.526 E.01736
G1 X118.356 Y121.92 E.01509
G1 X117.872 Y122.35 E.02029
G1 X117.649 Y122.471 E.00797
G1 X117.208 Y122.629 E.01469
G1 X114.46 Y122.674 E.08616
G1 X113.777 Y122.481 E.02226
G1 X113.415 Y122.264 E.01325
G1 X112.904 Y121.751 E.02269
G1 X112.714 Y121.409 E.01229
G1 X112.526 Y120.745 E.02163
G1 X112.526 Y89.255 E.98736
G1 X112.719 Y88.577 E.02209
G1 X112.897 Y88.28 E.01087
M204 S1000
G1 X113.215 Y88.471 F10800
M204 S800
G1 F1200
G1 X113.66 Y88.018 E.0199
G1 X113.92 Y87.869 E.00942
G1 X114.483 Y87.703 E.01838
G1 X128.931 Y87.707 E.45301
G1 X129.291 Y87.79 E.01157
G1 X129.656 Y87.962 E.01266
G1 X130.096 Y88.354 E.01848
G1 X130.332 Y88.721 E.01366
G1 X130.488 Y89.228 E.01666
G1 X130.497 Y96.703 E.23437
G1 X135.517 Y96.703 E.1574
G1 X136.092 Y96.873 E.01878
G1 X136.304 Y96.994 E.00767
G1 X136.782 Y97.46 E.02093
G1 X136.932 Y97.722 E.00946
G1 X137.089 Y98.228 E.01663
G1 X137.097 Y100.718 E.07804
G1 X136.927 Y101.292 E.01879
G1 X136.78 Y101.537 E.00896
G1 X136.34 Y101.982 E.01961
G1 X136.08 Y102.131 E.00942
G1 X135.517 Y102.297 E.01838
G1 X118.497 Y102.297 E.53367
G1 X118.463 Y120.909 E.58359
G1 X118.306 Y121.334 E.01418
G1 X118.086 Y121.656 E.01225
G1 X117.669 Y122.031 E.01758
G1 X117.507 Y122.122 E.00583
G1 X117.111 Y122.263 E.01319
G1 X114.485 Y122.297 E.08232
G1 X113.908 Y122.127 E.01887
G1 X113.663 Y121.98 E.00896
G1 X113.218 Y121.54 E.01961
G1 X113.069 Y121.28 E.00942
G1 X112.903 Y120.717 E.01838
G1 X112.903 Y89.283 E.9856
G1 X113.073 Y88.708 E.0188
G1 X113.185 Y88.522 E.00679
M204 S1000
G1 X113.503 Y88.714 F10800
M204 S800
G1 F1200
G1 X113.875 Y88.328 E.01682
G1 X114.055 Y88.221 E.00656
G1 X114.512 Y88.08 E.015
G1 X128.909 Y88.084 E.4514
G1 X129.147 Y88.139 E.00767
G1 X129.468 Y88.291 E.01111
G1 X129.823 Y88.615 E.01508
G1 X129.979 Y88.857 E.00902
G1 X130.12 Y89.312 E.01495
G1 X130.12 Y97.08 E.24355
G1 X135.488 Y97.08 E.1683
G1 X135.96 Y97.227 E.0155
G1 X136.062 Y97.284 E.00367
G1 X136.473 Y97.676 E.0178
G1 X136.579 Y97.855 E.00654
G1 X136.72 Y98.312 E.015
G1 X136.72 Y100.688 E.07447
G1 X136.574 Y101.157 E.01542
G1 X136.494 Y101.291 E.00489
G1 X136.125 Y101.672 E.01663
G1 X135.945 Y101.779 E.00656
G1 X135.488 Y101.92 E.015
G1 X118.12 Y101.92 E.54456
G1 X118.098 Y120.814 E.59241
G1 X117.979 Y121.146 E.01107
G1 X117.813 Y121.395 E.00936
G1 X117.462 Y121.716 E.01492
G1 X117.362 Y121.773 E.0036
G1 X117.014 Y121.898 E.01162
G1 X114.513 Y121.92 E.07841
G1 X114.043 Y121.774 E.01543
G1 X113.909 Y121.694 E.00489
G1 X113.528 Y121.325 E.01663
G1 X113.421 Y121.145 E.00656
G1 X113.28 Y120.688 E.015
G1 X113.28 Y89.312 E.98375
G1 X113.426 Y88.843 E.01542
G1 X113.472 Y88.766 E.00281
M204 S1000
G1 X113.791 Y88.959 F10800
M204 S800
G1 F1200
G1 X114.097 Y88.634 E.01401
G1 X114.198 Y88.571 E.00372
G1 X114.544 Y88.457 E.01143
G1 X128.887 Y88.461 E.44971
G1 X129.004 Y88.488 E.00377
M73 P0 R264
G1 X129.278 Y88.618 E.0095
G1 X129.547 Y88.873 E.0116
G1 X129.63 Y89 E.00476
G1 X129.743 Y89.344 E.01136
G1 X129.743 Y97.457 E.25438
G1 X135.456 Y97.457 E.17913
G1 X135.847 Y97.594 E.01299
G1 X136.166 Y97.897 E.0138
G1 X136.229 Y97.998 E.00372
G1 X136.343 Y98.344 E.01143
G1 X136.343 Y100.656 E.07248
G1 X136.206 Y101.047 E.01299
G1 X135.903 Y101.366 E.0138
G1 X135.802 Y101.429 E.00372
G1 X135.456 Y101.543 E.01143
G1 X117.743 Y101.543 E.55538
G1 X117.732 Y120.717 E.60121
G1 X117.631 Y120.997 E.00933
G1 X117.54 Y121.134 E.00514
G1 X117.248 Y121.405 E.01251
G1 X116.917 Y121.532 E.01111
G1 X114.544 Y121.543 E.07441
G1 X114.153 Y121.406 E.01298
G1 X113.834 Y121.103 E.0138
G1 X113.771 Y121.002 E.00372
G1 X113.657 Y120.656 E.01143
G1 X113.657 Y89.344 E.98176
G1 X113.766 Y89.014 E.01092
M204 S1000
G1 X114.111 Y89.166 F10800
M204 S800
G1 F1200
G1 X114.328 Y88.932 E.01002
G1 X114.579 Y88.834 E.00845
G1 X128.867 Y88.841 E.44798
G1 X129.085 Y88.944 E.00757
G1 X129.266 Y89.125 E.00802
G1 X129.366 Y89.379 E.00856
G1 X129.366 Y97.834 E.26511
G1 X135.421 Y97.834 E.18986
G1 X135.634 Y97.911 E.00709
G1 X135.868 Y98.128 E.01002
G1 X135.966 Y98.379 E.00845
G1 X135.966 Y100.621 E.07028
G1 X135.889 Y100.834 E.00709
G1 X135.672 Y101.068 E.01002
G1 X135.421 Y101.166 E.00845
G1 X117.366 Y101.166 E.56611
G1 X117.366 Y120.621 E.61
G1 X117.268 Y120.872 E.00845
G1 X117.034 Y121.089 E.01002
G1 X116.821 Y121.166 E.00709
G1 X114.579 Y121.166 E.07028
G1 X114.366 Y121.089 E.00709
G1 X114.132 Y120.872 E.01002
G1 X114.034 Y120.621 E.00845
G1 X114.034 Y89.379 E.97956
G1 X114.09 Y89.223 E.00521
M204 S1000
G1 X114.435 Y89.365 F10800
M204 S800
G1 F1200
G1 X114.552 Y89.24 E.00538
G1 X114.621 Y89.211 E.00235
G1 X128.779 Y89.211 E.44391
G1 X128.848 Y89.24 E.00235
G1 X128.96 Y89.352 E.00495
G1 X128.989 Y89.421 E.00235
G1 X128.989 Y98.211 E.27562
G1 X135.379 Y98.211 E.20037
G1 X135.448 Y98.24 E.00235
G1 X135.56 Y98.352 E.00495
G1 X135.589 Y98.421 E.00235
G1 X135.589 Y100.579 E.06766
G1 X135.56 Y100.648 E.00235
G1 X135.448 Y100.76 E.00495
G1 X135.379 Y100.789 E.00235
G1 X116.989 Y100.789 E.57662
G1 X116.989 Y120.579 E.62051
G1 X116.96 Y120.648 E.00235
G1 X116.848 Y120.76 E.00495
G1 X116.779 Y120.789 E.00235
G1 X114.621 Y120.789 E.06766
G1 X114.552 Y120.76 E.00235
G1 X114.44 Y120.648 E.00495
G1 X114.411 Y120.579 E.00235
G1 X114.412 Y89.421 E.97694
M204 S1000
; printing object escritorio_lateral2.stl id:0 copy 0
;WIPE_START
G1 F8640
G1 X114.552 Y89.24 E-.05278
G1 X114.621 Y89.211 E-.01732
G1 X117.609 Y89.211 E-.68991
;WIPE_END
G1 E-.04 F2100
G1 Z.6 F720
G1 X116.487 Y99.6 F10800
G1 Z.2 F720
G1 E.8 F2100
M204 S800
;TYPE:Perimeter
;WIDTH:0.419999
G1 F1200
G1 X116.113 Y99.724 E.01236
;WIDTH:0.455842
G1 X115.906 Y100.101 E.01476
;WIDTH:0.491684
G1 X115.7 Y100.479 E.01604
G1 X115.682 Y99.989 E.01827
