; generated by PrusaSlicer 2.6.0-alpha6+linux-x64-GTK3 on 2023-05-08 at 03:34:10 UTC

; 

; external perimeters extrusion width = 0.45mm
; perimeters extrusion width = 0.45mm
; infill extrusion width = 0.45mm
; solid infill extrusion width = 0.45mm
; top infill extrusion width = 0.40mm
; first layer extrusion width = 0.42mm

M73 P0 R151
M201 X9000 Y9000 Z500 E10000 ; sets maximum accelerations, mm/sec^2
M203 X500 Y500 Z12 E120 ; sets maximum feedrates, mm / sec
M204 S2000 T1500 ; sets acceleration (S) and retract acceleration (R), mm/sec^2
M205 X10.00 Y10.00 Z0.20 E4.50 ; sets the jerk limits, mm/sec
M205 S0 T0 ; sets the minimum extruding and travel feed rate, mm/sec
;TYPE:Custom
M862.3 P "MK2.5" ; printer model check
M862.1 P0.4 ; nozzle diameter check
M115 U3.11.0 ; tell printer latest fw version
G90 ; use absolute coordinates
M83 ; extruder relative mode
M104 S215 ; set extruder temp
M140 S60 ; set bed temp
M190 S60 ; wait for bed temp
M109 S215 ; wait for extruder temp
G28 W ; home all without mesh bed level
G80 ; mesh bed leveling

G1 Z0.2 F720
G1 Y-3 F1000 ; go outside print area
G92 E0
G1 X60 E9 F1000 ; intro line
G1 X100 E12.5 F1000 ; intro line

G92 E0
G21 ; set units to millimeters
G90 ; use absolute coordinates
M83 ; use relative distances for extrusion
M900 K0.05 ; Filament gcode LA 1.5
M900 K30 ; Filament gcode LA 1.0
M107
;LAYER_CHANGE
;Z:0.2
;HEIGHT:0.2
;BEFORE_LAYER_CHANGE
G92 E0.0
;0.2


G1 E-.8 F2100
G1 Z.4 F720
;AFTER_LAYER_CHANGE
;0.2
;CURRENT_Z: 0.2
G1 X23.014 Y23.693 F10800
G1 Z.2 F720
G1 E.8 F2100
M204 S800
;TYPE:Skirt/Brim
;WIDTH:0.42
G1 F1200
G1 X24.06 Y22.817 E.04278
G1 X25 Y22.623 E.03009
G1 X225 Y22.623 E6.27086
G1 X226.307 Y23.015 E.04278
G1 X227.184 Y24.061 E.0428
G1 X227.377 Y25 E.03006
G1 X227.377 Y185 E5.01669
G1 X226.986 Y186.307 E.04277
M73 P0 R150
G1 X225.94 Y187.183 E.04278
G1 X225 Y187.377 E.03009
G1 X25 Y187.377 E6.27086
G1 X23.693 Y186.985 E.04278
G1 X22.816 Y185.939 E.0428
G1 X22.623 Y185 E.03006
G1 X22.623 Y25 E5.01669
G1 X22.997 Y23.751 E.04088
M204 S1000
; printing object escritorio_conector_duto2.stl id:0 copy 0
;WIPE_START
G1 F8640
G1 X24.06 Y22.817 E-.32674
G1 X25 Y22.623 E-.22162
G1 X26.09 Y22.623 E-.25164
;WIPE_END
G1 Z.6 F720
G1 X109.814 Y184.213 F10800
G1 Z.2 F720
G1 E.8 F2100
M204 S800
;TYPE:Perimeter
;WIDTH:0.419999
G1 F1200
G1 X25.787 Y184.213 E2.6346
G1 X25.787 Y25.787 E4.96733
G1 X224.213 Y25.787 E6.2215
G1 X224.213 Y184.213 E4.96733
G1 X140.186 Y184.213 E2.6346
G1 X154.054 Y179.995 E.45449
G1 X167.058 Y173.044 E.46232
G1 X178.628 Y163.55 E.46927
G1 X188.044 Y152.058 E.46583
G1 X194.995 Y139.053 E.46235
G1 X199.34 Y124.73 E.4693
M73 P0 R149
G1 X200.786 Y109.945 E.46578
G1 X199.34 Y95.269 E.46238
G1 X194.995 Y80.947 E.46927
G1 X187.985 Y67.852 E.46571
G1 X178.549 Y56.373 E.46591
G1 X167.15 Y47.018 E.46236
G1 X154.054 Y40.004 E.4658
G1 X139.84 Y35.681 E.46583
G1 X125.055 Y34.215 E.46585
G1 X110.16 Y35.681 E.46928
G1 X95.946 Y40.004 E.46583
M73 P1 R149
G1 X82.85 Y47.018 E.4658
G1 X71.372 Y56.451 E.46583
G1 X61.956 Y67.942 E.4658
G1 X54.963 Y81.049 E.46579
G1 X50.682 Y95.161 E.46238
G1 X49.214 Y109.945 E.46582
G1 X50.66 Y124.73 E.46578
G1 X54.963 Y138.95 E.46582
G1 X62.014 Y152.146 E.46911
G1 X71.451 Y163.628 E.466
G1 X82.942 Y173.044 E.4658
G1 X95.946 Y179.995 E.46232
G1 X109.756 Y184.196 E.45259
M204 S1000
;WIPE_START
G1 F8640
G1 X106.291 Y184.197 E-.8
;WIPE_END
G1 Z.6 F720
G1 X118.5 Y184.68 F10800
G1 Z.2 F720
G1 E.8 F2100
M204 S800
;TYPE:External perimeter
;WIDTH:0.63848
G1 F1200
G1 X119.34 Y184.722 E.04165
;WIDTH:0.595887
G1 X120.179 Y184.763 E.03862
;WIDTH:0.553294
G1 X121.019 Y184.804 E.03569
;WIDTH:0.5107
G1 X121.858 Y184.845 E.03267
;WIDTH:0.468107
G1 X122.697 Y184.887 E.0297
;WIDTH:0.425514
G1 X123.537 Y184.928 E.02675
M204 S1000
;WIPE_START
G1 F8640
G1 X122.697 Y184.887 E-.19419
G1 X121.858 Y184.845 E-.19397
G1 X121.019 Y184.804 E-.19396
G1 X120.179 Y184.763 E-.19419
G1 X120.077 Y184.758 E-.02369
;WIPE_END
G1 Z.6 F720
G1 X126.463 Y184.928 F10800
G1 Z.2 F720
G1 E.8 F2100
M204 S800
G1 F1200
G1 X127.303 Y184.887 E.02675
;WIDTH:0.468107
G1 X128.142 Y184.845 E.0297
;WIDTH:0.5107
G1 X128.981 Y184.804 E.03267
;WIDTH:0.553294
G1 X129.821 Y184.763 E.03569
;WIDTH:0.595887
G1 X130.66 Y184.722 E.03862
;WIDTH:0.63848
G1 X131.5 Y184.68 E.04165
M204 S1000
;WIPE_START
G1 F8640
G1 X130.66 Y184.722 E-.1942
G1 X129.821 Y184.763 E-.19396
G1 X128.981 Y184.804 E-.19419
G1 X128.142 Y184.845 E-.19396
G1 X128.04 Y184.85 E-.02369
;WIPE_END
G1 Z.6 F720
G1 X118.436 Y184.651 F10800
G1 Z.2 F720
G1 E.8 F2100
M204 S800
G1 F1200
G1 X118.5 Y184.68 E.00348
G1 X118.433 Y184.704 E.00352
;WIDTH:0.592121
G1 X118.367 Y184.727 E.00319
;WIDTH:0.545761
G1 X118.3 Y184.75 E.00296
;WIDTH:0.499401
G1 X118.234 Y184.773 E.00265
;WIDTH:0.453041
G1 X118.167 Y184.796 E.00242
;WIDTH:0.406681
G1 X118.101 Y184.819 E.00211
;WIDTH:0.409404
G1 X117.04 Y184.795 E.03234
;WIDTH:0.426938
G1 X113.069 Y184.604 E.12695
;WIDTH:0.433165
G1 X112.746 Y184.595 E.01049
;WIDTH:0.459879
G1 X112.065 Y184.57 E.02363
;WIDTH:0.502413
G1 X111.171 Y184.549 E.03417
;WIDTH:0.544947
G1 X110.277 Y184.528 E.03733
G1 X110.176 Y184.544 E.00427
;WIDTH:0.513267
G1 X102.803 Y184.567 E.28836
;WIDTH:0.466633
G1 X95.429 Y184.59 E.2598
;WIDTH:0.419999
G1 X25.41 Y184.59 E2.19539
G1 X25.41 Y25.41 E4.99097
G1 X224.59 Y25.41 E6.24514
G1 X224.59 Y184.59 E4.99097
G1 X154.571 Y184.59 E2.19539
;WIDTH:0.455961
G1 X149.655 Y184.572 E.16884
;WIDTH:0.491923
G1 X144.74 Y184.554 E.1835
;WIDTH:0.527885
G1 X139.824 Y184.536 E.19824
;WIDTH:0.544946
G1 X138.829 Y184.549 E.04154
;WIDTH:0.502413
G1 X137.935 Y184.57 E.03417
;WIDTH:0.459879
G1 X137.932 Y184.571 E.00011
;WIDTH:0.459568
G1 X136.936 Y184.604 E.03452
;WIDTH:0.427064
G1 X132.96 Y184.795 E.12715
;WIDTH:0.409403
G1 X132.833 Y184.797 E.00387
;WIDTH:0.406179
G1 X131.899 Y184.819 E.02822
;WIDTH:0.406682
G1 X131.833 Y184.796 E.00211
;WIDTH:0.453042
G1 X131.766 Y184.773 E.00242
;WIDTH:0.499401
G1 X131.7 Y184.75 E.00265
;WIDTH:0.545761
G1 X131.633 Y184.727 E.00296
;WIDTH:0.592121
G1 X131.567 Y184.704 E.00319
;WIDTH:0.63848
G1 X131.5 Y184.68 E.00352
G1 X131.564 Y184.651 E.00348
;WIDTH:0.592121
G1 X131.628 Y184.621 E.00323
;WIDTH:0.545761
G1 X131.692 Y184.592 E.00294
;WIDTH:0.499401
G1 X131.756 Y184.562 E.00268
;WIDTH:0.453042
G1 X131.82 Y184.532 E.00241
;WIDTH:0.406682
G1 X131.884 Y184.503 E.00213
;WIDTH:0.409403
G1 X132.941 Y184.429 E.03229
;WIDTH:0.426939
G1 X136.912 Y184.221 E.12697
;WIDTH:0.433165
G1 X137.232 Y184.206 E.0104
;WIDTH:0.459568
G1 X137.908 Y184.155 E.02349
;WIDTH:0.502257
G1 X138.804 Y184.091 E.03431
;WIDTH:0.544946
G1 X139.699 Y184.027 E.03746
G1 X139.746 Y184.009 E.0021
;WIDTH:0.527885
G1 X144.444 Y182.565 E.19819
;WIDTH:0.491923
G1 X149.143 Y181.121 E.18353
;WIDTH:0.455961
G1 X153.842 Y179.677 E.16883
;WIDTH:0.419999
G1 X166.88 Y172.711 E.46349
G1 X178.31 Y163.337 E.46349
G1 X187.712 Y151.88 E.4647
G1 X194.676 Y138.841 E.46348
G1 X198.964 Y124.693 E.46353
M73 P1 R148
G1 X200.411 Y109.982 E.46348
G1 X198.964 Y95.306 E.46239
G1 X194.676 Y81.159 E.4635
G1 X187.855 Y68.387 E.45399
G1 X187.692 Y68.089 E.01065
G1 X178.31 Y56.664 E.46353
G1 X166.88 Y47.289 E.46351
G1 X153.842 Y40.323 E.46349
G1 X139.694 Y36.035 E.46353
G1 X125.018 Y34.59 E.46238
G1 X110.306 Y36.035 E.4635
G1 X96.158 Y40.323 E.46353
G1 X83.12 Y47.289 E.46349
G1 X71.69 Y56.664 E.46351
G1 X62.288 Y68.119 E.46465
G1 X55.324 Y81.159 E.46351
G1 X51.036 Y95.306 E.4635
G1 X49.589 Y109.982 E.46239
G1 X51.036 Y124.693 E.46348
G1 X55.324 Y138.841 E.46353
G1 X61.92 Y151.191 E.43899
G1 X62.308 Y151.91 E.02562
G1 X71.69 Y163.337 E.46357
G1 X83.12 Y172.711 E.46349
G1 X96.158 Y179.677 E.46349
;WIDTH:0.466633
G1 X103.207 Y181.84 E.25978
;WIDTH:0.513267
G1 X110.256 Y184.002 E.28836
;WIDTH:0.544947
G1 X110.301 Y184.027 E.00215
G1 X111.196 Y184.091 E.03746
;WIDTH:0.502257
G1 X112.092 Y184.155 E.03431
;WIDTH:0.459567
G1 X113.088 Y184.221 E.03458
;WIDTH:0.426938
G1 X117.059 Y184.429 E.12697
;WIDTH:0.409404
G1 X117.185 Y184.434 E.00384
;WIDTH:0.406179
G1 X118.116 Y184.503 E.0282
;WIDTH:0.406681
G1 X118.18 Y184.532 E.00213
;WIDTH:0.453041
G1 X118.244 Y184.562 E.00241
;WIDTH:0.499401
G1 X118.308 Y184.592 E.00268
;WIDTH:0.545761
G1 X118.372 Y184.621 E.00294
;WIDTH:0.592121
G1 X118.382 Y184.626 E.00051
M204 S1000
;WIPE_START
G1 F8640
G1 X118.5 Y184.68 E-.02996
G1 X118.433 Y184.704 E-.01643
G1 X118.367 Y184.727 E-.01614
G1 X118.3 Y184.75 E-.01636
G1 X118.234 Y184.773 E-.01614
G1 X118.167 Y184.796 E-.01636
G1 X118.101 Y184.819 E-.01614
G1 X117.04 Y184.795 E-.24505
G1 X115.191 Y184.706 E-.42742
;WIPE_END
G1 Z.6 F720
G1 X38.243 Y168.794 F10800
G1 Z.2 F720
G1 E.8 F2100
M204 S800
;TYPE:Perimeter
;WIDTH:0.419999
G1 F1200
G1 X38.897 Y168.981 E.02133
G1 X39.557 Y169.322 E.02329
G1 X40.137 Y169.784 E.02325
G1 X40.616 Y170.351 E.02327
G1 X40.976 Y171 E.02327
G1 X41.202 Y171.706 E.02324
G1 X41.285 Y172.445 E.02332
G1 X41.224 Y173.183 E.02322
G1 X41.018 Y173.898 E.02333
G1 X40.677 Y174.557 E.02326
G1 X40.216 Y175.137 E.02323
G1 X39.648 Y175.616 E.0233
G1 X39.001 Y175.975 E.0232
G1 X38.293 Y176.202 E.02331
G1 X37.554 Y176.285 E.02332
G1 X36.817 Y176.224 E.02319
G1 X36.102 Y176.018 E.02333
G1 X35.443 Y175.678 E.02325
G1 X34.863 Y175.216 E.02325
G1 X34.383 Y174.648 E.02332
G1 X34.024 Y174.001 E.0232
G1 X33.798 Y173.292 E.02333
G1 X33.715 Y172.555 E.02325
G1 X33.777 Y171.815 E.02328
G1 X33.981 Y171.103 E.02322
G1 X34.322 Y170.443 E.02329
G1 X34.784 Y169.862 E.02327
G1 X35.351 Y169.383 E.02327
G1 X36 Y169.024 E.02325
G1 X36.707 Y168.798 E.02327
G1 X37.444 Y168.715 E.02325
G1 X38.186 Y168.777 E.02335
M204 S1000
G1 X38.134 Y169.151 F10800
M204 S800
;TYPE:External perimeter
G1 F1200
G1 X38.788 Y169.342 E.02136
G1 X39.379 Y169.654 E.02095
G1 X39.898 Y170.075 E.02095
G1 X40.325 Y170.59 E.02098
G1 X40.643 Y171.178 E.02096
G1 X40.841 Y171.816 E.02095
G1 X40.91 Y172.482 E.02099
G1 X40.849 Y173.146 E.02091
G1 X40.657 Y173.789 E.02104
G1 X40.345 Y174.379 E.02093
G1 X39.924 Y174.898 E.02095
G1 X39.409 Y175.325 E.02098
G1 X38.823 Y175.643 E.0209
G1 X38.183 Y175.841 E.02101
G1 X37.518 Y175.91 E.02096
G1 X36.853 Y175.849 E.02094
G1 X36.212 Y175.657 E.02098
G1 X35.621 Y175.345 E.02095
G1 X35.102 Y174.924 E.02095
G1 X34.675 Y174.409 E.02098
G1 X34.356 Y173.823 E.02092
G1 X34.159 Y173.183 E.021
G1 X34.09 Y172.518 E.02096
G1 X34.152 Y171.853 E.02094
G1 X34.342 Y171.212 E.02096
G1 X34.654 Y170.621 E.02095
G1 X35.075 Y170.102 E.02095
G1 X35.59 Y169.675 E.02098
G1 X36.178 Y169.356 E.02097
G1 X36.817 Y169.159 E.02097
G1 X37.481 Y169.09 E.02093
G1 X38.074 Y169.145 E.01867
M204 S1000
G1 X38.395 Y168.848 F10800
;WIPE_START
G1 F8640
G1 X38.788 Y169.342 E-.17102
G1 X39.379 Y169.654 E-.15431
G1 X39.898 Y170.075 E-.15431
G1 X40.325 Y170.59 E-.15447
G1 X40.643 Y171.178 E-.15435
G1 X40.658 Y171.226 E-.01154
;WIPE_END
G1 Z.6 F720
G1 X34.822 Y40.169 F10800
G1 Z.2 F720
G1 E.8 F2100
M204 S800
;TYPE:Perimeter
G1 F1200
G1 X34.383 Y39.649 E.02134
G1 X34.024 Y39 E.02325
G1 X33.798 Y38.293 E.02327
G1 X33.715 Y37.556 E.02325
G1 X33.777 Y36.816 E.02328
G1 X33.981 Y36.103 E.02325
G1 X34.322 Y35.443 E.02329
G1 X34.784 Y34.863 E.02325
G1 X35.351 Y34.384 E.02327
G1 X36 Y34.024 E.02327
G1 X36.706 Y33.798 E.02324
G1 X37.445 Y33.715 E.02332
G1 X38.183 Y33.776 E.02322
G1 X38.898 Y33.982 E.02333
G1 X39.547 Y34.316 E.02289
G1 X40.136 Y34.783 E.02357
G1 X40.616 Y35.352 E.02334
G1 X40.975 Y35.999 E.0232
G1 X41.202 Y36.707 E.02331
G1 X41.285 Y37.446 E.02332
G1 X41.224 Y38.183 E.02319
G1 X41.018 Y38.898 E.02333
G1 X40.678 Y39.557 E.02325
G1 X40.216 Y40.138 E.02327
G1 X39.648 Y40.617 E.0233
G1 X39.001 Y40.976 E.0232
G1 X38.292 Y41.202 E.02333
G1 X37.555 Y41.285 E.02325
G1 X36.815 Y41.223 E.02328
G1 X36.103 Y41.019 E.02322
G1 X35.443 Y40.678 E.02329
G1 X34.861 Y40.215 E.02332
M204 S1000
G1 X35.112 Y39.933 F10800
M204 S800
;TYPE:External perimeter
G1 F1200
G1 X34.675 Y39.41 E.02137
G1 X34.356 Y38.822 E.02097
G1 X34.159 Y38.183 E.02097
G1 X34.09 Y37.519 E.02093
G1 X34.152 Y36.853 E.02097
G1 X34.342 Y36.212 E.02096
G1 X34.654 Y35.621 E.02095
G1 X35.075 Y35.102 E.02095
G1 X35.59 Y34.675 E.02098
G1 X36.178 Y34.357 E.02096
G1 X36.816 Y34.159 E.02095
G1 X37.482 Y34.09 E.02099
G1 X38.147 Y34.151 E.02094
G1 X38.789 Y34.343 E.02101
G1 X39.369 Y34.649 E.02056
G1 X39.897 Y35.075 E.02127
G1 X40.325 Y35.591 E.02102
G1 X40.643 Y36.177 E.0209
G1 X40.842 Y36.817 E.02101
G1 X40.91 Y37.482 E.02096
G1 X40.849 Y38.147 E.02094
G1 X40.657 Y38.788 E.02098
G1 X40.345 Y39.379 E.02095
G1 X39.924 Y39.898 E.02095
G1 X39.409 Y40.325 E.02098
G1 X38.823 Y40.644 E.02092
G1 X38.183 Y40.841 E.021
G1 X37.518 Y40.91 E.02096
G1 X36.853 Y40.848 E.02094
G1 X36.213 Y40.658 E.02093
G1 X35.621 Y40.346 E.02098
G1 X35.159 Y39.971 E.01866
M204 S1000
G1 X34.727 Y40.04 F10800
;WIPE_START
G1 F8640
G1 X34.675 Y39.41 E-.17108
G1 X34.356 Y38.822 E-.15446
G1 X34.159 Y38.183 E-.1544
G1 X34.09 Y37.519 E-.15415
G1 X34.152 Y36.853 E-.15445
G1 X34.166 Y36.805 E-.01146
;WIPE_END
G1 Z.6 F720
G1 X209.823 Y40.169 F10800
G1 Z.2 F720
G1 E.8 F2100
M204 S800
;TYPE:Perimeter
G1 F1200
G1 X209.384 Y39.649 E.02134
G1 X209.024 Y39 E.02327
G1 X208.798 Y38.294 E.02324
G1 X208.715 Y37.555 E.02332
G1 X208.776 Y36.817 E.02322
G1 X208.982 Y36.102 E.02333
G1 X209.323 Y35.443 E.02326
G1 X209.784 Y34.863 E.02323
G1 X210.352 Y34.384 E.0233
G1 X210.999 Y34.025 E.0232
G1 X211.707 Y33.798 E.02331
G1 X212.446 Y33.715 E.02332
G1 X213.183 Y33.776 E.02319
G1 X213.898 Y33.982 E.02333
G1 X214.557 Y34.322 E.02325
G1 X215.137 Y34.784 E.02325
G1 X215.617 Y35.352 E.02332
G1 X215.976 Y35.999 E.0232
G1 X216.202 Y36.708 E.02333
G1 X216.285 Y37.445 E.02325
G1 X216.223 Y38.185 E.02328
G1 X216.019 Y38.897 E.02322
G1 X215.678 Y39.557 E.02329
G1 X215.216 Y40.138 E.02327
G1 X214.649 Y40.617 E.02327
G1 X214 Y40.976 E.02325
G1 X213.293 Y41.202 E.02327
G1 X212.556 Y41.285 E.02325
G1 X211.816 Y41.223 E.02328
G1 X211.103 Y41.019 E.02325
G1 X210.443 Y40.678 E.02329
G1 X209.861 Y40.215 E.02332
M204 S1000
G1 X210.113 Y39.933 F10800
M204 S800
;TYPE:External perimeter
G1 F1200
G1 X209.675 Y39.41 E.02139
G1 X209.357 Y38.822 E.02096
G1 X209.159 Y38.184 E.02095
G1 X209.09 Y37.518 E.02099
G1 X209.151 Y36.854 E.02091
G1 X209.343 Y36.211 E.02104
G1 X209.655 Y35.621 E.02093
G1 X210.076 Y35.102 E.02095
G1 X210.591 Y34.675 E.02098
G1 X211.177 Y34.357 E.0209
G1 X211.817 Y34.159 E.02101
G1 X212.482 Y34.09 E.02096
G1 X213.147 Y34.151 E.02094
G1 X213.788 Y34.343 E.02098
G1 X214.379 Y34.655 E.02095
G1 X214.898 Y35.076 E.02095
G1 X215.325 Y35.591 E.02098
G1 X215.644 Y36.177 E.02092
G1 X215.841 Y36.817 E.021
G1 X215.91 Y37.482 E.02096
G1 X215.848 Y38.147 E.02094
G1 X215.658 Y38.788 E.02096
G1 X215.346 Y39.379 E.02095
G1 X214.925 Y39.898 E.02095
G1 X214.41 Y40.325 E.02098
G1 X213.822 Y40.644 E.02097
G1 X213.183 Y40.841 E.02097
G1 X212.519 Y40.91 E.02093
G1 X211.853 Y40.848 E.02097
G1 X211.212 Y40.658 E.02096
G1 X210.621 Y40.346 E.02095
G1 X210.159 Y39.971 E.01866
M204 S1000
G1 X209.727 Y40.04 F10800
;WIPE_START
G1 F8640
G1 X209.675 Y39.41 E-.17108
G1 X209.357 Y38.822 E-.15435
G1 X209.159 Y38.184 E-.15425
G1 X209.09 Y37.518 E-.1546
G1 X209.151 Y36.854 E-.15397
G1 X209.166 Y36.805 E-.01175
;WIPE_END
G1 Z.6 F720
G1 X210.403 Y169.354 F10800
G1 Z.2 F720
G1 E.8 F2100
M204 S800
;TYPE:Perimeter
G1 F1200
G1 X210.999 Y169.024 E.02136
G1 X211.708 Y168.798 E.02333
G1 X212.445 Y168.715 E.02325
G1 X213.185 Y168.777 E.02328
G1 X213.897 Y168.981 E.02322
G1 X214.557 Y169.322 E.02329
G1 X215.137 Y169.784 E.02325
G1 X215.617 Y170.351 E.02329
G1 X215.976 Y171 E.02325
G1 X216.202 Y171.707 E.02327
G1 X216.285 Y172.444 E.02325
G1 X216.223 Y173.184 E.02328
G1 X216.019 Y173.897 E.02325
G1 X215.678 Y174.557 E.02329
G1 X215.216 Y175.137 E.02325
G1 X214.649 Y175.616 E.02327
G1 X214 Y175.976 E.02327
G1 X213.294 Y176.202 E.02324
G1 X212.555 Y176.285 E.02332
G1 X211.817 Y176.224 E.02322
G1 X211.102 Y176.018 E.02333
G1 X210.443 Y175.677 E.02326
G1 X209.863 Y175.216 E.02323
G1 X209.384 Y174.648 E.0233
G1 X209.025 Y174.001 E.0232
G1 X208.798 Y173.293 E.02331
G1 X208.713 Y172.516 E.02451
G1 X208.776 Y171.817 E.02201
G1 X208.982 Y171.102 E.02333
