; generated by PrusaSlicer 2.2.0+linux-x64 on 2020-11-18 at 21:46:38 UTC

; 

; external perimeters extrusion width = 0.45mm
; perimeters extrusion width = 0.45mm
; infill extrusion width = 0.45mm
; solid infill extrusion width = 0.45mm
; top infill extrusion width = 0.40mm
; first layer extrusion width = 0.42mm

M73 P0 R356
M201 X9000 Y9000 Z500 E10000 ; sets maximum accelerations, mm/sec^2
M203 X500 Y500 Z12 E120 ; sets maximum feedrates, mm/sec
M204 P2000 R1500 T2000 ; sets acceleration (P, T) and retract acceleration (R), mm/sec^2
M205 X10.00 Y10.00 Z0.20 E4.50 ; sets the jerk limits, mm/sec
M205 S0 T0 ; sets the minimum extruding and travel feed rate, mm/sec
M107
M862.3 P "MK2.5" ; printer model check
M862.1 P0.4 ; nozzle diameter check
M115 U3.9.1 ; tell printer latest fw version
G90 ; use absolute coordinates
M83 ; extruder relative mode
M104 S215 ; set extruder temp
M140 S60 ; set bed temp
M190 S60 ; wait for bed temp
M109 S215 ; wait for extruder temp
G28 W ; home all without mesh bed level
G80 ; mesh bed leveling
G1 Y-3.0 F1000.0 ; go outside print area
G92 E0.0
G1 X60.0 E9.0 F1000.0 ; intro line
M73 P0 R356
G1 X100.0 E12.5 F1000.0 ; intro line
G92 E0.0
G21 ; set units to millimeters
G90 ; use absolute coordinates
M83 ; use relative distances for extrusion
M900 K0.05 ; Filament gcode LA 1.5
M900 K30 ; Filament gcode LA 1.0
;BEFORE_LAYER_CHANGE
G92 E0.0
;0.2


G1 E-0.80000 F2100.00000
G1 Z0.600 F10800.000
;AFTER_LAYER_CHANGE
;0.2
;CURRENT_Z: 0.2
G1 X104.077 Y100.931
G1 Z0.200
G1 E0.80000 F2100.00000
M204 S1000
G1 F1200.000
G1 X104.869 Y100.336 E0.03107
G1 X121.522 Y92.225 E0.58077
G1 X122.419 Y92.047 E0.02866
G1 X127.504 Y92.046 E0.15945
G1 X128.102 Y92.112 E0.01886
G1 X128.671 Y92.307 E0.01886
G1 X145.111 Y100.326 E0.57352
G1 X145.664 Y100.685 E0.02065
G1 X146.118 Y101.167 E0.02078
G1 X146.499 Y101.890 E0.02562
G1 X146.652 Y102.696 E0.02574
G1 X146.654 Y115.233 E0.39307
G1 X146.458 Y116.221 E0.03157
G1 X145.923 Y117.069 E0.03145
G1 X145.499 Y117.442 E0.01771
G1 X145.008 Y117.721 E0.01771
G1 X144.471 Y117.894 E0.01771
G1 X143.909 Y117.954 E0.01771
G1 X106.051 Y117.954 E1.18701
G1 X105.076 Y117.757 E0.03119
G1 X104.231 Y117.223 E0.03132
G1 X103.860 Y116.803 E0.01758
G1 X103.582 Y116.316 E0.01758
G1 X103.408 Y115.783 E0.01758
G1 X103.346 Y115.225 E0.01758
G1 X103.349 Y102.661 E0.39396
G1 X103.561 Y101.734 E0.02980
G1 X104.045 Y100.982 E0.02805
G1 X104.359 Y101.186 F10800.000
G1 F1200.000
G1 X105.041 Y100.672 E0.02678
G1 X121.661 Y92.576 E0.57965
G1 X122.438 Y92.424 E0.02484
G1 X127.504 Y92.423 E0.15883
G1 X128.025 Y92.482 E0.01645
G1 X128.517 Y92.652 E0.01633
G1 X144.946 Y100.665 E0.57311
G1 X145.421 Y100.973 E0.01775
G1 X145.807 Y101.381 E0.01763
G1 X146.144 Y102.015 E0.02249
G1 X146.276 Y102.720 E0.02249
G1 X146.277 Y115.227 E0.39214
G1 X146.105 Y116.088 E0.02755
G1 X145.632 Y116.829 E0.02755
G1 X144.845 Y117.381 E0.03013
G1 X143.905 Y117.577 E0.03013
G1 X106.062 Y117.577 E1.18654
G1 X105.208 Y117.403 E0.02731
G1 X104.471 Y116.932 E0.02743
G1 X103.922 Y116.152 E0.02989
G1 X103.723 Y115.216 E0.03001
G1 X103.725 Y102.690 E0.39277
G1 X103.911 Y101.873 E0.02626
G1 X104.326 Y101.237 E0.02382
G1 F8640.000
G1 X105.041 Y100.672 E-0.21029
G1 X107.181 Y99.629 E-0.54971
G1 E-0.04000 F2100.00000
G1 Z0.800 F10800.000
G1 X109.057 Y98.087
G1 Z0.200
G1 E0.80000 F2100.00000
G1 F1200.000
G1 X105.553 Y98.087 E0.10987
G1 X103.640 Y98.729 E0.06330
G1 X103.049 Y99.185 E0.02340
G1 X102.445 Y99.789 E0.02678
G1 X101.718 Y100.973 E0.04355
G1 X101.387 Y102.290 E0.04257
G1 X101.387 Y115.747 E0.42192
G1 X102.029 Y117.660 E0.06330
G1 X102.485 Y118.251 E0.02340
G1 X103.088 Y118.854 E0.02671
G1 X104.204 Y119.552 E0.04128
G1 X105.429 Y119.893 E0.03987
G1 X109.100 Y119.902 E0.11508
G1 X110.232 Y119.615 E0.03664
G1 X111.136 Y119.146 E0.03193
G1 X112.156 Y118.205 E0.04351
G1 X112.197 Y118.142 E0.00234
G1 X112.687 Y117.388 F10800.000
G1 F1200.000
G1 X112.793 Y117.225 E0.00610
G1 X113.199 Y115.826 E0.04569
G1 X113.214 Y109.913 E0.18537
G1 X136.787 Y109.913 E0.73914
G1 X136.812 Y115.903 E0.18778
G1 X137.287 Y117.388 E0.04892
G1 X137.812 Y118.143 F10800.000
G1 F1200.000
G1 X137.895 Y118.261 E0.00454
G1 X138.824 Y119.118 E0.03964
G1 X139.771 Y119.616 E0.03353
G1 X140.972 Y119.910 E0.03879
G1 X144.896 Y119.838 E0.12305
G1 X146.385 Y119.252 E0.05015
G1 X146.951 Y118.814 E0.02245
G1 X147.555 Y118.211 E0.02678
G1 X148.282 Y117.027 E0.04355
G1 X148.613 Y115.710 E0.04257
G1 X148.613 Y102.290 E0.42076
G1 X148.315 Y101.067 E0.03948
G1 X147.896 Y100.232 E0.02931
G1 X146.468 Y98.804 E0.06330
G1 X145.633 Y98.385 E0.02929
G1 X144.502 Y98.098 E0.03659
G1 X140.966 Y98.095 E0.11087
G1 F8640.000
G1 X144.258 Y98.098 E-0.76000
G1 E-0.04000 F2100.00000
G1 Z0.800 F10800.000
G1 X139.243 Y98.093
G1 Z0.200
G1 E0.80000 F2100.00000
G1 F1200.000
G1 X132.200 Y98.087 E0.22083
G1 X132.178 Y94.647 E0.10784
G1 X132.098 Y93.769 F10800.000
G1 F1200.000
G1 X131.770 Y92.725 E0.03432
G1 X131.066 Y91.693 E0.03917
G1 X130.097 Y90.829 E0.04070
G1 X129.123 Y90.337 E0.03422
G1 X127.990 Y90.090 E0.03635
G1 X121.966 Y90.086 E0.18887
G1 X120.476 Y90.508 E0.04857
G1 X119.522 Y91.123 E0.03558
G1 X118.830 Y91.809 E0.03056
G1 X118.283 Y92.612 E0.03045
G1 X117.888 Y93.786 E0.03882
G1 X117.831 Y94.651 F10800.000
G1 F1200.000
G1 X117.794 Y98.087 E0.10772
G1 X110.779 Y98.087 E0.21994
G1 X110.005 Y98.464 F10800.000
G1 F1200.000
G1 X118.168 Y98.464 E0.25595
G1 X118.203 Y94.470 E0.12521
G1 X118.361 Y93.555 F10800.000
G1 F1200.000
G1 X118.611 Y92.801 E0.02491
G1 X119.110 Y92.063 E0.02795
G1 X119.745 Y91.427 E0.02818
G1 X120.608 Y90.862 E0.03234
G1 X121.993 Y90.463 E0.04518
G1 X127.970 Y90.467 E0.18740
G1 X128.976 Y90.685 E0.03229
G1 X129.865 Y91.128 E0.03114
G1 X130.797 Y91.959 E0.03915
G1 X131.442 Y92.913 E0.03612
G1 X131.642 Y93.546 E0.02082
G1 X131.800 Y94.463 F10800.000
G1 F1200.000
G1 X131.825 Y98.464 E0.12545
G1 X140.010 Y98.467 E0.25663
G1 F8640.000
G1 X136.718 Y98.466 E-0.76000
G1 E-0.04000 F2100.00000
G1 Z0.800 F10800.000
G1 X141.732 Y98.468
G1 Z0.200
G1 E0.80000 F2100.00000
G1 F1200.000
G1 X144.432 Y98.469 E0.08468
G1 X145.520 Y98.745 E0.03518
G1 X146.271 Y99.127 E0.02640
G1 X147.573 Y100.429 E0.05777
G1 X147.955 Y101.180 E0.02639
G1 X148.236 Y102.314 E0.03664
G1 X148.236 Y115.686 E0.41927
G1 X147.924 Y116.905 E0.03946
G1 X147.273 Y117.959 E0.03885
G1 X146.694 Y118.539 E0.02571
G1 X146.176 Y118.938 E0.02049
G1 X144.855 Y119.461 E0.04456
G1 X141.038 Y119.538 E0.11969
G1 X139.883 Y119.256 E0.03729
G1 X139.062 Y118.824 E0.02908
G1 X138.322 Y118.143 E0.03153
G1 X137.745 Y117.388 F10800.000
G1 F1200.000
G1 X137.611 Y117.195 E0.00738
G1 X137.180 Y115.818 E0.04525
G1 X137.164 Y109.536 E0.19694
G1 X112.837 Y109.536 E0.76275
G1 X112.830 Y115.748 E0.19477
G1 X112.460 Y117.045 E0.04229
G1 X112.240 Y117.388 E0.01278
G1 X111.668 Y118.142 F10800.000
G1 F1200.000
G1 X110.899 Y118.852 E0.03279
G1 X110.119 Y119.255 E0.02754
G1 X109.030 Y119.531 E0.03521
G1 X105.457 Y119.516 E0.11203
G1 X104.333 Y119.197 E0.03663
G1 X103.340 Y118.572 E0.03680
G1 X102.761 Y117.994 E0.02567
G1 X102.348 Y117.456 E0.02127
G1 X101.764 Y115.716 E0.05754
G1 X101.764 Y102.314 E0.42021
G1 X102.076 Y101.095 E0.03946
G1 X102.727 Y100.041 E0.03885
G1 X103.306 Y99.461 E0.02571
G1 X103.844 Y99.048 E0.02127
G1 X105.584 Y98.464 E0.05754
G1 X108.283 Y98.464 E0.08464
G1 X107.509 Y98.841 F10800.000
G1 F1200.000
G1 X105.615 Y98.841 E0.05940
G1 X104.048 Y99.366 E0.05179
G1 X103.564 Y99.737 E0.01912
G1 X103.009 Y100.291 E0.02460
G1 X102.413 Y101.267 E0.03586
G1 X102.141 Y102.338 E0.03463
G1 X102.141 Y115.685 E0.41852
G1 X102.666 Y117.252 E0.05179
G1 X103.037 Y117.736 E0.01912
G1 X103.592 Y118.291 E0.02462
G1 X104.465 Y118.843 E0.03238
G1 X105.486 Y119.139 E0.03335
G1 X108.961 Y119.159 E0.10895
G1 X110.006 Y118.895 E0.03379
G1 X110.662 Y118.557 E0.02315
G1 X111.112 Y118.142 E0.01917
G1 F8640.000
G1 X110.662 Y118.557 E-0.14121
G1 X110.006 Y118.895 E-0.17046
G1 X108.961 Y119.159 E-0.24884
G1 X108.097 Y119.154 E-0.19949
G1 E-0.04000 F2100.00000
G1 Z0.800 F10800.000
G1 X111.796 Y117.388
G1 Z0.200
G1 E0.80000 F2100.00000
G1 F1200.000
G1 X112.127 Y116.868 E0.01934
G1 X112.459 Y115.672 E0.03890
G1 X112.459 Y109.159 E0.20421
G1 X137.540 Y109.159 E0.78640
G1 X137.549 Y115.734 E0.20616
G1 X137.939 Y117.007 E0.04173
G1 X138.200 Y117.388 E0.01450
G1 F8640.000
G1 X137.939 Y117.007 E-0.10678
G1 X137.549 Y115.734 E-0.30730
G1 X137.547 Y114.236 E-0.34592
G1 E-0.04000 F2100.00000
G1 Z0.800 F10800.000
G1 X138.879 Y118.143
G1 Z0.200
G1 E0.80000 F2100.00000
G1 F1200.000
G1 X139.299 Y118.530 E0.01792
G1 X139.996 Y118.895 E0.02468
G1 X141.056 Y119.161 E0.03425
G1 X144.812 Y119.085 E0.11780
G1 X145.967 Y118.623 E0.03899
G1 X146.436 Y118.263 E0.01852
G1 X146.991 Y117.709 E0.02460
G1 X147.587 Y116.733 E0.03586
G1 X147.859 Y115.662 E0.03463
G1 X147.859 Y102.338 E0.41779
G1 X147.595 Y101.294 E0.03376
G1 X147.252 Y100.628 E0.02348
G1 X146.072 Y99.448 E0.05234
G1 X145.406 Y99.105 E0.02348
G1 X144.362 Y98.841 E0.03376
G1 X142.495 Y98.841 E0.05854
G1 F8640.000
G1 X144.362 Y98.841 E-0.43111
G1 X145.406 Y99.105 E-0.24861
G1 X145.715 Y99.264 E-0.08028
G1 E-0.04000 F2100.00000
G1 Z0.800 F10800.000
G1 X140.775 Y98.841
G1 Z0.200
G1 E0.80000 F2100.00000
G1 F1200.000
G1 X131.450 Y98.841 E0.29238
G1 X131.421 Y94.278 E0.14306
G1 X131.184 Y93.323 F10800.000
G1 F1200.000
G1 X131.114 Y93.100 E0.00735
G1 X130.528 Y92.224 E0.03304
G1 X129.634 Y91.427 E0.03755
G1 X128.832 Y91.034 E0.02800
G1 X127.950 Y90.844 E0.02829
G1 X122.020 Y90.841 E0.18591
G1 X120.743 Y91.216 E0.04174
G1 X119.971 Y91.730 E0.02908
G1 X119.391 Y92.315 E0.02584
G1 X118.939 Y92.989 E0.02544
G1 X118.829 Y93.327 E0.01116
G1 X118.573 Y94.290 F10800.000
G1 F1200.000
G1 X118.543 Y98.841 E0.14269
G1 X109.231 Y98.841 E0.29198
G1 X108.457 Y99.218 F10800.000
G1 F1200.000
G1 X118.919 Y99.218 E0.32803
G1 X118.942 Y94.195 E0.15749
G1 X118.974 Y94.094 E0.00331
G1 F8640.000
G1 X118.942 Y94.195 E-0.02441
G1 X118.927 Y97.381 E-0.73559
G1 E-0.04000 F2100.00000
G1 Z0.800 F10800.000
G1 X119.329 Y93.084
G1 Z0.200
G1 E0.80000 F2100.00000
G1 F1200.000
G1 X119.693 Y92.541 E0.02050
G1 X120.225 Y92.009 E0.02356
G1 X120.879 Y91.568 E0.02475
G1 X122.048 Y91.218 E0.03826
G1 X127.930 Y91.221 E0.18441
G1 X128.690 Y91.384 E0.02437
G1 X129.403 Y91.727 E0.02482
G1 X130.259 Y92.490 E0.03596
G1 X130.641 Y93.058 E0.02146
G1 F8640.000
G1 X130.259 Y92.490 E-0.15804
G1 X129.403 Y91.727 E-0.26479
G1 X128.690 Y91.384 E-0.18282
G1 X128.036 Y91.244 E-0.15434
G1 E-0.04000 F2100.00000
G1 Z0.800 F10800.000
G1 X131.039 Y94.092
G1 Z0.200
G1 E0.80000 F2100.00000
G1 F1200.000
G1 X131.075 Y99.218 E0.16073
G1 X141.548 Y99.218 E0.32837
G1 F8640.000
G1 X138.257 Y99.218 E-0.76000
G1 E-0.04000 F2100.00000
G1 Z0.800 F10800.000
G1 X143.268 Y99.218
G1 Z0.200
G1 E0.80000 F2100.00000
G1 F1200.000
G1 X144.338 Y99.218 E0.03354
G1 X145.289 Y99.465 E0.03083
G1 X145.871 Y99.769 E0.02058
G1 X146.931 Y100.829 E0.04702
G1 X147.235 Y101.411 E0.02058
G1 X147.482 Y102.362 E0.03083
G1 X147.482 Y115.638 E0.41625
G1 X147.229 Y116.610 E0.03149
G1 X146.708 Y117.458 E0.03119
G1 X146.178 Y117.988 E0.02350
G1 X145.758 Y118.308 E0.01656
G1 X144.770 Y118.709 E0.03344
G1 X141.075 Y118.783 E0.11589
G1 X140.111 Y118.536 E0.03118
G1 X139.536 Y118.236 E0.02035
G1 X139.435 Y118.143 E0.00430
G1 F8640.000
G1 X139.536 Y118.236 E-0.03169
G1 X140.111 Y118.536 E-0.14983
G1 X141.075 Y118.783 E-0.22962
G1 X142.585 Y118.753 E-0.34886
G1 E-0.04000 F2100.00000
G1 Z0.800 F10800.000
G1 X138.652 Y117.388
G1 Z0.200
G1 E0.80000 F2100.00000
G1 F1200.000
G1 X138.268 Y116.820 E0.02149
G1 X137.918 Y115.653 E0.03821
G1 X137.918 Y108.782 E0.21543
G1 X112.082 Y108.782 E0.81005
G1 X112.082 Y115.646 E0.21520
G1 X111.772 Y116.738 E0.03559
G1 X111.357 Y117.388 E0.02420
G1 F8640.000
G1 X111.772 Y116.738 E-0.17823
G1 X112.082 Y115.646 E-0.26208
G1 X112.082 Y114.261 E-0.31969
G1 E-0.04000 F2100.00000
G1 Z0.800 F10800.000
G1 X110.564 Y118.142
G1 Z0.200
G1 E0.80000 F2100.00000
G1 F1200.000
G1 X110.465 Y118.235 E0.00427
G1 X109.889 Y118.535 E0.02034
G1 X108.938 Y118.782 E0.03083
G1 X105.563 Y118.769 E0.10580
G1 X104.641 Y118.508 E0.03005
G1 X103.843 Y118.009 E0.02951
G1 X103.312 Y117.478 E0.02353
G1 X102.985 Y117.048 E0.01695
G1 X102.518 Y115.655 E0.04607
G1 X102.518 Y102.362 E0.41679
G1 X102.771 Y101.390 E0.03149
G1 X103.291 Y100.542 E0.03119
G1 X103.822 Y100.012 E0.02350
G1 X104.252 Y99.685 E0.01695
G1 X105.645 Y99.218 E0.04607
G1 X106.735 Y99.218 E0.03417
G1 X105.961 Y99.595 F10800.000
G1 F1200.000
G1 X105.676 Y99.595 E0.00894
G1 X104.455 Y100.004 E0.04038
G1 X104.079 Y100.288 E0.01477
G1 X103.573 Y100.794 E0.02241
G1 X103.127 Y101.515 E0.02658
G1 X102.895 Y102.387 E0.02831
G1 X102.895 Y115.624 E0.41504
G1 X103.304 Y116.845 E0.04038
G1 X103.588 Y117.221 E0.01477
G1 X104.094 Y117.727 E0.02241
G1 X104.815 Y118.173 E0.02660
G1 X105.638 Y118.398 E0.02675
G1 X108.913 Y118.405 E0.10268
G1 X109.771 Y118.177 E0.02782
G1 X109.836 Y118.142 E0.00232
G1 F8640.000
G1 X109.771 Y118.177 E-0.01710
G1 X108.913 Y118.405 E-0.20491
G1 X106.583 Y118.400 E-0.53799
G1 E-0.04000 F2100.00000
G1 Z0.800 F10800.000
G1 X110.823 Y117.388
G1 Z0.200
G1 E0.80000 F2100.00000
G1 F1200.000
G1 X111.058 Y117.167 E0.01013
G1 X111.418 Y116.605 E0.02091
G1 X111.705 Y115.618 E0.03223
G1 X111.705 Y108.405 E0.22617
G1 X138.295 Y108.405 E0.83370
G1 X138.295 Y115.624 E0.22635
G1 X138.620 Y116.681 E0.03468
G1 X138.982 Y117.213 E0.02015
G1 X139.171 Y117.388 E0.00809
G1 F8640.000
G1 X138.982 Y117.213 E-0.05960
G1 X138.620 Y116.681 E-0.14841
G1 X138.295 Y115.624 E-0.25540
G1 X138.295 Y114.340 E-0.29659
G1 E-0.04000 F2100.00000
G1 Z0.800 F10800.000
G1 X140.165 Y118.143
G1 Z0.200
G1 E0.80000 F2100.00000
G1 F1200.000
G1 X140.230 Y118.177 E0.00231
G1 X141.095 Y118.406 E0.02806
G1 X144.663 Y118.346 E0.11188
G1 X145.552 Y117.991 E0.03000
G1 X145.921 Y117.712 E0.01453
G1 X146.427 Y117.206 E0.02241
G1 X146.873 Y116.485 E0.02658
G1 X147.105 Y115.613 E0.02831
G1 X147.105 Y102.387 E0.41468
G1 X146.877 Y101.529 E0.02783
G1 X146.612 Y101.031 E0.01770
G1 X145.669 Y100.088 E0.04182
G1 X145.171 Y99.823 E0.01770
G1 X144.313 Y99.595 E0.02783
G1 X144.041 Y99.595 E0.00851
G1 F8640.000
G1 X144.313 Y99.595 E-0.06266
G1 X145.171 Y99.823 E-0.20496
G1 X145.669 Y100.088 E-0.13032
G1 X146.612 Y101.031 E-0.30799
G1 X146.722 Y101.238 E-0.05406
G1 E-0.04000 F2100.00000
G1 Z0.800 F10800.000
G1 X142.321 Y99.595
G1 Z0.200
G1 E0.80000 F2100.00000
G1 F1200.000
G1 X130.701 Y99.595 E0.36435
G1 X130.666 Y94.137 E0.17114
G1 X130.575 Y93.865 E0.00898
G1 F8640.000
G1 X130.666 Y94.137 E-0.06612
G1 X130.685 Y97.142 E-0.69388
G1 E-0.04000 F2100.00000
G1 Z0.800 F10800.000
G1 X129.956 Y92.724
G1 Z0.200
G1 E0.80000 F2100.00000
G1 F1200.000
G1 X129.174 Y92.027 E0.03285
G1 X128.550 Y91.735 E0.02159
G1 X127.910 Y91.599 E0.02053
G1 X122.077 Y91.595 E0.18289
G1 X121.018 Y91.920 E0.03471
G1 X120.479 Y92.288 E0.02046
G1 X120.020 Y92.747 E0.02037
G1 F8640.000
G1 X120.479 Y92.288 E-0.15001
G1 X121.018 Y91.920 E-0.15069
G1 X122.077 Y91.595 E-0.25562
G1 X122.959 Y91.595 E-0.20368
G1 E-0.04000 F2100.00000
G1 Z0.800 F10800.000
G1 X119.439 Y93.868
G1 Z0.200
G1 E0.80000 F2100.00000
G1 F1200.000
G1 X119.311 Y94.279 E0.01351
G1 X119.295 Y99.595 E0.16666
G1 X107.683 Y99.595 E0.36409
G1 X106.908 Y99.972 F10800.000
G1 F1200.000
G1 X119.672 Y99.972 E0.40018
M73 P0 R355
G1 X119.680 Y94.362 E0.17591
G1 X119.897 Y93.645 E0.02348
G1 F8640.000
G1 X119.680 Y94.362 E-0.17291
G1 X119.676 Y96.904 E-0.58709
G1 E-0.04000 F2100.00000
G1 Z0.800 F10800.000
G1 X130.102 Y93.635
G1 Z0.200
G1 E0.80000 F2100.00000
G1 F1200.000
G1 X130.290 Y94.171 E0.01783
G1 X130.326 Y99.972 E0.18187
G1 X143.094 Y99.972 E0.40034
G1 F8640.000
G1 X139.803 Y99.972 E-0.76000
G1 E-0.04000 F2100.00000
G1 Z0.800 F10800.000
G1 X139.718 Y117.389
G1 Z0.200
G1 E0.80000 F2100.00000
G1 F1200.000
G1 X139.255 Y116.952 E0.01996
G1 X138.970 Y116.540 E0.01570
G1 X138.672 Y115.595 E0.03108
G1 X138.672 Y108.028 E0.23724
G1 X111.328 Y108.028 E0.85735
G1 X111.328 Y115.590 E0.23711
G1 X111.065 Y116.471 E0.02882
G1 X110.781 Y116.909 E0.01637
G1 X110.279 Y117.388 E0.02175
