; generated by PrusaSlicer 2.2.0+linux-x64 on 2020-11-16 at 21:58:11 UTC

; 

; external perimeters extrusion width = 0.45mm
; perimeters extrusion width = 0.45mm
; infill extrusion width = 0.45mm
; solid infill extrusion width = 0.45mm
; top infill extrusion width = 0.40mm
; first layer extrusion width = 0.42mm

M73 P0 R6
M201 X9000 Y9000 Z500 E10000 ; sets maximum accelerations, mm/sec^2
M203 X500 Y500 Z12 E120 ; sets maximum feedrates, mm/sec
M204 P2000 R1500 T2000 ; sets acceleration (P, T) and retract acceleration (R), mm/sec^2
M205 X10.00 Y10.00 Z0.20 E4.50 ; sets the jerk limits, mm/sec
M205 S0 T0 ; sets the minimum extruding and travel feed rate, mm/sec
M107
M862.3 P "MK2.5" ; printer model check
M862.1 P0.4 ; nozzle diameter check
M115 U3.9.1 ; tell printer latest fw version
G90 ; use absolute coordinates
M83 ; extruder relative mode
M104 S215 ; set extruder temp
M140 S60 ; set bed temp
M190 S60 ; wait for bed temp
M109 S215 ; wait for extruder temp
G28 W ; home all without mesh bed level
G80 ; mesh bed leveling
G1 Y-3.0 F1000.0 ; go outside print area
G92 E0.0
G1 X60.0 E9.0 F1000.0 ; intro line
M73 P1 R6
G1 X100.0 E12.5 F1000.0 ; intro line
G92 E0.0
G21 ; set units to millimeters
G90 ; use absolute coordinates
M83 ; use relative distances for extrusion
M900 K0.05 ; Filament gcode LA 1.5
M900 K30 ; Filament gcode LA 1.0
;BEFORE_LAYER_CHANGE
G92 E0.0
;0.2


G1 E-0.80000 F2100.00000
G1 Z0.600 F10800.000
;AFTER_LAYER_CHANGE
;0.2
;CURRENT_Z: 0.2
G1 X104.077 Y100.931
G1 Z0.200
G1 E0.80000 F2100.00000
M204 S1000
G1 F1200.000
G1 X104.869 Y100.336 E0.03107
G1 X121.522 Y92.225 E0.58077
G1 X122.419 Y92.047 E0.02866
G1 X127.504 Y92.046 E0.15945
G1 X128.102 Y92.112 E0.01886
G1 X128.671 Y92.307 E0.01886
G1 X145.111 Y100.326 E0.57352
G1 X145.664 Y100.685 E0.02065
G1 X146.118 Y101.167 E0.02078
G1 X146.499 Y101.890 E0.02562
G1 X146.652 Y102.696 E0.02574
G1 X146.654 Y115.233 E0.39307
G1 X146.458 Y116.221 E0.03157
G1 X145.923 Y117.069 E0.03145
G1 X145.499 Y117.442 E0.01771
G1 X145.008 Y117.721 E0.01771
G1 X144.471 Y117.894 E0.01771
G1 X143.909 Y117.954 E0.01771
G1 X106.051 Y117.954 E1.18701
G1 X105.076 Y117.757 E0.03119
G1 X104.231 Y117.223 E0.03132
G1 X103.860 Y116.803 E0.01758
G1 X103.582 Y116.316 E0.01758
G1 X103.408 Y115.783 E0.01758
G1 X103.346 Y115.225 E0.01758
G1 X103.349 Y102.661 E0.39396
G1 X103.561 Y101.734 E0.02980
G1 X104.045 Y100.982 E0.02805
G1 X104.359 Y101.186 F10800.000
G1 F1200.000
G1 X105.041 Y100.672 E0.02678
G1 X121.661 Y92.576 E0.57965
G1 X122.438 Y92.424 E0.02484
G1 X127.504 Y92.423 E0.15883
G1 X128.025 Y92.482 E0.01645
G1 X128.517 Y92.652 E0.01633
G1 X144.946 Y100.665 E0.57311
G1 X145.421 Y100.973 E0.01775
G1 X145.807 Y101.381 E0.01763
G1 X146.144 Y102.015 E0.02249
G1 X146.276 Y102.720 E0.02249
G1 X146.277 Y115.227 E0.39214
G1 X146.105 Y116.088 E0.02755
G1 X145.632 Y116.829 E0.02755
G1 X144.845 Y117.381 E0.03013
G1 X143.905 Y117.577 E0.03013
G1 X106.062 Y117.577 E1.18654
G1 X105.208 Y117.403 E0.02731
G1 X104.471 Y116.932 E0.02743
G1 X103.922 Y116.152 E0.02989
G1 X103.723 Y115.216 E0.03001
G1 X103.725 Y102.690 E0.39277
G1 X103.911 Y101.873 E0.02626
G1 X104.326 Y101.237 E0.02382
G1 F8640.000
G1 X105.041 Y100.672 E-0.21029
G1 X107.181 Y99.629 E-0.54971
G1 E-0.04000 F2100.00000
G1 Z0.800 F10800.000
G1 X107.264 Y103.964
G1 Z0.200
G1 E0.80000 F2100.00000
G1 F1200.000
G1 X123.664 Y103.964 E0.51421
G1 X123.664 Y95.964 E0.25083
G1 X126.336 Y95.964 E0.08377
G1 X126.336 Y103.964 E0.25083
G1 X142.736 Y103.964 E0.51421
G1 X142.736 Y114.036 E0.31579
G1 X142.664 Y114.036 E0.00225
G1 X142.664 Y104.036 E0.31354
G1 X107.336 Y104.036 E1.10769
G1 X107.336 Y114.036 E0.31354
G1 X107.264 Y114.036 E0.00225
G1 X107.264 Y104.024 E0.31391
G1 F8640.000
G1 X110.556 Y104.012 E-0.76000
G1 E-0.04000 F2100.00000
G1 Z0.800 F10800.000
G1 X126.713 Y103.587
G1 Z0.200
G1 E0.80000 F2100.00000
G1 F1200.000
G1 X143.113 Y103.587 E0.51421
G1 X143.113 Y114.413 E0.33944
G1 X142.287 Y114.413 E0.02589
G1 X142.287 Y104.413 E0.31354
G1 X107.713 Y104.413 E1.08405
G1 X107.713 Y114.413 E0.31354
G1 X106.887 Y114.413 E0.02589
G1 X106.887 Y103.587 E0.33944
G1 X123.287 Y103.587 E0.51421
G1 X123.287 Y95.587 E0.25083
G1 X126.713 Y95.587 E0.10741
G1 X126.713 Y103.527 E0.24895
G1 X127.090 Y103.210 F10800.000
G1 F1200.000
G1 X143.490 Y103.210 E0.51421
G1 X143.490 Y114.790 E0.36308
G1 X141.910 Y114.790 E0.04954
G1 X141.910 Y104.790 E0.31354
G1 X108.090 Y104.790 E1.06040
G1 X108.090 Y114.790 E0.31354
G1 X106.510 Y114.790 E0.04954
G1 X106.510 Y103.210 E0.36308
G1 X122.910 Y103.210 E0.51421
G1 X122.910 Y95.210 E0.25083
G1 X127.090 Y95.210 E0.13106
G1 X127.090 Y103.150 E0.24895
G1 X127.154 Y103.605 F10800.000
G1 F8640.000
G1 X130.381 Y103.162 E-0.76000
G1 E-0.04000 F2100.00000
G1 Z0.800 F10800.000
G1 X125.143 Y103.921
G1 Z0.200
G1 E0.80000 F2100.00000
G1 F1200.000
G1 X126.221 Y99.896 E0.13066
G1 F8640.000
G1 X125.369 Y103.075 E-0.76000
G1 E-0.04000 F2100.00000
G1 Z0.800 F10800.000
G1 X123.779 Y99.152
G1 Z0.200
G1 E0.80000 F2100.00000
G1 F1200.000
G1 X126.221 Y98.498 E0.07928
G1 F8640.000
G1 X123.779 Y99.152 E-0.58386
G1 E-0.21614 F2100.00000
G1 Z0.800 F10800.000
G1 X126.221 Y97.386
G1 Z0.200
G1 E0.80000 F2100.00000
G1 F1200.000
G1 X124.914 Y96.079 E0.05795
M106 S255
;BEFORE_LAYER_CHANGE
G92 E0.0
;0.4


G1 F8640.000
G1 X126.221 Y97.386 E-0.42679
G1 E-0.37321 F2100.00000
G1 Z0.800 F10800.000
;AFTER_LAYER_CHANGE
;0.4
;CURRENT_Z: 0.4
M104 S210 ; set temperature
G1 X146.458 Y116.221
G1 Z0.400
G1 E0.80000 F2100.00000
G1 F2040
G1 X145.923 Y117.069 E0.03145
G1 X145.499 Y117.442 E0.01771
G1 X145.008 Y117.721 E0.01771
G1 X144.471 Y117.894 E0.01771
G1 X143.909 Y117.954 E0.01771
G1 X106.051 Y117.954 E1.18701
G1 X105.076 Y117.757 E0.03119
G1 X104.231 Y117.223 E0.03132
G1 X103.860 Y116.803 E0.01758
G1 X103.582 Y116.316 E0.01758
G1 X103.408 Y115.783 E0.01758
G1 X103.346 Y115.225 E0.01758
G1 X103.349 Y102.661 E0.39396
G1 X103.561 Y101.734 E0.02980
G1 X104.077 Y100.931 E0.02993
G1 X104.869 Y100.336 E0.03107
G1 X121.522 Y92.225 E0.58077
G1 X122.419 Y92.047 E0.02866
G1 X127.504 Y92.046 E0.15945
G1 X128.102 Y92.112 E0.01886
G1 X128.671 Y92.307 E0.01886
G1 X145.111 Y100.326 E0.57352
G1 X145.664 Y100.685 E0.02065
G1 X146.118 Y101.167 E0.02078
G1 X146.499 Y101.890 E0.02562
G1 X146.652 Y102.696 E0.02574
G1 X146.654 Y115.233 E0.39307
G1 X146.470 Y116.162 E0.02969
G1 F8640.000
G1 X145.923 Y117.069 E-0.24457
G1 X145.499 Y117.442 E-0.13042
G1 X145.008 Y117.721 E-0.13042
G1 X144.471 Y117.894 E-0.13042
G1 X143.936 Y117.951 E-0.12418
G1 E-0.04000 F2100.00000
G1 Z1.000 F10800.000
G1 X144.845 Y117.381
G1 Z0.400
G1 E0.80000 F2100.00000
G1 F2040
G1 X143.905 Y117.577 E0.03013
G1 X106.062 Y117.577 E1.18654
G1 X105.208 Y117.403 E0.02731
G1 X104.471 Y116.932 E0.02743
G1 X103.922 Y116.152 E0.02989
G1 X103.723 Y115.216 E0.03001
G1 X103.725 Y102.690 E0.39277
G1 X103.911 Y101.873 E0.02626
G1 X104.368 Y101.171 E0.02626
G1 X105.041 Y100.672 E0.02626
G1 X121.661 Y92.576 E0.57965
G1 X122.438 Y92.424 E0.02484
G1 X127.504 Y92.423 E0.15883
G1 X128.025 Y92.482 E0.01645
G1 X128.517 Y92.652 E0.01633
G1 X144.946 Y100.665 E0.57311
G1 X145.421 Y100.973 E0.01775
G1 X145.807 Y101.381 E0.01763
G1 X146.144 Y102.015 E0.02249
G1 X146.276 Y102.720 E0.02249
G1 X146.277 Y115.227 E0.39214
G1 X146.105 Y116.088 E0.02755
G1 X145.632 Y116.829 E0.02755
G1 X144.895 Y117.346 E0.02824
G1 F8640.000
G1 X143.905 Y117.577 E-0.23464
G1 X141.630 Y117.577 E-0.52536
G1 E-0.04000 F2100.00000
G1 Z1.000 F10800.000
G1 X142.861 Y114.161
G1 Z0.400
G1 E0.80000 F2100.00000
M204 S800
G1 F2040
G1 X142.539 Y114.161 E0.01089
G1 X142.539 Y104.161 E0.33849
G1 X107.461 Y104.161 E1.18736
G1 X107.461 Y114.161 E0.33849
G1 X107.139 Y114.161 E0.01089
G1 X107.139 Y103.839 E0.34938
G1 X123.539 Y103.839 E0.55512
G1 X123.539 Y95.839 E0.27079
G1 X126.461 Y95.839 E0.09890
G1 X126.461 Y103.839 E0.27079
G1 X142.861 Y103.839 E0.55512
G1 X142.861 Y114.101 E0.34735
M204 S1000
G1 F8640.000
G1 X142.539 Y114.161 E-0.07556
G1 X142.539 Y111.197 E-0.68444
G1 E-0.04000 F2100.00000
G1 Z1.000 F10800.000
G1 X126.868 Y103.432
G1 Z0.400
G1 E0.80000 F2100.00000
M204 S800
G1 F2040
G1 X143.268 Y103.432 E0.55512
G1 X143.268 Y114.568 E0.37694
G1 X142.132 Y114.568 E0.03845
G1 X142.132 Y104.568 E0.33849
G1 X107.868 Y104.568 E1.15980
G1 X107.868 Y114.568 E0.33849
G1 X106.732 Y114.568 E0.03845
G1 X106.732 Y103.432 E0.37694
G1 X123.132 Y103.432 E0.55512
G1 X123.132 Y95.432 E0.27079
G1 X126.868 Y95.432 E0.12645
G1 X126.868 Y103.372 E0.26876
M204 S1000
G1 X127.275 Y103.025 F10800.000
M204 S800
G1 F2040
G1 X143.675 Y103.025 E0.55512
G1 X143.675 Y114.975 E0.40449
G1 X141.725 Y114.975 E0.06601
G1 X141.725 Y104.975 E0.33849
G1 X108.275 Y104.975 E1.13224
G1 X108.275 Y114.975 E0.33849
G1 X106.325 Y114.975 E0.06601
G1 X106.325 Y103.025 E0.40449
G1 X122.725 Y103.025 E0.55512
G1 X122.725 Y95.025 E0.27079
G1 X127.275 Y95.025 E0.15401
G1 X127.275 Y102.965 E0.26876
M204 S1000
G1 X127.344 Y103.419 F10800.000
G1 F8640.000
G1 X130.566 Y102.977 E-0.76000
G1 E-0.04000 F2100.00000
G1 Z1.000 F10800.000
G1 X124.965 Y104.039
G1 Z0.400
G1 E0.80000 F2100.00000
M204 S2000
G1 F2040
G1 X126.339 Y98.911 E0.17969
M204 S1000
G1 X126.339 Y98.613 F10800.000
M204 S2000
G1 F2040
G1 X123.661 Y99.330 E0.09383
M204 S1000
G1 F8640.000
G1 X126.339 Y98.613 E-0.64004
G1 E-0.15996 F2100.00000
G1 Z1.000 F10800.000
G1 X126.339 Y97.303
G1 Z0.400
G1 E0.80000 F2100.00000
M73 P18 R5
M204 S2000
G1 F2040
G1 X125.180 Y96.144 E0.05547
G1 X123.844 Y96.144 E0.04520
G1 X123.844 Y103.444 E0.24710
G1 X124.439 Y104.039 E0.02845
M204 S1000
;BEFORE_LAYER_CHANGE
G92 E0.0
;0.6


G1 F8640.000
G1 X123.844 Y103.444 E-0.19405
G1 X123.844 Y100.993 E-0.56595
G1 E-0.04000 F2100.00000
G1 Z1.000 F10800.000
;AFTER_LAYER_CHANGE
;0.6
;CURRENT_Z: 0.6
G1 X121.522 Y92.225
G1 Z0.600
G1 E0.80000 F2100.00000
G1 F2050
G1 X122.419 Y92.047 E0.02866
G1 X127.504 Y92.046 E0.15945
G1 X128.102 Y92.112 E0.01886
G1 X128.671 Y92.307 E0.01886
G1 X145.111 Y100.326 E0.57352
G1 X145.664 Y100.685 E0.02065
G1 X146.118 Y101.167 E0.02078
G1 X146.499 Y101.890 E0.02562
G1 X146.652 Y102.696 E0.02574
G1 X146.654 Y115.233 E0.39307
G1 X146.458 Y116.221 E0.03157
G1 X145.923 Y117.069 E0.03145
G1 X145.499 Y117.442 E0.01771
G1 X145.008 Y117.721 E0.01771
G1 X144.471 Y117.894 E0.01771
G1 X143.909 Y117.954 E0.01771
G1 X106.051 Y117.954 E1.18701
G1 X105.076 Y117.757 E0.03119
G1 X104.231 Y117.223 E0.03132
G1 X103.860 Y116.803 E0.01758
G1 X103.582 Y116.316 E0.01758
G1 X103.408 Y115.783 E0.01758
G1 X103.346 Y115.225 E0.01758
G1 X103.349 Y102.661 E0.39396
G1 X103.561 Y101.734 E0.02980
G1 X104.077 Y100.931 E0.02993
G1 X104.869 Y100.336 E0.03107
G1 X121.468 Y92.252 E0.57889
G1 F8640.000
G1 X122.419 Y92.047 E-0.22451
G1 X124.738 Y92.046 E-0.53549
G1 E-0.04000 F2100.00000
G1 Z1.200 F10800.000
G1 X144.845 Y117.381
G1 Z0.600
G1 E0.80000 F2100.00000
G1 F2050
G1 X143.905 Y117.577 E0.03013
G1 X106.062 Y117.577 E1.18654
G1 X105.208 Y117.403 E0.02731
G1 X104.471 Y116.932 E0.02743
G1 X103.922 Y116.152 E0.02989
G1 X103.723 Y115.216 E0.03001
G1 X103.725 Y102.690 E0.39277
G1 X103.911 Y101.873 E0.02626
G1 X104.368 Y101.171 E0.02626
G1 X105.041 Y100.672 E0.02626
G1 X121.661 Y92.576 E0.57965
G1 X122.438 Y92.424 E0.02484
G1 X127.504 Y92.423 E0.15883
G1 X128.025 Y92.482 E0.01645
G1 X128.517 Y92.652 E0.01633
G1 X144.946 Y100.665 E0.57311
G1 X145.421 Y100.973 E0.01775
G1 X145.807 Y101.381 E0.01763
G1 X146.144 Y102.015 E0.02249
G1 X146.276 Y102.720 E0.02249
G1 X146.277 Y115.227 E0.39214
G1 X146.105 Y116.088 E0.02755
G1 X145.632 Y116.829 E0.02755
G1 X144.895 Y117.346 E0.02824
G1 F8640.000
G1 X143.905 Y117.577 E-0.23464
G1 X141.630 Y117.577 E-0.52536
G1 E-0.04000 F2100.00000
G1 Z1.200 F10800.000
G1 X142.861 Y114.161
G1 Z0.600
G1 E0.80000 F2100.00000
M204 S800
G1 F2050
G1 X142.539 Y114.161 E0.01089
G1 X142.539 Y104.161 E0.33849
G1 X107.461 Y104.161 E1.18736
G1 X107.461 Y114.161 E0.33849
G1 X107.139 Y114.161 E0.01089
G1 X107.139 Y103.839 E0.34938
G1 X123.539 Y103.839 E0.55512
G1 X123.539 Y95.839 E0.27079
G1 X126.461 Y95.839 E0.09890
G1 X126.461 Y103.839 E0.27079
G1 X142.861 Y103.839 E0.55512
G1 X142.861 Y114.101 E0.34735
M204 S1000
G1 F8640.000
G1 X142.539 Y114.161 E-0.07556
G1 X142.539 Y111.197 E-0.68444
G1 E-0.04000 F2100.00000
G1 Z1.200 F10800.000
G1 X126.868 Y103.432
G1 Z0.600
G1 E0.80000 F2100.00000
M204 S800
G1 F2050
G1 X143.268 Y103.432 E0.55512
G1 X143.268 Y114.568 E0.37694
G1 X142.132 Y114.568 E0.03845
G1 X142.132 Y104.568 E0.33849
G1 X107.868 Y104.568 E1.15980
G1 X107.868 Y114.568 E0.33849
G1 X106.732 Y114.568 E0.03845
G1 X106.732 Y103.432 E0.37694
G1 X123.132 Y103.432 E0.55512
G1 X123.132 Y95.432 E0.27079
G1 X126.868 Y95.432 E0.12645
G1 X126.868 Y103.372 E0.26876
M204 S1000
G1 X127.275 Y103.025 F10800.000
M204 S800
G1 F2050
G1 X143.675 Y103.025 E0.55512
G1 X143.675 Y114.975 E0.40449
G1 X141.725 Y114.975 E0.06601
G1 X141.725 Y104.975 E0.33849
G1 X108.275 Y104.975 E1.13224
G1 X108.275 Y114.975 E0.33849
G1 X106.325 Y114.975 E0.06601
G1 X106.325 Y103.025 E0.40449
G1 X122.725 Y103.025 E0.55512
G1 X122.725 Y95.025 E0.27079
G1 X127.275 Y95.025 E0.15401
G1 X127.275 Y102.965 E0.26876
M204 S1000
G1 X127.344 Y103.419 F10800.000
G1 F8640.000
G1 X130.566 Y102.977 E-0.76000
G1 E-0.04000 F2100.00000
G1 Z1.200 F10800.000
G1 X124.818 Y104.039
G1 Z0.600
G1 E0.80000 F2100.00000
M204 S2000
G1 F2050
G1 X126.339 Y98.365 E0.19884
M204 S1000
G1 X126.339 Y98.759 F10800.000
M204 S2000
G1 F2050
G1 X123.661 Y99.476 E0.09383
M204 S1000
G1 F8640.000
G1 X126.339 Y98.759 E-0.64004
G1 E-0.15996 F2100.00000
G1 Z1.200 F10800.000
G1 X126.339 Y97.103
G1 Z0.600
G1 E0.80000 F2100.00000
M204 S2000
G1 F2050
G1 X125.380 Y96.144 E0.04590
G1 X123.844 Y96.144 E0.05197
G1 X123.844 Y103.244 E0.24033
G1 X124.639 Y104.039 E0.03802
M204 S1000
;BEFORE_LAYER_CHANGE
G92 E0.0
;0.8


G1 F8640.000
G1 X123.844 Y103.244 E-0.25936
G1 X123.844 Y101.076 E-0.50064
G1 E-0.04000 F2100.00000
G1 Z1.200 F10800.000
;AFTER_LAYER_CHANGE
;0.8
;CURRENT_Z: 0.8
G1 X126.461 Y103.839
G1 Z0.800
G1 E0.80000 F2100.00000
M204 S800
G1 F1266
G1 X142.861 Y103.839 E0.55512
G1 X142.861 Y114.161 E0.34938
G1 X142.539 Y114.161 E0.01089
G1 X142.539 Y104.161 E0.33849
G1 X107.461 Y104.161 E1.18736
G1 X107.461 Y114.161 E0.33849
G1 X107.139 Y114.161 E0.01089
G1 X107.139 Y103.839 E0.34938
G1 X123.539 Y103.839 E0.55512
G1 X123.539 Y95.839 E0.27079
G1 X126.461 Y95.839 E0.09890
G1 X126.461 Y103.779 E0.26876
M204 S1000
G1 X126.868 Y103.432 F10800.000
M204 S800
G1 F1266
G1 X143.268 Y103.432 E0.55512
G1 X143.268 Y114.568 E0.37694
G1 X142.132 Y114.568 E0.03845
G1 X142.132 Y104.568 E0.33849
G1 X107.868 Y104.568 E1.15980
G1 X107.868 Y114.568 E0.33849
G1 X106.732 Y114.568 E0.03845
G1 X106.732 Y103.432 E0.37694
G1 X123.132 Y103.432 E0.55512
G1 X123.132 Y95.432 E0.27079
G1 X126.868 Y95.432 E0.12645
G1 X126.868 Y103.372 E0.26876
M204 S1000
G1 X127.275 Y103.025 F10800.000
M204 S800
G1 F1266
G1 X143.675 Y103.025 E0.55512
G1 X143.675 Y114.975 E0.40449
G1 X141.725 Y114.975 E0.06601
G1 X141.725 Y104.975 E0.33849
G1 X108.275 Y104.975 E1.13224
G1 X108.275 Y114.975 E0.33849
G1 X106.325 Y114.975 E0.06601
G1 X106.325 Y103.025 E0.40449
G1 X122.725 Y103.025 E0.55512
G1 X122.725 Y95.025 E0.27079
G1 X127.275 Y95.025 E0.15401
G1 X127.275 Y102.965 E0.26876
M204 S1000
G1 X127.344 Y103.419 F10800.000
G1 F8640.000
G1 X130.566 Y102.977 E-0.76000
G1 E-0.04000 F2100.00000
G1 Z1.400 F10800.000
G1 X124.839 Y104.039
G1 Z0.800
G1 E0.80000 F2100.00000
M204 S2000
G1 F1266
G1 X123.844 Y103.044 E0.04759
G1 X123.844 Y96.144 E0.23356
G1 X125.580 Y96.144 E0.05874
G1 X126.339 Y96.903 E0.03632
M204 S1000
G1 X126.339 Y97.818 F10800.000
M204 S2000
G1 F1266
G1 X124.672 Y104.039 E0.21798
M204 S1000
G1 F8640.000
G1 X125.524 Y100.859 E-0.76000
G1 E-0.04000 F2100.00000
G1 Z1.400 F10800.000
G1 X123.661 Y99.623
G1 Z0.800
G1 E0.80000 F2100.00000
M204 S2000
G1 F1266
G1 X126.339 Y98.905 E0.09383
M204 S1000
;BEFORE_LAYER_CHANGE
G92 E0.0
;1


G1 F8640.000
G1 X123.661 Y99.623 E-0.64004
G1 E-0.15996 F2100.00000
G1 Z1.400 F10800.000
;AFTER_LAYER_CHANGE
;1
;CURRENT_Z: 1
G1 X126.461 Y103.839
G1 Z1.000
G1 E0.80000 F2100.00000
M204 S800
G1 F1267
