; generated by PrusaSlicer 2.2.0+linux-x64 on 2020-11-18 at 14:58:52 UTC

; 

; external perimeters extrusion width = 0.45mm
; perimeters extrusion width = 0.45mm
; infill extrusion width = 0.45mm
; solid infill extrusion width = 0.45mm
; top infill extrusion width = 0.40mm
; first layer extrusion width = 0.42mm

M73 P0 R156
M201 X9000 Y9000 Z500 E10000 ; sets maximum accelerations, mm/sec^2
M203 X500 Y500 Z12 E120 ; sets maximum feedrates, mm/sec
M204 P2000 R1500 T2000 ; sets acceleration (P, T) and retract acceleration (R), mm/sec^2
M205 X10.00 Y10.00 Z0.20 E4.50 ; sets the jerk limits, mm/sec
M205 S0 T0 ; sets the minimum extruding and travel feed rate, mm/sec
M107
M862.3 P "MK2.5" ; printer model check
M862.1 P0.4 ; nozzle diameter check
M115 U3.9.1 ; tell printer latest fw version
G90 ; use absolute coordinates
M83 ; extruder relative mode
M104 S215 ; set extruder temp
M140 S60 ; set bed temp
M190 S60 ; wait for bed temp
M109 S215 ; wait for extruder temp
G28 W ; home all without mesh bed level
G80 ; mesh bed leveling
G1 Y-3.0 F1000.0 ; go outside print area
G92 E0.0
G1 X60.0 E9.0 F1000.0 ; intro line
M73 P0 R156
G1 X100.0 E12.5 F1000.0 ; intro line
G92 E0.0
G21 ; set units to millimeters
G90 ; use absolute coordinates
M83 ; use relative distances for extrusion
M900 K0.05 ; Filament gcode LA 1.5
M900 K30 ; Filament gcode LA 1.0
;BEFORE_LAYER_CHANGE
G92 E0.0
;0.2


G1 E-0.80000 F2100.00000
G1 Z0.600 F10800.000
;AFTER_LAYER_CHANGE
;0.2
;CURRENT_Z: 0.2
G1 X24.203 Y22.760
G1 Z0.200
G1 E0.80000 F2100.00000
M204 S1000
G1 F1200.000
G1 X24.995 Y22.623 E0.02520
G1 X225.004 Y22.623 E6.27113
G1 X225.906 Y22.802 E0.02884
G1 X226.675 Y23.313 E0.02896
G1 X227.191 Y24.079 E0.02896
G1 X227.377 Y24.980 E0.02884
G1 X227.377 Y185.011 E5.01768
G1 X227.317 Y185.533 E0.01645
G1 X227.143 Y186.028 E0.01645
G1 X226.866 Y186.473 E0.01645
G1 X226.497 Y186.846 E0.01645
G1 X225.797 Y187.240 E0.02520
G1 X225.005 Y187.377 E0.02520
G1 X24.996 Y187.377 E6.27113
G1 X24.475 Y187.318 E0.01645
G1 X23.976 Y187.145 E0.01657
G1 X23.530 Y186.868 E0.01645
G1 X23.154 Y186.497 E0.01657
G1 X22.762 Y185.800 E0.02508
G1 X22.623 Y185.009 E0.02520
G1 X22.623 Y24.996 E5.01708
G1 X22.682 Y24.475 E0.01645
G1 X22.855 Y23.976 E0.01657
G1 X23.132 Y23.530 E0.01645
G1 X23.503 Y23.154 E0.01657
G1 X24.151 Y22.790 E0.02332
G1 F8640.000
G1 X24.995 Y22.623 E-0.19868
G1 X27.426 Y22.623 E-0.56132
G1 E-0.04000 F2100.00000
G1 Z0.800 F10800.000
G1 X209.348 Y170.394
G1 Z0.200
G1 E0.80000 F2100.00000
G1 F1200.000
G1 X209.819 Y169.819 E0.02330
G1 X210.394 Y169.348 E0.02330
G1 X211.049 Y168.998 E0.02330
G1 X211.760 Y168.782 E0.02330
G1 X212.500 Y168.709 E0.02330
G1 X213.240 Y168.782 E0.02330
G1 X213.951 Y168.998 E0.02330
G1 X214.606 Y169.348 E0.02330
G1 X215.181 Y169.819 E0.02330
G1 X215.652 Y170.394 E0.02330
G1 X216.002 Y171.049 E0.02330
G1 X216.218 Y171.760 E0.02330
G1 X216.291 Y172.500 E0.02330
G1 X216.218 Y173.240 E0.02330
G1 X216.002 Y173.951 E0.02330
G1 X215.652 Y174.606 E0.02330
G1 X215.181 Y175.181 E0.02330
G1 X214.606 Y175.652 E0.02330
G1 X213.951 Y176.002 E0.02330
G1 X213.240 Y176.218 E0.02330
G1 X212.500 Y176.291 E0.02330
G1 X211.760 Y176.218 E0.02330
G1 X211.049 Y176.002 E0.02330
G1 X210.394 Y175.652 E0.02330
G1 X209.819 Y175.181 E0.02330
G1 X209.348 Y174.606 E0.02330
G1 X208.998 Y173.951 E0.02330
G1 X208.782 Y173.240 E0.02330
G1 X208.709 Y172.500 E0.02330
G1 X208.782 Y171.760 E0.02330
G1 X208.998 Y171.049 E0.02330
G1 X209.320 Y170.447 E0.02142
G1 X209.652 Y170.625 F10800.000
G1 F1200.000
G1 X210.087 Y170.087 E0.02168
G1 X210.604 Y169.663 E0.02097
G1 X211.194 Y169.348 E0.02097
G1 X211.834 Y169.154 E0.02097
G1 X212.500 Y169.088 E0.02097
G1 X213.166 Y169.154 E0.02097
G1 X213.806 Y169.348 E0.02097
G1 X214.396 Y169.663 E0.02097
G1 X214.913 Y170.087 E0.02097
G1 X215.337 Y170.604 E0.02097
G1 X215.652 Y171.194 E0.02097
G1 X215.846 Y171.834 E0.02097
G1 X215.912 Y172.500 E0.02097
G1 X215.846 Y173.166 E0.02097
G1 X215.652 Y173.806 E0.02097
G1 X215.337 Y174.396 E0.02097
G1 X214.913 Y174.913 E0.02097
G1 X214.396 Y175.337 E0.02097
G1 X213.806 Y175.652 E0.02097
G1 X213.166 Y175.846 E0.02097
G1 X212.500 Y175.912 E0.02097
G1 X211.834 Y175.846 E0.02097
G1 X211.194 Y175.652 E0.02097
G1 X210.604 Y175.337 E0.02097
G1 X210.087 Y174.913 E0.02097
G1 X209.663 Y174.396 E0.02097
G1 X209.348 Y173.806 E0.02097
G1 X209.154 Y173.166 E0.02097
G1 X209.088 Y172.500 E0.02097
G1 X209.154 Y171.834 E0.02097
G1 X209.348 Y171.194 E0.02097
G1 X209.624 Y170.677 E0.01837
G1 X209.474 Y170.267 F10800.000
G1 F8640.000
G1 X210.087 Y170.087 E-0.17325
G1 X210.604 Y169.663 E-0.15444
G1 X211.194 Y169.348 E-0.15444
G1 X211.834 Y169.154 E-0.15444
G1 X212.366 Y169.101 E-0.12342
G1 E-0.04000 F2100.00000
G1 Z0.800 F10800.000
G1 X212.500 Y41.291
G1 Z0.200
G1 E0.80000 F2100.00000
G1 F1200.000
G1 X211.760 Y41.218 E0.02330
G1 X211.049 Y41.002 E0.02330
G1 X210.394 Y40.652 E0.02330
G1 X209.819 Y40.181 E0.02330
G1 X209.348 Y39.606 E0.02330
G1 X208.998 Y38.951 E0.02330
G1 X208.782 Y38.240 E0.02330
G1 X208.709 Y37.500 E0.02330
G1 X208.782 Y36.760 E0.02330
G1 X208.998 Y36.049 E0.02330
G1 X209.348 Y35.394 E0.02330
G1 X209.819 Y34.819 E0.02330
G1 X210.394 Y34.348 E0.02330
G1 X211.049 Y33.998 E0.02330
G1 X211.760 Y33.782 E0.02330
G1 X212.500 Y33.709 E0.02330
G1 X213.240 Y33.782 E0.02330
G1 X213.951 Y33.998 E0.02330
G1 X214.606 Y34.348 E0.02330
G1 X215.181 Y34.819 E0.02330
G1 X215.652 Y35.394 E0.02330
G1 X216.002 Y36.049 E0.02330
G1 X216.218 Y36.760 E0.02330
G1 X216.291 Y37.500 E0.02330
G1 X216.218 Y38.240 E0.02330
G1 X216.002 Y38.951 E0.02330
G1 X215.652 Y39.606 E0.02330
G1 X215.181 Y40.181 E0.02330
G1 X214.606 Y40.652 E0.02330
G1 X213.951 Y41.002 E0.02330
G1 X213.240 Y41.218 E0.02330
G1 X212.560 Y41.285 E0.02142
G1 X212.523 Y40.910 F10800.000
G1 F1200.000
G1 X211.834 Y40.846 E0.02168
G1 X211.194 Y40.652 E0.02097
G1 X210.604 Y40.337 E0.02097
G1 X210.087 Y39.913 E0.02097
G1 X209.663 Y39.396 E0.02097
G1 X209.348 Y38.806 E0.02097
G1 X209.154 Y38.166 E0.02097
G1 X209.088 Y37.500 E0.02097
G1 X209.154 Y36.834 E0.02097
G1 X209.348 Y36.194 E0.02097
G1 X209.663 Y35.604 E0.02097
G1 X210.087 Y35.087 E0.02097
G1 X210.604 Y34.663 E0.02097
G1 X211.194 Y34.348 E0.02097
G1 X211.834 Y34.154 E0.02097
G1 X212.500 Y34.088 E0.02097
G1 X213.166 Y34.154 E0.02097
G1 X213.806 Y34.348 E0.02097
G1 X214.396 Y34.663 E0.02097
G1 X214.913 Y35.087 E0.02097
G1 X215.337 Y35.604 E0.02097
G1 X215.652 Y36.194 E0.02097
G1 X215.846 Y36.834 E0.02097
G1 X215.912 Y37.500 E0.02097
G1 X215.846 Y38.166 E0.02097
G1 X215.652 Y38.806 E0.02097
G1 X215.337 Y39.396 E0.02097
G1 X214.913 Y39.913 E0.02097
G1 X214.396 Y40.337 E0.02097
G1 X213.806 Y40.652 E0.02097
G1 X213.166 Y40.846 E0.02097
G1 X212.582 Y40.904 E0.01837
G1 X212.324 Y41.257 F10800.000
G1 F8640.000
G1 X211.834 Y40.846 E-0.17325
G1 X211.194 Y40.652 E-0.15444
G1 X210.604 Y40.337 E-0.15444
G1 X210.087 Y39.913 E-0.15444
G1 X209.748 Y39.499 E-0.12342
G1 E-0.04000 F2100.00000
G1 Z0.800 F10800.000
G1 X41.291 Y37.500
G1 Z0.200
G1 E0.80000 F2100.00000
G1 F1200.000
G1 X41.218 Y38.240 E0.02330
G1 X41.002 Y38.951 E0.02330
G1 X40.652 Y39.606 E0.02330
G1 X40.181 Y40.181 E0.02330
G1 X39.606 Y40.652 E0.02330
G1 X38.951 Y41.002 E0.02330
G1 X38.240 Y41.218 E0.02330
G1 X37.500 Y41.291 E0.02330
G1 X36.760 Y41.218 E0.02330
G1 X36.049 Y41.002 E0.02330
G1 X35.394 Y40.652 E0.02330
G1 X34.819 Y40.181 E0.02330
G1 X34.348 Y39.606 E0.02330
G1 X33.998 Y38.951 E0.02330
G1 X33.782 Y38.240 E0.02330
G1 X33.709 Y37.500 E0.02330
G1 X33.782 Y36.760 E0.02330
G1 X33.998 Y36.049 E0.02330
G1 X34.348 Y35.394 E0.02330
G1 X34.819 Y34.819 E0.02330
G1 X35.394 Y34.348 E0.02330
G1 X36.049 Y33.998 E0.02330
G1 X36.760 Y33.782 E0.02330
G1 X37.500 Y33.709 E0.02330
G1 X38.240 Y33.782 E0.02330
G1 X38.951 Y33.998 E0.02330
G1 X39.605 Y34.347 E0.02327
G1 X40.181 Y34.819 E0.02333
G1 X40.652 Y35.394 E0.02330
G1 X41.002 Y36.049 E0.02330
G1 X41.218 Y36.760 E0.02330
G1 X41.285 Y37.440 E0.02142
G1 X40.910 Y37.477 F10800.000
G1 F1200.000
G1 X40.846 Y38.166 E0.02168
G1 X40.652 Y38.806 E0.02097
G1 X40.337 Y39.396 E0.02097
G1 X39.913 Y39.913 E0.02097
G1 X39.396 Y40.337 E0.02097
G1 X38.806 Y40.652 E0.02097
G1 X38.166 Y40.846 E0.02097
G1 X37.500 Y40.912 E0.02097
G1 X36.834 Y40.846 E0.02097
G1 X36.194 Y40.652 E0.02097
G1 X35.604 Y40.337 E0.02097
G1 X35.087 Y39.913 E0.02097
G1 X34.663 Y39.396 E0.02097
G1 X34.348 Y38.806 E0.02097
G1 X34.154 Y38.166 E0.02097
G1 X34.088 Y37.500 E0.02097
G1 X34.154 Y36.834 E0.02097
G1 X34.348 Y36.194 E0.02097
G1 X34.663 Y35.604 E0.02097
G1 X35.087 Y35.087 E0.02097
G1 X35.604 Y34.663 E0.02097
G1 X36.194 Y34.348 E0.02097
G1 X36.834 Y34.154 E0.02097
G1 X37.500 Y34.088 E0.02097
G1 X38.166 Y34.154 E0.02097
G1 X38.806 Y34.348 E0.02097
G1 X39.395 Y34.663 E0.02094
G1 X39.913 Y35.087 E0.02100
G1 X40.337 Y35.604 E0.02097
G1 X40.652 Y36.194 E0.02097
G1 X40.846 Y36.834 E0.02097
G1 X40.904 Y37.418 E0.01837
G1 X41.257 Y37.676 F10800.000
G1 F8640.000
G1 X40.846 Y38.166 E-0.17325
G1 X40.652 Y38.806 E-0.15444
G1 X40.337 Y39.396 E-0.15444
G1 X39.913 Y39.913 E-0.15444
G1 X39.499 Y40.252 E-0.12342
G1 E-0.04000 F2100.00000
G1 Z0.800 F10800.000
G1 X37.500 Y168.709
G1 Z0.200
G1 E0.80000 F2100.00000
G1 F1200.000
G1 X38.240 Y168.782 E0.02330
G1 X38.951 Y168.998 E0.02330
G1 X39.606 Y169.348 E0.02330
G1 X40.181 Y169.819 E0.02330
G1 X40.652 Y170.394 E0.02330
G1 X41.002 Y171.049 E0.02330
G1 X41.218 Y171.760 E0.02330
G1 X41.291 Y172.500 E0.02330
G1 X41.218 Y173.240 E0.02330
G1 X41.002 Y173.951 E0.02330
G1 X40.652 Y174.606 E0.02330
G1 X40.181 Y175.181 E0.02330
G1 X39.606 Y175.652 E0.02330
G1 X38.951 Y176.002 E0.02330
G1 X38.240 Y176.218 E0.02330
G1 X37.500 Y176.291 E0.02330
G1 X36.760 Y176.218 E0.02330
G1 X36.049 Y176.002 E0.02330
G1 X35.394 Y175.652 E0.02330
G1 X34.819 Y175.181 E0.02330
G1 X34.348 Y174.606 E0.02330
G1 X33.998 Y173.951 E0.02330
G1 X33.782 Y173.240 E0.02330
G1 X33.709 Y172.500 E0.02330
G1 X33.782 Y171.760 E0.02330
G1 X33.998 Y171.049 E0.02330
G1 X34.348 Y170.394 E0.02330
G1 X34.819 Y169.819 E0.02330
G1 X35.394 Y169.348 E0.02330
G1 X36.049 Y168.998 E0.02330
G1 X36.760 Y168.782 E0.02330
G1 X37.440 Y168.715 E0.02142
G1 X37.477 Y169.090 F10800.000
G1 F1200.000
G1 X38.166 Y169.154 E0.02168
G1 X38.806 Y169.348 E0.02097
G1 X39.396 Y169.663 E0.02097
G1 X39.913 Y170.087 E0.02097
G1 X40.337 Y170.604 E0.02097
G1 X40.652 Y171.194 E0.02097
G1 X40.846 Y171.834 E0.02097
G1 X40.912 Y172.500 E0.02097
G1 X40.846 Y173.166 E0.02097
G1 X40.652 Y173.806 E0.02097
G1 X40.337 Y174.396 E0.02097
G1 X39.913 Y174.913 E0.02097
G1 X39.396 Y175.337 E0.02097
G1 X38.806 Y175.652 E0.02097
G1 X38.166 Y175.846 E0.02097
G1 X37.500 Y175.912 E0.02097
G1 X36.834 Y175.846 E0.02097
G1 X36.194 Y175.652 E0.02097
G1 X35.604 Y175.337 E0.02097
G1 X35.087 Y174.913 E0.02097
G1 X34.663 Y174.396 E0.02097
G1 X34.348 Y173.806 E0.02097
G1 X34.154 Y173.166 E0.02097
G1 X34.088 Y172.500 E0.02097
G1 X34.154 Y171.834 E0.02097
G1 X34.348 Y171.194 E0.02097
G1 X34.663 Y170.604 E0.02097
G1 X35.087 Y170.087 E0.02097
G1 X35.604 Y169.663 E0.02097
G1 X36.194 Y169.348 E0.02097
G1 X36.834 Y169.154 E0.02097
G1 X37.418 Y169.096 E0.01837
G1 X37.676 Y168.743 F10800.000
G1 F8640.000
G1 X38.166 Y169.154 E-0.17325
G1 X38.806 Y169.348 E-0.15444
G1 X39.396 Y169.663 E-0.15444
G1 X39.913 Y170.087 E-0.15444
G1 X40.252 Y170.501 E-0.12342
G1 E-0.04000 F2100.00000
G1 Z0.800 F10800.000
G1 X25.787 Y184.213
G1 Z0.200
G1 E0.80000 F2100.00000
G1 F1200.000
G1 X25.787 Y25.787 E4.96733
M73 P0 R155
G1 X224.213 Y25.787 E6.22150
G1 X224.213 Y184.213 E4.96733
G1 X140.185 Y184.214 E2.63463
G1 X154.004 Y180.022 E0.45277
G1 X167.107 Y173.018 E0.46585
G1 X178.592 Y163.592 E0.46585
G1 X188.018 Y152.107 E0.46585
G1 X195.022 Y139.004 E0.46585
G1 X199.335 Y124.786 E0.46585
G1 X200.791 Y110.000 E0.46585
G1 X199.335 Y95.214 E0.46585
G1 X195.022 Y80.996 E0.46585
G1 X188.018 Y67.893 E0.46585
G1 X178.592 Y56.408 E0.46585
G1 X167.107 Y46.982 E0.46585
G1 X154.004 Y39.978 E0.46585
G1 X139.786 Y35.665 E0.46585
G1 X125.000 Y34.209 E0.46585
G1 X110.214 Y35.665 E0.46585
G1 X95.996 Y39.978 E0.46585
G1 X82.893 Y46.982 E0.46585
G1 X71.408 Y56.408 E0.46585
G1 X61.982 Y67.893 E0.46585
G1 X54.978 Y80.996 E0.46585
G1 X50.665 Y95.214 E0.46585
G1 X49.209 Y110.000 E0.46585
G1 X50.665 Y124.786 E0.46585
G1 X54.978 Y139.004 E0.46585
G1 X61.982 Y152.107 E0.46585
G1 X71.408 Y163.592 E0.46585
G1 X82.893 Y173.018 E0.46585
G1 X95.996 Y180.022 E0.46585
G1 X109.815 Y184.214 E0.45277
G1 X25.847 Y184.213 E2.63275
G1 X25.410 Y184.590 F10800.000
G1 F1200.000
G1 X25.410 Y25.410 E4.99098
G1 X224.590 Y25.410 E6.24515
M73 P1 R154
G1 X224.590 Y184.590 E4.99098
G1 X137.998 Y184.591 E2.71502
G1 X136.994 Y184.606 E0.03151
G1 X132.995 Y184.790 E0.12550
G1 X129.275 Y184.790 E0.11665
G1 X132.820 Y184.441 E0.11169
G1 X137.228 Y184.200 E0.13842
G1 X139.712 Y183.963 E0.07824
G1 X153.859 Y179.672 E0.46353
G1 X166.897 Y172.703 E0.46352
G1 X178.324 Y163.324 E0.46352
G1 X187.703 Y151.897 E0.46352
G1 X194.672 Y138.859 E0.46352
G1 X198.963 Y124.712 E0.46352
G1 X200.412 Y110.000 E0.46352
G1 X198.963 Y95.288 E0.46352
G1 X194.672 Y81.141 E0.46352
G1 X187.703 Y68.103 E0.46352
G1 X178.324 Y56.676 E0.46352
G1 X166.897 Y47.297 E0.46352
G1 X153.859 Y40.328 E0.46352
G1 X139.712 Y36.037 E0.46352
G1 X125.000 Y34.588 E0.46352
G1 X110.288 Y36.037 E0.46352
G1 X96.141 Y40.328 E0.46352
G1 X83.103 Y47.297 E0.46352
G1 X71.676 Y56.676 E0.46352
G1 X62.297 Y68.103 E0.46352
G1 X55.328 Y81.141 E0.46352
G1 X51.037 Y95.288 E0.46352
G1 X49.588 Y110.000 E0.46352
G1 X51.037 Y124.712 E0.46352
G1 X55.328 Y138.859 E0.46352
G1 X62.297 Y151.897 E0.46352
G1 X71.676 Y163.324 E0.46352
G1 X83.103 Y172.703 E0.46352
G1 X96.141 Y179.672 E0.46352
G1 X110.288 Y183.963 E0.46353
G1 X112.772 Y184.200 E0.07824
G1 X117.180 Y184.441 E0.13842
G1 X120.725 Y184.790 E0.11169
G1 X117.005 Y184.790 E0.11665
G1 X113.006 Y184.606 E0.12550
G1 X112.002 Y184.591 E0.03151
G1 X25.470 Y184.590 E2.71314
G1 X25.610 Y184.244 F10800.000
G1 F8640.000
G1 X25.469 Y181.299 E-0.76000
G1 E-0.04000 F2100.00000
G1 Z0.800 F10800.000
G1 X26.664 Y184.100
G1 Z0.200
G1 E0.80000 F2100.00000
G1 F1200.000
G1 X26.070 Y183.506 E0.02635
G1 X26.070 Y182.972 E0.01674
G1 X27.028 Y183.930 E0.04250
G1 X27.561 Y183.930 E0.01674
G1 X26.070 Y182.439 E0.06618
G1 X26.070 Y181.905 E0.01674
G1 X28.095 Y183.930 E0.08985
G1 X28.629 Y183.930 E0.01674
G1 X26.070 Y181.372 E0.11353
G1 X26.070 Y180.838 E0.01674
G1 X29.162 Y183.930 E0.13721
G1 X29.696 Y183.930 E0.01674
G1 X26.070 Y180.304 E0.16089
G1 X26.070 Y179.771 E0.01674
G1 X30.229 Y183.930 E0.18457
G1 X30.763 Y183.930 E0.01674
G1 X26.070 Y179.237 E0.20825
G1 X26.070 Y178.703 E0.01674
G1 X31.297 Y183.930 E0.23193
G1 X31.830 Y183.930 E0.01674
G1 X26.070 Y178.170 E0.25561
G1 X26.070 Y177.636 E0.01674
G1 X32.364 Y183.930 E0.27929
G1 X32.898 Y183.930 E0.01674
G1 X26.070 Y177.102 E0.30297
G1 X26.070 Y176.569 E0.01674
G1 X33.431 Y183.930 E0.32665
G1 X33.965 Y183.930 E0.01674
G1 X26.070 Y176.035 E0.35033
G1 X26.070 Y175.501 E0.01674
G1 X34.499 Y183.930 E0.37401
G1 X35.032 Y183.930 E0.01674
G1 X26.070 Y174.968 E0.39769
G1 X26.070 Y174.434 E0.01674
G1 X35.566 Y183.930 E0.42137
G1 X36.100 Y183.930 E0.01674
G1 X26.070 Y173.900 E0.44504
G1 X26.070 Y173.367 E0.01674
G1 X36.633 Y183.930 E0.46872
G1 X37.167 Y183.930 E0.01674
G1 X26.070 Y172.833 E0.49240
G1 X26.070 Y172.300 E0.01674
G1 X37.701 Y183.930 E0.51608
G1 X38.234 Y183.930 E0.01674
G1 X26.070 Y171.766 E0.53976
G1 X26.070 Y171.232 E0.01674
G1 X38.768 Y183.930 E0.56344
G1 X39.301 Y183.930 E0.01674
G1 X26.070 Y170.699 E0.58712
G1 X26.070 Y170.165 E0.01674
G1 X39.835 Y183.930 E0.61080
G1 X40.369 Y183.930 E0.01674
G1 X26.070 Y169.631 E0.63448
G1 X26.070 Y169.098 E0.01674
G1 X40.902 Y183.930 E0.65816
G1 X41.436 Y183.930 E0.01674
G1 X26.070 Y168.564 E0.68184
G1 X26.070 Y168.030 E0.01674
G1 X41.970 Y183.930 E0.70552
G1 X42.503 Y183.930 E0.01674
G1 X26.070 Y167.497 E0.72920
M73 P2 R153
G1 X26.070 Y166.963 E0.01674
G1 X43.207 Y184.100 E0.76041
G1 F8640.000
G1 X40.879 Y181.773 E-0.76000
G1 E-0.04000 F2100.00000
G1 Z0.800 F10800.000
G1 X25.900 Y155.587
G1 Z0.200
G1 E0.80000 F2100.00000
G1 F1200.000
G1 X39.044 Y168.730 E0.58321
