; generated by PrusaSlicer 2.2.0+linux-x64 on 2020-11-19 at 16:53:32 UTC

; 

; external perimeters extrusion width = 0.45mm
; perimeters extrusion width = 0.45mm
; infill extrusion width = 0.45mm
; solid infill extrusion width = 0.45mm
; top infill extrusion width = 0.40mm
; first layer extrusion width = 0.42mm

M73 P0 R390
M201 X9000 Y9000 Z500 E10000 ; sets maximum accelerations, mm/sec^2
M203 X500 Y500 Z12 E120 ; sets maximum feedrates, mm/sec
M204 P2000 R1500 T2000 ; sets acceleration (P, T) and retract acceleration (R), mm/sec^2
M205 X10.00 Y10.00 Z0.20 E4.50 ; sets the jerk limits, mm/sec
M205 S0 T0 ; sets the minimum extruding and travel feed rate, mm/sec
M107
M862.3 P "MK2.5" ; printer model check
M862.1 P0.4 ; nozzle diameter check
M115 U3.9.1 ; tell printer latest fw version
G90 ; use absolute coordinates
M83 ; extruder relative mode
M104 S215 ; set extruder temp
M140 S60 ; set bed temp
M190 S60 ; wait for bed temp
M109 S215 ; wait for extruder temp
G28 W ; home all without mesh bed level
G80 ; mesh bed leveling
G1 Y-3.0 F1000.0 ; go outside print area
G92 E0.0
G1 X60.0 E9.0 F1000.0 ; intro line
M73 P0 R390
G1 X100.0 E12.5 F1000.0 ; intro line
G92 E0.0
G21 ; set units to millimeters
G90 ; use absolute coordinates
M83 ; use relative distances for extrusion
M900 K0.05 ; Filament gcode LA 1.5
M900 K30 ; Filament gcode LA 1.0
;BEFORE_LAYER_CHANGE
G92 E0.0
;0.2


G1 E-0.80000 F2100.00000
G1 Z0.600 F10800.000
;AFTER_LAYER_CHANGE
;0.2
;CURRENT_Z: 0.2
G1 X105.430 Y92.019
G1 Z0.200
G1 E0.80000 F2100.00000
M204 S1000
G1 F1200.000
G1 X106.076 Y91.923 E0.02048
G1 X143.904 Y91.923 E1.18606
G1 X144.788 Y92.095 E0.02825
G1 X145.542 Y92.581 E0.02813
G1 X146.062 Y93.313 E0.02813
G1 X146.274 Y94.185 E0.02813
G1 X146.275 Y115.810 E0.67806
G1 X146.179 Y116.376 E0.01799
G1 X145.952 Y116.899 E0.01787
G1 X145.608 Y117.353 E0.01787
G1 X145.165 Y117.712 E0.01787
G1 X144.570 Y117.981 E0.02048
G1 X143.924 Y118.077 E0.02048
G1 X106.058 Y118.077 E1.18726
G1 X105.475 Y117.993 E0.01846
G1 X104.934 Y117.771 E0.01835
G1 X104.460 Y117.421 E0.01846
G1 X104.088 Y116.965 E0.01846
G1 X103.821 Y116.377 E0.02024
G1 X103.723 Y115.739 E0.02024
G1 X103.724 Y94.228 E0.67448
G1 X103.813 Y93.653 E0.01823
G1 X104.038 Y93.117 E0.01823
G1 X104.387 Y92.652 E0.01823
G1 X104.835 Y92.288 E0.01811
G1 X105.375 Y92.044 E0.01860
G1 F8640.000
G1 X106.076 Y91.923 E-0.16417
G1 X108.656 Y91.923 E-0.59583
G1 E-0.04000 F2100.00000
G1 Z0.800 F10800.000
G1 X120.987 Y89.590
G1 Z0.200
G1 E0.80000 F2100.00000
G1 F1200.000
G1 X122.066 Y89.817 E0.03456
G1 X123.039 Y90.291 E0.03394
G1 X124.089 Y91.220 E0.04397
G1 X124.444 Y91.734 E0.01958
G1 X124.704 Y92.112 F10800.000
G1 F1200.000
G1 X124.742 Y92.167 E0.00213
G1 X124.993 Y92.849 E0.02277
G1 X125.212 Y92.260 E0.01970
G1 X125.310 Y92.112 E0.00558
G1 X125.557 Y91.734 F10800.000
G1 F1200.000
G1 X125.851 Y91.285 E0.01684
G1 X126.763 Y90.429 E0.03921
G1 X128.046 Y89.779 E0.04511
G1 X129.066 Y89.587 E0.03253
G1 X144.435 Y89.587 E0.48190
G1 X146.248 Y90.166 E0.05969
G1 X146.936 Y90.670 E0.02672
G1 X147.545 Y91.279 E0.02701
G1 X148.266 Y92.439 E0.04282
G1 X148.613 Y93.779 E0.04342
G1 X148.613 Y116.235 E0.70409
G1 X148.034 Y118.048 E0.05969
G1 X147.530 Y118.736 E0.02672
G1 X146.922 Y119.344 E0.02699
G1 X145.828 Y120.038 E0.04060
G1 X144.587 Y120.391 E0.04046
G1 X140.900 Y120.402 E0.11558
G1 X139.768 Y120.115 E0.03664
G1 X138.866 Y119.648 E0.03184
G1 X137.875 Y118.739 E0.04217
G1 X137.546 Y118.265 E0.01807
G1 X137.289 Y117.888 F10800.000
G1 F1200.000
G1 X136.803 Y116.350 E0.05057
G1 X136.786 Y110.413 E0.18615
G1 X113.213 Y110.413 E0.73913
G1 X113.193 Y116.368 E0.18669
G1 X112.871 Y117.549 E0.03838
G1 X112.670 Y117.888 E0.01237
G1 X112.447 Y118.265 F10800.000
G1 F1200.000
G1 X112.266 Y118.571 E0.01113
G1 X111.184 Y119.611 E0.04707
G1 X110.231 Y120.116 E0.03383
G1 X109.082 Y120.404 E0.03712
G1 X105.189 Y120.354 E0.12209
G1 X104.252 Y120.074 E0.03066
G1 X103.459 Y119.641 E0.02832
G1 X102.493 Y118.763 E0.04095
G1 X101.734 Y117.563 E0.04451
G1 X101.387 Y116.221 E0.04347
G1 X101.387 Y93.753 E0.70446
G1 X102.035 Y91.830 E0.06363
G1 X102.539 Y91.192 E0.02550
G1 X103.551 Y90.294 E0.04242
G1 X104.367 Y89.885 E0.02863
G1 X105.591 Y89.586 E0.03949
G1 X120.987 Y89.590 E0.48273
G1 F8640.000
G1 X117.695 Y89.589 E-0.76000
G1 E-0.04000 F2100.00000
G1 Z0.800 F10800.000
G1 X123.986 Y91.734
G1 Z0.200
G1 E0.80000 F2100.00000
G1 F1200.000
G1 X123.792 Y91.454 E0.01069
G1 X122.811 Y90.591 E0.04097
G1 X121.924 Y90.167 E0.03082
G1 X120.967 Y89.967 E0.03064
G1 X105.614 Y89.964 E0.48139
G1 X104.480 Y90.245 E0.03665
G1 X103.744 Y90.618 E0.02586
G1 X102.804 Y91.461 E0.03960
G1 X102.352 Y92.037 E0.02295
G1 X101.764 Y93.784 E0.05778
G1 X101.764 Y116.196 E0.70272
G1 X102.091 Y117.438 E0.04028
G1 X102.766 Y118.502 E0.03950
G1 X103.662 Y119.322 E0.03808
G1 X104.383 Y119.720 E0.02581
G1 X105.222 Y119.978 E0.02753
G1 X109.015 Y120.032 E0.11893
G1 X110.117 Y119.756 E0.03564
G1 X110.943 Y119.320 E0.02929
G1 X111.957 Y118.354 E0.04389
G1 X112.010 Y118.265 E0.00325
G1 X112.236 Y117.888 F10800.000
G1 F1200.000
G1 X112.514 Y117.424 E0.01697
G1 X112.823 Y116.293 E0.03677
G1 X112.836 Y110.036 E0.19616
G1 X137.163 Y110.036 E0.76275
G1 X137.172 Y116.266 E0.19533
G1 X137.620 Y117.711 E0.04742
G1 X137.742 Y117.888 E0.00676
G1 X138.002 Y118.265 F10800.000
G1 F1200.000
G1 X138.146 Y118.475 E0.00799
G1 X139.103 Y119.353 E0.04070
G1 X139.881 Y119.755 E0.02747
G1 X140.970 Y120.031 E0.03522
G1 X144.558 Y120.014 E0.11251
G1 X145.696 Y119.683 E0.03716
G1 X146.669 Y119.063 E0.03618
G1 X147.253 Y118.480 E0.02588
G1 X147.711 Y117.851 E0.02439
G1 X148.236 Y116.206 E0.05415
G1 X148.236 Y93.804 E0.70240
G1 X147.909 Y92.563 E0.04025
G1 X147.263 Y91.531 E0.03817
G1 X146.680 Y90.947 E0.02588
G1 X146.051 Y90.489 E0.02439
G1 X144.406 Y89.964 E0.05415
G1 X129.082 Y89.964 E0.48046
G1 X128.190 Y90.128 E0.02845
G1 X126.999 Y90.724 E0.04175
G1 X126.154 Y91.511 E0.03622
G1 X126.008 Y91.734 E0.00836
G1 X125.761 Y92.112 F10800.000
G1 F1200.000
G1 X125.544 Y92.441 E0.01236
G1 X125.208 Y93.506 E0.03500
G1 X125.185 Y96.938 E0.10760
G1 X124.811 Y96.938 E0.01174
G1 X124.786 Y93.475 E0.10856
G1 X124.415 Y92.357 E0.03695
G1 X124.246 Y92.112 E0.00935
G1 X123.791 Y92.112 F10800.000
G1 F1200.000
G1 X124.089 Y92.548 E0.01655
G1 X124.410 Y93.508 E0.03175
G1 X124.450 Y99.341 E0.18288
G1 X125.547 Y99.341 E0.03437
G1 X125.585 Y93.538 E0.18194
G1 X125.895 Y92.582 E0.03150
G1 X126.204 Y92.112 E0.01767
G1 X126.468 Y91.734 F10800.000
G1 F1200.000
G1 X127.236 Y91.018 E0.03295
G1 X128.286 Y90.494 E0.03678
G1 X129.100 Y90.341 E0.02598
G1 X144.377 Y90.341 E0.47899
G1 X145.854 Y90.812 E0.04863
G1 X146.424 Y91.224 E0.02204
G1 X146.982 Y91.783 E0.02475
G1 X147.553 Y92.689 E0.03357
G1 X147.859 Y93.829 E0.03703
G1 X147.859 Y116.177 E0.70069
G1 X147.388 Y117.654 E0.04863
G1 X146.976 Y118.224 E0.02204
G1 X146.417 Y118.782 E0.02477
G1 X145.563 Y119.330 E0.03181
G1 X144.528 Y119.637 E0.03383
G1 X141.039 Y119.659 E0.10941
G1 X139.994 Y119.395 E0.03379
G1 X139.339 Y119.058 E0.02311
G1 X138.475 Y118.265 E0.03675
G1 X138.197 Y117.888 F10800.000
G1 F1200.000
G1 X137.948 Y117.523 E0.01385
G1 X137.541 Y116.184 E0.04390
G1 X137.541 Y109.659 E0.20457
G1 X112.460 Y109.659 E0.78640
G1 X112.453 Y116.218 E0.20563
G1 X112.158 Y117.299 E0.03513
G1 X111.799 Y117.888 E0.02164
G1 X111.511 Y118.265 F10800.000
G1 F1200.000
G1 X110.704 Y119.028 E0.03483
G1 X110.004 Y119.395 E0.02479
G1 X108.947 Y119.660 E0.03416
G1 X105.256 Y119.601 E0.11573
G1 X104.516 Y119.366 E0.02436
G1 X103.865 Y119.004 E0.02334
G1 X103.040 Y118.242 E0.03524
G1 X102.448 Y117.312 E0.03457
G1 X102.141 Y116.171 E0.03705
G1 X102.141 Y93.814 E0.70097
G1 X102.669 Y92.243 E0.05197
G1 X103.070 Y91.729 E0.02043
G1 X103.940 Y90.942 E0.03679
G1 X104.594 Y90.605 E0.02308
G1 X105.638 Y90.341 E0.03377
G1 X120.948 Y90.344 E0.48004
G1 X121.785 Y90.518 E0.02678
G1 X122.582 Y90.893 E0.02763
G1 X123.534 Y91.734 E0.03984
G1 X123.342 Y92.112 F10800.000
G1 F1200.000
G1 X123.741 Y92.695 E0.02216
G1 X124.033 Y93.542 E0.02809
G1 X124.076 Y99.718 E0.19363
G1 X125.921 Y99.718 E0.05785
G1 X125.962 Y93.571 E0.19272
G1 X126.244 Y92.726 E0.02794
G1 X126.649 Y92.112 E0.02307
G1 X127.021 Y91.734 F10800.000
G1 F1200.000
G1 X127.474 Y91.313 E0.01940
G1 X128.382 Y90.859 E0.03185
G1 X129.118 Y90.718 E0.02350
G1 X144.348 Y90.718 E0.47750
G1 X145.659 Y91.135 E0.04314
G1 X146.168 Y91.502 E0.01968
G1 X146.701 Y92.035 E0.02362
G1 X147.197 Y92.817 E0.02903
G1 X147.482 Y93.855 E0.03377
G1 X147.482 Y116.148 E0.69897
G1 X147.065 Y117.459 E0.04314
G1 X146.698 Y117.968 E0.01968
G1 X146.165 Y118.501 E0.02362
G1 X145.384 Y118.997 E0.02900
G1 X144.449 Y119.267 E0.03051
G1 X141.062 Y119.282 E0.10620
G1 X140.111 Y119.035 E0.03083
G1 X139.536 Y118.736 E0.02031
G1 X139.029 Y118.265 E0.02169
G1 X138.646 Y117.888 F10800.000
G1 F1200.000
G1 X138.299 Y117.383 E0.01921
G1 X137.918 Y116.155 E0.04034
G1 X137.918 Y109.282 E0.21549
G1 X112.082 Y109.282 E0.81005
G1 X112.082 Y116.143 E0.21510
G1 X111.801 Y117.172 E0.03346
G1 X111.358 Y117.888 E0.02639
G1 X110.967 Y118.265 F10800.000
G1 F1200.000
G1 X110.466 Y118.735 E0.02155
G1 X109.889 Y119.036 E0.02040
G1 X108.927 Y119.283 E0.03113
G1 X105.292 Y119.225 E0.11400
G1 X104.652 Y119.015 E0.02111
G1 X104.071 Y118.687 E0.02092
G1 X103.315 Y117.982 E0.03241
G1 X102.803 Y117.184 E0.02973
G1 X102.518 Y116.145 E0.03378
G1 X102.518 Y93.845 E0.69920
G1 X102.987 Y92.449 E0.04619
G1 X103.337 Y91.996 E0.01793
G1 X104.137 Y91.264 E0.03399
G1 X104.711 Y90.965 E0.02030
G1 X105.663 Y90.718 E0.03083
G1 X120.929 Y90.721 E0.47867
G1 X121.647 Y90.870 E0.02300
G1 X122.355 Y91.195 E0.02440
G1 X122.969 Y91.734 E0.02564
G1 X122.827 Y92.112 F10800.000
G1 F1200.000
G1 X122.992 Y92.257 E0.00689
G1 X123.395 Y92.846 E0.02237
G1 X123.656 Y93.578 E0.02437
G1 X123.702 Y100.095 E0.20435
G1 X126.297 Y100.095 E0.08137
G1 X126.329 Y93.660 E0.20177
G1 X126.574 Y92.910 E0.02473
G1 X126.977 Y92.290 E0.02317
G1 X127.166 Y92.112 E0.00815
G1 X127.565 Y91.734 F10800.000
G1 F1200.000
G1 X127.668 Y91.637 E0.00444
G1 X128.527 Y91.208 E0.03011
G1 X129.135 Y91.095 E0.01941
G1 X144.319 Y91.095 E0.47606
G1 X145.464 Y91.460 E0.03769
G1 X145.913 Y91.780 E0.01729
G1 X146.420 Y92.287 E0.02249
G1 X146.842 Y92.946 E0.02454
G1 X147.105 Y93.882 E0.03046
G1 X147.105 Y116.119 E0.69722
G1 X146.740 Y117.264 E0.03769
G1 X146.420 Y117.713 E0.01729
G1 X145.913 Y118.220 E0.02249
G1 X145.253 Y118.642 E0.02456
G1 X144.370 Y118.898 E0.02882
G1 X141.087 Y118.905 E0.10294
G1 X140.229 Y118.677 E0.02782
G1 X139.736 Y118.415 E0.01751
G1 X139.577 Y118.265 E0.00686
G1 X139.174 Y117.888 F10800.000
G1 F1200.000
G1 X138.961 Y117.689 E0.00915
G1 X138.650 Y117.241 E0.01711
G1 X138.295 Y116.125 E0.03672
G1 X138.295 Y108.905 E0.22638
G1 X111.705 Y108.905 E0.83370
G1 X111.705 Y116.116 E0.22610
G1 X111.446 Y117.044 E0.03022
G1 X111.065 Y117.658 E0.02266
G1 X110.822 Y117.888 E0.01049
G1 X110.423 Y118.265 F10800.000
G1 F1200.000
G1 X110.265 Y118.414 E0.00680
G1 X109.770 Y118.677 E0.01758
G1 X108.906 Y118.906 E0.02803
G1 X105.382 Y118.857 E0.11049
G1 X104.788 Y118.662 E0.01960
G1 X104.278 Y118.371 E0.01843
G1 X103.590 Y117.724 E0.02962
G1 X103.158 Y117.054 E0.02499
G1 X102.895 Y116.118 E0.03047
G1 X102.895 Y93.876 E0.69740
G1 X103.306 Y92.653 E0.04045
G1 X103.605 Y92.261 E0.01546
G1 X104.336 Y91.585 E0.03121
G1 X104.830 Y91.323 E0.01752
G1 X105.688 Y91.095 E0.02784
G1 X120.910 Y91.098 E0.47728
G1 X121.513 Y91.223 E0.01932
G1 X122.128 Y91.497 E0.02110
G1 X122.398 Y91.734 E0.01126
G1 X122.263 Y92.112 F10800.000
G1 F1200.000
G1 X122.722 Y92.521 E0.01931
G1 X123.067 Y93.035 E0.01939
G1 X123.290 Y93.671 E0.02115
G1 X123.326 Y100.472 E0.21323
G1 X126.673 Y100.472 E0.10492
G1 X126.697 Y93.746 E0.21089
G1 X126.906 Y93.091 E0.02154
G1 X127.255 Y92.546 E0.02032
G1 X127.707 Y92.112 E0.01964
G1 X128.308 Y91.734 F10800.000
G1 F1200.000
G1 X128.625 Y91.573 E0.01115
G1 X129.154 Y91.472 E0.01688
G1 X144.289 Y91.472 E0.47457
G1 X145.270 Y91.784 E0.03228
G1 X145.658 Y92.058 E0.01488
G1 X146.140 Y92.540 E0.02136
G1 X146.488 Y93.079 E0.02011
G1 X146.728 Y93.909 E0.02710
G1 X146.728 Y116.089 E0.69545
G1 X146.416 Y117.070 E0.03228
G1 X146.142 Y117.458 E0.01488
G1 X145.660 Y117.940 E0.02136
G1 X145.121 Y118.288 E0.02011
G1 X144.291 Y118.528 E0.02710
G1 X141.113 Y118.528 E0.09964
G1 X140.351 Y118.320 E0.02477
G1 X140.251 Y118.265 E0.00356
G1 X139.718 Y117.888 F10800.000
G1 F1200.000
G1 X139.256 Y117.453 E0.01989
G1 X138.998 Y117.094 E0.01386
G1 X138.672 Y116.095 E0.03298
G1 X138.672 Y108.528 E0.23724
G1 X111.328 Y108.528 E0.85735
G1 X111.328 Y116.089 E0.23707
G1 X111.091 Y116.914 E0.02692
G1 X110.787 Y117.403 E0.01804
G1 X110.279 Y117.888 E0.02202
G1 X109.749 Y118.265 F10800.000
G1 F1200.000
G1 X109.649 Y118.320 E0.00358
G1 X108.883 Y118.528 E0.02488
G1 X105.472 Y118.490 E0.10695
M73 P0 R389
G1 X104.925 Y118.310 E0.01805
G1 X104.487 Y118.057 E0.01588
G1 X103.866 Y117.466 E0.02686
G1 X103.512 Y116.921 E0.02037
G1 X103.272 Y116.091 E0.02710
G1 X103.272 Y93.906 E0.69559
G1 X103.625 Y92.855 E0.03476
G1 X103.875 Y92.525 E0.01301
G1 X104.538 Y91.904 E0.02845
G1 X104.951 Y91.680 E0.01474
G1 X105.713 Y91.472 E0.02478
G1 X120.889 Y91.476 E0.47583
G1 X121.414 Y91.587 E0.01681
G1 X121.738 Y91.734 E0.01118
G1 X121.660 Y92.112 F10800.000
G1 F1200.000
G1 X121.759 Y92.158 E0.00344
G1 X122.451 Y92.784 E0.02924
G1 X122.739 Y93.220 E0.01641
G1 X122.923 Y93.763 E0.01796
G1 X122.950 Y100.849 E0.22219
G1 X127.049 Y100.849 E0.12851
G1 X127.066 Y93.829 E0.22010
G1 X127.239 Y93.270 E0.01836
G1 X127.536 Y92.798 E0.01748
G1 X128.064 Y92.281 E0.02319
G1 X128.391 Y92.112 E0.01153
G1 F8640.000
G1 X128.064 Y92.281 E-0.08488
G1 X127.536 Y92.798 E-0.17081
G1 X127.239 Y93.270 E-0.12871
G1 X127.066 Y93.829 E-0.13518
G1 X127.063 Y94.871 E-0.24042
G1 E-0.04000 F2100.00000
G1 Z0.800 F10800.000
G1 X140.341 Y117.888
G1 Z0.200
G1 E0.80000 F2100.00000
G1 F1200.000
G1 X140.143 Y117.778 E0.00712
G1 X139.547 Y117.214 E0.02573
G1 X139.345 Y116.943 E0.01059
G1 X139.049 Y116.063 E0.02912
G1 X139.049 Y108.151 E0.24808
G1 X110.951 Y108.151 E0.88099
G1 X110.951 Y116.061 E0.24802
G1 X110.737 Y116.782 E0.02357
G1 X110.508 Y117.148 E0.01355
G1 X109.857 Y117.779 E0.02842
G1 X109.659 Y117.888 E0.00709
G1 F8640.000
G1 X109.857 Y117.779 E-0.05219
G1 X110.508 Y117.148 E-0.20927
G1 X110.737 Y116.782 E-0.09982
G1 X110.951 Y116.061 E-0.17354
G1 X110.951 Y115.086 E-0.22518
G1 E-0.04000 F2100.00000
G1 Z0.800 F10800.000
G1 X122.574 Y101.226
G1 Z0.200
G1 E0.80000 F2100.00000
G1 F1200.000
G1 X127.426 Y101.226 E0.15213
G1 X127.434 Y93.914 E0.22928
G1 X127.591 Y93.406 E0.01667
G1 X127.817 Y93.050 E0.01322
G1 X128.267 Y92.600 E0.01996
G1 X128.830 Y92.301 E0.01997
G1 X129.193 Y92.226 E0.01161
G1 X144.231 Y92.226 E0.47151
G1 X144.888 Y92.436 E0.02163
G1 X145.149 Y92.616 E0.00995
G1 X145.580 Y93.047 E0.01911
G1 X145.783 Y93.353 E0.01152
G1 X145.974 Y93.967 E0.02014
G1 X145.974 Y116.031 E0.69181
G1 X145.764 Y116.688 E0.02163
G1 X145.584 Y116.949 E0.00995
G1 X145.153 Y117.380 E0.01911
G1 X144.847 Y117.583 E0.01152
G1 X144.233 Y117.774 E0.02014
G1 X141.168 Y117.774 E0.09611
G1 X140.606 Y117.609 E0.01838
G1 X140.351 Y117.463 E0.00919
G1 X139.821 Y116.954 E0.02305
G1 X139.666 Y116.744 E0.00819
G1 X139.426 Y116.032 E0.02355
G1 X139.426 Y107.774 E0.25893
G1 X110.574 Y107.774 E0.90464
G1 X110.574 Y116.032 E0.25892
G1 X110.385 Y116.644 E0.02007
G1 X110.204 Y116.924 E0.01049
G1 X109.648 Y117.464 E0.02427
G1 X109.394 Y117.608 E0.00917
G1 X108.832 Y117.774 E0.01839
G1 X105.651 Y117.755 E0.09972
G1 X105.202 Y117.607 E0.01484
G1 X104.913 Y117.433 E0.01058
G1 X104.420 Y116.953 E0.02156
G1 X104.217 Y116.647 E0.01154
G1 X104.026 Y116.033 E0.02014
G1 X104.026 Y93.968 E0.69185
G1 X104.266 Y93.256 E0.02355
G1 X104.421 Y93.046 E0.00819
G1 X104.951 Y92.537 E0.02305
G1 X105.206 Y92.391 E0.00919
G1 X105.768 Y92.226 E0.01838
G1 X120.846 Y92.230 E0.47275
G1 X121.205 Y92.313 E0.01157
G1 X121.571 Y92.485 E0.01268
G1 X122.176 Y93.043 E0.02581
G1 X122.408 Y93.403 E0.01341
G1 X122.555 Y93.851 E0.01480
G1 X122.574 Y101.166 E0.22936
G1 F8640.000
G1 X125.865 Y101.207 E-0.76000
