; generated by PrusaSlicer 2.5.0+linux-x64-GTK3 on 2022-09-09 at 20:20:51 UTC

; 

; external perimeters extrusion width = 0.45mm
; perimeters extrusion width = 0.45mm
; infill extrusion width = 0.45mm
; solid infill extrusion width = 0.45mm
; top infill extrusion width = 0.40mm
; first layer extrusion width = 0.42mm

M73 P0 R224
M201 X9000 Y9000 Z500 E10000 ; sets maximum accelerations, mm/sec^2
M203 X500 Y500 Z12 E120 ; sets maximum feedrates, mm / sec
M204 P2000 R1500 T2000 ; sets acceleration (P, T) and retract acceleration (R), mm/sec^2
M205 X10.00 Y10.00 Z0.20 E4.50 ; sets the jerk limits, mm/sec
M205 S0 T0 ; sets the minimum extruding and travel feed rate, mm/sec
M107
;TYPE:Custom
M862.3 P "MK2.5" ; printer model check
M862.1 P0.4 ; nozzle diameter check
M115 U3.11.0 ; tell printer latest fw version
G90 ; use absolute coordinates
M83 ; extruder relative mode
M104 S215 ; set extruder temp
M140 S60 ; set bed temp
M190 S60 ; wait for bed temp
M109 S215 ; wait for extruder temp
G28 W ; home all without mesh bed level
G80 ; mesh bed leveling

G1 Z0.2 F720
G1 Y-3 F1000 ; go outside print area
G92 E0
G1 X60 E9 F1000 ; intro line
G1 X100 E12.5 F1000 ; intro line

G92 E0
G21 ; set units to millimeters
G90 ; use absolute coordinates
M83 ; use relative distances for extrusion
M900 K0.05 ; Filament gcode LA 1.5
M900 K30 ; Filament gcode LA 1.0
M107
;LAYER_CHANGE
;Z:0.2
;HEIGHT:0.2
;BEFORE_LAYER_CHANGE
G92 E0.0
;0.2


G1 E-.8 F2100
G1 Z.4 F720
;AFTER_LAYER_CHANGE
;0.2
;CURRENT_Z: 0.2
G1 X23.015 Y23.693 F10800
G1 Z.2 F720
G1 E.8 F2100
M204 S800
;TYPE:Skirt/Brim
;WIDTH:0.42
G1 F1200
G1 X24.06 Y22.817 E.04278
G1 X25 Y22.623 E.03008
G1 X225 Y22.623 E6.27086
G1 X226.307 Y23.015 E.04278
G1 X227.183 Y24.06 E.04278
G1 X227.377 Y25 E.03008
G1 X227.377 Y185 E5.01669
G1 X226.985 Y186.307 E.04278
M73 P0 R223
G1 X225.94 Y187.183 E.04278
G1 X225 Y187.377 E.03008
G1 X25 Y187.377 E6.27086
G1 X23.693 Y186.985 E.04278
G1 X22.817 Y185.94 E.04278
G1 X22.623 Y185 E.03008
G1 X22.623 Y25 E5.01669
G1 X22.997 Y23.75 E.0409
M204 S1000
; printing object escritorio_conector_duto.stl id:0 copy 0
;WIPE_START
G1 F8640
G1 X24.06 Y22.817 E-.32671
G1 X25 Y22.623 E-.22155
G1 X25.917 Y22.623 E-.21174
;WIPE_END
G1 E-.04 F2100
G1 Z.6 F720
G1 X140.185 Y184.214 F10800
G1 Z.2 F720
G1 E.8 F2100
M204 S800
;TYPE:Perimeter
;WIDTH:0.419999
G1 F1200
G1 X154.053 Y179.995 E.45449
G1 X167.058 Y173.044 E.46236
G1 X178.549 Y163.628 E.46582
G1 X188.044 Y152.058 E.46928
G1 X195.038 Y138.951 E.46582
G1 X199.34 Y124.731 E.46582
G1 X200.785 Y110.055 E.46236
G1 X199.34 Y95.269 E.46582
G1 X195.038 Y81.049 E.46582
G1 X187.985 Y67.853 E.46916
G1 X178.549 Y56.372 E.46594
G1 X167.058 Y46.956 E.46582
G1 X153.951 Y39.962 E.46582
G1 X139.731 Y35.66 E.46582
G1 X124.945 Y34.215 E.46582
G1 X110.161 Y35.682 E.46582
G1 X95.947 Y40.005 E.46582
G1 X82.85 Y47.018 E.46582
G1 X71.451 Y56.372 E.46236
G1 X62.566 Y67.182 E.43872
G1 X61.956 Y67.942 E.03056
G1 X54.962 Y81.049 E.46582
G1 X50.66 Y95.269 E.46582
G1 X49.215 Y109.945 E.46236
G1 X50.66 Y124.731 E.46582
G1 X55.005 Y139.053 E.46928
G1 X62.014 Y152.146 E.46565
G1 X71.372 Y163.549 E.46252
G1 X82.942 Y173.044 E.46928
G1 X95.947 Y179.995 E.46236
G1 X109.815 Y184.214 E.45449
G1 X25.787 Y184.213 E2.63463
G1 X25.787 Y25.787 E4.96732
G1 X224.213 Y25.787 E6.22149
M73 P0 R222
G1 X224.213 Y184.213 E4.96732
G1 X140.245 Y184.214 E2.63275
M204 S1000
;WIPE_START
G1 F8640
G1 X143.393 Y183.252 E-.76
;WIPE_END
G1 E-.04 F2100
G1 Z.6 F720
G1 X118.502 Y184.681 F10800
G1 Z.2 F720
G1 E.8 F2100
M204 S800
;TYPE:External perimeter
;WIDTH:0.638474
G1 F1200
G1 X119.341 Y184.722 E.04161
;WIDTH:0.595882
G1 X120.18 Y184.763 E.03863
;WIDTH:0.55329
G1 X121.02 Y184.804 E.03566
;WIDTH:0.510697
G1 X121.859 Y184.846 E.03268
;WIDTH:0.468105
G1 X122.698 Y184.887 E.02971
;WIDTH:0.425513
G1 X123.537 Y184.928 E.02673
M204 S1000
;WIPE_START
G1 F8640
G1 X122.698 Y184.887 E-.19402
G1 X121.859 Y184.846 E-.19402
G1 X121.02 Y184.804 E-.19402
G1 X120.25 Y184.767 E-.17794
;WIPE_END
G1 E-.04 F2100
G1 Z.6 F720
G1 X126.463 Y184.928 F10800
G1 Z.2 F720
G1 E.8 F2100
M204 S800
G1 F1200
G1 X127.302 Y184.887 E.02673
;WIDTH:0.468105
G1 X128.141 Y184.846 E.02971
;WIDTH:0.510697
G1 X128.98 Y184.804 E.03268
;WIDTH:0.55329
G1 X129.82 Y184.763 E.03566
;WIDTH:0.595882
G1 X130.659 Y184.722 E.03863
;WIDTH:0.638474
G1 X131.498 Y184.681 E.04161
M204 S1000
G1 X131.562 Y184.651 F10800
M204 S800
;WIDTH:0.592116
G1 F1200
G1 X131.626 Y184.622 E.00322
;WIDTH:0.545758
G1 X131.69 Y184.592 E.00295
;WIDTH:0.499399
G1 X131.754 Y184.562 E.00268
;WIDTH:0.453041
G1 X131.818 Y184.533 E.0024
;WIDTH:0.406683
G1 X131.882 Y184.503 E.00213
;WIDTH:0.385454
G1 X132.432 Y184.465 E.01569
;WIDTH:0.410583
G1 X132.981 Y184.427 E.01684
;WIDTH:0.427611
G1 X136.971 Y184.218 E.12781
;WIDTH:0.43299
G1 X137.232 Y184.206 E.00847
;WIDTH:0.463029
G1 X137.98 Y184.15 E.02619
;WIDTH:0.504036
G1 X138.839 Y184.089 E.03304
;WIDTH:0.545043
G1 X139.699 Y184.027 E.03598
G1 X139.746 Y184.009 E.00208
;WIDTH:0.527965
G1 X144.444 Y182.565 E.19825
;WIDTH:0.491977
G1 X149.143 Y181.121 E.18354
;WIDTH:0.455988
G1 X153.841 Y179.677 E.16883
;WIDTH:0.419999
G1 X166.911 Y172.691 E.46466
G1 X178.336 Y163.31 E.46351
G1 X187.712 Y151.88 E.46351
G1 X194.677 Y138.841 E.46351
G1 X198.965 Y124.694 E.46351
G1 X200.41 Y110.018 E.46236
G1 X198.965 Y95.306 E.46351
G1 X194.677 Y81.159 E.46351
G1 X187.855 Y68.388 E.45397
G1 X187.692 Y68.09 E.01065
G1 X178.31 Y56.664 E.46355
G1 X166.88 Y47.288 E.46351
G1 X153.841 Y40.323 E.46351
G1 X139.694 Y36.035 E.46351
G1 X124.982 Y34.59 E.46351
G1 X110.27 Y36.042 E.46351
G1 X96.125 Y40.337 E.46351
G1 X83.089 Y47.309 E.46351
G1 X71.69 Y56.664 E.46236
G1 X62.288 Y68.12 E.46466
G1 X55.323 Y81.159 E.46351
G1 X51.035 Y95.306 E.46351
G1 X49.59 Y109.982 E.46236
G1 X51.035 Y124.694 E.46351
G1 X55.323 Y138.841 E.46351
G1 X61.924 Y151.198 E.43926
G1 X62.308 Y151.91 E.02535
G1 X71.69 Y163.336 E.46357
G1 X83.12 Y172.712 E.46351
G1 X96.159 Y179.677 E.46351
;WIDTH:0.46667
G1 X103.208 Y181.84 E.25979
;WIDTH:0.51334
G1 X110.257 Y184.002 E.28841
;WIDTH:0.545044
G1 X110.301 Y184.027 E.00213
G1 X111.161 Y184.089 E.03598
;WIDTH:0.504037
G1 X112.02 Y184.15 E.03304
;WIDTH:0.463029
G1 X112.026 Y184.15 E.00022
;WIDTH:0.46275
G1 X113.029 Y184.218 E.03507
;WIDTH:0.42761
G1 X117.019 Y184.427 E.12781
;WIDTH:0.410584
G1 X117.185 Y184.434 E.00507
;WIDTH:0.406272
G1 X118.118 Y184.503 E.02827
;WIDTH:0.406683
G1 X118.182 Y184.533 E.00213
;WIDTH:0.453041
G1 X118.246 Y184.562 E.0024
;WIDTH:0.499399
G1 X118.31 Y184.592 E.00268
;WIDTH:0.545758
G1 X118.374 Y184.622 E.00295
;WIDTH:0.592116
G1 X118.438 Y184.651 E.00322
;WIDTH:0.638474
G1 X118.502 Y184.681 E.00349
G1 X118.435 Y184.704 E.00349
;WIDTH:0.592116
G1 X118.369 Y184.727 E.00322
;WIDTH:0.545758
G1 X118.302 Y184.75 E.00295
;WIDTH:0.499399
G1 X118.235 Y184.773 E.00268
;WIDTH:0.453041
G1 X118.169 Y184.797 E.0024
;WIDTH:0.406683
G1 X118.102 Y184.82 E.00213
;WIDTH:0.385454
G1 X117.551 Y184.807 E.01569
;WIDTH:0.410584
G1 X117.001 Y184.795 E.01685
;WIDTH:0.42761
G1 X113.009 Y184.602 E.12781
;WIDTH:0.432989
G1 X112.746 Y184.595 E.00854
;WIDTH:0.463029
G1 X112 Y184.569 E.02608
;WIDTH:0.504037
G1 X111.139 Y184.549 E.03304
;WIDTH:0.545044
G1 X110.277 Y184.528 E.03598
G1 X110.176 Y184.544 E.00427
;WIDTH:0.51334
G1 X102.803 Y184.567 E.28841
;WIDTH:0.46667
G1 X95.43 Y184.59 E.25979
;WIDTH:0.419999
G1 X25.41 Y184.59 E2.19542
G1 X25.41 Y25.41 E4.99097
G1 X224.59 Y25.41 E6.24514
M73 P1 R221
G1 X224.59 Y184.59 E4.99097
G1 X154.57 Y184.59 E2.19542
;WIDTH:0.455988
G1 X149.655 Y184.573 E.16883
;WIDTH:0.491977
G1 X144.739 Y184.555 E.18354
;WIDTH:0.527965
G1 X139.824 Y184.537 E.19825
;WIDTH:0.545043
G1 X138.861 Y184.549 E.04019
;WIDTH:0.504036
G1 X138 Y184.569 E.03304
;WIDTH:0.463029
G1 X137.997 Y184.569 E.00011
;WIDTH:0.46275
G1 X136.991 Y184.602 E.03514
;WIDTH:0.427611
G1 X132.999 Y184.795 E.12781
;WIDTH:0.410583
G1 X132.833 Y184.797 E.00509
;WIDTH:0.406272
G1 X131.898 Y184.82 E.02827
;WIDTH:0.406683
G1 X131.831 Y184.797 E.00213
;WIDTH:0.453041
G1 X131.765 Y184.773 E.0024
;WIDTH:0.499399
G1 X131.698 Y184.75 E.00268
;WIDTH:0.545758
G1 X131.631 Y184.727 E.00295
;WIDTH:0.592116
G1 X131.565 Y184.704 E.00322
;WIDTH:0.638474
G1 X131.508 Y184.676 E.00314
M204 S1000
;WIPE_START
G1 F8640
G1 X131.626 Y184.622 E-.03013
G1 X131.69 Y184.592 E-.01628
G1 X131.754 Y184.562 E-.01628
G1 X131.818 Y184.533 E-.01628
G1 X131.882 Y184.503 E-.01628
G1 X132.432 Y184.465 E-.12717
G1 X132.981 Y184.427 E-.12717
G1 X134.756 Y184.334 E-.41042
;WIPE_END
G1 E-.04 F2100
G1 Z.6 F720
G1 X41.281 Y172.5 F10800
G1 Z.2 F720
G1 E.8 F2100
M204 S800
;TYPE:Perimeter
;WIDTH:0.419999
G1 F1200
G1 X41.224 Y173.184 E.02153
G1 X41.018 Y173.897 E.02327
G1 X40.678 Y174.557 E.02327
G1 X40.216 Y175.138 E.02327
G1 X39.649 Y175.617 E.02327
G1 X39 Y175.976 E.02327
G1 X38.293 Y176.202 E.02327
G1 X37.555 Y176.285 E.02327
G1 X36.816 Y176.224 E.02327
G1 X36.103 Y176.018 E.02327
G1 X35.443 Y175.678 E.02327
G1 X34.863 Y175.216 E.02327
G1 X34.383 Y174.649 E.02327
G1 X34.024 Y174 E.02327
G1 X33.798 Y173.293 E.02327
G1 X33.715 Y172.555 E.02327
G1 X33.776 Y171.816 E.02327
G1 X33.982 Y171.103 E.02327
G1 X34.322 Y170.443 E.02327
G1 X34.784 Y169.863 E.02327
G1 X35.351 Y169.383 E.02327
G1 X36 Y169.024 E.02327
G1 X36.707 Y168.798 E.02327
G1 X37.396 Y168.719 E.02173
G1 X38.176 Y168.776 E.02453
G1 X38.897 Y168.982 E.02352
G1 X39.557 Y169.322 E.02327
G1 X40.137 Y169.784 E.02327
G1 X40.617 Y170.351 E.02327
G1 X40.976 Y171 E.02327
G1 X41.202 Y171.707 E.02327
G1 X41.285 Y172.44 E.02313
M204 S1000
G1 X40.903 Y172.413 F10800
M204 S800
;TYPE:External perimeter
G1 F1200
G1 X40.848 Y173.147 E.0231
G1 X40.658 Y173.788 E.02096
G1 X40.346 Y174.379 E.02096
G1 X39.924 Y174.898 E.02096
G1 X39.41 Y175.325 E.02096
G1 X38.822 Y175.644 E.02096
G1 X38.183 Y175.841 E.02096
G1 X37.518 Y175.91 E.02096
G1 X36.853 Y175.848 E.02096
G1 X36.212 Y175.658 E.02096
G1 X35.621 Y175.346 E.02096
G1 X35.102 Y174.924 E.02096
G1 X34.675 Y174.41 E.02096
G1 X34.356 Y173.822 E.02096
G1 X34.159 Y173.183 E.02096
G1 X34.09 Y172.518 E.02096
G1 X34.152 Y171.853 E.02096
G1 X34.342 Y171.212 E.02096
G1 X34.654 Y170.621 E.02096
G1 X35.076 Y170.102 E.02096
G1 X35.59 Y169.675 E.02096
G1 X36.178 Y169.356 E.02096
G1 X36.817 Y169.159 E.02096
G1 X37.432 Y169.095 E.01942
G1 X38.144 Y169.151 E.02239
G1 X38.788 Y169.342 E.02105
G1 X39.379 Y169.654 E.02096
G1 X39.898 Y170.076 E.02096
G1 X40.325 Y170.59 E.02096
G1 X40.644 Y171.178 E.02096
G1 X40.841 Y171.817 E.02096
G1 X40.897 Y172.353 E.01691
M204 S1000
G1 X41.253 Y172.606 F10800
;WIPE_START
G1 F8640
G1 X40.848 Y173.147 E-.18374
G1 X40.658 Y173.788 E-.15436
G1 X40.346 Y174.379 E-.15436
G1 X39.924 Y174.898 E-.15436
G1 X39.547 Y175.211 E-.11317
;WIPE_END
G1 E-.04 F2100
G1 Z.6 F720
G1 X36.053 Y40.993 F10800
G1 Z.2 F720
G1 E.8 F2100
M204 S800
;TYPE:Perimeter
G1 F1200
G1 X35.443 Y40.678 E.02153
G1 X34.863 Y40.216 E.02327
G1 X34.383 Y39.649 E.02327
G1 X34.024 Y39 E.02327
G1 X33.798 Y38.293 E.02327
G1 X33.715 Y37.555 E.02327
G1 X33.776 Y36.816 E.02327
G1 X33.982 Y36.103 E.02327
G1 X34.322 Y35.443 E.02327
G1 X34.784 Y34.863 E.02327
G1 X35.351 Y34.383 E.02327
G1 X36 Y34.024 E.02327
G1 X36.707 Y33.798 E.02327
G1 X37.396 Y33.719 E.02173
G1 X38.176 Y33.776 E.02453
G1 X38.897 Y33.982 E.02352
G1 X39.557 Y34.322 E.02327
G1 X40.137 Y34.784 E.02327
G1 X40.617 Y35.351 E.02327
G1 X40.976 Y36 E.02327
G1 X41.202 Y36.707 E.02327
G1 X41.285 Y37.445 E.02327
G1 X41.224 Y38.184 E.02327
G1 X41.018 Y38.897 E.02327
G1 X40.678 Y39.557 E.02327
G1 X40.216 Y40.137 E.02327
G1 X39.649 Y40.617 E.02327
G1 X39 Y40.976 E.02327
G1 X38.293 Y41.202 E.02327
G1 X37.555 Y41.285 E.02327
G1 X36.816 Y41.224 E.02327
G1 X36.107 Y41.02 E.02313
M204 S1000
G1 X36.278 Y40.677 F10800
M204 S800
;TYPE:External perimeter
G1 F1200
G1 X35.621 Y40.346 E.0231
G1 X35.102 Y39.924 E.02096
G1 X34.675 Y39.41 E.02096
G1 X34.356 Y38.822 E.02096
G1 X34.159 Y38.183 E.02096
G1 X34.09 Y37.518 E.02096
G1 X34.152 Y36.853 E.02096
G1 X34.342 Y36.212 E.02096
G1 X34.654 Y35.621 E.02096
G1 X35.076 Y35.102 E.02096
G1 X35.59 Y34.675 E.02096
G1 X36.178 Y34.356 E.02096
G1 X36.817 Y34.159 E.02096
G1 X37.432 Y34.095 E.01942
G1 X38.144 Y34.151 E.02239
G1 X38.788 Y34.342 E.02105
G1 X39.379 Y34.654 E.02096
G1 X39.898 Y35.076 E.02096
G1 X40.325 Y35.59 E.02096
G1 X40.644 Y36.178 E.02096
G1 X40.841 Y36.817 E.02096
G1 X40.91 Y37.482 E.02096
G1 X40.848 Y38.147 E.02096
G1 X40.658 Y38.788 E.02096
G1 X40.346 Y39.379 E.02096
G1 X39.924 Y39.898 E.02096
G1 X39.41 Y40.325 E.02096
G1 X38.822 Y40.644 E.02096
G1 X38.183 Y40.841 E.02096
G1 X37.518 Y40.91 E.02096
G1 X36.853 Y40.848 E.02096
G1 X36.336 Y40.695 E.01691
M204 S1000
G1 X35.966 Y40.927 F10800
;WIPE_START
G1 F8640
G1 X35.621 Y40.346 E-.18374
G1 X35.102 Y39.924 E-.15436
G1 X34.675 Y39.41 E-.15436
G1 X34.356 Y38.822 E-.15436
G1 X34.212 Y38.354 E-.11317
;WIPE_END
G1 E-.04 F2100
G1 Z.6 F720
G1 X215.644 Y39.6 F10800
G1 Z.2 F720
G1 E.8 F2100
M204 S800
;TYPE:Perimeter
G1 F1200
G1 X215.216 Y40.138 E.02153
G1 X214.649 Y40.617 E.02327
G1 X214 Y40.976 E.02327
G1 X213.293 Y41.202 E.02327
G1 X212.555 Y41.285 E.02327
G1 X211.816 Y41.224 E.02327
G1 X211.103 Y41.018 E.02327
G1 X210.443 Y40.678 E.02327
G1 X209.863 Y40.216 E.02327
G1 X209.383 Y39.649 E.02327
G1 X209.024 Y39 E.02327
G1 X208.798 Y38.293 E.02327
G1 X208.715 Y37.555 E.02327
G1 X208.776 Y36.816 E.02327
G1 X208.982 Y36.103 E.02327
G1 X209.322 Y35.443 E.02327
G1 X209.784 Y34.863 E.02327
G1 X210.351 Y34.383 E.02327
G1 X211 Y34.024 E.02327
G1 X211.707 Y33.798 E.02327
G1 X212.396 Y33.719 E.02173
G1 X213.176 Y33.776 E.02453
G1 X213.897 Y33.982 E.02352
G1 X214.557 Y34.322 E.02327
G1 X215.138 Y34.784 E.02327
G1 X215.617 Y35.351 E.02327
G1 X215.976 Y36 E.02327
G1 X216.202 Y36.707 E.02327
G1 X216.285 Y37.445 E.02327
G1 X216.224 Y38.184 E.02327
G1 X216.018 Y38.897 E.02327
G1 X215.68 Y39.553 E.02313
M204 S1000
G1 X215.378 Y39.318 F10800
M204 S800
;TYPE:External perimeter
G1 F1200
G1 X214.924 Y39.898 E.02309
G1 X214.41 Y40.325 E.02096
G1 X213.822 Y40.644 E.02096
G1 X213.183 Y40.841 E.02096
G1 X212.518 Y40.91 E.02096
G1 X211.853 Y40.848 E.02096
G1 X211.212 Y40.658 E.02096
G1 X210.621 Y40.346 E.02096
G1 X210.102 Y39.924 E.02096
G1 X209.675 Y39.41 E.02096
G1 X209.356 Y38.822 E.02096
G1 X209.159 Y38.183 E.02096
G1 X209.09 Y37.518 E.02096
G1 X209.152 Y36.853 E.02096
G1 X209.342 Y36.212 E.02096
G1 X209.654 Y35.621 E.02096
G1 X210.076 Y35.102 E.02096
G1 X210.59 Y34.675 E.02096
G1 X211.178 Y34.356 E.02096
G1 X211.817 Y34.159 E.02096
G1 X212.432 Y34.095 E.01942
G1 X213.144 Y34.151 E.02239
G1 X213.788 Y34.342 E.02105
G1 X214.379 Y34.654 E.02096
G1 X214.898 Y35.076 E.02096
G1 X215.325 Y35.59 E.02096
G1 X215.644 Y36.178 E.02096
G1 X215.841 Y36.817 E.02096
G1 X215.91 Y37.482 E.02096
G1 X215.848 Y38.147 E.02096
G1 X215.658 Y38.788 E.02096
G1 X215.406 Y39.265 E.01691
M204 S1000
G1 X215.562 Y39.673 F10800
;WIPE_START
G1 F8640
G1 X214.924 Y39.898 E-.18373
G1 X214.41 Y40.325 E-.15436
G1 X213.822 Y40.644 E-.15436
G1 X213.183 Y40.841 E-.15436
G1 X212.696 Y40.892 E-.11319
;WIPE_END
G1 E-.04 F2100
G1 Z.6 F720
G1 X209.007 Y171.053 F10800
G1 Z.2 F720
G1 E.8 F2100
M204 S800
;TYPE:Perimeter
G1 F1200
G1 X209.322 Y170.443 E.02153
G1 X209.863 Y169.784 E.02673
G1 X210.351 Y169.383 E.01981
G1 X211 Y169.024 E.02327
G1 X211.707 Y168.798 E.02327
G1 X212.396 Y168.719 E.02173
G1 X213.176 Y168.776 E.02453
G1 X213.897 Y168.982 E.02352
G1 X214.557 Y169.322 E.02327
G1 X215.137 Y169.784 E.02327
G1 X215.617 Y170.351 E.02327
G1 X215.976 Y171 E.02327
G1 X216.202 Y171.707 E.02327
G1 X216.285 Y172.445 E.02327
G1 X216.224 Y173.184 E.02327
G1 X216.018 Y173.897 E.02327
G1 X215.678 Y174.557 E.02327
G1 X215.216 Y175.138 E.02327
G1 X214.649 Y175.617 E.02327
G1 X214 Y175.976 E.02327
G1 X213.293 Y176.202 E.02327
G1 X212.555 Y176.285 E.02327
G1 X211.816 Y176.224 E.02327
G1 X211.103 Y176.018 E.02327
G1 X210.443 Y175.678 E.02327
G1 X209.863 Y175.216 E.02327
G1 X209.383 Y174.649 E.02327
G1 X209.024 Y174 E.02327
G1 X208.798 Y173.293 E.02327
G1 X208.715 Y172.555 E.02327
G1 X208.776 Y171.816 E.02327
G1 X208.98 Y171.107 E.02313
M204 S1000
G1 X209.323 Y171.278 F10800
