; generated by PrusaSlicer 2.5.0+linux-x64-GTK3 on 2022-09-09 at 20:22:34 UTC

; 

; external perimeters extrusion width = 0.60mm
; perimeters extrusion width = 0.43mm
; infill extrusion width = 0.45mm
; solid infill extrusion width = 0.70mm
; top infill extrusion width = 0.43mm
; first layer extrusion width = 0.42mm

M73 P0 R17
M201 X9000 Y9000 Z500 E10000 ; sets maximum accelerations, mm/sec^2
M203 X500 Y500 Z12 E120 ; sets maximum feedrates, mm / sec
M204 P2000 R1500 T2000 ; sets acceleration (P, T) and retract acceleration (R), mm/sec^2
M205 X10.00 Y10.00 Z0.20 E4.50 ; sets the jerk limits, mm/sec
M205 S0 T0 ; sets the minimum extruding and travel feed rate, mm/sec
M107
;TYPE:Custom
M862.3 P "MK2.5" ; printer model check
M862.1 P0.4 ; nozzle diameter check
M115 U3.11.0 ; tell printer latest fw version
G90 ; use absolute coordinates
M83 ; extruder relative mode
M104 S215 ; set extruder temp
M140 S60 ; set bed temp
M190 S60 ; wait for bed temp
M109 S215 ; wait for extruder temp
G28 W ; home all without mesh bed level
G80 ; mesh bed leveling

G1 Z0.2 F720
G1 Y-3 F1000 ; go outside print area
G92 E0
G1 X60 E9 F1000 ; intro line
G1 X100 E12.5 F1000 ; intro line

G92 E0
G21 ; set units to millimeters
G90 ; use absolute coordinates
M83 ; use relative distances for extrusion
M900 K0.05 ; Filament gcode LA 1.5
M900 K30 ; Filament gcode LA 1.0
M107
;LAYER_CHANGE
;Z:0.2
;HEIGHT:0.2
;BEFORE_LAYER_CHANGE
G92 E0.0
;0.2


G1 E-.8 F2100
G1 Z.4 F720
;AFTER_LAYER_CHANGE
;0.2
;CURRENT_Z: 0.2
G1 X87.5 Y77.841 F10800
G1 Z.2 F720
M73 P0 R16
G1 E.8 F2100
M204 S800
;TYPE:Skirt/Brim
;WIDTH:0.42
G1 F1200
G1 X87.619 Y77.707 E.00561
G1 X88.422 Y76.975 E.03406
G1 X89.866 Y75.983 E.05494
G1 X91.34 Y75.291 E.05105
G1 X92.904 Y74.838 E.05105
G1 X94.519 Y74.635 E.05105
G1 X155.062 Y74.624 E1.89829
G1 X156.023 Y74.674 E.03016
M73 P1 R16
G1 X157.096 Y74.838 E.03405
G1 X158.777 Y75.335 E.05494
G1 X159.655 Y75.726 E.03016
G1 X160.599 Y76.264 E.03405
G1 X161.989 Y77.331 E.05494
G1 X162.669 Y78.011 E.03016
G1 X163.358 Y78.851 E.03405
G1 X164.274 Y80.345 E.05494
G1 X164.665 Y81.223 E.03016
G1 X165.007 Y82.254 E.03405
G1 X165.313 Y83.854 E.05105
G1 X165.377 Y85 E.036
G1 X165.359 Y125.605 E1.27315
G1 X165.258 Y126.562 E.03016
G1 X165.039 Y127.625 E.03405
G1 X164.709 Y128.66 E.03405
G1 X164.274 Y129.655 E.03406
G1 X163.736 Y130.599 E.03405
G1 X163.103 Y131.482 E.03406
G1 X162.381 Y132.293 E.03405
G1 X161.578 Y133.025 E.03405
G1 X160.242 Y133.955 E.05105
G1 X158.777 Y134.665 E.05105
G1 X157.218 Y135.137 E.05105
G1 X155.481 Y135.365 E.05494
G1 X94.938 Y135.376 E1.89829
G1 X93.854 Y135.313 E.03405
G1 X92.782 Y135.137 E.03405
G1 X91.734 Y134.849 E.03405
G1 X90.364 Y134.283 E.04651
G1 X89.401 Y133.736 E.03471
G1 X88.518 Y133.103 E.03406
G1 X87.707 Y132.381 E.03405
G1 X86.975 Y131.578 E.03406
G1 X85.983 Y130.134 E.05494
G1 X85.291 Y128.66 E.05105
G1 X84.838 Y127.096 E.05105
G1 X84.635 Y125.481 E.05105
G1 X84.635 Y84.519 E1.28433
G1 X84.742 Y83.438 E.03406
G1 X84.961 Y82.375 E.03405
G1 X85.291 Y81.34 E.03405
G1 X85.726 Y80.345 E.03406
G1 X86.264 Y79.401 E.03405
G1 X86.897 Y78.518 E.03405
G1 X87.46 Y77.885 E.02656
M204 S1000
; printing object arruela.stl id:0 copy 0
;WIPE_START
G1 F8640
G1 X87.619 Y77.707 E-.05519
G1 X88.422 Y76.975 E-.25079
G1 X89.866 Y75.983 E-.4046
G1 X90.059 Y75.892 E-.04942
;WIPE_END
G1 E-.04 F2100
G1 Z.6 F720
G1 X101.23 Y121.369 F10800
G1 Z.2 F720
M73 P2 R16
G1 E.8 F2100
M204 S800
;TYPE:Perimeter
;WIDTH:0.419999
G1 F1200
G1 X101.735 Y122.423 E.03666
G1 X101.966 Y123.133 E.02342
G1 X102.123 Y123.872 E.02367
G1 X102.202 Y124.623 E.02367
G1 X102.202 Y125.377 E.02367
G1 X102.123 Y126.128 E.02367
G1 X101.966 Y126.867 E.02367
G1 X101.733 Y127.585 E.02367
G1 X101.435 Y128.254 E.02297
G1 X100.83 Y129.245 E.03642
G1 X100.36 Y129.826 E.02343
G1 X99.826 Y130.36 E.02367
G1 X99.245 Y130.83 E.02345
G1 X98.267 Y131.429 E.03594
G1 X97.585 Y131.733 E.02344
G1 X96.867 Y131.966 E.02367
G1 X96.128 Y132.123 E.02367
G1 X95.377 Y132.202 E.02367
G1 X94.623 Y132.202 E.02367
G1 X93.879 Y132.124 E.02345
G1 X92.764 Y131.856 E.03594
G1 X92.067 Y131.589 E.02344
G1 X91.394 Y131.246 E.02367
G1 X90.761 Y130.835 E.02367
G1 X90.174 Y130.36 E.02367
G1 X89.64 Y129.826 E.02367
G1 X89.165 Y129.239 E.02367
G1 X88.754 Y128.606 E.02367
G1 X88.411 Y127.933 E.02367
G1 X88.141 Y127.229 E.02367
G1 X87.946 Y126.499 E.02367
G1 X87.829 Y125.761 E.02344
G1 X87.799 Y124.615 E.03594
G1 X87.876 Y123.879 E.02321
G1 X88.144 Y122.764 E.03594
G1 X88.411 Y122.067 E.02344
G1 X88.754 Y121.394 E.02367
G1 X89.165 Y120.761 E.02367
G1 X89.64 Y120.174 E.02367
G1 X90.174 Y119.64 E.02367
G1 X90.761 Y119.165 E.02367
G1 X91.394 Y118.754 E.02367
G1 X92.06 Y118.415 E.02345
G1 X93.141 Y118.032 E.03594
G1 X93.872 Y117.877 E.02344
G1 X94.623 Y117.798 E.02367
G1 X95.355 Y117.797 E.02297
G1 X96.507 Y117.948 E.03642
G1 X97.229 Y118.141 E.02342
G1 X97.933 Y118.411 E.02367
G1 X98.606 Y118.754 E.02367
G1 X99.239 Y119.165 E.02367
G1 X99.826 Y119.64 E.02367
G1 X100.36 Y120.174 E.02367
G1 X100.835 Y120.761 E.02368
G1 X101.197 Y121.318 E.02084
M204 S1000
G1 X101.546 Y121.163 F10800
M204 S800
;TYPE:External perimeter
G1 F1200
G1 X102.086 Y122.283 E.03898
G1 X102.331 Y123.036 E.02483
G1 X102.496 Y123.813 E.02491
G1 X102.579 Y124.603 E.02491
G1 X102.579 Y125.397 E.02491
G1 X102.496 Y126.187 E.02491
G1 X102.331 Y126.964 E.02491
G1 X102.086 Y127.72 E.02491
G1 X101.77 Y128.43 E.02435
G1 X101.139 Y129.463 E.03797
G1 X100.64 Y130.078 E.02483
G1 X100.078 Y130.64 E.02491
G1 X99.463 Y131.139 E.02484
G1 X98.443 Y131.763 E.03749
G1 X97.72 Y132.086 E.02483
G1 X96.964 Y132.331 E.02491
G1 X96.187 Y132.496 E.02491
G1 X95.397 Y132.579 E.02491
G1 X94.603 Y132.579 E.02491
G1 X93.815 Y132.496 E.02484
G1 X92.652 Y132.217 E.03749
G1 X91.913 Y131.933 E.02483
G1 X91.205 Y131.573 E.02491
G1 X90.539 Y131.14 E.02491
G1 X89.922 Y130.64 E.02491
G1 X89.36 Y130.078 E.02491
G1 X88.86 Y129.461 E.02491
G1 X88.427 Y128.795 E.02491
G1 X88.067 Y128.087 E.02491
G1 X87.782 Y127.345 E.02491
G1 X87.576 Y126.578 E.02491
G1 X87.452 Y125.795 E.02484
G1 X87.421 Y124.6 E.03749
G1 X87.504 Y123.815 E.02476
G1 X87.783 Y122.652 E.03749
G1 X88.067 Y121.913 E.02483
G1 X88.427 Y121.205 E.02491
G1 X88.86 Y120.539 E.02491
G1 X89.36 Y119.922 E.02491
G1 X89.922 Y119.36 E.02491
G1 X90.539 Y118.86 E.02491
G1 X91.205 Y118.427 E.02491
G1 X91.911 Y118.068 E.02484
G1 X93.038 Y117.668 E.03749
G1 X93.813 Y117.504 E.02483
G1 X94.603 Y117.421 E.02491
G1 X95.38 Y117.42 E.02435
G1 X96.58 Y117.577 E.03797
G1 X97.345 Y117.782 E.02483
G1 X98.087 Y118.067 E.02491
G1 X98.795 Y118.427 E.02491
G1 X99.461 Y118.86 E.02491
G1 X100.078 Y119.36 E.02491
G1 X100.64 Y119.922 E.02491
G1 X101.14 Y120.539 E.02491
G1 X101.513 Y121.113 E.02146
M204 S1000
G1 X101.341 Y121.507 F10800
;WIPE_START
G1 F8640
G1 X102.086 Y122.283 E-.30081
G1 X102.331 Y123.036 E-.18283
G1 X102.496 Y123.813 E-.18343
G1 X102.538 Y124.213 E-.09292
;WIPE_END
G1 E-.04 F2100
G1 Z.6 F720
G1 X94.904 Y122.225 F10800
G1 Z.2 F720
G1 E.8 F2100
M204 S800
;TYPE:Perimeter
G1 F1200
G1 X95.365 Y122.239 E.01447
G1 X95.913 Y122.369 E.01767
G1 X96.424 Y122.607 E.01767
G1 X96.877 Y122.942 E.01767
G1 X97.253 Y123.362 E.01767
G1 X97.536 Y123.849 E.01767
G1 X97.712 Y124.37 E.01723
G1 X97.785 Y124.943 E.0181
G1 X97.739 Y125.504 E.01767
G1 X97.581 Y126.046 E.01767
G1 X97.318 Y126.543 E.01765
G1 X96.77 Y127.147 E.02556
G1 X96.278 Y127.475 E.01855
G1 X95.753 Y127.681 E.01767
G1 X95.198 Y127.778 E.01767
G1 X94.635 Y127.761 E.01767
G1 X94.087 Y127.631 E.01767
G1 X93.576 Y127.393 E.01767
G1 X93.123 Y127.058 E.01767
G1 X92.747 Y126.638 E.01767
G1 X92.464 Y126.151 E.01767
G1 X92.284 Y125.617 E.01767
G1 X92.215 Y125.057 E.01767
G1 X92.261 Y124.496 E.01767
G1 X92.419 Y123.954 E.01767
G1 X92.682 Y123.457 E.01765
G1 X93.23 Y122.853 E.02556
G1 X93.675 Y122.555 E.01679
G1 X94.247 Y122.319 E.0194
G1 X94.844 Y122.223 E.01896
M204 S1000
G1 X94.95 Y122.597 F10800
M204 S800
;TYPE:External perimeter
G1 F1200
G1 X95.426 Y122.632 E.01496
G1 X95.89 Y122.764 E.01512
G1 X96.348 Y123.01 E.01631
G1 X96.743 Y123.348 E.01629
G1 X97.033 Y123.719 E.01475
G1 X97.222 Y124.067 E.01243
G1 X97.364 Y124.534 E.01529
G1 X97.409 Y125.019 E.01529
G1 X97.352 Y125.517 E.01572
G1 X97.207 Y125.968 E.01485
G1 X96.96 Y126.399 E.01556
G1 X96.494 Y126.889 E.02122
G1 X96.064 Y127.163 E.01599
G1 X95.585 Y127.337 E.01597
G1 X95.103 Y127.407 E.01529
G1 X94.616 Y127.379 E.01529
G1 X94.11 Y127.236 E.01649
G1 X93.652 Y126.99 E.01631
G1 X93.257 Y126.652 E.0163
G1 X92.943 Y126.238 E.01628
G1 X92.726 Y125.766 E.01628
G1 X92.619 Y125.296 E.01514
G1 X92.591 Y125.019 E.00871
G1 X92.64 Y124.509 E.01608
G1 X92.793 Y124.032 E.01569
G1 X93.04 Y123.601 E.01556
G1 X93.503 Y123.113 E.02111
G1 X93.936 Y122.837 E.01609
G1 X94.415 Y122.663 E.01597
G1 X94.891 Y122.594 E.01508
M204 S1000
G1 X95.141 Y122.245 F10800
;WIPE_START
G1 F8640
G1 X95.426 Y122.632 E-.12396
G1 X95.89 Y122.764 E-.11136
G1 X96.348 Y123.01 E-.12009
G1 X96.743 Y123.348 E-.12
G1 X97.033 Y123.719 E-.10866
G1 X97.222 Y124.067 E-.09153
G1 X97.328 Y124.417 E-.08441
;WIPE_END
G1 E-.04 F2100
G1 Z.6 F720
G1 X98.787 Y119.006 F10800
G1 Z.2 F720
G1 E.8 F2100
M204 S800
;TYPE:Solid infill
;WIDTH:0.427131
G1 F1200
G1 X100.171 Y120.391 E.06253
G1 X100.606 Y120.927 E.02207
G1 X100.987 Y121.514 E.02234
G1 X101.204 Y121.967 E.01604
G1 X98 Y118.763 E.14476
G1 X97.818 Y118.67 E.0065
G1 X97.09 Y118.397 E.02484
G1 X101.593 Y122.899 E.20343
G1 X101.693 Y123.207 E.01033
G1 X101.783 Y123.633 E.01393
G1 X96.364 Y118.214 E.24483
G1 X95.74 Y118.133 E.02013
G1 X101.881 Y124.274 E.27748
G1 X101.919 Y124.637 E.01166
G1 X101.919 Y124.856 E.00698
G1 X95.144 Y118.08 E.30612
G1 X94.604 Y118.084 E.01724
G1 X101.916 Y125.396 E.33034
G1 X101.864 Y125.887 E.01579
M73 P3 R16
G1 X94.113 Y118.136 E.35022
G1 X93.647 Y118.214 E.01508
G1 X101.786 Y126.353 E.36773
G1 X101.69 Y126.8 E.01462
G1 X93.201 Y118.311 E.38356
G1 X92.8 Y118.453 E.0136
G1 X101.557 Y127.21 E.39567
G1 X101.413 Y127.609 E.01355
G1 X97.925 Y124.121 E.15758
G1 X97.809 Y123.76 E.01212
G1 X97.504 Y123.223 E.01974
G1 X97.088 Y122.749 E.02013
G1 X96.636 Y122.402 E.01821
G1 X96.075 Y122.124 E.02001
G1 X95.876 Y122.072 E.00657
G1 X92.398 Y118.595 E.15711
G1 X92.172 Y118.675 E.00767
G1 X92.015 Y118.755 E.00563
G1 X95.211 Y121.951 E.14439
G1 X94.842 Y121.933 E.0118
G1 X94.676 Y121.959 E.00538
G1 X91.655 Y118.938 E.13647
G1 X91.316 Y119.142 E.01265
G1 X94.209 Y122.035 E.1307
G1 X93.813 Y122.183 E.01349
G1 X90.986 Y119.356 E.12771
G1 X90.681 Y119.594 E.01237
G1 X93.452 Y122.365 E.1252
G1 X93.118 Y122.575 E.01259
G1 X90.381 Y119.837 E.1237
G1 X90.107 Y120.107 E.01227
G1 X92.849 Y122.849 E.12387
G1 X92.582 Y123.125 E.01228
G1 X89.837 Y120.381 E.12401
G1 X89.594 Y120.681 E.01234
G1 X92.365 Y123.452 E.1252
G1 X92.179 Y123.809 E.01287
G1 X89.356 Y120.986 E.12753
G1 X89.142 Y121.316 E.01255
G1 X92.042 Y124.215 E.131
G1 X91.998 Y124.358 E.00477
G1 X91.964 Y124.681 E.01039
G1 X88.938 Y121.655 E.13671
G1 X88.755 Y122.015 E.01291
G1 X92.141 Y125.401 E.15296
M204 S1000
;WIPE_START
G1 F8640
G1 X89.813 Y123.073 E-.76
;WIPE_END
G1 E-.04 F2100
G1 Z.6 F720
G1 X97.861 Y124.601 F10800
G1 Z.2 F720
G1 E.8 F2100
M204 S800
G1 F1200
G1 X101.245 Y127.985 E.15292
G1 X101.053 Y128.337 E.01279
G1 X98.034 Y125.317 E.13644
G1 X98.007 Y125.622 E.00979
G1 X97.957 Y125.784 E.00541
G1 X100.847 Y128.674 E.13057
G1 X100.641 Y129.011 E.01263
G1 X97.822 Y126.192 E.12738
G1 X97.635 Y126.548 E.01286
G1 X100.406 Y129.319 E.12519
G1 X100.163 Y129.619 E.01234
G1 X97.418 Y126.875 E.12401
G1 X97.151 Y127.151 E.01228
G1 X99.893 Y129.893 E.12387
G1 X99.619 Y130.163 E.01227
G1 X96.881 Y127.425 E.1237
G1 X96.548 Y127.635 E.01259
G1 X99.319 Y130.406 E.1252
G1 X99.011 Y130.641 E.01238
G1 X96.187 Y127.817 E.12759
G1 X95.792 Y127.966 E.01349
G1 X98.674 Y130.848 E.13023
G1 X98.338 Y131.054 E.01262
G1 X95.324 Y128.041 E.13615
G1 X95.158 Y128.067 E.00537
G1 X94.788 Y128.048 E.01183
G1 X97.985 Y131.245 E.14444
G1 X97.609 Y131.413 E.01315
G1 X94.125 Y127.928 E.15742
G1 X93.925 Y127.876 E.0066
G1 X93.363 Y127.598 E.02002
G1 X92.87 Y127.212 E.02002
G1 X92.466 Y126.734 E.02
G1 X92.186 Y126.228 E.01848
G1 X92.074 Y125.877 E.01175
G1 X88.589 Y122.393 E.15744
G1 X88.438 Y122.785 E.01344
M73 P4 R16
G1 X97.21 Y131.557 E.39632
G1 X96.8 Y131.691 E.01378
G1 X88.326 Y123.216 E.38287
G1 X88.221 Y123.654 E.0144
G1 X96.353 Y131.786 E.36741
G1 X95.887 Y131.864 E.01508
G1 X88.136 Y124.113 E.35021
G1 X88.084 Y124.604 E.01579
G1 X95.396 Y131.916 E.33034
G1 X94.856 Y131.919 E.01725
G1 X88.096 Y125.159 E.30542
G1 X88.11 Y125.717 E.01783
G1 X94.274 Y131.881 E.27848
G1 X93.927 Y131.845 E.01116
G1 X93.621 Y131.771 E.01006
G1 X88.21 Y126.36 E.24447
G1 X88.397 Y127.09 E.02408
G1 X92.906 Y131.6 E.20372
G1 X92.182 Y131.33 E.02468
G1 X92 Y131.237 E.00651
G1 X88.763 Y128 E.14627
G1 X88.999 Y128.464 E.01666
G1 X89.394 Y129.073 E.02317
G1 X89.83 Y129.61 E.02209
G1 X91.213 Y130.993 E.0625
M204 S1000
;WIPE_START
G1 F8640
G1 X89.83 Y129.61 E-.45173
G1 X89.394 Y129.073 E-.15965
G1 X89.044 Y128.533 E-.14862
;WIPE_END
G1 E-.04 F2100
G1 Z.6 F720
G1 X157.933 Y118.411 F10800
G1 Z.2 F720
G1 E.8 F2100
M204 S800
;TYPE:Perimeter
;WIDTH:0.419999
G1 F1200
G1 X158.606 Y118.754 E.02367
G1 X159.239 Y119.165 E.02367
G1 X159.826 Y119.64 E.02367
G1 X160.36 Y120.174 E.02367
G1 X160.835 Y120.761 E.02367
G1 X161.246 Y121.394 E.02367
G1 X161.589 Y122.067 E.02367
G1 X161.859 Y122.771 E.02367
G1 X162.054 Y123.501 E.02367
G1 X162.171 Y124.239 E.02345
G1 X162.201 Y125.385 E.03594
G1 X162.123 Y126.128 E.02344
G1 X161.966 Y126.867 E.02367
G1 X161.735 Y127.578 E.02344
G1 X161.242 Y128.612 E.03594
G1 X160.835 Y129.239 E.02344
G1 X160.36 Y129.826 E.02367
G1 X159.826 Y130.36 E.02367
G1 X159.239 Y130.835 E.02367
G1 X158.612 Y131.242 E.02344
G1 X157.577 Y131.735 E.03594
G1 X156.867 Y131.966 E.02344
G1 X156.128 Y132.123 E.02367
G1 X155.377 Y132.202 E.02367
G1 X154.623 Y132.202 E.02367
G1 X153.879 Y132.124 E.02345
G1 X152.764 Y131.856 E.03594
G1 X152.067 Y131.589 E.02344
G1 X151.394 Y131.246 E.02367
G1 X150.761 Y130.835 E.02367
G1 X150.174 Y130.36 E.02367
G1 X149.64 Y129.826 E.02367
G1 X149.17 Y129.245 E.02345
G1 X148.571 Y128.267 E.03594
G1 X148.267 Y127.585 E.02344
G1 X148.034 Y126.867 E.02367
G1 X147.877 Y126.128 E.02367
G1 X147.798 Y125.377 E.02367
G1 X147.798 Y124.623 E.02367
G1 X147.876 Y123.879 E.02345
G1 X148.144 Y122.764 E.03594
G1 X148.411 Y122.067 E.02344
G1 X148.754 Y121.394 E.02367
G1 X149.165 Y120.761 E.02367
G1 X149.64 Y120.174 E.02367
G1 X150.174 Y119.64 E.02367
G1 X150.755 Y119.17 E.02345
G1 X151.733 Y118.571 E.03594
G1 X152.415 Y118.267 E.02344
G1 X153.133 Y118.034 E.02367
G1 X153.872 Y117.877 E.02367
G1 X154.623 Y117.798 E.02367
G1 X155.355 Y117.797 E.02297
G1 X156.507 Y117.948 E.03642
G1 X157.229 Y118.141 E.02342
G1 X157.877 Y118.39 E.02179
M204 S1000
G1 X158.087 Y118.067 F10800
M204 S800
;TYPE:External perimeter
G1 F1200
G1 X158.795 Y118.427 E.02491
G1 X159.461 Y118.86 E.02491
G1 X160.078 Y119.36 E.02491
G1 X160.64 Y119.922 E.02491
G1 X161.14 Y120.539 E.02491
G1 X161.573 Y121.205 E.02491
G1 X161.933 Y121.913 E.02491
G1 X162.218 Y122.655 E.02491
G1 X162.424 Y123.422 E.02491
G1 X162.548 Y124.205 E.02484
G1 X162.579 Y125.4 E.03749
G1 X162.496 Y126.187 E.02483
G1 X162.331 Y126.964 E.02491
G1 X162.086 Y127.718 E.02484
G1 X161.571 Y128.797 E.03749
G1 X161.14 Y129.461 E.02483
G1 X160.64 Y130.078 E.02491
G1 X160.078 Y130.64 E.02491
G1 X159.461 Y131.14 E.02491
G1 X158.797 Y131.572 E.02484
G1 X157.718 Y132.086 E.03749
G1 X156.964 Y132.331 E.02483
G1 X156.187 Y132.496 E.02491
G1 X155.397 Y132.579 E.02491
G1 X154.603 Y132.579 E.02491
G1 X153.815 Y132.496 E.02484
G1 X152.652 Y132.217 E.03749
G1 X151.913 Y131.933 E.02483
G1 X151.205 Y131.573 E.02491
G1 X150.539 Y131.14 E.02491
G1 X149.922 Y130.64 E.02491
G1 X149.36 Y130.078 E.02491
G1 X148.861 Y129.463 E.02484
G1 X148.237 Y128.443 E.03749
G1 X147.914 Y127.72 E.02483
G1 X147.669 Y126.964 E.02491
G1 X147.504 Y126.187 E.02491
G1 X147.421 Y125.397 E.02491
G1 X147.421 Y124.603 E.02491
G1 X147.504 Y123.815 E.02484
G1 X147.783 Y122.652 E.03749
G1 X148.067 Y121.913 E.02483
G1 X148.427 Y121.205 E.02491
