; generated by PrusaSlicer 2.8.0 on 2024-09-21 at 14:29:14 UTC

; 

; external perimeters extrusion width = 0.60mm
; perimeters extrusion width = 0.43mm
; infill extrusion width = 0.45mm
; solid infill extrusion width = 0.70mm
; top infill extrusion width = 0.45mm
; first layer extrusion width = 0.42mm

M73 P0 R19
M201 X9000 Y9000 Z500 E10000 ; sets maximum accelerations, mm/sec^2
M203 X500 Y500 Z12 E120 ; sets maximum feedrates, mm / sec
M204 S2000 T1500 ; sets acceleration (S) and retract acceleration (R), mm/sec^2
M205 X10.00 Y10.00 Z0.20 E4.50 ; sets the jerk limits, mm/sec
M205 S0 T0 ; sets the minimum extruding and travel feed rate, mm/sec

; printing object arruela.stl id:0 copy 0
; stop printing object arruela.stl id:0 copy 0

;TYPE:Custom
M862.3 P "MK2.5" ; printer model check
M862.1 P0.4 ; nozzle diameter check
M115 U3.11.0 ; tell printer latest fw version
G90 ; use absolute coordinates
M83 ; extruder relative mode
M104 S215 ; set extruder temp
M140 S60 ; set bed temp
M190 S60 ; wait for bed temp
M109 S215 ; wait for extruder temp
G28 W ; home all without mesh bed level
G80 ; mesh bed leveling

G1 Z0.2 F720
G1 Y-3 F1000 ; go outside print area
G92 E0
G1 X60 E9 F1000 ; intro line
G1 X100 E12.5 F1000 ; intro line

G92 E0
G21 ; set units to millimeters
G90 ; use absolute coordinates
M83 ; use relative distances for extrusion
M900 K0.05 ; Filament gcode LA 1.5
M900 K30 ; Filament gcode LA 1.0
M107
;LAYER_CHANGE
;Z:0.2
;HEIGHT:0.2
G1 E-.8 F2100
G1 Z.6 F720
G1 X87.468 Y78.14 F10800
G1 Z.2 F720
G1 E.8 F2100
M204 S800
;TYPE:Skirt/Brim
;WIDTH:0.42
G1 F1200
G1 X88.544 Y77.119 E.04651
G1 X89.857 Y76.206 E.05014
G1 X91.296 Y75.509 E.05013
G1 X92.826 Y75.047 E.05011
G1 X94.524 Y74.823 E.0537
G1 X155.057 Y74.812 E1.89797
G1 X157.062 Y75.023 E.06321
G1 X158.704 Y75.509 E.05369
G1 X160.501 Y76.425 E.06324
G1 X161.86 Y77.468 E.05371
G1 X163.208 Y78.965 E.06316
G1 X164.103 Y80.426 E.05372
G1 X164.826 Y82.308 E.06321
G1 X165.126 Y83.878 E.05012
G1 X165.189 Y85 E.03523
G1 X165.171 Y125.59 E1.27267
G1 X165.053 Y126.651 E.03347
M73 P1 R19
G1 X164.826 Y127.692 E.03341
G1 X164.49 Y128.705 E.03346
G1 X164.051 Y129.676 E.03341
G1 X162.953 Y131.367 E.06322
G1 X162.244 Y132.163 E.03342
G1 X161.456 Y132.881 E.03343
G1 X160.045 Y133.851 E.05369
G1 X158.598 Y134.532 E.05014
G1 X157.062 Y134.977 E.05014
G1 X155.476 Y135.177 E.05012
G1 X94.943 Y135.188 E1.89797
G1 X93.878 Y135.126 E.03345
G1 X92.826 Y134.953 E.03343
G1 X91.797 Y134.671 E.03345
G1 X90.804 Y134.284 E.03342
G1 X89.856 Y133.794 E.03346
G1 X88.633 Y132.954 E.04652
G1 X87.837 Y132.244 E.03344
G1 X87.119 Y131.456 E.03343
G1 X86.206 Y130.144 E.05012
G1 X85.509 Y128.704 E.05016
G1 X85.047 Y127.174 E.05011
G1 X84.823 Y125.476 E.0537
G1 X84.812 Y84.943 E1.27088
G1 X84.874 Y83.878 E.03345
G1 X85.047 Y82.826 E.03343
G1 X85.328 Y81.798 E.03341
G1 X85.716 Y80.804 E.03346
G1 X86.206 Y79.856 E.03346
G1 X86.792 Y78.965 E.03344
G1 X87.43 Y78.187 E.03155
M204 S1000
;WIPE_START
G1 F8640
G1 X87.468 Y78.14 E-.01396
G1 X88.544 Y77.119 E-.3425
G1 X89.857 Y76.206 E-.36927
G1 X90.146 Y76.066 E-.07427
;WIPE_END
G1 Z.6 F720
; printing object arruela.stl id:0 copy 0
G1 X155.101 Y127.772 F10800
G1 Z.2 F720
G1 E.8 F2100
M204 S800
;TYPE:Perimeter
;WIDTH:0.419999
G1 F1200
G1 X154.635 Y127.761 E.01462
G1 X154.087 Y127.631 E.01766
G1 X153.576 Y127.393 E.01767
G1 X153.124 Y127.058 E.01764
G1 X152.723 Y126.57 E.0198
G1 X152.538 Y126.301 E.01024
G1 X152.475 Y126.157 E.00493
G1 X152.326 Y125.779 E.01274
G1 X152.224 Y125.24 E.0172
G1 X152.229 Y124.701 E.0169
G1 X152.334 Y124.188 E.01642
G1 X152.538 Y123.699 E.01661
G1 X152.85 Y123.23 E.01766
G1 X153.25 Y122.833 E.01767
G1 X153.722 Y122.525 E.01767
G1 X154.246 Y122.319 E.01765
G1 X154.802 Y122.222 E.0177
G1 X155.365 Y122.239 E.01766
G1 X155.913 Y122.369 E.01766
G1 X156.424 Y122.607 E.01767
G1 X156.877 Y122.942 E.01767
G1 X157.253 Y123.362 E.01767
G1 X157.536 Y123.849 E.01766
G1 X157.712 Y124.37 E.01724
G1 X157.785 Y124.943 E.01811
G1 X157.739 Y125.504 E.01765
G1 X157.569 Y126.014 E.01686
G1 X157.407 Y126.401 E.01315
G1 X157.099 Y126.834 E.01666
G1 X156.716 Y127.197 E.01655
G1 X156.278 Y127.475 E.01627
G1 X155.774 Y127.674 E.01699
G1 X155.222 Y127.774 E.01759
G1 X155.161 Y127.773 E.00191
M204 S1000
G1 X155.161 Y127.773 F10800
G1 X155.101 Y127.407
M204 S800
;TYPE:External perimeter
G1 F1200
G1 X154.616 Y127.379 E.01523
G1 X154.145 Y127.253 E.01529
G1 X153.621 Y126.967 E.01872
G1 X153.321 Y126.726 E.01207
G1 X152.908 Y126.194 E.02112
G1 X152.822 Y126.008 E.00643
G1 X152.695 Y125.703 E.01036
G1 X152.601 Y125.225 E.01527
G1 X152.605 Y124.737 E.0153
G1 X152.707 Y124.26 E.01529
G1 X152.903 Y123.814 E.01527
G1 X153.184 Y123.416 E.01528
G1 X153.54 Y123.083 E.01528
G1 X153.956 Y122.828 E.0153
G1 X154.415 Y122.663 E.01529
G1 X154.897 Y122.593 E.01527
G1 X155.426 Y122.632 E.01663
G1 X155.89 Y122.765 E.01513
G1 X156.348 Y123.01 E.01629
G1 X156.743 Y123.348 E.0163
G1 X157.033 Y123.719 E.01476
G1 X157.222 Y124.067 E.01242
G1 X157.364 Y124.534 E.0153
G1 X157.409 Y125.019 E.01527
G1 X157.353 Y125.512 E.01556
G1 X157.119 Y126.144 E.02113
G1 X156.832 Y126.566 E.016
G1 X156.467 Y126.912 E.01577
G1 X156.044 Y127.172 E.01557
G1 X155.585 Y127.337 E.01529
G1 X155.16 Y127.399 E.01347
M204 S1000
;WIPE_START
G1 F8640
G1 X155.101 Y127.407 E-.01375
G1 X154.616 Y127.379 E-.11217
G1 X154.145 Y127.253 E-.11258
G1 X153.621 Y126.967 E-.13784
G1 X153.321 Y126.726 E-.08885
G1 X152.908 Y126.194 E-.15551
G1 X152.822 Y126.008 E-.04732
G1 X152.695 Y125.703 E-.07629
G1 X152.648 Y125.466 E-.05569
;WIPE_END
G1 Z.6 F720
G1 X158.94 Y118.971 F10800
G1 Z.2 F720
G1 E.8 F2100
M204 S800
;TYPE:Perimeter
G1 F1200
G1 X159.239 Y119.165 E.01118
G1 X159.826 Y119.64 E.02368
G1 X160.36 Y120.174 E.02368
G1 X160.835 Y120.761 E.02368
G1 X161.234 Y121.375 E.02296
G1 X161.735 Y122.423 E.03642
G1 X161.93 Y123.023 E.01978
G1 X162.048 Y123.517 E.01592
G1 X162.141 Y124.041 E.01669
G1 X162.202 Y124.739 E.02197
G1 X162.202 Y125.377 E.02
G1 X162.123 Y126.128 E.02368
G1 X161.966 Y126.867 E.02369
G1 X161.733 Y127.585 E.02367
M73 P2 R19
G1 X161.429 Y128.268 E.02344
G1 X160.83 Y129.245 E.03593
G1 X160.36 Y129.826 E.02343
G1 X159.826 Y130.36 E.02368
G1 X159.239 Y130.835 E.02368
G1 X158.606 Y131.246 E.02366
G1 X157.933 Y131.589 E.02368
G1 X157.229 Y131.859 E.02364
G1 X156.499 Y132.054 E.02369
G1 X155.761 Y132.171 E.02343
G1 X154.615 Y132.201 E.03594
G1 X153.872 Y132.123 E.02342
G1 X153.133 Y131.966 E.02369
G1 X152.415 Y131.733 E.02367
G1 X151.746 Y131.435 E.02296
G1 X150.755 Y130.83 E.0364
G1 X150.174 Y130.36 E.02343
G1 X149.64 Y129.826 E.02368
G1 X149.165 Y129.239 E.02368
G1 X148.754 Y128.606 E.02366
G1 X148.411 Y127.933 E.02368
G1 X148.141 Y127.229 E.02364
G1 X147.946 Y126.499 E.02369
G1 X147.829 Y125.761 E.02343
G1 X147.799 Y124.622 E.03572
G1 X147.947 Y123.493 E.0357
G1 X148.141 Y122.771 E.02344
G1 X148.411 Y122.067 E.02364
G1 X148.754 Y121.394 E.02368
G1 X149.165 Y120.761 E.02366
G1 X149.64 Y120.174 E.02368
G1 X150.174 Y119.64 E.02368
G1 X150.761 Y119.165 E.02368
G1 X151.388 Y118.758 E.02344
G1 X152.422 Y118.265 E.03592
G1 X153.133 Y118.034 E.02344
G1 X153.872 Y117.877 E.02369
G1 X154.623 Y117.798 E.02368
G1 X155.355 Y117.797 E.02295
G1 X156.507 Y117.948 E.03643
G1 X157.229 Y118.141 E.02343
G1 X157.933 Y118.412 E.02365
G1 X158.606 Y118.754 E.02367
G1 X158.89 Y118.938 E.01061
M204 S1000
G1 X158.89 Y118.938 F10800
G1 X159.137 Y118.65
M204 S800
;TYPE:External perimeter
G1 F1200
G1 X159.461 Y118.86 E.01211
G1 X160.079 Y119.36 E.02492
G1 X160.64 Y119.921 E.02488
G1 X161.14 Y120.539 E.02492
G1 X161.564 Y121.19 E.02436
G1 X162.086 Y122.283 E.03798
G1 X162.289 Y122.907 E.02057
G1 X162.417 Y123.439 E.01716
G1 X162.516 Y124.001 E.01789
G1 X162.579 Y124.739 E.02322
G1 X162.579 Y125.397 E.02063
G1 X162.496 Y126.187 E.02491
G1 X162.331 Y126.964 E.02491
G1 X162.086 Y127.72 E.02492
G1 X161.763 Y128.444 E.02486
G1 X161.139 Y129.463 E.03746
G1 X160.64 Y130.078 E.02483
G1 X160.078 Y130.64 E.02492
G1 X159.461 Y131.14 E.0249
G1 X158.795 Y131.573 E.02491
G1 X158.087 Y131.934 E.02492
G1 X157.345 Y132.218 E.02491
G1 X156.578 Y132.424 E.0249
G1 X155.795 Y132.548 E.02486
G1 X154.6 Y132.579 E.03748
G1 X153.813 Y132.496 E.02481
G1 X153.036 Y132.331 E.02491
G1 X152.28 Y132.086 E.02492
G1 X151.57 Y131.77 E.02437
G1 X150.537 Y131.138 E.03797
G1 X149.922 Y130.64 E.02481
G1 X149.36 Y130.078 E.02492
G1 X148.86 Y129.461 E.0249
G1 X148.427 Y128.795 E.02491
G1 X148.066 Y128.087 E.02492
G1 X147.782 Y127.345 E.02491
G1 X147.576 Y126.578 E.0249
G1 X147.452 Y125.796 E.02483
G1 X147.421 Y124.603 E.03742
G1 X147.577 Y123.42 E.03741
G1 X147.782 Y122.655 E.02483
G1 X148.066 Y121.913 E.02491
G1 X148.427 Y121.205 E.02492
G1 X148.86 Y120.539 E.02491
G1 X149.36 Y119.921 E.02492
G1 X149.922 Y119.36 E.0249
G1 X150.539 Y118.86 E.0249
G1 X151.203 Y118.428 E.02484
G1 X152.282 Y117.914 E.03747
G1 X153.036 Y117.669 E.02486
G1 X153.813 Y117.504 E.02491
G1 X154.603 Y117.421 E.02491
G1 X155.379 Y117.42 E.02433
G1 X156.58 Y117.577 E.03798
G1 X157.345 Y117.782 E.02483
G1 X158.087 Y118.067 E.02492
G1 X158.795 Y118.427 E.0249
G1 X159.087 Y118.617 E.01092
M204 S1000
G1 X159.087 Y118.617 F10800
G1 X158.787 Y119.007
M204 S800
;TYPE:Solid infill
;WIDTH:0.427133
G1 F1200
G1 X160.171 Y120.391 E.06253
G1 X160.606 Y120.927 E.02205
G1 X160.987 Y121.514 E.02236
G1 X161.204 Y121.967 E.01605
G1 X158 Y118.763 E.14476
G1 X157.818 Y118.67 E.00653
G1 X157.09 Y118.397 E.02484
G1 X161.593 Y122.899 E.20343
G1 X161.693 Y123.207 E.01035
G1 X161.783 Y123.633 E.01391
G1 X156.364 Y118.214 E.24483
G1 X155.74 Y118.133 E.0201
G1 X161.881 Y124.274 E.27745
G1 X161.919 Y124.637 E.01166
G1 X161.919 Y124.856 E.007
G1 X155.144 Y118.08 E.30612
G1 X154.604 Y118.084 E.01725
G1 X161.916 Y125.396 E.33036
G1 X161.864 Y125.887 E.01577
G1 X154.113 Y118.136 E.35019
G1 X153.647 Y118.214 E.01509
G1 X161.786 Y126.353 E.36772
G1 X161.69 Y126.8 E.01461
G1 X153.2 Y118.309 E.38361
G1 X152.79 Y118.443 E.01378
G1 X161.557 Y127.21 E.3961
G1 X161.413 Y127.609 E.01355
G1 X157.925 Y124.121 E.15759
G1 X157.809 Y123.76 E.01211
G1 X157.504 Y123.223 E.01973
G1 X157.088 Y122.749 E.02015
G1 X156.636 Y122.402 E.0182
G1 X156.075 Y122.124 E.02
G1 X155.876 Y122.072 E.00657
G1 X152.395 Y118.591 E.15727
G1 X152.027 Y118.767 E.01303
G1 X155.211 Y121.951 E.14385
G1 X154.842 Y121.933 E.0118
G1 X154.676 Y121.959 E.00537
G1 X151.659 Y118.942 E.13631
G1 X151.316 Y119.142 E.01268
G1 X154.208 Y122.034 E.13066
G1 X153.811 Y122.182 E.01354
G1 X150.986 Y119.356 E.12766
G1 X150.681 Y119.594 E.01236
G1 X153.453 Y122.366 E.12524
G1 X153.118 Y122.575 E.01261
G1 X150.381 Y119.837 E.12368
G1 X150.107 Y120.107 E.01229
G1 X152.837 Y122.838 E.12337
G1 X152.692 Y122.975 E.00637
M73 P3 R19
G1 X152.584 Y123.127 E.00596
G1 X149.837 Y120.381 E.12409
G1 X149.594 Y120.681 E.01233
G1 X152.358 Y123.445 E.12488
G1 X152.185 Y123.815 E.01305
G1 X149.356 Y120.986 E.12782
G1 X149.142 Y121.316 E.01257
G1 X152.043 Y124.216 E.13105
G1 X151.948 Y124.665 E.01466
M73 P3 R18
G1 X148.938 Y121.655 E.13599
G1 X148.755 Y122.015 E.0129
G1 X152.142 Y125.402 E.15303
M204 S1000
;WIPE_START
G1 F8640
G1 X149.692 Y122.952 E-.8
;WIPE_END
G1 Z.6 F720
G1 X157.861 Y124.601 F10800
G1 Z.2 F720
G1 E.8 F2100
M204 S800
G1 F1200
G1 X161.245 Y127.985 E.15289
G1 X161.178 Y128.136 E.00528
G1 X161.054 Y128.338 E.00757
G1 X158.037 Y125.32 E.13633
G1 X158.018 Y125.553 E.00747
G1 X157.956 Y125.783 E.00761
G1 X160.848 Y128.675 E.13066
G1 X160.641 Y129.011 E.01261
G1 X157.809 Y126.179 E.12795
G1 X157.712 Y126.436 E.00878
G1 X157.635 Y126.549 E.00437
G1 X160.406 Y129.319 E.12517
G1 X160.163 Y129.619 E.01233
G1 X157.414 Y126.871 E.12418
G1 X157.309 Y127.024 E.00593
G1 X157.162 Y127.163 E.00646
G1 X159.893 Y129.893 E.12337
G1 X159.619 Y130.163 E.01229
G1 X156.881 Y127.425 E.1237
G1 X156.548 Y127.635 E.01258
G1 X159.319 Y130.406 E.1252
G1 X159.014 Y130.644 E.01236
G1 X156.187 Y127.817 E.12773
G1 X155.792 Y127.965 E.01348
G1 X158.684 Y130.858 E.13068
G1 X158.345 Y131.062 E.01264
G1 X155.323 Y128.04 E.13654
G1 X155.137 Y128.068 E.00601
G1 X154.788 Y128.048 E.01117
G1 X157.985 Y131.245 E.14444
G1 X157.607 Y131.411 E.01319
G1 X154.124 Y127.928 E.15736
G1 X153.918 Y127.874 E.0068
G1 X153.382 Y127.61 E.01909
G1 X152.914 Y127.252 E.01882
G1 X152.801 Y127.133 E.00524
G1 X152.303 Y126.468 E.02654
G1 X152.055 Y125.859 E.02101
G1 X148.589 Y122.393 E.1566
G1 X148.438 Y122.785 E.01342
G1 X157.215 Y131.562 E.39655
G1 X156.793 Y131.683 E.01403
G1 X148.317 Y123.207 E.38295
G1 X148.213 Y123.646 E.01441
G1 X156.357 Y131.791 E.36797
G1 X155.888 Y131.865 E.01517
G1 X148.149 Y124.126 E.34965
G1 X148.086 Y124.607 E.0155
G1 X155.378 Y131.899 E.32946
G1 X154.849 Y131.912 E.01691
G1 X148.096 Y125.159 E.3051
G1 X148.11 Y125.717 E.01783
G1 X154.274 Y131.881 E.27849
G1 X153.916 Y131.844 E.0115
G1 X153.633 Y131.783 E.00925
G1 X148.21 Y126.36 E.24501
G1 X148.397 Y127.09 E.02407
G1 X152.899 Y131.593 E.20343
G1 X152.517 Y131.469 E.01283
G1 X152.003 Y131.24 E.01798
G1 X148.763 Y128 E.14638
G1 X148.999 Y128.464 E.01663
G1 X149.394 Y129.073 E.02319
G1 X149.83 Y129.61 E.0221
G1 X151.171 Y130.951 E.06059
M204 S1000
;WIPE_START
G1 F8640
G1 X149.83 Y129.61 E-.4379
G1 X149.394 Y129.073 E-.15972
G1 X148.999 Y128.464 E-.16761
G1 X148.931 Y128.33 E-.03477
;WIPE_END
G1 Z.6 F720
G1 X133.332 Y122.78 F10800
G1 Z.2 F720
G1 E.8 F2100
M204 S800
;TYPE:Perimeter
;WIDTH:0.419999
G1 F1200
G1 X133.674 Y122.555 E.01284
G1 X134.247 Y122.319 E.01943
G1 X134.964 Y122.228 E.02266
G1 X135.199 Y122.222 E.00737
G1 X135.703 Y122.303 E.01601
G1 X136.175 Y122.475 E.01575
G1 X136.659 Y122.763 E.01766
G1 X137.075 Y123.143 E.01767
G1 X137.407 Y123.599 E.01769
G1 X137.64 Y124.112 E.01767
G1 X137.764 Y124.661 E.01765
G1 X137.776 Y125.225 E.01769
G1 X137.674 Y125.779 E.01766
G1 X137.462 Y126.301 E.01767
G1 X137.15 Y126.77 E.01766
G1 X136.75 Y127.167 E.01767
G1 X136.325 Y127.445 E.01592
M73 P4 R18
G1 X135.775 Y127.673 E.01867
G1 X135.222 Y127.774 E.01763
G1 X134.635 Y127.761 E.01841
G1 X134.087 Y127.631 E.01766
G1 X133.576 Y127.393 E.01767
G1 X133.123 Y127.058 E.01767
G1 X132.747 Y126.638 E.01767
G1 X132.464 Y126.151 E.01766
G1 X132.288 Y125.63 E.01724
G1 X132.215 Y125.057 E.01811
G1 X132.261 Y124.496 E.01765
G1 X132.521 Y123.74 E.02507
G1 X132.85 Y123.23 E.01903
G1 X133.25 Y122.833 E.01767
G1 X133.281 Y122.813 E.00116
M204 S1000
G1 X133.281 Y122.813 F10800
G1 X133.542 Y123.082
M204 S800
;TYPE:External perimeter
G1 F1200
G1 X133.956 Y122.829 E.01521
G1 X134.481 Y122.656 E.01733
G1 X135.094 Y122.594 E.01932
G1 X135.592 Y122.664 E.01577
G1 X136.064 Y122.837 E.01576
G1 X136.49 Y123.106 E.0158
G1 X136.911 Y123.546 E.01909
G1 X137.178 Y123.992 E.0163
G1 X137.305 Y124.297 E.01036
G1 X137.399 Y124.775 E.01527
G1 X137.395 Y125.263 E.0153
G1 X137.281 Y125.769 E.01626
G1 X137.097 Y126.186 E.01429
G1 X136.816 Y126.584 E.01528
G1 X136.46 Y126.917 E.01528
G1 X136.044 Y127.172 E.0153
G1 X135.585 Y127.337 E.01529
G1 X135.103 Y127.407 E.01527
G1 X134.576 Y127.368 E.01657
G1 X134.111 Y127.236 E.01516
G1 X133.651 Y126.99 E.01636
G1 X133.257 Y126.652 E.01628
G1 X133.012 Y126.361 E.01193
G1 X132.793 Y125.968 E.01411
G1 X132.639 Y125.486 E.01587
G1 X132.59 Y124.982 E.01588
G1 X132.647 Y124.488 E.01559
G1 X132.881 Y123.856 E.02113
G1 X133.168 Y123.434 E.016
G1 X133.497 Y123.122 E.01422
M204 S1000
;WIPE_START
G1 F8640
G1 X133.542 Y123.082 E-.0139
G1 X133.956 Y122.829 E-.11203
G1 X134.481 Y122.656 E-.12764
G1 X135.094 Y122.594 E-.14227
G1 X135.592 Y122.664 E-.11612
G1 X136.064 Y122.837 E-.11608
G1 X136.49 Y123.106 E-.11633
G1 X136.657 Y123.28 E-.05563
;WIPE_END
G1 Z.6 F720
G1 X131.412 Y118.745 F10800
G1 Z.2 F720
G1 E.8 F2100
M204 S800
;TYPE:Perimeter
G1 F1200
G1 X132.06 Y118.415 E.0228
G1 X133.141 Y118.032 E.03596
G1 X133.872 Y117.877 E.02343
G1 X134.623 Y117.798 E.02368
G1 X135.355 Y117.797 E.02295
G1 X136.507 Y117.948 E.03643
G1 X137.229 Y118.141 E.02343
G1 X137.933 Y118.412 E.02365
G1 X138.606 Y118.754 E.02367
G1 X139.239 Y119.165 E.02366
G1 X139.826 Y119.64 E.02368
G1 X140.36 Y120.174 E.02368
G1 X140.835 Y120.761 E.02368
G1 X141.246 Y121.394 E.02366
G1 X141.589 Y122.067 E.02368
