; generated by PrusaSlicer 2.6.0-alpha6+linux-x64-GTK3 on 2023-05-08 at 03:33:28 UTC

; 

; external perimeters extrusion width = 0.60mm
; perimeters extrusion width = 0.43mm
; infill extrusion width = 0.45mm
; solid infill extrusion width = 0.70mm
; top infill extrusion width = 0.45mm
; first layer extrusion width = 0.42mm

M73 P0 R17
M201 X9000 Y9000 Z500 E10000 ; sets maximum accelerations, mm/sec^2
M203 X500 Y500 Z12 E120 ; sets maximum feedrates, mm / sec
M204 S2000 T1500 ; sets acceleration (S) and retract acceleration (R), mm/sec^2
M205 X10.00 Y10.00 Z0.20 E4.50 ; sets the jerk limits, mm/sec
M205 S0 T0 ; sets the minimum extruding and travel feed rate, mm/sec
;TYPE:Custom
M862.3 P "MK2.5" ; printer model check
M862.1 P0.4 ; nozzle diameter check
M115 U3.11.0 ; tell printer latest fw version
G90 ; use absolute coordinates
M83 ; extruder relative mode
M104 S215 ; set extruder temp
M140 S60 ; set bed temp
M190 S60 ; wait for bed temp
M109 S215 ; wait for extruder temp
G28 W ; home all without mesh bed level
G80 ; mesh bed leveling

G1 Z0.2 F720
G1 Y-3 F1000 ; go outside print area
G92 E0
G1 X60 E9 F1000 ; intro line
G1 X100 E12.5 F1000 ; intro line

G92 E0
G21 ; set units to millimeters
G90 ; use absolute coordinates
M83 ; use relative distances for extrusion
M900 K0.05 ; Filament gcode LA 1.5
M900 K30 ; Filament gcode LA 1.0
M107
;LAYER_CHANGE
;Z:0.2
;HEIGHT:0.2
;BEFORE_LAYER_CHANGE
G92 E0.0
;0.2


G1 E-.8 F2100
G1 Z.4 F720
;AFTER_LAYER_CHANGE
;0.2
;CURRENT_Z: 0.2
G1 X87.494 Y77.848 F10800
G1 Z.2 F720
G1 E.8 F2100
M204 S800
;TYPE:Skirt/Brim
;WIDTH:0.42
G1 F1200
G1 X87.619 Y77.707 E.00591
G1 X88.422 Y76.975 E.03407
G1 X89.758 Y76.045 E.05104
G1 X91.223 Y75.335 E.05104
G1 X92.782 Y74.863 E.05107
G1 X94.519 Y74.635 E.05493
G1 X155.062 Y74.624 E1.89828
G1 X156.147 Y74.687 E.03408
G1 X157.096 Y74.837 E.03012
G1 X158.776 Y75.335 E.05494
G1 X159.655 Y75.726 E.03016
M73 P1 R17
G1 X160.599 Y76.264 E.03407
G1 X161.99 Y77.331 E.05497
G1 X162.753 Y78.103 E.03403
G1 X163.358 Y78.851 E.03016
G1 X164.273 Y80.345 E.05493
G1 X164.665 Y81.223 E.03015
G1 X165.007 Y82.254 E.03406
G1 X165.313 Y83.854 E.05108
G1 X165.377 Y85 E.03599
G1 X165.359 Y125.605 E1.27314
G1 X165.239 Y126.685 E.03407
G1 X165.007 Y127.746 E.03405
G1 X164.665 Y128.777 E.03406
G1 X164.217 Y129.766 E.03404
G1 X163.668 Y130.703 E.03405
G1 X163.103 Y131.482 E.03017
G1 X162.381 Y132.293 E.03405
G1 X161.578 Y133.025 E.03407
G1 X160.134 Y134.017 E.05493
G1 X158.661 Y134.709 E.05103
G1 X157.096 Y135.163 E.05109
G1 X155.48 Y135.365 E.05106
G1 X94.938 Y135.376 E1.89825
G1 X93.853 Y135.313 E.03408
G1 X92.782 Y135.137 E.03403
G1 X91.734 Y134.849 E.03408
G1 X90.723 Y134.454 E.03403
G1 X89.758 Y133.955 E.03406
G1 X88.519 Y133.103 E.04715
G1 X87.707 Y132.381 E.03407
G1 X86.975 Y131.578 E.03407
G1 X86.045 Y130.242 E.05104
G1 X85.335 Y128.777 E.05104
G1 X84.863 Y127.218 E.05107
G1 X84.635 Y125.481 E.05493
G1 X84.635 Y84.519 E1.28433
G1 X84.742 Y83.438 E.03406
G1 X84.961 Y82.374 E.03406
G1 X85.29 Y81.34 E.03402
G1 X85.726 Y80.345 E.03406
G1 X86.264 Y79.401 E.03407
G1 X86.897 Y78.518 E.03406
G1 X87.454 Y77.892 E.02627
M204 S1000
; printing object arruela.stl id:0 copy 0
;WIPE_START
G1 F8640
G1 X87.619 Y77.707 E-.05724
G1 X88.422 Y76.975 E-.25089
G1 X89.758 Y76.045 E-.37587
G1 X90.21 Y75.826 E-.116
;WIPE_END
G1 Z.6 F720
G1 X156.842 Y91.972 F10800
G1 Z.2 F720
G1 E.8 F2100
M204 S800
;TYPE:Perimeter
;WIDTH:0.419999
G1 F1200
M73 P2 R17
G1 X156.128 Y92.123 E.02288
G1 X155.377 Y92.202 E.02368
G1 X154.622 Y92.202 E.02367
G1 X153.872 Y92.123 E.02365
G1 X153.133 Y91.966 E.02369
G1 X152.415 Y91.733 E.02367
G1 X151.746 Y91.435 E.02296
G1 X150.755 Y90.83 E.0364
G1 X150.174 Y90.36 E.02343
G1 X149.64 Y89.826 E.02368
G1 X149.165 Y89.239 E.02368
G1 X148.754 Y88.606 E.02366
G1 X148.411 Y87.933 E.02368
G1 X148.141 Y87.229 E.02364
G1 X147.946 Y86.499 E.02369
G1 X147.829 Y85.761 E.02343
G1 X147.799 Y84.622 E.03572
G1 X147.947 Y83.493 E.0357
G1 X148.141 Y82.771 E.02344
G1 X148.411 Y82.067 E.02364
G1 X148.754 Y81.394 E.02368
G1 X149.165 Y80.761 E.02366
G1 X149.64 Y80.174 E.02368
G1 X150.174 Y79.64 E.02368
G1 X150.761 Y79.165 E.02368
G1 X151.388 Y78.758 E.02344
G1 X152.422 Y78.265 E.03592
G1 X153.133 Y78.034 E.02344
G1 X153.872 Y77.877 E.02369
G1 X154.623 Y77.798 E.02368
G1 X155.355 Y77.798 E.02295
G1 X156.507 Y77.948 E.03642
G1 X157.229 Y78.141 E.02343
G1 X157.933 Y78.411 E.02364
G1 X158.606 Y78.754 E.02368
G1 X159.239 Y79.165 E.02366
G1 X159.826 Y79.64 E.02368
G1 X160.36 Y80.174 E.02368
G1 X160.83 Y80.755 E.02343
G1 X161.429 Y81.733 E.03596
G1 X161.733 Y82.415 E.02341
G1 X161.966 Y83.133 E.02367
G1 X162.123 Y83.872 E.02369
G1 X162.202 Y84.623 E.02368
G1 X162.202 Y85.377 E.02364
G1 X162.123 Y86.128 E.02368
G1 X161.972 Y86.844 E.02294
G1 X161.585 Y87.94 E.03644
G1 X161.246 Y88.606 E.02343
G1 X160.835 Y89.239 E.02366
G1 X160.36 Y89.826 E.02368
G1 X159.826 Y90.36 E.02368
G1 X159.239 Y90.835 E.02368
G1 X158.606 Y91.246 E.02366
G1 X157.94 Y91.585 E.02343
G1 X156.899 Y91.954 E.03463
M204 S1000
G1 X156.92 Y92.34 F10800
M204 S800
;TYPE:External perimeter
G1 F1200
G1 X156.187 Y92.496 E.0235
G1 X155.397 Y92.579 E.02491
G1 X154.603 Y92.579 E.0249
G1 X153.813 Y92.496 E.02491
G1 X153.036 Y92.331 E.02491
G1 X152.28 Y92.086 E.02492
G1 X151.57 Y91.77 E.02437
G1 X150.537 Y91.139 E.03795
G1 X149.922 Y90.64 E.02483
G1 X149.36 Y90.078 E.02492
G1 X148.86 Y89.461 E.0249
G1 X148.427 Y88.795 E.02491
G1 X148.066 Y88.087 E.02492
G1 X147.782 Y87.345 E.02491
G1 X147.576 Y86.578 E.0249
G1 X147.452 Y85.795 E.02486
G1 X147.421 Y84.603 E.03739
G1 X147.577 Y83.42 E.03741
G1 X147.782 Y82.655 E.02483
G1 X148.066 Y81.913 E.02491
G1 X148.427 Y81.205 E.02492
G1 X148.86 Y80.539 E.02491
G1 X149.36 Y79.922 E.0249
G1 X149.922 Y79.36 E.02492
G1 X150.539 Y78.86 E.0249
G1 X151.203 Y78.428 E.02484
G1 X152.282 Y77.914 E.03747
G1 X153.036 Y77.669 E.02486
G1 X153.813 Y77.504 E.02491
G1 X154.603 Y77.421 E.02491
G1 X155.379 Y77.42 E.02433
G1 X156.58 Y77.577 E.03798
G1 X157.345 Y77.782 E.02483
G1 X158.087 Y78.066 E.02491
G1 X158.795 Y78.427 E.02492
G1 X159.461 Y78.86 E.02491
G1 X160.079 Y79.36 E.02492
G1 X160.64 Y79.922 E.0249
G1 X161.139 Y80.537 E.02483
G1 X161.763 Y81.557 E.03749
G1 X162.086 Y82.28 E.02483
G1 X162.331 Y83.036 E.02492
G1 X162.496 Y83.813 E.02491
G1 X162.579 Y84.603 E.02491
G1 X162.579 Y85.397 E.0249
G1 X162.496 Y86.187 E.02491
G1 X162.335 Y86.946 E.02433
G1 X161.932 Y88.089 E.038
G1 X161.573 Y88.795 E.02483
G1 X161.14 Y89.461 E.02491
G1 X160.64 Y90.078 E.0249
G1 X160.079 Y90.64 E.0249
G1 X159.461 Y91.14 E.02492
G1 X158.795 Y91.573 E.02491
G1 X158.089 Y91.933 E.02485
G1 X156.979 Y92.326 E.03692
M204 S1000
G1 X156.636 Y92.06 F10800
;WIPE_START
G1 F8640
G1 X156.187 Y92.496 E-.18704
G1 X155.397 Y92.579 E-.18342
G1 X154.603 Y92.579 E-.18334
G1 X153.813 Y92.496 E-.18342
G1 X153.547 Y92.44 E-.06278
;WIPE_END
G1 Z.6 F720
G1 X154.904 Y82.225 F10800
G1 Z.2 F720
G1 E.8 F2100
M204 S800
;TYPE:Perimeter
G1 F1200
G1 X155.365 Y82.239 E.01446
G1 X155.913 Y82.369 E.01766
G1 X156.424 Y82.607 E.01767
G1 X156.877 Y82.942 E.01767
G1 X157.253 Y83.362 E.01767
G1 X157.531 Y83.84 E.01734
G1 X157.712 Y84.37 E.01756
G1 X157.785 Y84.943 E.01811
G1 X157.739 Y85.504 E.01765
G1 X157.473 Y86.275 E.02557
G1 X157.15 Y86.77 E.01853
G1 X156.75 Y87.167 E.01767
G1 X156.325 Y87.445 E.01592
G1 X155.753 Y87.681 E.0194
G1 X155.198 Y87.778 E.01767
G1 X154.636 Y87.761 E.01763
G1 X153.875 Y87.542 E.02483
G1 X153.341 Y87.237 E.01928
G1 X152.924 Y86.857 E.01769
G1 X152.593 Y86.401 E.01767
G1 X152.36 Y85.888 E.01767
G1 X152.235 Y85.339 E.01765
G1 X152.224 Y84.775 E.01769
G1 X152.326 Y84.221 E.01766
G1 X152.538 Y83.699 E.01767
G1 X152.85 Y83.23 E.01766
G1 X153.25 Y82.833 E.01767
G1 X153.722 Y82.525 E.01767
G1 X154.247 Y82.319 E.01768
G1 X154.844 Y82.223 E.01896
M204 S1000
G1 X154.951 Y82.597 F10800
M204 S800
;TYPE:External perimeter
G1 F1200
G1 X155.426 Y82.632 E.01493
G1 X155.89 Y82.764 E.01513
G1 X156.348 Y83.01 E.0163
G1 X156.743 Y83.348 E.0163
G1 X156.988 Y83.639 E.01193
G1 X157.222 Y84.067 E.01529
G1 X157.364 Y84.534 E.0153
G1 X157.409 Y85.019 E.01527
G1 X157.353 Y85.512 E.01556
G1 X157.119 Y86.145 E.02116
G1 X156.832 Y86.566 E.01598
G1 X156.467 Y86.912 E.01577
G1 X156.044 Y87.172 E.01557
G1 X155.585 Y87.337 E.01529
G1 X155.103 Y87.407 E.01527
G1 X154.608 Y87.376 E.01555
G1 X153.965 Y87.175 E.02112
G1 X153.531 Y86.911 E.01593
G1 X153.168 Y86.566 E.0157
G1 X152.884 Y86.153 E.01572
G1 X152.695 Y85.703 E.0153
G1 X152.601 Y85.225 E.01527
G1 X152.601 Y84.775 E.01411
G1 X152.701 Y84.275 E.01599
G1 X152.903 Y83.814 E.01578
G1 X153.184 Y83.416 E.01528
G1 X153.54 Y83.083 E.01528
G1 X153.956 Y82.828 E.0153
G1 X154.415 Y82.663 E.01529
G1 X154.891 Y82.594 E.01508
M204 S1000
G1 X155.141 Y82.245 F10800
;WIPE_START
G1 F8640
G1 X155.426 Y82.632 E-.12384
G1 X155.89 Y82.764 E-.11139
G1 X156.348 Y83.01 E-.12004
G1 X156.743 Y83.348 E-.12004
G1 X156.988 Y83.639 E-.08784
G1 X157.222 Y84.067 E-.11263
G1 X157.364 Y84.534 E-.11271
G1 X157.369 Y84.584 E-.01151
;WIPE_END
M73 P2 R16
G1 Z.6 F720
G1 X158.787 Y79.007 F10800
G1 Z.2 F720
G1 E.8 F2100
M204 S800
;TYPE:Solid infill
;WIDTH:0.427132
G1 F1200
G1 X160.171 Y80.391 E.06253
G1 X160.599 Y80.919 E.02171
G1 X161.178 Y81.865 E.03543
G1 X161.24 Y82.003 E.00483
G1 X157.999 Y78.763 E.14641
G1 X157.818 Y78.67 E.0065
G1 X157.09 Y78.397 E.02484
G1 X161.593 Y82.899 E.20342
G1 X161.693 Y83.207 E.01035
G1 X161.783 Y83.633 E.01391
G1 X156.364 Y78.214 E.24483
G1 X155.74 Y78.133 E.0201
G1 X161.881 Y84.274 E.27745
G1 X161.919 Y84.637 E.01166
G1 X161.919 Y84.856 E.007
G1 X155.144 Y78.08 E.30612
G1 X154.604 Y78.084 E.01725
G1 X161.916 Y85.396 E.33036
G1 X161.864 Y85.887 E.01577
G1 X154.113 Y78.136 E.35019
G1 X153.647 Y78.214 E.01509
M73 P3 R16
G1 X161.787 Y86.353 E.36775
G1 X161.688 Y86.798 E.01456
G1 X153.2 Y78.31 E.38349
G1 X152.79 Y78.443 E.01377
G1 X161.546 Y87.2 E.39562
G1 X161.405 Y87.601 E.01358
G1 X157.927 Y84.123 E.15714
G1 X157.818 Y83.779 E.01153
G1 X157.498 Y83.215 E.02072
G1 X157.088 Y82.749 E.01983
G1 X156.636 Y82.402 E.0182
G1 X156.075 Y82.124 E.02
G1 X155.876 Y82.072 E.00657
G1 X152.395 Y78.591 E.15727
G1 X152.027 Y78.767 E.01303
G1 X155.211 Y81.951 E.14385
G1 X154.842 Y81.933 E.0118
G1 X154.676 Y81.959 E.00537
G1 X151.659 Y78.942 E.13631
G1 X151.316 Y79.142 E.01268
G1 X154.208 Y82.034 E.13066
G1 X153.811 Y82.181 E.01352
G1 X150.986 Y79.356 E.12763
G1 X150.681 Y79.594 E.01236
G1 X153.453 Y82.366 E.12524
G1 X153.118 Y82.575 E.01261
G1 X150.381 Y79.837 E.12368
G1 X150.107 Y80.107 E.01229
G1 X152.837 Y82.838 E.12337
G1 X152.692 Y82.975 E.00637
G1 X152.584 Y83.127 E.00596
G1 X149.837 Y80.381 E.12409
G1 X149.594 Y80.681 E.01233
G1 X152.358 Y83.445 E.12488
G1 X152.185 Y83.815 E.01305
G1 X149.356 Y80.986 E.12782
G1 X149.142 Y81.316 E.01257
G1 X152.043 Y84.216 E.13105
G1 X151.948 Y84.665 E.01466
G1 X148.938 Y81.655 E.13599
G1 X148.755 Y82.015 E.0129
G1 X152.142 Y85.402 E.15303
M204 S1000
;WIPE_START
G1 F8640
G1 X149.692 Y82.952 E-.8
;WIPE_END
G1 Z.6 F720
G1 X157.861 Y84.601 F10800
G1 Z.2 F720
G1 E.8 F2100
M204 S800
G1 F1200
G1 X161.245 Y87.985 E.15289
G1 X161.062 Y88.345 E.0129
G1 X158.037 Y85.32 E.13667
G1 X158.018 Y85.553 E.00747
G1 X157.956 Y85.783 E.00761
G1 X160.858 Y88.684 E.13109
G1 X160.644 Y89.014 E.01257
G1 X157.807 Y86.177 E.12818
G1 X157.699 Y86.465 E.00983
G1 X157.638 Y86.552 E.00339
G1 X160.406 Y89.319 E.12504
G1 X160.163 Y89.62 E.01236
G1 X157.415 Y86.872 E.12416
G1 X157.308 Y87.024 E.00594
G1 X157.162 Y87.163 E.00644
G1 X159.893 Y89.893 E.12337
G1 X159.619 Y90.163 E.01229
G1 X156.882 Y87.425 E.12368
G1 X156.548 Y87.635 E.0126
G1 X159.319 Y90.406 E.12519
G1 X159.014 Y90.644 E.01236
G1 X156.187 Y87.817 E.12772
G1 X155.791 Y87.965 E.01351
G1 X158.684 Y90.858 E.13071
G1 X158.345 Y91.062 E.01264
G1 X155.324 Y88.041 E.13649
G1 X155.157 Y88.067 E.0054
G1 X154.784 Y88.045 E.01194
G1 X157.985 Y91.245 E.1446
G1 X157.828 Y91.325 E.00563
G1 X157.602 Y91.405 E.00766
G1 X154.105 Y87.908 E.158
G1 X153.762 Y87.803 E.01146
G1 X153.583 Y87.721 E.00629
G1 X153.107 Y87.417 E.01804
G1 X152.656 Y86.983 E.02
G1 X152.302 Y86.466 E.02002
G1 X152.055 Y85.859 E.02094
G1 X148.589 Y82.393 E.1566
G1 X148.438 Y82.785 E.01342
G1 X157.2 Y91.547 E.39587
G1 X156.799 Y91.689 E.01359
G1 X148.317 Y83.207 E.38322
M73 P4 R16
G1 X148.213 Y83.646 E.01441
G1 X156.353 Y91.786 E.36777
G1 X155.887 Y91.864 E.01509
G1 X148.149 Y84.126 E.34961
G1 X148.086 Y84.606 E.01547
G1 X155.395 Y91.916 E.33025
G1 X154.856 Y91.919 E.01722
G1 X148.096 Y85.159 E.30542
G1 X148.11 Y85.717 E.01783
G1 X154.274 Y91.881 E.27849
G1 X153.916 Y91.844 E.0115
G1 X153.633 Y91.783 E.00925
G1 X148.21 Y86.36 E.24501
G1 X148.397 Y87.09 E.02407
G1 X152.899 Y91.593 E.20342
G1 X152.517 Y91.469 E.01283
G1 X152.003 Y91.24 E.01798
G1 X148.763 Y88 E.14638
G1 X148.999 Y88.464 E.01663
G1 X149.394 Y89.073 E.02319
G1 X149.829 Y89.61 E.02208
G1 X151.171 Y90.952 E.06063
M204 S1000
;WIPE_START
G1 F8640
G1 X149.829 Y89.61 E-.43822
G1 X149.394 Y89.073 E-.15957
G1 X148.999 Y88.464 E-.16761
G1 X148.931 Y88.33 E-.0346
;WIPE_END
G1 Z.6 F720
G1 X159.256 Y110.821 F10800
G1 Z.2 F720
G1 E.8 F2100
M204 S800
;TYPE:Perimeter
;WIDTH:0.419999
G1 F1200
G1 X158.606 Y111.246 E.02435
G1 X157.933 Y111.589 E.02368
G1 X157.235 Y111.857 E.02344
G1 X156.121 Y112.124 E.03592
G1 X155.377 Y112.202 E.02346
G1 X154.622 Y112.202 E.02367
G1 X153.872 Y112.123 E.02365
G1 X153.133 Y111.966 E.02369
G1 X152.415 Y111.733 E.02367
G1 X151.732 Y111.429 E.02344
G1 X150.755 Y110.83 E.03593
G1 X150.174 Y110.36 E.02343
G1 X149.64 Y109.826 E.02368
G1 X149.165 Y109.239 E.02368
G1 X148.754 Y108.606 E.02366
G1 X148.411 Y107.933 E.02368
G1 X148.141 Y107.229 E.02364
G1 X147.946 Y106.5 E.02366
G1 X147.829 Y105.761 E.02346
G1 X147.799 Y104.615 E.03594
G1 X147.877 Y103.872 E.02342
G1 X148.034 Y103.133 E.02369
G1 X148.267 Y102.415 E.02367
G1 X148.574 Y101.726 E.02365
G1 X148.951 Y101.072 E.02367
G1 X149.395 Y100.461 E.02368
G1 X149.895 Y99.906 E.02342
G1 X150.767 Y99.161 E.03596
G1 X151.388 Y98.758 E.02321
G1 X152.422 Y98.265 E.03592
G1 X153.133 Y98.034 E.02344
G1 X153.872 Y97.877 E.02369
G1 X154.623 Y97.798 E.02368
G1 X155.355 Y97.797 E.02295
G1 X156.507 Y97.948 E.03643
G1 X157.229 Y98.141 E.02343
G1 X157.933 Y98.411 E.02364
G1 X158.606 Y98.754 E.02368
G1 X159.239 Y99.165 E.02366
G1 X159.826 Y99.64 E.02368
G1 X160.354 Y100.169 E.02343
G1 X161.052 Y101.078 E.03593
G1 X161.426 Y101.726 E.02346
G1 X161.733 Y102.415 E.02365
G1 X161.966 Y103.133 E.02367
G1 X162.123 Y103.872 E.02369
G1 X162.202 Y104.623 E.02368
G1 X162.202 Y105.377 E.02364
G1 X162.123 Y106.128 E.02368
G1 X161.966 Y106.867 E.02369
G1 X161.733 Y107.585 E.02367
G1 X161.429 Y108.268 E.02344
G1 X160.83 Y109.245 E.03593
G1 X160.36 Y109.826 E.02343
G1 X159.826 Y110.36 E.02368
G1 X159.302 Y110.783 E.02111
M204 S1000
G1 X159.493 Y111.114 F10800
M204 S800
;TYPE:External perimeter
G1 F1200
G1 X158.795 Y111.573 E.02619
G1 X158.087 Y111.933 E.0249
G1 X157.347 Y112.217 E.02485
G1 X156.185 Y112.496 E.03747
G1 X155.397 Y112.579 E.02484
G1 X154.603 Y112.579 E.0249
G1 X153.813 Y112.496 E.02491
G1 X153.036 Y112.331 E.02491
G1 X152.28 Y112.086 E.02492
G1 X151.556 Y111.763 E.02486
G1 X150.537 Y111.139 E.03746
G1 X149.922 Y110.64 E.02483
G1 X149.36 Y110.078 E.02492
G1 X148.86 Y109.461 E.0249
G1 X148.427 Y108.795 E.02491
G1 X148.066 Y108.087 E.02492
G1 X147.782 Y107.345 E.02491
G1 X147.576 Y106.578 E.0249
G1 X147.452 Y105.795 E.02486
G1 X147.421 Y104.6 E.03748
G1 X147.504 Y103.813 E.02481
G1 X147.669 Y103.036 E.02491
G1 X147.914 Y102.28 E.02492
G1 X148.238 Y101.554 E.02493
G1 X148.635 Y100.866 E.02491
G1 X149.102 Y100.224 E.02489
G1 X149.632 Y99.635 E.02484
G1 X150.541 Y98.859 E.03747
G1 X151.203 Y98.428 E.02477
G1 X152.282 Y97.914 E.03747
G1 X153.036 Y97.669 E.02486
G1 X153.813 Y97.504 E.02491
G1 X154.603 Y97.421 E.02491
G1 X155.379 Y97.42 E.02433
G1 X156.58 Y97.577 E.03798
G1 X157.345 Y97.782 E.02483
G1 X158.087 Y98.067 E.02492
G1 X158.795 Y98.427 E.0249
G1 X159.461 Y98.86 E.02491
G1 X160.079 Y99.36 E.02492
G1 X160.639 Y99.92 E.02483
G1 X161.366 Y100.868 E.03746
G1 X161.762 Y101.554 E.02484
G1 X162.086 Y102.28 E.02493
