; generated by PrusaSlicer 2.2.0+linux-x64 on 2021-01-31 at 20:31:56 UTC

; 

; external perimeters extrusion width = 0.60mm
; perimeters extrusion width = 0.43mm
; infill extrusion width = 0.45mm
; solid infill extrusion width = 0.70mm
; top infill extrusion width = 0.43mm
; first layer extrusion width = 0.42mm

M73 P0 R27
M201 X9000 Y9000 Z500 E10000 ; sets maximum accelerations, mm/sec^2
M203 X500 Y500 Z12 E120 ; sets maximum feedrates, mm/sec
M204 P2000 R1500 T2000 ; sets acceleration (P, T) and retract acceleration (R), mm/sec^2
M205 X10.00 Y10.00 Z0.20 E4.50 ; sets the jerk limits, mm/sec
M205 S0 T0 ; sets the minimum extruding and travel feed rate, mm/sec
M107
M862.3 P "MK2.5" ; printer model check
M862.1 P0.4 ; nozzle diameter check
M115 U3.9.1 ; tell printer latest fw version
G90 ; use absolute coordinates
M83 ; extruder relative mode
M104 S215 ; set extruder temp
M140 S60 ; set bed temp
M190 S60 ; wait for bed temp
M109 S215 ; wait for extruder temp
G28 W ; home all without mesh bed level
G80 ; mesh bed leveling
G1 Y-3.0 F1000.0 ; go outside print area
G92 E0.0
G1 X60.0 E9.0 F1000.0 ; intro line
M73 P0 R27
G1 X100.0 E12.5 F1000.0 ; intro line
G92 E0.0
G21 ; set units to millimeters
G90 ; use absolute coordinates
M83 ; use relative distances for extrusion
M900 K0.05 ; Filament gcode LA 1.5
M900 K30 ; Filament gcode LA 1.0
;BEFORE_LAYER_CHANGE
G92 E0.0
;0.2


G1 E-0.80000 F2100.00000
G1 Z0.600 F10800.000
;AFTER_LAYER_CHANGE
;0.2
;CURRENT_Z: 0.2
G1 X106.532 Y95.921
G1 Z0.200
G1 E0.80000 F2100.00000
M204 S1000
G1 F1200.000
G1 X107.376 Y95.749 E0.02701
G1 X110.504 Y95.746 E0.09807
G1 X111.316 Y95.869 E0.02574
G1 X143.717 Y106.029 E1.06469
G1 X144.253 Y106.376 E0.02001
G1 X144.695 Y106.836 E0.02001
G1 X145.017 Y107.382 E0.01988
G1 X145.207 Y107.992 E0.02001
G1 X145.251 Y111.639 E0.11438
G1 X145.166 Y112.190 E0.01745
G1 X144.972 Y112.715 E0.01758
G1 X144.556 Y113.332 E0.02333
G1 X143.994 Y113.814 E0.02320
G1 X143.324 Y114.128 E0.02320
G1 X142.591 Y114.253 E0.02333
G1 X107.480 Y114.254 E1.10089
G1 X106.866 Y114.180 E0.01937
G1 X106.285 Y113.972 E0.01937
G1 X105.698 Y113.583 E0.02205
G1 X105.230 Y113.059 E0.02205
G1 X104.909 Y112.433 E0.02205
G1 X104.757 Y111.750 E0.02192
G1 X104.746 Y98.488 E0.41584
G1 X104.817 Y97.878 E0.01924
G1 X105.049 Y97.244 E0.02116
G1 X105.428 Y96.686 E0.02116
G1 X105.931 Y96.236 E0.02116
G1 X106.479 Y95.949 E0.01940
G1 X106.721 Y96.254 F10800.000
G1 F1200.000
G1 X107.419 Y96.124 E0.02225
G1 X110.504 Y96.123 E0.09672
G1 X111.205 Y96.230 E0.02225
G1 X143.528 Y106.357 E1.06202
G1 X144.000 Y106.656 E0.01752
G1 X144.391 Y107.060 E0.01763
G1 X144.676 Y107.544 E0.01763
G1 X144.839 Y108.078 E0.01752
G1 X144.875 Y111.603 E0.11051
G1 X144.643 Y112.528 E0.02989
G1 X144.285 Y113.069 E0.02036
G1 X143.797 Y113.492 E0.02024
G1 X143.210 Y113.769 E0.02036
G1 X142.570 Y113.876 E0.02036
G1 X107.485 Y113.877 E1.10006
G1 X106.964 Y113.816 E0.01645
G1 X106.472 Y113.643 E0.01633
G1 X105.957 Y113.308 E0.01929
G1 X105.542 Y112.848 E0.01941
G1 X105.262 Y112.300 E0.01929
G1 X105.131 Y111.695 E0.01941
G1 X105.123 Y98.492 E0.41396
G1 X105.183 Y97.967 E0.01657
G1 X105.389 Y97.408 E0.01870
G1 X105.730 Y96.914 E0.01882
G1 X106.184 Y96.521 E0.01882
G1 X106.668 Y96.281 E0.01694
G1 F8640.000
G1 X107.419 Y96.124 E-0.17722
G1 X109.943 Y96.123 E-0.58278
G1 E-0.04000 F2100.00000
G1 Z0.800 F10800.000
G1 X108.287 Y99.287
G1 Z0.200
G1 E0.80000 F2100.00000
G1 F1200.000
G1 X110.380 Y99.287 E0.06562
G1 X141.713 Y109.079 E1.02928
G1 X141.713 Y110.713 E0.05124
G1 X108.287 Y110.713 E1.04804
G1 X108.287 Y99.347 E0.35637
G1 X107.910 Y98.910 F10800.000
G1 F1200.000
G1 X110.437 Y98.910 E0.07925
G1 X142.090 Y108.801 E1.03977
G1 X142.090 Y111.090 E0.07176
G1 X107.910 Y111.090 E1.07169
G1 X107.910 Y98.970 E0.38001
G1 X108.307 Y98.956 F10800.000
G1 F8640.000
G1 X110.437 Y98.910 E-0.58376
G1 X111.166 Y99.138 E-0.17624
G1 E-0.04000 F2100.00000
G1 Z0.800 F10800.000
G1 X141.600 Y109.930
G1 Z0.200
G1 E0.80000 F2100.00000
G1 F1200.000
G1 X140.741 Y109.071 E0.03814
G1 X139.964 Y108.828 E0.02555
G1 X141.430 Y110.294 E0.06509
G1 X141.430 Y110.430 E0.00426
G1 X141.032 Y110.430 E0.01250
G1 X139.187 Y108.586 E0.08189
G1 X138.411 Y108.343 E0.02555
G1 X140.498 Y110.430 E0.09267
G1 X139.964 Y110.430 E0.01676
G1 X137.634 Y108.100 E0.10344
G1 X136.857 Y107.858 E0.02555
G1 X139.430 Y110.430 E0.11422
G1 X138.896 Y110.430 E0.01676
G1 X136.081 Y107.615 E0.12500
G1 X135.304 Y107.372 E0.02555
G1 X138.362 Y110.430 E0.13577
G1 X137.828 Y110.430 E0.01676
G1 X134.527 Y107.129 E0.14655
G1 X133.751 Y106.887 E0.02555
G1 X137.294 Y110.430 E0.15732
G1 X136.760 Y110.430 E0.01676
G1 X132.974 Y106.644 E0.16810
G1 X132.197 Y106.401 E0.02555
G1 X136.226 Y110.430 E0.17888
G1 X135.692 Y110.430 E0.01676
G1 X131.421 Y106.159 E0.18965
G1 X130.644 Y105.916 E0.02555
G1 X135.158 Y110.430 E0.20043
G1 X134.624 Y110.430 E0.01676
G1 X129.867 Y105.673 E0.21121
G1 X129.091 Y105.430 E0.02555
G1 X134.090 Y110.430 E0.22198
G1 X133.556 Y110.430 E0.01676
G1 X128.314 Y105.188 E0.23276
G1 X127.537 Y104.945 E0.02555
G1 X133.022 Y110.430 E0.24354
G1 X132.488 Y110.430 E0.01676
G1 X126.761 Y104.702 E0.25431
G1 X125.984 Y104.460 E0.02555
G1 X131.954 Y110.430 E0.26509
G1 X131.420 Y110.430 E0.01676
G1 X125.207 Y104.217 E0.27586
G1 X124.431 Y103.974 E0.02555
G1 X130.886 Y110.430 E0.28664
G1 X130.352 Y110.430 E0.01676
G1 X123.654 Y103.731 E0.29742
G1 X122.877 Y103.489 E0.02555
G1 X129.819 Y110.430 E0.30819
G1 X129.285 Y110.430 E0.01676
G1 X122.100 Y103.246 E0.31897
G1 X121.324 Y103.003 E0.02555
G1 X128.751 Y110.430 E0.32975
G1 X128.217 Y110.430 E0.01676
G1 X120.547 Y102.761 E0.34052
G1 X119.770 Y102.518 E0.02555
G1 X127.683 Y110.430 E0.35130
G1 X127.149 Y110.430 E0.01676
G1 X118.994 Y102.275 E0.36208
G1 X118.217 Y102.032 E0.02555
G1 X126.615 Y110.430 E0.37285
G1 X126.081 Y110.430 E0.01676
G1 X117.440 Y101.790 E0.38363
G1 X116.664 Y101.547 E0.02555
G1 X125.547 Y110.430 E0.39441
G1 X125.013 Y110.430 E0.01676
G1 X115.887 Y101.304 E0.40518
G1 X115.110 Y101.062 E0.02555
G1 X124.479 Y110.430 E0.41596
G1 X123.945 Y110.430 E0.01676
G1 X114.334 Y100.819 E0.42673
G1 X113.557 Y100.576 E0.02555
G1 X123.411 Y110.430 E0.43751
G1 X122.877 Y110.430 E0.01676
G1 X112.780 Y100.333 E0.44829
G1 X112.004 Y100.091 E0.02555
G1 X122.343 Y110.430 E0.45906
G1 X121.809 Y110.430 E0.01676
G1 X111.227 Y99.848 E0.46984
G1 X110.450 Y99.605 E0.02555
G1 X121.275 Y110.430 E0.48062
G1 X120.741 Y110.430 E0.01676
G1 X109.881 Y99.570 E0.48219
G1 X109.347 Y99.570 E0.01676
G1 X120.207 Y110.430 E0.48219
G1 X119.673 Y110.430 E0.01676
G1 X108.813 Y99.570 E0.48219
G1 X108.570 Y99.570 E0.00763
G1 X108.570 Y99.861 E0.00914
G1 X119.139 Y110.430 E0.46927
G1 X118.605 Y110.430 E0.01676
G1 X108.570 Y100.395 E0.44556
G1 X108.570 Y100.929 E0.01676
G1 X118.071 Y110.430 E0.42186
G1 X117.537 Y110.430 E0.01676
G1 X108.570 Y101.463 E0.39815
G1 X108.570 Y101.997 E0.01676
G1 X117.003 Y110.430 E0.37444
G1 X116.469 Y110.430 E0.01676
G1 X108.570 Y102.531 E0.35073
G1 X108.570 Y103.065 E0.01676
G1 X115.935 Y110.430 E0.32702
G1 X115.401 Y110.430 E0.01676
G1 X108.570 Y103.599 E0.30332
G1 X108.570 Y104.133 E0.01676
G1 X114.867 Y110.430 E0.27961
G1 X114.333 Y110.430 E0.01676
G1 X108.570 Y104.667 E0.25590
G1 X108.570 Y105.201 E0.01676
G1 X113.799 Y110.430 E0.23219
G1 X113.265 Y110.430 E0.01676
G1 X108.570 Y105.735 E0.20848
G1 X108.570 Y106.268 E0.01676
G1 X112.732 Y110.430 E0.18478
G1 X112.198 Y110.430 E0.01676
G1 X108.570 Y106.802 E0.16107
G1 X108.570 Y107.336 E0.01676
G1 X111.664 Y110.430 E0.13736
G1 X111.130 Y110.430 E0.01676
G1 X108.570 Y107.870 E0.11365
G1 X108.570 Y108.404 E0.01676
G1 X110.596 Y110.430 E0.08994
G1 X110.062 Y110.430 E0.01676
G1 X108.570 Y108.938 E0.06624
G1 X108.570 Y109.472 E0.01676
G1 X109.528 Y110.430 E0.04253
G1 X108.994 Y110.430 E0.01676
G1 X108.400 Y109.837 E0.02635
M106 S255
;BEFORE_LAYER_CHANGE
G92 E0.0
;0.55


G1 F8640.000
G1 X108.994 Y110.430 E-0.19382
G1 X109.528 Y110.430 E-0.12329
G1 X108.570 Y109.472 E-0.31277
G1 X108.570 Y108.938 E-0.12329
G1 X108.591 Y108.959 E-0.00682
G1 E-0.04000 F2100.00000
G1 Z0.800 F10800.000
;AFTER_LAYER_CHANGE
;0.55
;CURRENT_Z: 0.55
M104 S210 ; set temperature
G1 X104.909 Y112.433
G1 Z0.550
G1 E0.80000 F2100.00000
G1 F2256
G1 X104.757 Y111.750 E0.03509
G1 X104.746 Y98.488 E0.66560
G1 X104.817 Y97.878 E0.03080
G1 X105.049 Y97.244 E0.03387
G1 X105.428 Y96.686 E0.03387
G1 X105.931 Y96.236 E0.03387
G1 X106.532 Y95.921 E0.03407
G1 X107.376 Y95.749 E0.04324
G1 X110.504 Y95.746 E0.15697
G1 X111.316 Y95.869 E0.04120
G1 X143.717 Y106.029 E1.70415
G1 X144.253 Y106.376 E0.03203
G1 X144.695 Y106.836 E0.03203
G1 X145.017 Y107.382 E0.03182
G1 X145.207 Y107.992 E0.03203
G1 X145.251 Y111.639 E0.18308
G1 X145.166 Y112.190 E0.02794
G1 X144.972 Y112.715 E0.02814
G1 X144.556 Y113.332 E0.03733
G1 X143.994 Y113.814 E0.03713
G1 X143.324 Y114.128 E0.03713
G1 X142.591 Y114.253 E0.03733
G1 X107.480 Y114.254 E1.76210
G1 X106.866 Y114.180 E0.03100
G1 X106.285 Y113.972 E0.03100
G1 X105.698 Y113.583 E0.03529
G1 X105.230 Y113.059 E0.03529
G1 X104.936 Y112.486 E0.03228
G1 X105.270 Y112.316 F10800.000
G1 F2256
G1 X105.131 Y111.695 E0.03191
G1 X105.123 Y98.492 E0.66259
G1 X105.183 Y97.967 E0.02652
G1 X105.389 Y97.408 E0.02993
G1 X105.730 Y96.914 E0.03012
G1 X106.184 Y96.521 E0.03012
G1 X106.721 Y96.254 E0.03012
G1 X107.419 Y96.124 E0.03561
G1 X110.504 Y96.123 E0.15482
G1 X111.205 Y96.230 E0.03561
G1 X143.528 Y106.357 E1.69988
G1 X144.000 Y106.656 E0.02804
G1 X144.391 Y107.060 E0.02823
G1 X144.676 Y107.544 E0.02823
G1 X144.839 Y108.078 E0.02804
G1 X144.875 Y111.603 E0.17688
G1 X144.643 Y112.528 E0.04785
G1 X144.285 Y113.069 E0.03259
G1 X143.797 Y113.492 E0.03240
G1 X143.210 Y113.769 E0.03259
G1 X142.570 Y113.876 E0.03259
G1 X107.485 Y113.877 E1.76077
G1 X106.964 Y113.816 E0.02633
G1 X106.472 Y113.643 E0.02614
G1 X105.957 Y113.308 E0.03088
G1 X105.542 Y112.848 E0.03107
G1 X105.297 Y112.369 E0.02700
G1 F8640.000
G1 X105.131 Y111.695 E-0.16028
G1 X105.129 Y109.098 E-0.59972
G1 E-0.04000 F2100.00000
G1 Z1.150 F10800.000
G1 X108.240 Y110.760
G1 Z0.550
G1 E0.80000 F2100.00000
M204 S800
G1 F2256
G1 X108.240 Y99.240 E0.59492
G1 X110.387 Y99.240 E0.11088
G1 X141.760 Y109.044 E1.69740
M73 P3 R26
G1 X141.760 Y110.760 E0.08862
G1 X108.300 Y110.760 E1.72792
M204 S1000
G1 X107.800 Y111.200 F10800.000
M204 S800
G1 F2256
G1 X107.800 Y98.800 E0.94709
G1 X110.454 Y98.800 E0.20272
G1 X142.200 Y108.721 E2.54032
G1 X142.200 Y111.200 E0.18938
G1 X107.860 Y111.200 E2.62283
M204 S1000
G1 X107.992 Y110.849 F10800.000
G1 F8640.000
G1 X107.844 Y107.909 E-0.76000
G1 E-0.04000 F2100.00000
G1 Z1.150 F10800.000
G1 X140.392 Y110.674
G1 Z0.550
G1 E0.80000 F2100.00000
M204 S2000
G1 F2256
G1 X141.393 Y109.673 E0.13057
G1 X141.393 Y109.314 E0.03310
G1 X140.983 Y109.186 E0.03958
G1 X139.776 Y110.393 E0.15739
G1 X138.880 Y110.393 E0.08268
G1 X140.300 Y108.973 E0.18523
G1 X139.617 Y108.759 E0.06600
G1 X137.984 Y110.393 E0.21307
G1 X137.087 Y110.393 E0.08268
G1 X138.934 Y108.546 E0.24091
G1 X138.251 Y108.332 E0.06600
G1 X136.191 Y110.393 E0.26875
G1 X135.294 Y110.393 E0.08268
G1 X137.568 Y108.119 E0.29659
G1 X136.885 Y107.905 E0.06600
G1 X134.398 Y110.393 E0.32443
G1 X133.502 Y110.393 E0.08268
G1 X136.202 Y107.692 E0.35227
G1 X135.519 Y107.479 E0.06600
G1 X132.605 Y110.393 E0.38011
G1 X131.709 Y110.393 E0.08268
G1 X134.836 Y107.265 E0.40795
G1 X134.153 Y107.052 E0.06600
G1 X130.812 Y110.393 E0.43579
G1 X129.916 Y110.393 E0.08268
G1 X133.470 Y106.838 E0.46363
G1 X132.787 Y106.625 E0.06600
G1 X129.020 Y110.393 E0.49147
G1 X128.123 Y110.393 E0.08268
G1 X132.104 Y106.411 E0.51931
G1 X131.421 Y106.198 E0.06600
G1 X127.227 Y110.393 E0.54715
G1 X126.330 Y110.393 E0.08268
G1 X130.738 Y105.985 E0.57499
G1 X130.055 Y105.771 E0.06600
G1 X125.434 Y110.393 E0.60283
G1 X124.538 Y110.393 E0.08268
G1 X129.372 Y105.558 E0.63067
G1 X128.689 Y105.344 E0.06600
G1 X123.641 Y110.393 E0.65851
G1 X122.745 Y110.393 E0.08268
G1 X128.006 Y105.131 E0.68635
G1 X127.324 Y104.917 E0.06600
G1 X121.848 Y110.393 E0.71419
G1 X120.952 Y110.393 E0.08268
G1 X126.641 Y104.704 E0.74203
G1 X125.958 Y104.491 E0.06600
G1 X120.055 Y110.393 E0.76987
G1 X119.159 Y110.393 E0.08268
G1 X125.275 Y104.277 E0.79771
G1 X124.592 Y104.064 E0.06600
G1 X118.263 Y110.393 E0.82555
G1 X117.366 Y110.393 E0.08268
G1 X123.909 Y103.850 E0.85339
G1 X123.226 Y103.637 E0.06600
G1 X116.470 Y110.393 E0.88123
G1 X115.573 Y110.393 E0.08268
G1 X122.543 Y103.423 E0.90907
G1 X121.860 Y103.210 E0.06600
G1 X114.677 Y110.393 E0.93691
G1 X113.781 Y110.393 E0.08268
G1 X121.177 Y102.997 E0.96475
G1 X120.494 Y102.783 E0.06600
G1 X112.884 Y110.393 E0.99259
G1 X111.988 Y110.393 E0.08268
G1 X119.811 Y102.570 E1.02043
G1 X119.128 Y102.356 E0.06600
G1 X111.091 Y110.393 E1.04827
G1 X110.195 Y110.393 E0.08268
G1 X118.445 Y102.143 E1.07610
G1 X117.762 Y101.929 E0.06600
G1 X109.299 Y110.393 E1.10394
G1 X108.607 Y110.393 E0.06375
G1 X108.607 Y110.187 E0.01893
G1 X117.079 Y101.716 E1.10502
G1 X116.396 Y101.503 E0.06600
G1 X108.607 Y109.291 E1.01593
G1 X108.607 Y108.395 E0.08268
G1 X115.713 Y101.289 E0.92684
G1 X115.030 Y101.076 E0.06600
G1 X108.607 Y107.498 E0.83776
G1 X108.607 Y106.602 E0.08268
G1 X114.347 Y100.862 E0.74867
G1 X113.664 Y100.649 E0.06600
G1 X108.607 Y105.705 E0.65958
G1 X108.607 Y104.809 E0.08268
G1 X112.981 Y100.435 E0.57049
G1 X112.298 Y100.222 E0.06600
G1 X108.607 Y103.913 E0.48141
G1 X108.607 Y103.016 E0.08268
G1 X111.615 Y100.009 E0.39232
G1 X110.932 Y99.795 E0.06600
G1 X108.607 Y102.120 E0.30323
G1 X108.607 Y101.223 E0.08268
G1 X110.223 Y99.607 E0.21080
G1 X109.327 Y99.607 E0.08268
G1 X108.326 Y100.608 E0.13055
M204 S1000
;BEFORE_LAYER_CHANGE
G92 E0.0
;0.9


G1 F8640.000
G1 X109.327 Y99.607 E-0.32683
G1 X110.223 Y99.607 E-0.20698
G1 X109.531 Y100.300 E-0.22618
G1 E-0.04000 F2100.00000
G1 Z1.150 F10800.000
;AFTER_LAYER_CHANGE
;0.9
;CURRENT_Z: 0.9
G1 X106.532 Y95.921
G1 Z0.900
G1 E0.80000 F2100.00000
G1 F2249
G1 X107.376 Y95.749 E0.04324
G1 X110.504 Y95.746 E0.15697
G1 X111.316 Y95.869 E0.04120
G1 X143.717 Y106.029 E1.70415
G1 X144.253 Y106.376 E0.03203
G1 X144.695 Y106.836 E0.03203
G1 X145.017 Y107.382 E0.03182
G1 X145.207 Y107.992 E0.03203
G1 X145.251 Y111.639 E0.18308
G1 X145.166 Y112.190 E0.02794
G1 X144.972 Y112.715 E0.02814
G1 X144.556 Y113.332 E0.03733
G1 X143.994 Y113.814 E0.03713
G1 X143.324 Y114.128 E0.03713
G1 X142.591 Y114.253 E0.03733
G1 X107.480 Y114.254 E1.76210
G1 X106.866 Y114.180 E0.03100
G1 X106.285 Y113.972 E0.03100
G1 X105.698 Y113.583 E0.03529
G1 X105.230 Y113.059 E0.03529
G1 X104.909 Y112.433 E0.03529
G1 X104.757 Y111.750 E0.03509
G1 X104.746 Y98.488 E0.66560
G1 X104.817 Y97.878 E0.03080
G1 X105.049 Y97.244 E0.03387
G1 X105.428 Y96.686 E0.03387
G1 X105.931 Y96.236 E0.03387
G1 X106.479 Y95.949 E0.03106
G1 X106.721 Y96.254 F10800.000
G1 F2249
G1 X107.419 Y96.124 E0.03561
G1 X110.504 Y96.123 E0.15482
G1 X111.205 Y96.230 E0.03561
G1 X143.528 Y106.357 E1.69988
G1 X144.000 Y106.656 E0.02804
G1 X144.391 Y107.060 E0.02823
G1 X144.676 Y107.544 E0.02823
G1 X144.839 Y108.078 E0.02804
G1 X144.875 Y111.603 E0.17688
G1 X144.643 Y112.528 E0.04785
G1 X144.285 Y113.069 E0.03259
G1 X143.797 Y113.492 E0.03240
G1 X143.210 Y113.769 E0.03259
G1 X142.570 Y113.876 E0.03259
G1 X107.485 Y113.877 E1.76077
G1 X106.964 Y113.816 E0.02633
G1 X106.472 Y113.643 E0.02614
G1 X105.957 Y113.308 E0.03088
G1 X105.542 Y112.848 E0.03107
G1 X105.262 Y112.300 E0.03088
G1 X105.131 Y111.695 E0.03107
G1 X105.123 Y98.492 E0.66259
G1 X105.183 Y97.967 E0.02652
G1 X105.389 Y97.408 E0.02993
G1 X105.730 Y96.914 E0.03012
G1 X106.184 Y96.521 E0.03012
G1 X106.668 Y96.281 E0.02711
G1 F8640.000
G1 X107.419 Y96.124 E-0.17722
G1 X109.943 Y96.123 E-0.58278
G1 E-0.04000 F2100.00000
G1 Z1.500 F10800.000
G1 X108.240 Y99.240
G1 Z0.900
G1 E0.80000 F2100.00000
M204 S800
G1 F2249
G1 X110.387 Y99.240 E0.11088
G1 X141.760 Y109.044 E1.69740
G1 X141.760 Y110.760 E0.08862
G1 X108.240 Y110.760 E1.73102
G1 X108.240 Y99.300 E0.59182
M204 S1000
G1 X107.800 Y98.800 F10800.000
M204 S800
G1 F2249
G1 X110.454 Y98.800 E0.20272
G1 X142.200 Y108.721 E2.54032
G1 X142.200 Y111.200 E0.18938
