; generated by PrusaSlicer 2.8.0 on 2024-09-21 at 14:29:13 UTC

; 

; external perimeters extrusion width = 0.60mm
; perimeters extrusion width = 0.43mm
; infill extrusion width = 0.45mm
; solid infill extrusion width = 0.70mm
; top infill extrusion width = 0.45mm
; first layer extrusion width = 0.42mm

M73 P0 R22
M201 X9000 Y9000 Z500 E10000 ; sets maximum accelerations, mm/sec^2
M203 X500 Y500 Z12 E120 ; sets maximum feedrates, mm / sec
M204 S2000 T1500 ; sets acceleration (S) and retract acceleration (R), mm/sec^2
M205 X10.00 Y10.00 Z0.20 E4.50 ; sets the jerk limits, mm/sec
M205 S0 T0 ; sets the minimum extruding and travel feed rate, mm/sec

; printing object suporte.stl id:0 copy 0
; stop printing object suporte.stl id:0 copy 0

;TYPE:Custom
M862.3 P "MK2.5" ; printer model check
M862.1 P0.4 ; nozzle diameter check
M115 U3.11.0 ; tell printer latest fw version
G90 ; use absolute coordinates
M83 ; extruder relative mode
M104 S215 ; set extruder temp
M140 S60 ; set bed temp
M190 S60 ; wait for bed temp
M109 S215 ; wait for extruder temp
G28 W ; home all without mesh bed level
G80 ; mesh bed leveling

G1 Z0.2 F720
G1 Y-3 F1000 ; go outside print area
G92 E0
G1 X60 E9 F1000 ; intro line
G1 X100 E12.5 F1000 ; intro line
M73 P0 R21

G92 E0
G21 ; set units to millimeters
G90 ; use absolute coordinates
M83 ; use relative distances for extrusion
M900 K0.05 ; Filament gcode LA 1.5
M900 K30 ; Filament gcode LA 1.0
M107
;LAYER_CHANGE
;Z:0.2
;HEIGHT:0.2
G1 E-.8 F2100
G1 Z.6 F720
G1 X105.327 Y97.137 F10800
G1 Z.2 F720
G1 E.8 F2100
M204 S800
;TYPE:Skirt/Brim
;WIDTH:0.42
G1 F1200
G1 X106.383 Y96.19 E.04447
G1 X107.5 Y95.934 E.03593
G1 X110.5 Y95.934 E.09406
G1 X111.265 Y96.051 E.02426
G1 X143.265 Y106.051 E1.05119
G1 X144.45 Y106.832 E.0445
G1 X145.066 Y108.5 E.05575
G1 X145.066 Y111.5 E.09406
G1 X144.673 Y112.863 E.04448
G1 X143.617 Y113.81 E.04447
G1 X142.5 Y114.066 E.03593
G1 X107.5 Y114.066 E1.0974
G1 X106.137 Y113.673 E.04448
G1 X105.19 Y112.617 E.04447
G1 X104.934 Y111.5 E.03593
G1 X104.934 Y98.5 E.40761
G1 X105.31 Y97.194 E.04261
M204 S1000
G1 X105.31 Y97.194 F10800
G1 X105.684 Y97.311
M204 S800
G1 F1200
G1 X105.702 Y97.252 E.00193
G1 X106.735 Y96.449 E.04102
G1 X107.5 Y96.311 E.02437
G1 X110.5 Y96.311 E.09406
G1 X111.153 Y96.411 E.02071
G1 X143.153 Y106.411 E1.05119
G1 X144.228 Y107.157 E.04103
M73 P1 R21
G1 X144.688 Y108.5 E.04451
G1 X144.688 Y111.5 E.09406
G1 X144.298 Y112.748 E.041
G1 X143.265 Y113.551 E.04102
G1 X142.5 Y113.689 E.02437
G1 X107.5 Y113.689 E1.0974
G1 X106.252 Y113.298 E.04101
G1 X105.449 Y112.265 E.04102
G1 X105.312 Y111.5 E.02437
G1 X105.312 Y98.5 E.40761
G1 X105.666 Y97.369 E.03716
M204 S1000
;WIPE_START
G1 F8640
G1 X105.684 Y97.311 E-.01402
G1 X105.702 Y97.252 E-.01424
G1 X106.735 Y96.449 E-.30211
G1 X107.5 Y96.311 E-.17949
G1 X108.757 Y96.311 E-.29014
;WIPE_END
G1 Z.6 F720
; printing object suporte.stl id:0 copy 0
G1 X141.713 Y109.079 F10800
G1 Z.2 F720
G1 E.8 F2100
M204 S800
;TYPE:Perimeter
;WIDTH:0.419999
G1 F1200
G1 X141.713 Y109.771 E.0217
G1 X141.713 Y110.713 E.02954
G1 X108.287 Y110.713 E1.04805
G1 X108.287 Y99.287 E.35825
G1 X110.38 Y99.287 E.06562
G1 X141.656 Y109.061 E1.02741
M204 S1000
G1 X141.656 Y109.061 F10800
G1 X142.09 Y108.802
M204 S800
;TYPE:External perimeter
G1 F1200
G1 X142.09 Y109.771 E.03038
G1 X142.09 Y111.09 E.04136
G1 X107.91 Y111.09 E1.07169
G1 X107.91 Y98.91 E.38189
G1 X110.437 Y98.91 E.07923
G1 X142.033 Y108.784 E1.03792
M204 S1000
;WIPE_START
G1 F8640
G1 X142.09 Y108.802 E-.0138
G1 X142.09 Y109.771 E-.22374
G1 X142.09 Y111.09 E-.30456
G1 X140.973 Y111.09 E-.2579
;WIPE_END
G1 Z.6 F720
M73 P2 R21
G1 X140.482 Y108.813 F10800
G1 Z.2 F720
G1 E.8 F2100
M204 S800
;TYPE:Solid infill
;WIDTH:0.42049
G1 F1200
G1 X141.43 Y109.761 E.04209
G1 X141.43 Y110.295 E.01676
G1 X139.964 Y108.829 E.06509
G1 X139.187 Y108.586 E.02556
G1 X141.032 Y110.43 E.08189
G1 X140.498 Y110.43 E.01676
G1 X138.411 Y108.343 E.09266
G1 X137.634 Y108.1 E.02556
G1 X139.964 Y110.43 E.10345
G1 X139.43 Y110.43 E.01676
G1 X136.857 Y107.858 E.11422
G1 X136.081 Y107.615 E.02553
G1 X138.896 Y110.43 E.12498
G1 X138.362 Y110.43 E.01676
G1 X135.304 Y107.372 E.13577
G1 X134.527 Y107.13 E.02555
G1 X137.828 Y110.43 E.14654
G1 X137.294 Y110.43 E.01676
G1 X133.751 Y106.887 E.15731
G1 X132.974 Y106.644 E.02556
G1 X136.76 Y110.43 E.1681
G1 X136.226 Y110.43 E.01676
G1 X132.197 Y106.401 E.17888
G1 X131.421 Y106.159 E.02552
G1 X135.692 Y110.43 E.18963
G1 X135.158 Y110.43 E.01676
G1 X130.644 Y105.916 E.20042
G1 X129.867 Y105.673 E.02556
G1 X134.624 Y110.43 E.21121
G1 X134.09 Y110.43 E.01676
G1 X129.091 Y105.431 E.22195
G1 X128.314 Y105.188 E.02556
G1 X133.556 Y110.43 E.23274
G1 X133.022 Y110.43 E.01676
G1 X127.537 Y104.945 E.24353
G1 X126.761 Y104.702 E.02553
G1 X132.488 Y110.43 E.2543
G1 X131.954 Y110.43 E.01676
G1 X125.984 Y104.46 E.26506
G1 X125.207 Y104.217 E.02556
G1 X131.42 Y110.43 E.27585
G1 X130.886 Y110.43 E.01676
G1 X124.431 Y103.974 E.28662
G1 X123.654 Y103.732 E.02555
G1 X130.352 Y110.43 E.29739
G1 X129.818 Y110.43 E.01676
G1 X122.877 Y103.489 E.30818
G1 X122.1 Y103.246 E.02556
G1 X129.284 Y110.43 E.31896
G1 X128.751 Y110.43 E.01673
G1 X121.324 Y103.003 E.32975
G1 X120.547 Y102.761 E.02555
G1 X128.217 Y110.43 E.34052
G1 X127.683 Y110.43 E.01676
G1 X119.77 Y102.518 E.35131
G1 X118.994 Y102.275 E.02553
G1 X127.149 Y110.43 E.36208
G1 X126.615 Y110.43 E.01676
G1 X118.217 Y102.033 E.37284
G1 X117.44 Y101.79 E.02556
G1 X126.081 Y110.43 E.38363
G1 X125.547 Y110.43 E.01676
G1 X116.664 Y101.547 E.3944
G1 X115.887 Y101.304 E.02556
G1 X125.013 Y110.43 E.40519
G1 X124.479 Y110.43 E.01676
M73 P3 R21
G1 X115.11 Y101.062 E.41596
G1 X114.334 Y100.819 E.02553
G1 X123.945 Y110.43 E.42672
G1 X123.411 Y110.43 E.01676
G1 X113.557 Y100.576 E.43751
G1 X112.78 Y100.334 E.02555
G1 X122.877 Y110.43 E.44828
G1 X122.343 Y110.43 E.01676
G1 X112.004 Y100.091 E.45904
G1 X111.227 Y99.848 E.02556
G1 X121.809 Y110.43 E.46983
G1 X121.275 Y110.43 E.01676
G1 X110.45 Y99.605 E.48062
G1 X110.337 Y99.57 E.00371
G1 X109.881 Y99.57 E.01432
G1 X120.741 Y110.43 E.48218
G1 X120.207 Y110.43 E.01676
G1 X109.347 Y99.57 E.48218
G1 X108.813 Y99.57 E.01676
G1 X119.673 Y110.43 E.48218
G1 X119.139 Y110.43 E.01676
G1 X108.57 Y99.861 E.46926
G1 X108.57 Y100.395 E.01676
G1 X118.605 Y110.43 E.44555
G1 X118.071 Y110.43 E.01676
G1 X108.57 Y100.929 E.42184
G1 X108.57 Y101.463 E.01676
G1 X117.537 Y110.43 E.39813
G1 X117.003 Y110.43 E.01676
G1 X108.57 Y101.997 E.37442
G1 X108.57 Y102.531 E.01676
G1 X116.469 Y110.43 E.35071
G1 X115.935 Y110.43 E.01676
G1 X108.57 Y103.065 E.327
G1 X108.57 Y103.599 E.01676
G1 X115.401 Y110.43 E.30329
G1 X114.867 Y110.43 E.01676
M73 P4 R21
G1 X108.57 Y104.133 E.27958
G1 X108.57 Y104.667 E.01676
G1 X114.333 Y110.43 E.25587
G1 X113.799 Y110.43 E.01676
G1 X108.57 Y105.201 E.23216
G1 X108.57 Y105.735 E.01676
G1 X113.266 Y110.43 E.20848
G1 X112.732 Y110.43 E.01676
G1 X108.57 Y106.268 E.18479
G1 X108.57 Y106.802 E.01676
G1 X112.198 Y110.43 E.16108
G1 X111.664 Y110.43 E.01676
G1 X108.57 Y107.336 E.13737
G1 X108.57 Y107.87 E.01676
G1 X111.13 Y110.43 E.11366
G1 X110.596 Y110.43 E.01676
G1 X108.57 Y108.404 E.08995
G1 X108.57 Y108.938 E.01676
G1 X110.062 Y110.43 E.06624
G1 X109.528 Y110.43 E.01676
G1 X108.57 Y109.472 E.04253
G1 X108.57 Y110.006 E.01676
G1 X109.164 Y110.6 E.02637
M204 S1000
M106 S84.15
;LAYER_CHANGE
;Z:0.55
;HEIGHT:0.35
;BEFORE_LAYER_CHANGE
G92 E0.0
;0.55


;WIPE_START
G1 F8640
G1 X108.57 Y110.006 E-.19397
G1 X108.57 Y109.472 E-.1233
G1 X109.528 Y110.43 E-.31283
G1 X110.062 Y110.43 E-.1233
G1 X109.919 Y110.287 E-.0466
;WIPE_END
G1 Z.55 F720
;AFTER_LAYER_CHANGE
;0.55
;CURRENT_Z: 0.55
M104 S210 ; set temperature
; stop printing object suporte.stl id:0 copy 0
G1 Z.95
G1 X109.919 Y114.066 F10800
G1 Z.55 F720
G1 E.8 F2100
;TYPE:Skirt/Brim
;WIDTH:0.42
G1 F3000
G1 X107.5 Y114.066 E.1214
G1 X106.137 Y113.673 E.07119
G1 X105.19 Y112.617 E.07119
G1 X104.934 Y111.5 E.05751
G1 X104.934 Y98.5 E.65242
G1 X105.327 Y97.137 E.07119
G1 X106.383 Y96.19 E.07119
G1 X107.5 Y95.934 E.05751
G1 X110.5 Y95.934 E.15056
G1 X111.265 Y96.051 E.03884
G1 X143.265 Y106.051 E1.68254
G1 X144.45 Y106.832 E.07122
G1 X145.066 Y108.5 E.08924
G1 X145.066 Y111.5 E.15056
G1 X144.673 Y112.863 E.07119
G1 X143.617 Y113.81 E.07119
G1 X142.5 Y114.066 E.05751
G1 X109.979 Y114.066 E1.6321
G1 X109.979 Y114.066 F10800
G1 X109.979 Y113.689
G1 F3000
G1 X107.5 Y113.689 E.12441
G1 X106.252 Y113.298 E.06563
G1 X105.449 Y112.265 E.06566
G1 X105.312 Y111.5 E.039
G1 X105.312 Y98.5 E.65242
G1 X105.702 Y97.252 E.06562
G1 X106.735 Y96.449 E.06566
G1 X107.5 Y96.311 E.03901
G1 X110.5 Y96.311 E.15056
G1 X111.153 Y96.411 E.03315
G1 X143.153 Y106.411 E1.68254
G1 X144.228 Y107.157 E.06567
G1 X144.688 Y108.5 E.07124
G1 X144.688 Y111.5 E.15056
G1 X144.298 Y112.748 E.06562
G1 X143.265 Y113.551 E.06566
M73 P4 R20
G1 X142.5 Y113.689 E.03901
G1 X110.039 Y113.689 E1.62908
;WIPE_START
G1 F8640
G1 X109.979 Y113.689 E-.01385
G1 X107.5 Y113.689 E-.57241
G1 X106.617 Y113.412 E-.21374
;WIPE_END
G1 Z.95 F720
; printing object suporte.stl id:0 copy 0
G1 X141.76 Y109.044 F10800
G1 Z.55 F720
G1 E.8 F2100
M204 S800
;TYPE:Perimeter
;WIDTH:0.43
G1 F3000
G1 X141.76 Y109.771 E.03754
G1 X141.76 Y110.76 E.05107
G1 X108.24 Y110.76 E1.73101
G1 X108.24 Y99.24 E.5949
G1 X110.387 Y99.24 E.11087
G1 X141.703 Y109.026 E1.69431
M204 S1000
G1 X141.703 Y109.026 F10800
G1 X142.2 Y108.721
M204 S800
;TYPE:External perimeter
;WIDTH:0.6
G1 F2400
G1 X142.2 Y109.771 E.0802
G1 X142.2 Y111.2 E.10914
G1 X107.8 Y111.2 E2.62741
G1 X107.8 Y98.8 E.94709
G1 X110.454 Y98.8 E.20271
G1 X142.143 Y108.703 E2.53578
M204 S1000
;WIPE_START
G1 F8640
G1 X142.2 Y108.721 E-.0138
G1 X142.2 Y109.771 E-.24245
G1 X142.2 Y111.2 E-.32996
G1 X141.274 Y111.2 E-.21379
M73 P5 R20
;WIPE_END
G1 Z.95 F720
G1 X109.186 Y99.523 F10800
G1 Z.55 F720
G1 E.8 F2100
M204 S2000
;TYPE:Solid infill
;WIDTH:0.463364
G1 F3600
G1 X108.523 Y100.186 E.05297
G1 X108.523 Y99.523 E.03746
G1 X108.873 Y99.523 E.01977
;WIDTH:0.7
G1 X109.784 Y99.641 E.08353
G1 X108.641 Y100.784 E.14698
G1 X108.641 Y101.667 E.08029
G1 X110.586 Y99.722 E.25011
G1 X111.259 Y99.933 E.06413
G1 X108.641 Y102.551 E.33666
G1 X108.641 Y103.435 E.08038
G1 X111.933 Y100.143 E.42333
G1 X112.606 Y100.354 E.06413
G1 X108.641 Y104.319 E.50987
G1 X108.641 Y105.202 E.08029
G1 X113.279 Y100.564 E.59642
G1 X113.953 Y100.774 E.06419
G1 X108.641 Y106.086 E.68309
G1 X108.641 Y106.97 E.08038
G1 X114.626 Y100.985 E.76963
G1 X115.299 Y101.195 E.06411
G1 X108.641 Y107.853 E.85618
G1 X108.641 Y108.737 E.08038
G1 X115.973 Y101.406 E.94279
G1 X116.646 Y101.616 E.06411
G1 X108.641 Y109.621 E1.02939
G1 X108.474 Y110.586 E.08905
;WIDTH:0.415111
G1 X108.433 Y110.597 E.0021
G1 X108.414 Y110.526 E.00364
G1 X108.485 Y110.545 E.00364
;WIDTH:0.462592
G1 X108.535 Y110.514 E.00332
;WIDTH:0.510074
G1 X108.585 Y110.483 E.00372
;WIDTH:0.557555
G1 X108.636 Y110.452 E.00419
;WIDTH:0.605037
G1 X108.686 Y110.421 E.00454
;WIDTH:0.652518
G1 X108.736 Y110.39 E.00494
;WIDTH:0.7
G1 X108.787 Y110.359 E.00543
G1 X117.319 Y101.827 E1.09716
G1 X117.993 Y102.037 E.06419
G1 X109.671 Y110.359 E1.07016
G1 X110.554 Y110.359 E.08029
G1 X118.666 Y102.247 E1.04315
G1 X119.339 Y102.458 E.06413
G1 X111.438 Y110.359 E1.01602
G1 X112.322 Y110.359 E.08038
G1 X120.012 Y102.668 E.98895
G1 X120.686 Y102.879 E.06422
G1 X113.205 Y110.359 E.96195
G1 X114.089 Y110.359 E.08038
G1 X121.359 Y103.089 E.93488
G1 X122.032 Y103.299 E.06411
G1 X114.973 Y110.359 E.90781
G1 X115.857 Y110.359 E.08038
G1 X122.706 Y103.51 E.88074
G1 X123.379 Y103.72 E.06411
G1 X116.74 Y110.359 E.85373
G1 X117.624 Y110.359 E.08038
G1 X124.052 Y103.931 E.8266
G1 X124.726 Y104.141 E.06419
G1 X118.508 Y110.359 E.7996
G1 X119.391 Y110.359 E.08029
G1 X125.399 Y104.351 E.77259
G1 X126.072 Y104.562 E.06413
G1 X120.275 Y110.359 E.74546
G1 X121.159 Y110.359 E.08038
G1 X126.746 Y104.772 E.71845
G1 X127.419 Y104.983 E.06413
G1 X122.043 Y110.359 E.69132
G1 X122.926 Y110.359 E.08029
G1 X128.092 Y105.193 E.66432
G1 X128.766 Y105.404 E.06422
G1 X123.81 Y110.359 E.63725
G1 X124.694 Y110.359 E.08038
G1 X129.439 Y105.614 E.61018
G1 X130.112 Y105.824 E.06411
G1 X125.578 Y110.359 E.58311
G1 X126.461 Y110.359 E.08029
G1 X130.785 Y106.035 E.55604
G1 X131.459 Y106.245 E.06419
G1 X127.345 Y110.359 E.52903
G1 X128.229 Y110.359 E.08038
G1 X132.132 Y106.456 E.5019
G1 X132.805 Y106.666 E.06411
G1 X129.112 Y110.359 E.4749
G1 X129.996 Y110.359 E.08038
G1 X133.479 Y106.876 E.44789
G1 X134.152 Y107.087 E.06413
G1 X130.88 Y110.359 E.42076
G1 X131.764 Y110.359 E.08038
G1 X134.825 Y107.297 E.39369
M204 S1000
;WIPE_START
G1 F8640
G1 X132.375 Y109.747 E-.8
;WIPE_END
G1 Z.95 F720
G1 X136.161 Y107.715 F10800
G1 Z.55 F720
G1 E.8 F2100
M204 S2000
G1 F3600
G1 X141.359 Y109.339 E.49518
G1 X141.359 Y110.359 E.09275
G1 X133.531 Y110.359 E.7118
G1 X135.943 Y107.939 E.31068
G1 X135.499 Y107.508 E.05627
G1 X132.614 Y110.402 E.37157
;WIDTH:0.652518
G1 X132.581 Y110.444 E.00449
;WIDTH:0.605037
G1 X132.548 Y110.487 E.00418
;WIDTH:0.557555
G1 X132.515 Y110.529 E.00375
;WIDTH:0.510074
G1 X132.482 Y110.572 E.00343
;WIDTH:0.462592
G1 X132.449 Y110.615 E.00306
;WIDTH:0.415111
G1 X132.377 Y110.596 E.00368
G1 X132.397 Y110.667 E.00365
G1 X132.438 Y110.656 E.0021
M204 S1000
;WIPE_START
G1 F8640
G1 X132.397 Y110.667 E-.0098
G1 X132.377 Y110.596 E-.01703
G1 X132.449 Y110.615 E-.01719
G1 X132.482 Y110.572 E-.01252
G1 X132.515 Y110.529 E-.01252
G1 X132.548 Y110.487 E-.01233
G1 X132.581 Y110.444 E-.01252
G1 X132.614 Y110.402 E-.01233
G1 X134.735 Y108.274 E-.69376
;WIPE_END
G1 Z.95 F720
G1 X136.126 Y108.648 F10800
G1 Z.55 F720
G1 E.8 F2100
M204 S2000
;WIDTH:0.7
G1 F3600
G1 X135.04 Y109.734 E.13965
G1 X140.528 Y109.734 E.49902
G1 X136.346 Y108.427 E.39841
M204 S1000
M106 S170.85
;LAYER_CHANGE
;Z:0.9
;HEIGHT:0.35
;BEFORE_LAYER_CHANGE
G92 E0.0
;0.9


;WIPE_START
G1 F8640
G1 X139.653 Y109.461 E-.8
;WIPE_END
G1 Z.9 F720
;AFTER_LAYER_CHANGE
;0.9
;CURRENT_Z: 0.9
; stop printing object suporte.stl id:0 copy 0
G1 Z1.3
G1 X140.945 Y105.326 F10800
G1 Z.9 F720
G1 E.8 F2100
;TYPE:Skirt/Brim
;WIDTH:0.42
G1 F3000
G1 X143.265 Y106.051 E.12198
G1 X144.45 Y106.832 E.07122
G1 X145.066 Y108.5 E.08924
G1 X145.066 Y111.5 E.15056
G1 X144.673 Y112.863 E.07119
G1 X143.617 Y113.81 E.07119
G1 X142.5 Y114.066 E.05751
G1 X107.5 Y114.066 E1.75651
G1 X106.137 Y113.673 E.07119
G1 X105.19 Y112.617 E.07119
G1 X104.934 Y111.5 E.05751
G1 X104.934 Y98.5 E.65242
G1 X105.327 Y97.137 E.07119
G1 X106.383 Y96.19 E.07119
G1 X107.5 Y95.934 E.05751
G1 X110.5 Y95.934 E.15056
G1 X111.265 Y96.051 E.03884
G1 X140.888 Y105.308 E1.55755
G1 X140.888 Y105.308 F10800
G1 X140.775 Y105.668
G1 F3000
G1 X143.153 Y106.411 E.12503
G1 X144.228 Y107.157 E.06567
G1 X144.688 Y108.5 E.07124
G1 X144.688 Y111.5 E.15056
G1 X144.298 Y112.748 E.06562
G1 X143.265 Y113.551 E.06566
G1 X142.5 Y113.689 E.03901
G1 X107.5 Y113.689 E1.75651
G1 X106.252 Y113.298 E.06563
G1 X105.449 Y112.265 E.06566
G1 X105.312 Y111.5 E.039
G1 X105.312 Y98.5 E.65242
G1 X105.702 Y97.252 E.06562
G1 X106.735 Y96.449 E.06566
G1 X107.5 Y96.311 E.03901
G1 X110.5 Y96.311 E.15056
G1 X111.153 Y96.411 E.03315
G1 X140.718 Y105.65 E1.55451
;WIPE_START
G1 F8640
M73 P6 R20
G1 X140.775 Y105.668 E-.0138
G1 X143.153 Y106.411 E-.57526
G1 X143.903 Y106.932 E-.21094
;WIPE_END
G1 Z1.3 F720
; printing object suporte.stl id:0 copy 0
G1 X141.76 Y109.044 F10800
G1 Z.9 F720
G1 E.8 F2100
M204 S800
;TYPE:Perimeter
;WIDTH:0.43
G1 F3000
G1 X141.76 Y109.771 E.03754
G1 X141.76 Y110.76 E.05107
G1 X108.24 Y110.76 E1.73101
G1 X108.24 Y99.24 E.5949
G1 X110.387 Y99.24 E.11087
G1 X141.703 Y109.026 E1.69431
M204 S1000
G1 X141.703 Y109.026 F10800
G1 X142.2 Y108.721
M204 S800
;TYPE:External perimeter
;WIDTH:0.6
G1 F2400
G1 X142.2 Y109.771 E.0802
G1 X142.2 Y111.2 E.10914
G1 X107.8 Y111.2 E2.62741
G1 X107.8 Y98.8 E.94709
G1 X110.454 Y98.8 E.20271
G1 X142.143 Y108.703 E2.53578
M204 S1000
;WIPE_START
G1 F8640
G1 X142.2 Y108.721 E-.0138
G1 X142.2 Y109.771 E-.24245
G1 X142.2 Y111.2 E-.32996
G1 X141.274 Y111.2 E-.21379
;WIPE_END
G1 Z1.3 F720
G1 X108.523 Y109.814 F10800
G1 Z.9 F720
G1 E.8 F2100
M204 S2000
