; generated by PrusaSlicer 2.6.0-alpha6+linux-x64-GTK3 on 2023-05-08 at 03:33:29 UTC

; 

; external perimeters extrusion width = 0.60mm
; perimeters extrusion width = 0.43mm
; infill extrusion width = 0.45mm
; solid infill extrusion width = 0.70mm
; top infill extrusion width = 0.45mm
; first layer extrusion width = 0.42mm

M73 P0 R21
M201 X9000 Y9000 Z500 E10000 ; sets maximum accelerations, mm/sec^2
M203 X500 Y500 Z12 E120 ; sets maximum feedrates, mm / sec
M204 S2000 T1500 ; sets acceleration (S) and retract acceleration (R), mm/sec^2
M205 X10.00 Y10.00 Z0.20 E4.50 ; sets the jerk limits, mm/sec
M205 S0 T0 ; sets the minimum extruding and travel feed rate, mm/sec
;TYPE:Custom
M862.3 P "MK2.5" ; printer model check
M862.1 P0.4 ; nozzle diameter check
M115 U3.11.0 ; tell printer latest fw version
G90 ; use absolute coordinates
M83 ; extruder relative mode
M104 S215 ; set extruder temp
M140 S60 ; set bed temp
M190 S60 ; wait for bed temp
M109 S215 ; wait for extruder temp
G28 W ; home all without mesh bed level
G80 ; mesh bed leveling

G1 Z0.2 F720
G1 Y-3 F1000 ; go outside print area
G92 E0
G1 X60 E9 F1000 ; intro line
G1 X100 E12.5 F1000 ; intro line

G92 E0
G21 ; set units to millimeters
G90 ; use absolute coordinates
M83 ; use relative distances for extrusion
M900 K0.05 ; Filament gcode LA 1.5
M900 K30 ; Filament gcode LA 1.0
M107
;LAYER_CHANGE
;Z:0.2
;HEIGHT:0.2
;BEFORE_LAYER_CHANGE
G92 E0.0
;0.2


G1 E-.8 F2100
G1 Z.4 F720
;AFTER_LAYER_CHANGE
;0.2
;CURRENT_Z: 0.2
G1 X105.139 Y97.083 F10800
G1 Z.2 F720
G1 E.8 F2100
M204 S800
;TYPE:Skirt/Brim
;WIDTH:0.42
G1 F1200
G1 X106.205 Y96.069 E.04613
G1 X107.5 Y95.746 E.04185
G1 X110.5 Y95.746 E.09406
G1 X111.321 Y95.871 E.02604
G1 X143.321 Y105.871 E1.05119
G1 X144.557 Y106.669 E.04613
G1 X145.254 Y108.5 E.06143
G1 X145.254 Y111.5 E.09406
G1 X144.861 Y112.917 E.04611
G1 X143.795 Y113.931 E.04613
G1 X142.5 Y114.254 E.04185
G1 X107.5 Y114.254 E1.0974
G1 X106.083 Y113.861 E.04611
G1 X105.069 Y112.795 E.04613
G1 X104.746 Y111.5 E.04185
G1 X104.746 Y98.5 E.40761
G1 X105.123 Y97.14 E.04425
M204 S1000
G1 X105.497 Y97.252 F10800
M204 S800
G1 F1200
G1 X105.515 Y97.193 E.00193
G1 X106.56 Y96.317 E.04275
G1 X107.5 Y96.123 E.03009
G1 X110.5 Y96.123 E.09406
G1 X111.209 Y96.231 E.02249
G1 X143.209 Y106.231 E1.05119
G1 X144.34 Y106.995 E.04279
M73 P1 R21
G1 X144.877 Y108.5 E.0501
G1 X144.877 Y111.5 E.09406
G1 X144.485 Y112.807 E.04278
G1 X143.44 Y113.683 E.04275
G1 X142.5 Y113.877 E.03009
G1 X107.5 Y113.877 E1.0974
G1 X106.193 Y113.485 E.04278
G1 X105.317 Y112.44 E.04275
G1 X105.123 Y111.5 E.03009
G1 X105.123 Y98.5 E.40761
G1 X105.48 Y97.31 E.03895
M204 S1000
; printing object suporte.stl id:0 copy 0
;WIPE_START
G1 F8640
G1 X105.515 Y97.193 E-.0282
G1 X106.56 Y96.317 E-.31486
G1 X107.5 Y96.123 E-.22162
G1 X108.519 Y96.123 E-.23532
;WIPE_END
G1 Z.6 F720
G1 X108.287 Y99.287 F10800
G1 Z.2 F720
G1 E.8 F2100
M204 S800
;TYPE:Perimeter
;WIDTH:0.419999
G1 F1200
G1 X110.38 Y99.287 E.06562
G1 X141.713 Y109.079 E1.02928
G1 X141.713 Y110.713 E.05123
G1 X108.287 Y110.713 E1.04805
G1 X108.287 Y99.347 E.35637
M204 S1000
G1 X107.91 Y98.91 F10800
M204 S800
;TYPE:External perimeter
G1 F1200
G1 X110.437 Y98.91 E.07923
G1 X142.09 Y108.802 E1.03979
G1 X142.09 Y111.09 E.07174
G1 X107.91 Y111.09 E1.07169
G1 X107.91 Y98.97 E.38001
M204 S1000
G1 X108.307 Y98.956 F10800
;WIPE_START
M73 P2 R21
G1 F8640
G1 X110.437 Y98.91 E-.58366
G1 X111.331 Y99.189 E-.21634
;WIPE_END
G1 Z.6 F720
G1 X140.482 Y108.813 F10800
G1 Z.2 F720
G1 E.8 F2100
M204 S800
;TYPE:Solid infill
;WIDTH:0.42049
G1 F1200
G1 X141.43 Y109.761 E.04209
G1 X141.43 Y110.295 E.01676
G1 X139.964 Y108.829 E.06509
G1 X139.187 Y108.586 E.02556
G1 X141.032 Y110.43 E.08189
G1 X140.498 Y110.43 E.01676
G1 X138.411 Y108.343 E.09266
G1 X137.634 Y108.1 E.02556
G1 X139.964 Y110.43 E.10345
G1 X139.43 Y110.43 E.01676
G1 X136.857 Y107.858 E.11422
G1 X136.081 Y107.615 E.02553
G1 X138.896 Y110.43 E.12498
G1 X138.362 Y110.43 E.01676
G1 X135.304 Y107.372 E.13577
G1 X134.527 Y107.13 E.02555
G1 X137.828 Y110.43 E.14654
G1 X137.294 Y110.43 E.01676
G1 X133.751 Y106.887 E.15731
G1 X132.974 Y106.644 E.02556
G1 X136.76 Y110.43 E.1681
G1 X136.226 Y110.43 E.01676
G1 X132.197 Y106.401 E.17888
G1 X131.421 Y106.159 E.02552
G1 X135.692 Y110.43 E.18963
G1 X135.158 Y110.43 E.01676
G1 X130.644 Y105.916 E.20042
G1 X129.867 Y105.673 E.02556
G1 X134.624 Y110.43 E.21121
G1 X134.09 Y110.43 E.01676
G1 X129.091 Y105.431 E.22195
G1 X128.314 Y105.188 E.02556
G1 X133.556 Y110.43 E.23274
G1 X133.022 Y110.43 E.01676
G1 X127.537 Y104.945 E.24353
G1 X126.761 Y104.702 E.02553
G1 X132.488 Y110.43 E.2543
G1 X131.954 Y110.43 E.01676
G1 X125.984 Y104.46 E.26506
G1 X125.207 Y104.217 E.02556
G1 X131.42 Y110.43 E.27585
G1 X130.886 Y110.43 E.01676
G1 X124.431 Y103.974 E.28662
G1 X123.654 Y103.732 E.02555
G1 X130.352 Y110.43 E.29739
G1 X129.818 Y110.43 E.01676
G1 X122.877 Y103.489 E.30818
G1 X122.1 Y103.246 E.02556
G1 X129.284 Y110.43 E.31896
G1 X128.751 Y110.43 E.01673
G1 X121.324 Y103.003 E.32975
G1 X120.547 Y102.761 E.02555
G1 X128.217 Y110.43 E.34052
G1 X127.683 Y110.43 E.01676
G1 X119.77 Y102.518 E.35131
G1 X118.994 Y102.275 E.02553
G1 X127.149 Y110.43 E.36208
G1 X126.615 Y110.43 E.01676
G1 X118.217 Y102.033 E.37284
G1 X117.44 Y101.79 E.02556
G1 X126.081 Y110.43 E.38363
G1 X125.547 Y110.43 E.01676
G1 X116.664 Y101.547 E.3944
G1 X115.887 Y101.304 E.02556
M73 P3 R21
G1 X125.013 Y110.43 E.40519
G1 X124.479 Y110.43 E.01676
G1 X115.11 Y101.062 E.41596
G1 X114.334 Y100.819 E.02553
G1 X123.945 Y110.43 E.42672
G1 X123.411 Y110.43 E.01676
G1 X113.557 Y100.576 E.43751
G1 X112.78 Y100.334 E.02555
M73 P3 R20
G1 X122.877 Y110.43 E.44828
G1 X122.343 Y110.43 E.01676
G1 X112.004 Y100.091 E.45904
G1 X111.227 Y99.848 E.02556
G1 X121.809 Y110.43 E.46983
G1 X121.275 Y110.43 E.01676
G1 X110.45 Y99.605 E.48062
G1 X110.337 Y99.57 E.00371
G1 X109.881 Y99.57 E.01432
G1 X120.741 Y110.43 E.48218
G1 X120.207 Y110.43 E.01676
G1 X109.347 Y99.57 E.48218
G1 X108.813 Y99.57 E.01676
G1 X119.673 Y110.43 E.48218
G1 X119.139 Y110.43 E.01676
G1 X108.57 Y99.861 E.46926
G1 X108.57 Y100.395 E.01676
G1 X118.605 Y110.43 E.44555
G1 X118.071 Y110.43 E.01676
G1 X108.57 Y100.929 E.42184
G1 X108.57 Y101.463 E.01676
G1 X117.537 Y110.43 E.39813
G1 X117.003 Y110.43 E.01676
G1 X108.57 Y101.997 E.37442
G1 X108.57 Y102.531 E.01676
G1 X116.469 Y110.43 E.35071
G1 X115.935 Y110.43 E.01676
G1 X108.57 Y103.065 E.327
G1 X108.57 Y103.599 E.01676
M73 P4 R20
G1 X115.401 Y110.43 E.30329
G1 X114.867 Y110.43 E.01676
G1 X108.57 Y104.133 E.27958
G1 X108.57 Y104.667 E.01676
G1 X114.333 Y110.43 E.25587
G1 X113.799 Y110.43 E.01676
G1 X108.57 Y105.201 E.23216
G1 X108.57 Y105.735 E.01676
G1 X113.266 Y110.43 E.20848
G1 X112.732 Y110.43 E.01676
G1 X108.57 Y106.268 E.18479
G1 X108.57 Y106.802 E.01676
G1 X112.198 Y110.43 E.16108
G1 X111.664 Y110.43 E.01676
G1 X108.57 Y107.336 E.13737
G1 X108.57 Y107.87 E.01676
G1 X111.13 Y110.43 E.11366
G1 X110.596 Y110.43 E.01676
G1 X108.57 Y108.404 E.08995
G1 X108.57 Y108.938 E.01676
G1 X110.062 Y110.43 E.06624
G1 X109.528 Y110.43 E.01676
G1 X108.57 Y109.472 E.04253
G1 X108.57 Y110.006 E.01676
G1 X109.164 Y110.6 E.02637
M204 S1000
; stop printing object suporte.stl id:0 copy 0
M106 S84.15
;LAYER_CHANGE
;Z:0.55
;HEIGHT:0.35
;BEFORE_LAYER_CHANGE
G92 E0.0
;0.55


;WIPE_START
G1 F8640
G1 X108.57 Y110.006 E-.19397
G1 X108.57 Y109.472 E-.1233
G1 X109.528 Y110.43 E-.31283
G1 X110.062 Y110.43 E-.1233
G1 X109.919 Y110.287 E-.0466
;WIPE_END
G1 Z.6 F720
;AFTER_LAYER_CHANGE
;0.55
;CURRENT_Z: 0.55
M104 S210 ; set temperature
G1 X109.919 Y114.254 F10800
G1 Z.55 F720
G1 E.8 F2100
;TYPE:Skirt/Brim
;WIDTH:0.42
G1 F3000
G1 X107.5 Y114.254 E.1214
G1 X106.083 Y113.861 E.0738
G1 X105.069 Y112.795 E.07384
G1 X104.746 Y111.5 E.06698
G1 X104.746 Y98.5 E.65242
G1 X105.139 Y97.083 E.0738
G1 X106.205 Y96.069 E.07384
G1 X107.5 Y95.746 E.06698
G1 X110.5 Y95.746 E.15056
G1 X111.321 Y95.871 E.04168
G1 X143.321 Y105.871 E1.68254
G1 X144.557 Y106.669 E.07383
G1 X145.254 Y108.5 E.09832
G1 X145.254 Y111.5 E.15056
G1 X144.861 Y112.917 E.0738
G1 X143.795 Y113.931 E.07384
G1 X142.5 Y114.254 E.06698
G1 X109.979 Y114.254 E1.6321
G1 X109.979 Y113.877 F10800
G1 F3000
G1 X107.5 Y113.877 E.12441
G1 X106.193 Y113.485 E.06848
G1 X105.317 Y112.44 E.06843
G1 X105.123 Y111.5 E.04817
G1 X105.123 Y98.5 E.65242
G1 X105.515 Y97.193 E.06848
G1 X106.56 Y96.317 E.06843
G1 X107.5 Y96.123 E.04817
G1 X110.5 Y96.123 E.15056
G1 X111.209 Y96.231 E.03599
G1 X143.209 Y106.231 E1.68254
G1 X144.34 Y106.995 E.0685
G1 X144.877 Y108.5 E.08019
G1 X144.877 Y111.5 E.15056
G1 X144.485 Y112.807 E.06848
G1 X143.44 Y113.683 E.06843
G1 X142.5 Y113.877 E.04817
G1 X110.039 Y113.877 E1.62908
; printing object suporte.stl id:0 copy 0
;WIPE_START
G1 F8640
G1 X107.5 Y113.877 E-.58626
G1 X106.613 Y113.611 E-.21374
;WIPE_END
G1 Z.95 F720
G1 X108.24 Y99.24 F10800
G1 Z.55 F720
G1 E.8 F2100
M204 S800
;TYPE:Perimeter
;WIDTH:0.43
G1 F3000
G1 X110.387 Y99.24 E.11087
G1 X141.76 Y109.044 E1.6974
G1 X141.76 Y110.76 E.08862
G1 X108.24 Y110.76 E1.73101
G1 X108.24 Y99.3 E.59181
M204 S1000
G1 X107.8 Y98.8 F10800
M204 S800
;TYPE:External perimeter
;WIDTH:0.6
G1 F2400
G1 X110.454 Y98.8 E.20271
G1 X142.2 Y108.721 E2.54035
G1 X142.2 Y111.2 E.18934
G1 X107.8 Y111.2 E2.62741
G1 X107.8 Y98.86 E.94251
M204 S1000
M73 P5 R20
G1 X108.197 Y98.846 F10800
;WIPE_START
G1 F8640
G1 X110.454 Y98.8 E-.61297
G1 X111.227 Y99.042 E-.18703
;WIPE_END
G1 Z.95 F720
G1 X141.64 Y109.362 F10800
G1 Z.55 F720
G1 E.8 F2100
M204 S2000
;TYPE:Solid infill
;WIDTH:0.707058
G1 F3335
G1 X140.643 Y110.359 E.12966
G1 X139.749 Y110.359 E.08221
G1 X140.91 Y109.199 E.15092
G1 X140.229 Y108.986 E.06561
G1 X138.856 Y110.359 E.17855
G1 X137.962 Y110.359 E.08221
G1 X139.548 Y108.773 E.20625
G1 X138.867 Y108.56 E.06561
G1 X137.068 Y110.359 E.23395
G1 X136.175 Y110.359 E.08212
G1 X138.186 Y108.347 E.26159
G1 X137.505 Y108.135 E.06559
G1 X135.281 Y110.359 E.28922
G1 X134.387 Y110.359 E.08221
G1 X136.824 Y107.922 E.31692
G1 X136.143 Y107.709 E.06561
G1 X133.493 Y110.359 E.34462
G1 X132.6 Y110.359 E.08212
G1 X135.462 Y107.496 E.37226
G1 X134.781 Y107.284 E.06559
G1 X131.706 Y110.359 E.39989
G1 X130.812 Y110.359 E.08221
G1 X134.101 Y107.071 E.42766
G1 X133.42 Y106.858 E.06561
G1 X129.919 Y110.359 E.45529
G1 X129.025 Y110.359 E.08221
G1 X132.739 Y106.645 E.48299
G1 X132.058 Y106.432 E.06561
G1 X128.131 Y110.359 E.51069
G1 X127.238 Y110.359 E.08212
G1 X131.377 Y106.22 E.53826
G1 X130.696 Y106.007 E.06561
G1 X126.344 Y110.359 E.56596
G1 X125.45 Y110.359 E.08221
G1 X130.015 Y105.794 E.59366
G1 X129.334 Y105.581 E.06561
G1 X124.556 Y110.359 E.62136
G1 X123.663 Y110.359 E.08212
G1 X128.653 Y105.368 E.649
G1 X127.972 Y105.156 E.06559
G1 X122.769 Y110.359 E.67663
G1 X121.875 Y110.359 E.08221
G1 X127.291 Y104.943 E.70433
G1 X126.61 Y104.73 E.06561
G1 X120.982 Y110.359 E.73197
G1 X120.088 Y110.359 E.08221
G1 X125.93 Y104.517 E.75973
G1 X125.249 Y104.304 E.06561
G1 X119.194 Y110.359 E.78743
G1 X118.3 Y110.359 E.08221
G1 X124.568 Y104.092 E.81506
G1 X123.887 Y103.879 E.06561
G1 X117.407 Y110.359 E.8427
G1 X116.513 Y110.359 E.08221
G1 X123.206 Y103.666 E.8704
G1 X122.525 Y103.453 E.06561
G1 X115.619 Y110.359 E.8981
G1 X114.726 Y110.359 E.08212
G1 X121.844 Y103.241 E.92567
G1 X121.163 Y103.028 E.06561
G1 X113.832 Y110.359 E.95337
G1 X112.938 Y110.359 E.08221
G1 X120.482 Y102.815 E.98107
G1 X119.801 Y102.602 E.06561
G1 X112.044 Y110.359 E1.00877
G1 X111.151 Y110.359 E.08212
G1 X119.12 Y102.389 E1.0364
G1 X118.439 Y102.177 E.06559
G1 X110.257 Y110.359 E1.06404
G1 X109.363 Y110.359 E.08221
G1 X117.759 Y101.964 E1.0918
G1 X117.078 Y101.751 E.06561
G1 X108.641 Y110.188 E1.0972
G1 X108.641 Y109.294 E.08221
G1 X116.397 Y101.538 E1.00864
G1 X115.716 Y101.325 E.06561
G1 X108.641 Y108.4 E.92008
G1 X108.641 Y107.506 E.08221
G1 X115.035 Y101.113 E.83145
G1 X114.354 Y100.9 E.06561
G1 X108.641 Y106.613 E.74295
G1 X108.641 Y105.719 E.08221
G1 X113.673 Y100.687 E.65439
G1 X112.992 Y100.474 E.06561
G1 X108.641 Y104.825 E.56583
G1 X108.641 Y103.932 E.08212
G1 X112.311 Y100.261 E.47733
G1 X111.63 Y100.049 E.06559
G1 X108.641 Y103.038 E.38871
G1 X108.641 Y102.144 E.08221
G1 X110.949 Y99.836 E.30015
G1 X110.326 Y99.641 E.06003
G1 X110.25 Y99.641 E.00699
G1 X108.641 Y101.25 E.20924
G1 X108.641 Y100.357 E.08212
G1 X109.638 Y99.36 E.12966
M204 S1000
; stop printing object suporte.stl id:0 copy 0
M106 S170.85
;LAYER_CHANGE
;Z:0.9
;HEIGHT:0.35
;BEFORE_LAYER_CHANGE
G92 E0.0
;0.9


;WIPE_START
G1 F8640
G1 X108.641 Y100.357 E-.32557
G1 X108.641 Y101.25 E-.2062
G1 X109.462 Y100.429 E-.26823
;WIPE_END
G1 Z.95 F720
;AFTER_LAYER_CHANGE
;0.9
;CURRENT_Z: 0.9
G1 X109.462 Y95.746 F10800
G1 Z.9 F720
G1 E.8 F2100
;TYPE:Skirt/Brim
;WIDTH:0.42
G1 F3000
G1 X110.5 Y95.746 E.05209
G1 X111.321 Y95.871 E.04168
G1 X143.321 Y105.871 E1.68254
G1 X144.557 Y106.669 E.07383
G1 X145.254 Y108.5 E.09832
G1 X145.254 Y111.5 E.15056
G1 X144.861 Y112.917 E.0738
G1 X143.795 Y113.931 E.07384
G1 X142.5 Y114.254 E.06698
G1 X107.5 Y114.254 E1.75651
G1 X106.083 Y113.861 E.0738
G1 X105.069 Y112.795 E.07384
G1 X104.746 Y111.5 E.06698
G1 X104.746 Y98.5 E.65242
G1 X105.139 Y97.083 E.0738
G1 X106.205 Y96.069 E.07384
G1 X107.5 Y95.746 E.06698
G1 X109.402 Y95.746 E.09545
G1 X109.402 Y96.123 F10800
G1 F3000
G1 X110.5 Y96.123 E.0551
G1 X111.209 Y96.231 E.03599
G1 X143.209 Y106.231 E1.68254
G1 X144.34 Y106.995 E.0685
G1 X144.877 Y108.5 E.08019
G1 X144.877 Y111.5 E.15056
G1 X144.485 Y112.807 E.06848
G1 X143.44 Y113.683 E.06843
G1 X142.5 Y113.877 E.04817
G1 X107.5 Y113.877 E1.75651
G1 X106.193 Y113.485 E.06848
M73 P6 R20
G1 X105.317 Y112.44 E.06843
G1 X105.123 Y111.5 E.04817
G1 X105.123 Y98.5 E.65242
G1 X105.515 Y97.193 E.06848
G1 X106.56 Y96.317 E.06843
G1 X107.5 Y96.123 E.04817
G1 X109.342 Y96.123 E.09244
; printing object suporte.stl id:0 copy 0
;WIPE_START
G1 F8640
G1 X110.5 Y96.123 E-.26739
G1 X111.209 Y96.231 E-.1656
G1 X112.726 Y96.705 E-.36701
;WIPE_END
G1 Z1.3 F720
G1 X108.24 Y99.24 F10800
G1 Z.9 F720
G1 E.8 F2100
M204 S800
;TYPE:Perimeter
;WIDTH:0.43
G1 F3000
G1 X110.387 Y99.24 E.11087
G1 X141.76 Y109.044 E1.6974
G1 X141.76 Y110.76 E.08862
G1 X108.24 Y110.76 E1.73101
G1 X108.24 Y99.3 E.59181
M204 S1000
G1 X107.8 Y98.8 F10800
M204 S800
;TYPE:External perimeter
;WIDTH:0.6
G1 F2400
G1 X110.454 Y98.8 E.20271
G1 X142.2 Y108.721 E2.54035
G1 X142.2 Y111.2 E.18934
G1 X107.8 Y111.2 E2.62741
G1 X107.8 Y98.86 E.94251
M204 S1000
G1 X108.197 Y98.846 F10800
;WIPE_START
G1 F8640
G1 X110.454 Y98.8 E-.61297
G1 X111.227 Y99.042 E-.18703
;WIPE_END
G1 Z1.3 F720
G1 X139.766 Y108.547 F10800
G1 Z.9 F720
G1 E.8 F2100
M204 S2000
;TYPE:Solid infill
;WIDTH:0.707967
G1 F3275
G1 X141.359 Y110.139 E.2074
G1 X141.359 Y110.359 E.02026
G1 X140.683 Y110.359 E.06225
G1 X138.893 Y108.568 E.23318
G1 X137.591 Y108.162 E.12559
G1 X139.788 Y110.359 E.28612
G1 X138.893 Y110.359 E.08242
G1 X136.289 Y107.755 E.33913
G1 X134.987 Y107.348 E.12562
G1 X137.998 Y110.359 E.39213
G1 X137.103 Y110.359 E.08242
G1 X133.686 Y106.941 E.44507
G1 X132.384 Y106.534 E.12562
G1 X136.208 Y110.359 E.49808
G1 X135.313 Y110.359 E.08242
G1 X131.082 Y106.127 E.55108
G1 X129.78 Y105.721 E.12559
G1 X134.418 Y110.359 E.60402
G1 X133.523 Y110.359 E.08242
G1 X128.478 Y105.314 E.65703
G1 X127.177 Y104.907 E.12553
G1 X132.628 Y110.359 E.70997
G1 X131.733 Y110.359 E.08242
G1 X125.875 Y104.5 E.76297
G1 X124.573 Y104.093 E.12562
G1 X130.838 Y110.359 E.81598
G1 X129.944 Y110.359 E.08233
G1 X123.271 Y103.686 E.86905
G1 X121.969 Y103.28 E.12559
G1 X129.049 Y110.359 E.92199
G1 X128.154 Y110.359 E.08242
G1 X120.667 Y102.873 E.97499
G1 X119.366 Y102.466 E.12553
G1 X127.259 Y110.359 E1.02793
G1 X126.364 Y110.359 E.08242
G1 X118.064 Y102.059 E1.08094
G1 X116.762 Y101.652 E.12562
G1 X125.469 Y110.359 E1.13394
G1 X124.574 Y110.359 E.08242
G1 X115.46 Y101.246 E1.18688
G1 X114.158 Y100.839 E.12562
G1 X123.679 Y110.359 E1.23989
G1 X122.784 Y110.359 E.08242
G1 X112.857 Y100.432 E1.29283
G1 X111.555 Y100.025 E.12562
G1 X121.889 Y110.359 E1.34583
G1 X120.994 Y110.359 E.08242
G1 X110.276 Y99.641 E1.39584
G1 X109.381 Y99.641 E.08242
