; generated by PrusaSlicer 2.2.0+linux-x64 on 2021-01-31 at 05:15:41 UTC

; 

; external perimeters extrusion width = 0.60mm
; perimeters extrusion width = 0.43mm
; infill extrusion width = 0.45mm
; solid infill extrusion width = 0.70mm
; top infill extrusion width = 0.43mm
; first layer extrusion width = 0.42mm

M73 P0 R30
M201 X9000 Y9000 Z500 E10000 ; sets maximum accelerations, mm/sec^2
M203 X500 Y500 Z12 E120 ; sets maximum feedrates, mm/sec
M204 P2000 R1500 T2000 ; sets acceleration (P, T) and retract acceleration (R), mm/sec^2
M205 X10.00 Y10.00 Z0.20 E4.50 ; sets the jerk limits, mm/sec
M205 S0 T0 ; sets the minimum extruding and travel feed rate, mm/sec
M107
M862.3 P "MK2.5" ; printer model check
M862.1 P0.4 ; nozzle diameter check
M115 U3.9.1 ; tell printer latest fw version
G90 ; use absolute coordinates
M83 ; extruder relative mode
M104 S215 ; set extruder temp
M140 S60 ; set bed temp
M190 S60 ; wait for bed temp
M109 S215 ; wait for extruder temp
G28 W ; home all without mesh bed level
G80 ; mesh bed leveling
G1 Y-3.0 F1000.0 ; go outside print area
G92 E0.0
G1 X60.0 E9.0 F1000.0 ; intro line
M73 P0 R29
G1 X100.0 E12.5 F1000.0 ; intro line
G92 E0.0
G21 ; set units to millimeters
G90 ; use absolute coordinates
M83 ; use relative distances for extrusion
M900 K0.05 ; Filament gcode LA 1.5
M900 K30 ; Filament gcode LA 1.0
;BEFORE_LAYER_CHANGE
G92 E0.0
;0.2


G1 E-0.80000 F2100.00000
G1 Z0.600 F10800.000
;AFTER_LAYER_CHANGE
;0.2
;CURRENT_Z: 0.2
G1 X105.542 Y96.563
G1 Z0.200
G1 E0.80000 F2100.00000
M204 S1000
G1 F1200.000
G1 X106.082 Y96.139 E0.02154
G1 X106.711 Y95.861 E0.02154
G1 X107.434 Y95.747 E0.02294
G1 X111.504 Y95.746 E0.12762
G1 X112.265 Y95.854 E0.02409
G1 X143.748 Y105.045 E1.02832
G1 X144.289 Y105.406 E0.02039
G1 X144.730 Y105.883 E0.02039
G1 X145.045 Y106.448 E0.02026
G1 X145.221 Y107.074 E0.02039
G1 X145.251 Y111.627 E0.14277
G1 X145.162 Y112.205 E0.01835
G1 X144.955 Y112.748 E0.01822
G1 X144.537 Y113.354 E0.02307
G1 X143.977 Y113.825 E0.02294
G1 X143.313 Y114.132 E0.02294
G1 X142.587 Y114.253 E0.02307
G1 X107.475 Y114.254 E1.10089
G1 X106.846 Y114.175 E0.01988
G1 X106.252 Y113.955 E0.01988
G1 X105.677 Y113.564 E0.02180
G1 X105.216 Y113.039 E0.02192
G1 X104.903 Y112.418 E0.02180
G1 X104.756 Y111.734 E0.02192
G1 X104.746 Y98.480 E0.41559
G1 X104.854 Y97.735 E0.02358
G1 X105.126 Y97.104 E0.02154
G1 X105.506 Y96.610 E0.01953
G1 F8640.000
G1 X106.082 Y96.139 E-0.17209
G1 X106.711 Y95.861 E-0.15863
G1 X107.434 Y95.747 E-0.16896
G1 X108.561 Y95.746 E-0.26032
G1 E-0.04000 F2100.00000
G1 Z0.800 F10800.000
G1 X105.217 Y97.838
G1 Z0.200
G1 E0.80000 F2100.00000
G1 F1200.000
G1 X105.459 Y97.281 E0.01906
G1 X105.832 Y96.806 E0.01894
G1 X106.316 Y96.439 E0.01906
G1 X106.874 Y96.207 E0.01894
G1 X107.457 Y96.123 E0.01846
G1 X111.504 Y96.123 E0.12688
G1 X112.158 Y96.216 E0.02071
G1 X143.556 Y105.370 E1.02546
G1 X144.033 Y105.683 E0.01787
G1 X144.421 Y106.100 E0.01787
G1 X144.699 Y106.598 E0.01787
G1 X144.851 Y107.147 E0.01787
G1 X144.875 Y111.599 E0.13958
G1 X144.803 Y112.088 E0.01550
G1 X144.630 Y112.555 E0.01562
G1 X144.270 Y113.086 E0.02012
G1 X143.781 Y113.502 E0.02012
G1 X143.199 Y113.772 E0.02012
G1 X142.566 Y113.876 E0.02012
G1 X107.485 Y113.877 E1.09994
G1 X106.949 Y113.812 E0.01692
G1 X106.445 Y113.630 E0.01680
G1 X105.936 Y113.290 E0.01917
G1 X105.529 Y112.829 E0.01929
G1 X105.255 Y112.282 E0.01917
G1 X105.130 Y111.684 E0.01917
G1 X105.123 Y98.485 E0.41384
G1 X105.208 Y97.898 E0.01860
G1 F8640.000
G1 X105.459 Y97.281 E-0.15375
G1 X105.832 Y96.806 E-0.13946
G1 X106.316 Y96.439 E-0.14034
G1 X106.874 Y96.207 E-0.13946
G1 X107.457 Y96.123 E-0.13597
G1 X107.678 Y96.123 E-0.05101
G1 E-0.04000 F2100.00000
G1 Z0.800 F10800.000
G1 X108.287 Y99.287
G1 Z0.200
G1 E0.80000 F2100.00000
G1 F1200.000
G1 X111.388 Y99.287 E0.09723
G1 X141.713 Y108.091 E0.99007
G1 X141.713 Y110.713 E0.08221
G1 X108.287 Y110.713 E1.04804
G1 X108.287 Y99.347 E0.35637
G1 X107.910 Y98.910 F10800.000
G1 F1200.000
G1 X111.442 Y98.910 E0.11073
G1 X142.090 Y107.808 E1.00064
G1 X142.090 Y111.090 E0.10291
G1 X107.910 Y111.090 E1.07169
G1 X107.910 Y98.970 E0.38001
G1 X108.307 Y98.956 F10800.000
G1 F8640.000
G1 X111.201 Y98.914 E-0.76000
G1 E-0.04000 F2100.00000
G1 Z0.800 F10800.000
G1 X141.600 Y108.954
G1 Z0.200
G1 E0.80000 F2100.00000
G1 F1200.000
G1 X140.752 Y108.107 E0.03812
G1 X139.990 Y107.885 E0.02523
G1 X141.430 Y109.325 E0.06476
G1 X141.430 Y109.866 E0.01720
G1 X139.228 Y107.664 E0.09903
G1 X138.466 Y107.443 E0.02523
G1 X141.430 Y110.407 E0.13330
G1 X141.430 Y110.430 E0.00073
G1 X140.912 Y110.430 E0.01646
G1 X137.704 Y107.222 E0.14428
G1 X136.942 Y107.000 E0.02523
G1 X140.372 Y110.430 E0.15423
G1 X139.831 Y110.430 E0.01720
G1 X136.180 Y106.779 E0.16418
G1 X135.418 Y106.558 E0.02523
G1 X139.290 Y110.430 E0.17413
G1 X138.749 Y110.430 E0.01720
G1 X134.656 Y106.337 E0.18408
G1 X133.894 Y106.115 E0.02523
G1 X138.208 Y110.430 E0.19403
G1 X137.667 Y110.430 E0.01720
G1 X133.131 Y105.894 E0.20398
G1 X132.369 Y105.673 E0.02523
G1 X137.127 Y110.430 E0.21393
G1 X136.586 Y110.430 E0.01720
G1 X131.607 Y105.452 E0.22388
G1 X130.845 Y105.230 E0.02523
G1 X136.045 Y110.430 E0.23383
G1 X135.504 Y110.430 E0.01720
G1 X130.083 Y105.009 E0.24378
G1 X129.321 Y104.788 E0.02523
G1 X134.963 Y110.430 E0.25373
G1 X134.423 Y110.430 E0.01720
G1 X128.559 Y104.567 E0.26367
G1 X127.797 Y104.345 E0.02523
G1 X133.882 Y110.430 E0.27362
G1 X133.341 Y110.430 E0.01720
G1 X127.035 Y104.124 E0.28357
G1 X126.273 Y103.903 E0.02523
G1 X132.800 Y110.430 E0.29352
G1 X132.259 Y110.430 E0.01720
G1 X125.511 Y103.682 E0.30347
G1 X124.749 Y103.460 E0.02523
G1 X131.718 Y110.430 E0.31342
G1 X131.178 Y110.430 E0.01720
G1 X123.987 Y103.239 E0.32337
G1 X123.225 Y103.018 E0.02523
G1 X130.637 Y110.430 E0.33332
G1 X130.096 Y110.430 E0.01720
G1 X122.463 Y102.797 E0.34327
G1 X121.701 Y102.575 E0.02523
G1 X129.555 Y110.430 E0.35322
G1 X129.014 Y110.430 E0.01720
G1 X120.938 Y102.354 E0.36317
G1 X120.176 Y102.133 E0.02523
G1 X128.474 Y110.430 E0.37312
G1 X127.933 Y110.430 E0.01720
G1 X119.414 Y101.912 E0.38306
G1 X118.652 Y101.691 E0.02523
G1 X127.392 Y110.430 E0.39301
G1 X126.851 Y110.430 E0.01720
G1 X117.890 Y101.469 E0.40296
G1 X117.128 Y101.248 E0.02523
G1 X126.310 Y110.430 E0.41291
G1 X125.769 Y110.430 E0.01720
G1 X116.366 Y101.027 E0.42286
G1 X115.604 Y100.806 E0.02523
G1 X125.229 Y110.430 E0.43281
G1 X124.688 Y110.430 E0.01720
G1 X114.842 Y100.584 E0.44276
G1 X114.080 Y100.363 E0.02523
G1 X124.147 Y110.430 E0.45271
G1 X123.606 Y110.430 E0.01720
G1 X113.318 Y100.142 E0.46266
G1 X112.556 Y99.921 E0.02523
G1 X123.065 Y110.430 E0.47261
G1 X122.524 Y110.430 E0.01720
G1 X111.794 Y99.699 E0.48256
G1 X111.348 Y99.570 E0.01476
G1 X111.123 Y99.570 E0.00714
G1 X121.984 Y110.430 E0.48838
G1 X121.443 Y110.430 E0.01720
G1 X110.583 Y99.570 E0.48838
G1 X110.042 Y99.570 E0.01720
G1 X120.902 Y110.430 E0.48838
G1 X120.361 Y110.430 E0.01720
G1 X109.501 Y99.570 E0.48838
G1 X108.960 Y99.570 E0.01720
G1 X119.820 Y110.430 E0.48838
G1 X119.280 Y110.430 E0.01720
G1 X108.570 Y99.720 E0.48161
G1 X108.570 Y100.261 E0.01720
G1 X118.739 Y110.430 E0.45729
G1 X118.198 Y110.430 E0.01720
G1 X108.570 Y100.802 E0.43297
G1 X108.570 Y101.343 E0.01720
G1 X117.657 Y110.430 E0.40865
G1 X117.116 Y110.430 E0.01720
G1 X108.570 Y101.884 E0.38433
G1 X108.570 Y102.425 E0.01720
G1 X116.575 Y110.430 E0.36001
G1 X116.035 Y110.430 E0.01720
G1 X108.570 Y102.965 E0.33569
G1 X108.570 Y103.506 E0.01720
G1 X115.494 Y110.430 E0.31137
G1 X114.953 Y110.430 E0.01720
G1 X108.570 Y104.047 E0.28705
G1 X108.570 Y104.588 E0.01720
G1 X114.412 Y110.430 E0.26273
G1 X113.871 Y110.430 E0.01720
G1 X108.570 Y105.129 E0.23841
G1 X108.570 Y105.669 E0.01720
G1 X113.331 Y110.430 E0.21408
G1 X112.790 Y110.430 E0.01720
G1 X108.570 Y106.210 E0.18976
G1 X108.570 Y106.751 E0.01720
G1 X112.249 Y110.430 E0.16544
G1 X111.708 Y110.430 E0.01720
G1 X108.570 Y107.292 E0.14112
G1 X108.570 Y107.833 E0.01720
G1 X111.167 Y110.430 E0.11680
G1 X110.626 Y110.430 E0.01720
G1 X108.570 Y108.374 E0.09248
G1 X108.570 Y108.914 E0.01720
G1 X110.086 Y110.430 E0.06816
G1 X109.545 Y110.430 E0.01720
G1 X108.570 Y109.455 E0.04384
G1 X108.570 Y109.996 E0.01720
G1 X109.174 Y110.600 E0.02715
M106 S255
;BEFORE_LAYER_CHANGE
G92 E0.0
;0.55


G1 F8640.000
G1 X108.570 Y109.996 E-0.19717
G1 X108.570 Y109.455 E-0.12488
G1 X109.545 Y110.430 E-0.31837
G1 X110.063 Y110.430 E-0.11958
G1 E-0.04000 F2100.00000
G1 Z0.800 F10800.000
;AFTER_LAYER_CHANGE
;0.55
;CURRENT_Z: 0.55
M104 S210 ; set temperature
G1 X105.677 Y113.564
G1 Z0.550
G1 E0.80000 F2100.00000
G1 F2361
G1 X105.216 Y113.039 E0.03509
G1 X104.903 Y112.418 E0.03489
G1 X104.756 Y111.734 E0.03509
G1 X104.746 Y98.480 E0.66520
G1 X104.854 Y97.735 E0.03774
G1 X105.126 Y97.104 E0.03448
G1 X105.542 Y96.563 E0.03427
G1 X106.082 Y96.139 E0.03448
G1 X106.711 Y95.861 E0.03448
G1 X107.434 Y95.747 E0.03672
G1 X111.504 Y95.746 E0.20428
G1 X112.265 Y95.854 E0.03856
G1 X143.748 Y105.045 E1.64594
G1 X144.289 Y105.406 E0.03264
G1 X144.730 Y105.883 E0.03264
G1 X145.045 Y106.448 E0.03244
G1 X145.221 Y107.074 E0.03264
G1 X145.251 Y111.627 E0.22851
G1 X145.162 Y112.205 E0.02937
G1 X144.955 Y112.748 E0.02916
G1 X144.537 Y113.354 E0.03693
G1 X143.977 Y113.825 E0.03672
G1 X143.313 Y114.132 E0.03672
G1 X142.587 Y114.253 E0.03693
G1 X107.475 Y114.254 E1.76210
G1 X106.846 Y114.175 E0.03182
G1 X106.252 Y113.955 E0.03182
G1 X105.726 Y113.598 E0.03188
G1 X105.936 Y113.290 F10800.000
G1 F2361
G1 X105.529 Y112.829 E0.03088
G1 X105.255 Y112.282 E0.03069
G1 X105.130 Y111.684 E0.03069
G1 X105.123 Y98.485 E0.66240
G1 X105.217 Y97.838 E0.03278
G1 X105.459 Y97.281 E0.03050
G1 X105.832 Y96.806 E0.03031
G1 X106.316 Y96.439 E0.03050
G1 X106.874 Y96.207 E0.03031
G1 X107.457 Y96.123 E0.02955
G1 X111.504 Y96.123 E0.20309
G1 X112.158 Y96.216 E0.03315
G1 X143.556 Y105.370 E1.64137
M73 P3 R28
G1 X144.033 Y105.683 E0.02860
G1 X144.421 Y106.100 E0.02860
G1 X144.699 Y106.598 E0.02860
G1 X144.851 Y107.147 E0.02860
G1 X144.875 Y111.599 E0.22342
G1 X144.803 Y112.088 E0.02481
G1 X144.630 Y112.555 E0.02500
G1 X144.270 Y113.086 E0.03221
G1 X143.781 Y113.502 E0.03221
G1 X143.199 Y113.772 E0.03221
G1 X142.566 Y113.876 E0.03221
G1 X107.485 Y113.877 E1.76058
G1 X106.949 Y113.812 E0.02709
G1 X106.445 Y113.630 E0.02690
G1 X105.986 Y113.324 E0.02768
G1 F8640.000
G1 X105.529 Y112.829 E-0.15551
G1 X105.255 Y112.282 E-0.14121
G1 X105.130 Y111.684 E-0.14121
G1 X105.129 Y110.289 E-0.32207
G1 E-0.04000 F2100.00000
G1 Z1.150 F10800.000
G1 X108.240 Y110.760
G1 Z0.550
G1 E0.80000 F2100.00000
M204 S800
G1 F2361
G1 X108.240 Y99.240 E0.59492
G1 X111.395 Y99.240 E0.16292
G1 X141.760 Y108.056 E1.63285
G1 X141.760 Y110.760 E0.13966
G1 X108.300 Y110.760 E1.72792
M204 S1000
G1 X107.800 Y111.200 F10800.000
M204 S800
G1 F2361
G1 X107.800 Y98.800 E0.94709
G1 X111.457 Y98.800 E0.27934
G1 X142.200 Y107.725 E2.44503
G1 X142.200 Y111.200 E0.26539
G1 X107.860 Y111.200 E2.62283
M204 S1000
G1 X107.988 Y110.847 F10800.000
G1 F8640.000
G1 X107.844 Y107.909 E-0.76000
G1 E-0.04000 F2100.00000
G1 Z1.150 F10800.000
G1 X140.392 Y110.674
G1 Z0.550
G1 E0.80000 F2100.00000
M204 S2000
G1 F2361
G1 X141.393 Y109.673 E0.13057
G1 X141.393 Y108.776 E0.08268
G1 X139.776 Y110.393 E0.21082
G1 X138.880 Y110.393 E0.08268
G1 X141.043 Y108.230 E0.28210
G1 X140.348 Y108.028 E0.06672
G1 X137.984 Y110.393 E0.30841
G1 X137.087 Y110.393 E0.08268
G1 X139.653 Y107.827 E0.33472
G1 X138.959 Y107.625 E0.06672
G1 X136.191 Y110.393 E0.36103
G1 X135.294 Y110.393 E0.08268
G1 X138.264 Y107.423 E0.38734
G1 X137.569 Y107.222 E0.06672
G1 X134.398 Y110.393 E0.41365
G1 X133.502 Y110.393 E0.08268
G1 X136.874 Y107.020 E0.43996
G1 X136.180 Y106.818 E0.06672
G1 X132.605 Y110.393 E0.46627
G1 X131.709 Y110.393 E0.08268
G1 X135.485 Y106.616 E0.49257
G1 X134.790 Y106.415 E0.06672
G1 X130.812 Y110.393 E0.51888
G1 X129.916 Y110.393 E0.08268
G1 X134.096 Y106.213 E0.54519
G1 X133.401 Y106.011 E0.06672
G1 X129.020 Y110.393 E0.57150
G1 X128.123 Y110.393 E0.08268
G1 X132.706 Y105.810 E0.59781
G1 X132.011 Y105.608 E0.06672
G1 X127.227 Y110.393 E0.62412
G1 X126.330 Y110.393 E0.08268
G1 X131.317 Y105.406 E0.65043
G1 X130.622 Y105.205 E0.06672
G1 X125.434 Y110.393 E0.67673
G1 X124.538 Y110.393 E0.08268
G1 X129.927 Y105.003 E0.70304
G1 X129.233 Y104.801 E0.06672
G1 X123.641 Y110.393 E0.72935
G1 X122.745 Y110.393 E0.08268
G1 X128.538 Y104.600 E0.75566
G1 X127.843 Y104.398 E0.06672
G1 X121.848 Y110.393 E0.78197
G1 X120.952 Y110.393 E0.08268
G1 X127.148 Y104.196 E0.80828
G1 X126.454 Y103.994 E0.06672
G1 X120.055 Y110.393 E0.83459
G1 X119.159 Y110.393 E0.08268
G1 X125.759 Y103.793 E0.86090
G1 X125.064 Y103.591 E0.06672
G1 X118.263 Y110.393 E0.88720
G1 X117.366 Y110.393 E0.08268
G1 X124.370 Y103.389 E0.91351
G1 X123.675 Y103.188 E0.06672
G1 X116.470 Y110.393 E0.93982
G1 X115.573 Y110.393 E0.08268
G1 X122.980 Y102.986 E0.96613
G1 X122.285 Y102.784 E0.06672
G1 X114.677 Y110.393 E0.99244
G1 X113.781 Y110.393 E0.08268
G1 X121.591 Y102.583 E1.01875
G1 X120.896 Y102.381 E0.06672
G1 X112.884 Y110.393 E1.04506
G1 X111.988 Y110.393 E0.08268
G1 X120.201 Y102.179 E1.07136
G1 X119.507 Y101.978 E0.06672
G1 X111.091 Y110.393 E1.09767
G1 X110.195 Y110.393 E0.08268
G1 X118.812 Y101.776 E1.12398
G1 X118.117 Y101.574 E0.06672
G1 X109.299 Y110.393 E1.15029
G1 X108.607 Y110.393 E0.06375
G1 X108.607 Y110.187 E0.01893
G1 X117.422 Y101.372 E1.14983
G1 X116.728 Y101.171 E0.06672
G1 X108.607 Y109.291 E1.05921
G1 X108.607 Y108.395 E0.08268
G1 X116.033 Y100.969 E0.96860
G1 X115.338 Y100.767 E0.06672
G1 X108.607 Y107.498 E0.87798
G1 X108.607 Y106.602 E0.08268
G1 X114.644 Y100.566 E0.78736
G1 X113.949 Y100.364 E0.06672
G1 X108.607 Y105.705 E0.69674
G1 X108.607 Y104.809 E0.08268
G1 X113.254 Y100.162 E0.60612
G1 X112.559 Y99.961 E0.06672
G1 X108.607 Y103.913 E0.51550
G1 X108.607 Y103.016 E0.08268
G1 X111.865 Y99.759 E0.42488
G1 X111.343 Y99.607 E0.05015
G1 X111.120 Y99.607 E0.02054
G1 X108.607 Y102.120 E0.32773
G1 X108.607 Y101.223 E0.08268
G1 X110.223 Y99.607 E0.21080
G1 X109.327 Y99.607 E0.08268
G1 X108.326 Y100.608 E0.13055
M204 S1000
;BEFORE_LAYER_CHANGE
G92 E0.0
;0.9


G1 F8640.000
G1 X109.327 Y99.607 E-0.32683
G1 X110.223 Y99.607 E-0.20698
G1 X109.531 Y100.300 E-0.22618
G1 E-0.04000 F2100.00000
G1 Z1.150 F10800.000
;AFTER_LAYER_CHANGE
;0.9
;CURRENT_Z: 0.9
G1 X106.711 Y95.861
G1 Z0.900
G1 E0.80000 F2100.00000
G1 F2363
G1 X107.434 Y95.747 E0.03672
G1 X111.504 Y95.746 E0.20428
G1 X112.265 Y95.854 E0.03856
G1 X143.748 Y105.045 E1.64594
G1 X144.289 Y105.406 E0.03264
G1 X144.730 Y105.883 E0.03264
G1 X145.045 Y106.448 E0.03244
G1 X145.221 Y107.074 E0.03264
G1 X145.251 Y111.627 E0.22851
G1 X145.162 Y112.205 E0.02937
G1 X144.955 Y112.748 E0.02916
G1 X144.537 Y113.354 E0.03693
G1 X143.977 Y113.825 E0.03672
G1 X143.313 Y114.132 E0.03672
G1 X142.587 Y114.253 E0.03693
G1 X107.475 Y114.254 E1.76210
G1 X106.846 Y114.175 E0.03182
G1 X106.252 Y113.955 E0.03182
G1 X105.677 Y113.564 E0.03489
G1 X105.216 Y113.039 E0.03509
G1 X104.903 Y112.418 E0.03489
G1 X104.756 Y111.734 E0.03509
G1 X104.746 Y98.480 E0.66520
G1 X104.854 Y97.735 E0.03774
G1 X105.126 Y97.104 E0.03448
G1 X105.542 Y96.563 E0.03427
G1 X106.082 Y96.139 E0.03448
G1 X106.656 Y95.886 E0.03147
G1 F8640.000
G1 X107.434 Y95.747 E-0.18239
G1 X109.935 Y95.746 E-0.57761
G1 E-0.04000 F2100.00000
G1 Z1.500 F10800.000
G1 X105.217 Y97.838
G1 Z0.900
G1 E0.80000 F2100.00000
G1 F2363
G1 X105.459 Y97.281 E0.03050
G1 X105.832 Y96.806 E0.03031
G1 X106.316 Y96.439 E0.03050
G1 X106.874 Y96.207 E0.03031
G1 X107.457 Y96.123 E0.02955
G1 X111.504 Y96.123 E0.20309
G1 X112.158 Y96.216 E0.03315
G1 X143.556 Y105.370 E1.64137
G1 X144.033 Y105.683 E0.02860
G1 X144.421 Y106.100 E0.02860
G1 X144.699 Y106.598 E0.02860
G1 X144.851 Y107.147 E0.02860
G1 X144.875 Y111.599 E0.22342
G1 X144.803 Y112.088 E0.02481
G1 X144.630 Y112.555 E0.02500
G1 X144.270 Y113.086 E0.03221
G1 X143.781 Y113.502 E0.03221
G1 X143.199 Y113.772 E0.03221
G1 X142.566 Y113.876 E0.03221
G1 X107.485 Y113.877 E1.76058
G1 X106.949 Y113.812 E0.02709
G1 X106.445 Y113.630 E0.02690
G1 X105.936 Y113.290 E0.03069
G1 X105.529 Y112.829 E0.03088
