; generated by PrusaSlicer 2.6.0-alpha6+linux-x64-GTK3 on 2023-05-08 at 03:33:30 UTC

; 

; external perimeters extrusion width = 0.60mm
; perimeters extrusion width = 0.43mm
; infill extrusion width = 0.45mm
; solid infill extrusion width = 0.70mm
; top infill extrusion width = 0.45mm
; first layer extrusion width = 0.42mm

M73 P0 R133
M201 X9000 Y9000 Z500 E10000 ; sets maximum accelerations, mm/sec^2
M203 X500 Y500 Z12 E120 ; sets maximum feedrates, mm / sec
M204 S2000 T1500 ; sets acceleration (S) and retract acceleration (R), mm/sec^2
M205 X10.00 Y10.00 Z0.20 E4.50 ; sets the jerk limits, mm/sec
M205 S0 T0 ; sets the minimum extruding and travel feed rate, mm/sec
;TYPE:Custom
M862.3 P "MK2.5" ; printer model check
M862.1 P0.4 ; nozzle diameter check
M115 U3.11.0 ; tell printer latest fw version
G90 ; use absolute coordinates
M83 ; extruder relative mode
M104 S215 ; set extruder temp
M140 S60 ; set bed temp
M190 S60 ; wait for bed temp
M109 S215 ; wait for extruder temp
G28 W ; home all without mesh bed level
G80 ; mesh bed leveling

G1 Z0.2 F720
G1 Y-3 F1000 ; go outside print area
G92 E0
G1 X60 E9 F1000 ; intro line
G1 X100 E12.5 F1000 ; intro line

G92 E0
G21 ; set units to millimeters
G90 ; use absolute coordinates
M83 ; use relative distances for extrusion
M900 K0.05 ; Filament gcode LA 1.5
M900 K30 ; Filament gcode LA 1.0
M107
;LAYER_CHANGE
;Z:0.2
;HEIGHT:0.2
;BEFORE_LAYER_CHANGE
G92 E0.0
;0.2


G1 E-.8 F2100
G1 Z.4 F720
;AFTER_LAYER_CHANGE
;0.2
;CURRENT_Z: 0.2
G1 X105.217 Y95.107 F10800
G1 Z.2 F720
G1 E.8 F2100
M204 S800
;TYPE:Skirt/Brim
;WIDTH:0.42
G1 F1200
G1 X106.096 Y94.224 E.03907
G1 X107.075 Y93.816 E.03325
G1 X107.7 Y93.746 E.01972
G1 X142.3 Y93.746 E1.08486
G1 X142.85 Y93.801 E.01733
G1 X143.902 Y94.222 E.03553
G1 X144.733 Y95.031 E.03636
G1 X145.188 Y96.097 E.03634
G1 X145.254 Y96.7 E.01902
G1 X145.254 Y113.3 E.52048
G1 X145.188 Y113.903 E.01902
G1 X144.777 Y114.904 E.03393
G1 X143.904 Y115.776 E.03869
G1 X142.926 Y116.184 E.03323
G1 X142.3 Y116.254 E.01975
G1 X107.7 Y116.254 E1.08486
G1 X107.075 Y116.184 E.01972
G1 X106.096 Y115.776 E.03325
G1 X105.224 Y114.904 E.03867
G1 X104.817 Y113.926 E.03321
G1 X104.746 Y113.3 E.01975
G1 X104.746 Y96.7 E.52048
G1 X104.817 Y96.075 E.01972
G1 X105.194 Y95.163 E.03094
M204 S1000
G1 X105.532 Y95.315 F10800
M204 S800
G1 F1200
G1 X106.305 Y94.537 E.03439
G1 X107.15 Y94.186 E.02869
G1 X107.7 Y94.123 E.01736
G1 X142.774 Y94.17 E1.09972
G1 X143.693 Y94.536 E.03102
G1 X144.42 Y95.24 E.03173
G1 X144.818 Y96.169 E.03169
G1 X144.877 Y96.7 E.01675
G1 X144.877 Y113.3 E.52048
G1 X144.818 Y113.831 E.01675
G1 X144.463 Y114.695 E.02929
G1 X143.695 Y115.463 E.03405
G1 X142.851 Y115.814 E.02866
G1 X142.3 Y115.877 E.01739
G1 X107.7 Y115.877 E1.08486
G1 X107.15 Y115.814 E.01736
G1 X106.305 Y115.463 E.02869
G1 X105.538 Y114.695 E.03403
G1 X105.186 Y113.851 E.02867
G1 X105.123 Y113.3 E.01739
G1 X105.123 Y96.7 E.52048
G1 X105.186 Y96.15 E.01736
G1 X105.509 Y95.37 E.02647
M204 S1000
; printing object trilho.stl id:0 copy 0
;WIPE_START
G1 F8640
G1 X106.305 Y94.537 E-.26604
G1 X107.15 Y94.186 E-.21128
G1 X107.7 Y94.123 E-.12783
G1 X108.544 Y94.124 E-.19485
;WIPE_END
G1 Z.6 F720
G1 X128.318 Y97.318 F10800
G1 Z.2 F720
G1 E.8 F2100
M204 S800
;TYPE:Perimeter
;WIDTH:0.419999
G1 F1200
G1 X141.682 Y97.318 E.41902
G1 X141.682 Y112.682 E.48173
G1 X128.318 Y112.682 E.41902
G1 X128.318 Y97.378 E.47985
M204 S1000
G1 X127.941 Y96.941 F10800
M204 S800
;TYPE:External perimeter
G1 F1200
G1 X142.059 Y96.941 E.44266
G1 X142.059 Y113.059 E.50537
G1 X127.941 Y113.059 E.44266
G1 X127.941 Y97.001 E.50349
M204 S1000
G1 X128.325 Y97.053 F10800
;WIPE_START
M73 P0 R132
G1 F8640
G1 X131.406 Y96.986 E-.8
;WIPE_END
G1 Z.6 F720
G1 X141.569 Y98.196 F10800
G1 Z.2 F720
G1 E.8 F2100
M204 S800
;TYPE:Solid infill
;WIDTH:0.421161
G1 F1200
G1 X140.974 Y97.601 E.02646
G1 X140.439 Y97.601 E.01683
G1 X141.399 Y98.561 E.0427
G1 X141.399 Y99.096 E.01683
G1 X139.904 Y97.601 E.06649
G1 X139.369 Y97.601 E.01683
G1 X141.399 Y99.631 E.09029
G1 X141.399 Y100.166 E.01683
G1 X138.834 Y97.601 E.11409
G1 X138.299 Y97.601 E.01683
G1 X141.399 Y100.701 E.13788
G1 X141.399 Y101.236 E.01683
G1 X137.764 Y97.601 E.16168
G1 X137.23 Y97.601 E.01679
G1 X141.399 Y101.771 E.18545
G1 X141.399 Y102.306 E.01683
G1 X136.695 Y97.601 E.20925
G1 X136.16 Y97.601 E.01683
G1 X141.399 Y102.841 E.23304
G1 X141.399 Y103.376 E.01683
G1 X135.625 Y97.601 E.25684
G1 X135.09 Y97.601 E.01683
G1 X141.399 Y103.91 E.28061
G1 X141.399 Y104.445 E.01683
G1 X134.555 Y97.601 E.30441
G1 X134.02 Y97.601 E.01683
G1 X141.399 Y104.98 E.3282
G1 X141.399 Y105.515 E.01683
G1 X133.485 Y97.601 E.352
G1 X132.95 Y97.601 E.01683
G1 X141.399 Y106.05 E.3758
G1 X141.399 Y106.585 E.01683
G1 X132.415 Y97.601 E.39959
G1 X131.88 Y97.601 E.01683
G1 X141.399 Y107.12 E.42339
G1 X141.399 Y107.655 E.01683
G1 X131.346 Y97.601 E.44716
G1 X130.811 Y97.601 E.01683
G1 X141.399 Y108.19 E.47096
G1 X141.399 Y108.725 E.01683
G1 X130.276 Y97.601 E.49475
G1 X129.741 Y97.601 E.01683
G1 X141.399 Y109.26 E.51855
G1 X141.399 Y109.794 E.01679
G1 X129.206 Y97.601 E.54232
G1 X128.671 Y97.601 E.01683
G1 X141.399 Y110.329 E.56612
G1 X141.399 Y110.864 E.01683
G1 X128.601 Y98.066 E.56923
G1 X128.601 Y98.601 E.01683
G1 X141.399 Y111.399 E.56923
G1 X141.399 Y111.934 E.01683
G1 X128.601 Y99.136 E.56923
G1 X128.601 Y99.671 E.01683
G1 X141.329 Y112.399 E.56612
G1 X140.794 Y112.399 E.01683
G1 X128.601 Y100.206 E.54232
G1 X128.601 Y100.741 E.01683
G1 X140.259 Y112.399 E.51853
G1 X139.724 Y112.399 E.01683
G1 X128.601 Y101.275 E.49475
G1 X128.601 Y101.81 E.01683
G1 X139.19 Y112.399 E.47098
G1 X138.655 Y112.399 E.01683
G1 X128.601 Y102.345 E.44718
G1 X128.601 Y102.88 E.01683
G1 X138.12 Y112.399 E.42339
G1 X137.585 Y112.399 E.01683
G1 X128.601 Y103.415 E.39959
G1 X128.601 Y103.95 E.01683
G1 X137.05 Y112.399 E.3758
G1 X136.515 Y112.399 E.01683
G1 X128.601 Y104.485 E.352
G1 X128.601 Y105.02 E.01683
G1 X135.98 Y112.399 E.3282
G1 X135.445 Y112.399 E.01683
G1 X128.601 Y105.555 E.30441
G1 X128.601 Y106.09 E.01683
G1 X134.91 Y112.399 E.28061
G1 X134.375 Y112.399 E.01683
G1 X128.601 Y106.625 E.25682
G1 X128.601 Y107.159 E.01679
G1 X133.84 Y112.399 E.23304
G1 X133.306 Y112.399 E.01679
G1 X128.601 Y107.694 E.20927
G1 X128.601 Y108.229 E.01683
G1 X132.771 Y112.399 E.18547
G1 X132.236 Y112.399 E.01683
G1 X128.601 Y108.764 E.16168
G1 X128.601 Y109.299 E.01683
G1 X131.701 Y112.399 E.13788
G1 X131.166 Y112.399 E.01683
G1 X128.601 Y109.834 E.11409
G1 X128.601 Y110.369 E.01683
G1 X130.631 Y112.399 E.09029
G1 X130.096 Y112.399 E.01683
G1 X128.601 Y110.904 E.06649
G1 X128.601 Y111.439 E.01683
G1 X129.561 Y112.399 E.0427
G1 X129.026 Y112.399 E.01683
G1 X128.431 Y111.804 E.02646
M204 S1000
;WIPE_START
G1 F8640
G1 X129.026 Y112.399 E-.19429
G1 X129.561 Y112.399 E-.12353
G1 X128.601 Y111.439 E-.31348
G1 X128.601 Y110.904 E-.12353
G1 X128.739 Y111.042 E-.04517
;WIPE_END
G1 Z.6 F720
G1 X121.682 Y112.682 F10800
G1 Z.2 F720
G1 E.8 F2100
M204 S800
;TYPE:Perimeter
;WIDTH:0.419999
G1 F1200
G1 X108.319 Y112.682 E.41899
G1 X108.319 Y97.318 E.48173
G1 X121.682 Y97.318 E.41899
G1 X121.682 Y112.622 E.47985
M204 S1000
G1 X122.059 Y113.059 F10800
M204 S800
;TYPE:External perimeter
G1 F1200
G1 X107.941 Y113.059 E.44266
G1 X107.941 Y96.941 E.50537
G1 X122.059 Y96.941 E.44266
G1 X122.059 Y112.999 E.50349
M204 S1000
G1 X121.675 Y112.947 F10800
;WIPE_START
G1 F8640
G1 X118.594 Y113.014 E-.8
;WIPE_END
G1 Z.6 F720
G1 X120.804 Y97.431 F10800
G1 Z.2 F720
G1 E.8 F2100
M204 S800
;TYPE:Solid infill
;WIDTH:0.421152
G1 F1200
G1 X121.399 Y98.026 E.02646
G1 X121.399 Y98.561 E.01683
G1 X120.439 Y97.601 E.0427
G1 X119.904 Y97.601 E.01683
G1 X121.399 Y99.096 E.06649
G1 X121.399 Y99.631 E.01683
G1 X119.369 Y97.601 E.09029
G1 X118.834 Y97.601 E.01683
G1 X121.399 Y100.166 E.11408
G1 X121.399 Y100.701 E.01683
G1 X118.299 Y97.601 E.13788
G1 X117.764 Y97.601 E.01683
G1 X121.399 Y101.236 E.16167
G1 X121.399 Y101.771 E.01683
G1 X117.229 Y97.601 E.18547
G1 X116.695 Y97.601 E.01679
G1 X121.399 Y102.306 E.20924
G1 X121.399 Y102.84 E.01679
G1 X116.16 Y97.601 E.23302
G1 X115.625 Y97.601 E.01683
G1 X121.399 Y103.375 E.25681
G1 X121.399 Y103.91 E.01683
G1 X115.09 Y97.601 E.28061
G1 X114.555 Y97.601 E.01683
G1 X121.399 Y104.445 E.3044
G1 X121.399 Y104.98 E.01683
G1 X114.02 Y97.601 E.3282
G1 X113.485 Y97.601 E.01683
G1 X121.399 Y105.515 E.35199
G1 X121.399 Y106.05 E.01683
G1 X112.95 Y97.601 E.37579
G1 X112.415 Y97.601 E.01683
G1 X121.399 Y106.585 E.39958
G1 X121.399 Y107.12 E.01683
G1 X111.88 Y97.601 E.42338
G1 X111.346 Y97.601 E.01679
G1 X121.399 Y107.655 E.44715
G1 X121.399 Y108.189 E.01679
G1 X110.811 Y97.601 E.47092
G1 X110.276 Y97.601 E.01683
G1 X121.399 Y108.724 E.49472
G1 X121.399 Y109.259 E.01683
G1 X109.741 Y97.601 E.51852
G1 X109.206 Y97.601 E.01683
G1 X121.399 Y109.794 E.54231
G1 X121.399 Y110.329 E.01683
G1 X108.671 Y97.601 E.56611
G1 X108.601 Y97.601 E.0022
G1 X108.601 Y98.066 E.01462
G1 X121.399 Y110.864 E.56922
G1 X121.399 Y111.399 E.01683
G1 X108.601 Y98.601 E.56922
G1 X108.601 Y99.136 E.01683
G1 X121.399 Y111.934 E.56922
G1 X121.399 Y112.399 E.01462
G1 X121.329 Y112.399 E.0022
G1 X108.601 Y99.671 E.56611
G1 X108.601 Y100.206 E.01683
G1 X120.794 Y112.399 E.54231
G1 X120.26 Y112.399 E.01679
G1 X108.601 Y100.741 E.51854
G1 X108.601 Y101.276 E.01683
G1 X119.725 Y112.399 E.49474
G1 X119.19 Y112.399 E.01683
G1 X108.601 Y101.811 E.47095
G1 X108.601 Y102.346 E.01683
G1 X118.655 Y112.399 E.44715
G1 X118.12 Y112.399 E.01683
G1 X108.601 Y102.88 E.42338
G1 X108.601 Y103.415 E.01683
M73 P1 R132
G1 X117.585 Y112.399 E.39958
G1 X117.05 Y112.399 E.01683
G1 X108.601 Y103.95 E.37579
G1 X108.601 Y104.485 E.01683
G1 X116.515 Y112.399 E.35199
G1 X115.98 Y112.399 E.01683
G1 X108.601 Y105.02 E.3282
G1 X108.601 Y105.555 E.01683
G1 X115.445 Y112.399 E.3044
G1 X114.911 Y112.399 E.01679
G1 X108.601 Y106.09 E.28063
G1 X108.601 Y106.625 E.01683
G1 X114.376 Y112.399 E.25683
G1 X113.841 Y112.399 E.01683
G1 X108.601 Y107.16 E.23304
G1 X108.601 Y107.695 E.01683
G1 X113.306 Y112.399 E.20924
G1 X112.771 Y112.399 E.01683
G1 X108.601 Y108.229 E.18547
G1 X108.601 Y108.764 E.01683
M73 P1 R131
G1 X112.236 Y112.399 E.16167
G1 X111.701 Y112.399 E.01683
G1 X108.601 Y109.299 E.13788
G1 X108.601 Y109.834 E.01683
G1 X111.166 Y112.399 E.11408
G1 X110.631 Y112.399 E.01683
G1 X108.601 Y110.369 E.09029
G1 X108.601 Y110.904 E.01683
G1 X110.096 Y112.399 E.06649
G1 X109.562 Y112.399 E.01679
G1 X108.601 Y111.439 E.04272
G1 X108.601 Y111.974 E.01683
G1 X109.196 Y112.569 E.02646
M204 S1000
; stop printing object trilho.stl id:0 copy 0
M106 S84.15
;LAYER_CHANGE
;Z:0.55
;HEIGHT:0.35
;BEFORE_LAYER_CHANGE
G92 E0.0
;0.55


;WIPE_START
G1 F8640
G1 X108.601 Y111.974 E-.19429
G1 X108.601 Y111.439 E-.12353
G1 X109.562 Y112.399 E-.31365
G1 X110.096 Y112.399 E-.1233
G1 X109.957 Y112.26 E-.04523
;WIPE_END
G1 Z.6 F720
;AFTER_LAYER_CHANGE
;0.55
;CURRENT_Z: 0.55
M104 S210 ; set temperature
G1 X109.957 Y116.254 F10800
G1 Z.55 F720
G1 E.8 F2100
;TYPE:Skirt/Brim
;WIDTH:0.42
G1 F3000
G1 X107.7 Y116.254 E.11327
G1 X107.075 Y116.184 E.03156
G1 X106.096 Y115.776 E.05323
G1 X105.224 Y114.904 E.06189
G1 X104.817 Y113.926 E.05316
G1 X104.746 Y113.3 E.03162
G1 X104.746 Y96.7 E.83309
G1 X104.817 Y96.075 E.03157
G1 X105.217 Y95.107 E.05256
G1 X106.096 Y94.224 E.06253
G1 X107.075 Y93.816 E.05323
G1 X107.7 Y93.746 E.03156
G1 X142.3 Y93.746 E1.73643
G1 X142.85 Y93.801 E.02774
G1 X143.902 Y94.222 E.05687
G1 X144.733 Y95.031 E.0582
G1 X145.188 Y96.097 E.05817
G1 X145.254 Y96.7 E.03044
G1 X145.254 Y113.3 E.83309
G1 X145.188 Y113.903 E.03044
G1 X144.777 Y114.904 E.05431
G1 X143.904 Y115.776 E.06192
G1 X142.926 Y116.184 E.05318
G1 X142.3 Y116.254 E.03161
G1 X110.017 Y116.254 E1.62015
G1 X110.017 Y115.877 F10800
G1 F3000
G1 X107.7 Y115.877 E.11628
G1 X107.15 Y115.814 E.02778
G1 X106.305 Y115.463 E.04592
G1 X105.538 Y114.695 E.05447
G1 X105.186 Y113.851 E.04589
G1 X105.123 Y113.3 E.02783
G1 X105.123 Y96.7 E.83309
G1 X105.186 Y96.15 E.02778
G1 X105.532 Y95.315 E.04536
G1 X106.305 Y94.537 E.05504
G1 X107.15 Y94.186 E.04592
G1 X107.7 Y94.123 E.02778
G1 X142.774 Y94.17 E1.76022
G1 X143.693 Y94.536 E.04964
G1 X144.42 Y95.24 E.05079
G1 X144.818 Y96.169 E.05072
G1 X144.877 Y96.7 E.02681
G1 X144.877 Y113.3 E.83309
G1 X144.818 Y113.831 E.02681
G1 X144.463 Y114.695 E.04688
G1 X143.695 Y115.463 E.05451
G1 X142.851 Y115.814 E.04587
G1 X142.3 Y115.877 E.02783
G1 X110.077 Y115.877 E1.61714
; printing object trilho.stl id:0 copy 0
;WIPE_START
G1 F8640
G1 X107.7 Y115.877 E-.54886
G1 X107.15 Y115.814 E-.12783
G1 X106.657 Y115.609 E-.12331
;WIPE_END
G1 Z.95 F720
G1 X121.761 Y112.76 F10800
G1 Z.55 F720
G1 E.8 F2100
M204 S800
;TYPE:Perimeter
;WIDTH:0.43
G1 F3000
G1 X108.24 Y112.76 E.69824
G1 X108.24 Y97.24 E.80147
G1 X121.761 Y97.24 E.69824
G1 X121.761 Y112.7 E.79837
M204 S1000
G1 X122.2 Y113.2 F10800
M204 S800
;TYPE:External perimeter
;WIDTH:0.6
G1 F2400
G1 X107.8 Y113.2 E1.09985
G1 X107.8 Y96.8 E1.2526
G1 X122.2 Y96.8 E1.09985
G1 X122.2 Y113.14 E1.24802
M204 S1000
G1 X121.816 Y113.088 F10800
;WIPE_START
G1 F8640
G1 X118.735 Y113.154 E-.8
;WIPE_END
G1 Z.95 F720
G1 X120.358 Y112.64 F10800
G1 Z.55 F720
G1 E.8 F2100
M204 S2000
;TYPE:Solid infill
;WIDTH:0.708999
G1 F3600
G1 X121.359 Y111.639 E.13058
G1 X121.359 Y110.743 E.08265
G1 X119.743 Y112.359 E.2108
G1 X118.847 Y112.359 E.08265
G1 X121.359 Y109.846 E.32774
G1 X121.359 Y108.95 E.08265
G1 X117.95 Y112.359 E.44469
G1 X117.054 Y112.359 E.08265
G1 X121.359 Y108.054 E.56157
G1 X121.359 Y107.157 E.08274
G1 X116.157 Y112.359 E.67858
G1 X115.261 Y112.359 E.08265
G1 X121.359 Y106.261 E.79546
G1 X121.359 Y105.364 E.08274
G1 X114.364 Y112.359 E.91247
G1 X113.468 Y112.359 E.08265
G1 X121.359 Y104.468 E1.02935
G1 X121.359 Y103.571 E.08274
G1 X112.571 Y112.359 E1.14636
G1 X111.675 Y112.359 E.08265
G1 X121.359 Y102.675 E1.26324
G1 X121.359 Y101.778 E.08274
G1 X110.778 Y112.359 E1.38025
G1 X109.882 Y112.359 E.08265
G1 X121.359 Y100.882 E1.49712
G1 X121.359 Y99.985 E.08274
G1 X108.986 Y112.359 E1.61407
G1 X108.641 Y112.359 E.03182
G1 X108.641 Y111.807 E.05092
G1 X121.359 Y99.089 E1.65901
G1 X121.359 Y98.193 E.08265
G1 X108.641 Y110.911 E1.65901
G1 X108.641 Y110.014 E.08274
G1 X121.015 Y97.641 E1.61407
G1 X120.118 Y97.641 E.08274
G1 X108.641 Y109.118 E1.49712
G1 X108.641 Y108.221 E.08274
G1 X119.222 Y97.641 E1.38018
G1 X118.325 Y97.641 E.08274
G1 X108.641 Y107.325 E1.26324
G1 X108.641 Y106.429 E.08265
G1 X117.429 Y97.641 E1.14636
G1 X116.532 Y97.641 E.08274
G1 X108.641 Y105.532 E1.02935
G1 X108.641 Y104.636 E.08265
G1 X115.636 Y97.641 E.91247
G1 X114.74 Y97.641 E.08265
G1 X108.641 Y103.739 E.79552
G1 X108.641 Y102.843 E.08265
G1 X113.843 Y97.641 E.67858
G1 X112.947 Y97.641 E.08265
G1 X108.641 Y101.946 E.56163
G1 X108.641 Y101.05 E.08265
G1 X112.05 Y97.641 E.44469
G1 X111.154 Y97.641 E.08265
G1 X108.641 Y100.153 E.32774
G1 X108.641 Y99.257 E.08265
G1 X110.257 Y97.641 E.2108
G1 X109.361 Y97.641 E.08265
G1 X108.36 Y98.642 E.13058
M204 S1000
;WIPE_START
G1 F8640
G1 X109.361 Y97.641 E-.32687
G1 X110.257 Y97.641 E-.20689
G1 X109.442 Y98.456 E-.26624
;WIPE_END
G1 Z.95 F720
G1 X128.24 Y97.24 F10800
G1 Z.55 F720
G1 E.8 F2100
M204 S800
;TYPE:Perimeter
;WIDTH:0.43
G1 F3000
G1 X141.76 Y97.24 E.69819
G1 X141.76 Y112.76 E.80147
G1 X128.24 Y112.76 E.69819
G1 X128.24 Y97.3 E.79837
M204 S1000
G1 X127.8 Y96.8 F10800
M204 S800
;TYPE:External perimeter
;WIDTH:0.6
G1 F2400
G1 X142.2 Y96.8 E1.09985
G1 X142.2 Y113.2 E1.2526
G1 X127.8 Y113.2 E1.09985
G1 X127.8 Y96.86 E1.24802
M204 S1000
G1 X128.184 Y96.912 F10800
;WIPE_START
G1 F8640
G1 X131.265 Y96.846 E-.8
;WIPE_END
G1 Z.95 F720
G1 X140.358 Y112.64 F10800
G1 Z.55 F720
G1 E.8 F2100
M204 S2000
;TYPE:Solid infill
;WIDTH:0.708984
G1 F3600
G1 X141.359 Y111.639 E.13057
G1 X141.359 Y110.743 E.08264
G1 X139.743 Y112.359 E.2108
G1 X138.846 Y112.359 E.08274
G1 X141.359 Y109.847 E.32774
G1 X141.359 Y108.95 E.08274
G1 X137.95 Y112.359 E.44468
G1 X137.053 Y112.359 E.08274
G1 X141.359 Y108.054 E.56162
G1 X141.359 Y107.157 E.08274
G1 X136.157 Y112.359 E.67856
G1 X135.26 Y112.359 E.08274
G1 X141.359 Y106.261 E.7955
