; generated by PrusaSlicer 2.2.0+linux-x64 on 2021-01-30 at 22:56:47 UTC

; 

; external perimeters extrusion width = 0.60mm
; perimeters extrusion width = 0.43mm
; infill extrusion width = 0.45mm
; solid infill extrusion width = 0.70mm
; top infill extrusion width = 0.43mm
; first layer extrusion width = 0.42mm

M73 P0 R141
M201 X9000 Y9000 Z500 E10000 ; sets maximum accelerations, mm/sec^2
M203 X500 Y500 Z12 E120 ; sets maximum feedrates, mm/sec
M204 P2000 R1500 T2000 ; sets acceleration (P, T) and retract acceleration (R), mm/sec^2
M205 X10.00 Y10.00 Z0.20 E4.50 ; sets the jerk limits, mm/sec
M205 S0 T0 ; sets the minimum extruding and travel feed rate, mm/sec
M107
M862.3 P "MK2.5" ; printer model check
M862.1 P0.4 ; nozzle diameter check
M115 U3.9.1 ; tell printer latest fw version
G90 ; use absolute coordinates
M83 ; extruder relative mode
M104 S215 ; set extruder temp
M140 S60 ; set bed temp
M190 S60 ; wait for bed temp
M109 S215 ; wait for extruder temp
G28 W ; home all without mesh bed level
G80 ; mesh bed leveling
G1 Y-3.0 F1000.0 ; go outside print area
G92 E0.0
G1 X60.0 E9.0 F1000.0 ; intro line
M73 P0 R141
G1 X100.0 E12.5 F1000.0 ; intro line
G92 E0.0
G21 ; set units to millimeters
G90 ; use absolute coordinates
M83 ; use relative distances for extrusion
M900 K0.05 ; Filament gcode LA 1.5
M900 K30 ; Filament gcode LA 1.0
;BEFORE_LAYER_CHANGE
G92 E0.0
;0.2


G1 E-0.80000 F2100.00000
G1 Z0.600 F10800.000
;AFTER_LAYER_CHANGE
;0.2
;CURRENT_Z: 0.2
G1 X114.921 Y95.699
G1 Z0.200
G1 E0.80000 F2100.00000
M204 S1000
G1 F1200.000
G1 X115.354 Y94.908 E0.02828
G1 X115.777 Y94.458 E0.01937
G1 X116.322 Y94.088 E0.02064
G1 X116.876 Y93.865 E0.01873
G1 X117.512 Y93.752 E0.02026
G1 X132.304 Y93.746 E0.46380
G1 X133.374 Y93.948 E0.03413
G1 X134.288 Y94.515 E0.03374
G1 X134.944 Y95.384 E0.03412
G1 X135.238 Y96.398 E0.03310
G1 X135.253 Y113.386 E0.53266
G1 X135.079 Y114.301 E0.02919
G1 X134.646 Y115.092 E0.02828
G1 X134.204 Y115.558 E0.02014
G1 X133.635 Y115.935 E0.02141
G1 X133.053 Y116.155 E0.01950
G1 X132.382 Y116.253 E0.02128
G1 X117.598 Y116.252 E0.46354
G1 X116.695 Y116.078 E0.02881
G1 X115.908 Y115.646 E0.02815
G1 X115.442 Y115.204 E0.02014
G1 X115.063 Y114.631 E0.02154
G1 X114.844 Y114.049 E0.01950
G1 X114.747 Y113.373 E0.02140
G1 X114.747 Y96.610 E0.52561
G1 X114.910 Y95.758 E0.02718
G1 X115.277 Y95.828 F10800.000
G1 F1200.000
G1 X115.668 Y95.117 E0.02546
G1 X116.039 Y94.730 E0.01680
G1 X116.519 Y94.410 E0.01807
G1 X116.996 Y94.222 E0.01609
G1 X117.557 Y94.127 E0.01783
G1 X132.304 Y94.123 E0.46237
G1 X133.242 Y94.301 E0.02994
G1 X134.046 Y94.805 E0.02977
G1 X134.617 Y95.573 E0.03000
G1 X134.866 Y96.470 E0.02917
G1 X134.876 Y113.369 E0.52985
G1 X134.721 Y114.181 E0.02594
G1 X134.332 Y114.883 E0.02517
G1 X133.949 Y115.279 E0.01728
G1 X133.447 Y115.607 E0.01879
G1 X132.948 Y115.792 E0.01668
G1 X132.359 Y115.876 E0.01866
G1 X117.620 Y115.876 E0.46214
G1 X116.815 Y115.720 E0.02570
G1 X116.117 Y115.332 E0.02505
G1 X115.718 Y114.946 E0.01740
G1 X115.391 Y114.444 E0.01878
G1 X115.206 Y113.941 E0.01680
G1 X115.123 Y113.352 E0.01866
G1 X115.124 Y96.628 E0.52437
G1 X115.265 Y95.887 E0.02364
G1 F8640.000
G1 X115.668 Y95.117 E-0.20069
G1 X116.039 Y94.730 E-0.12375
G1 X116.519 Y94.410 E-0.13309
G1 X116.996 Y94.222 E-0.11850
G1 X117.557 Y94.127 E-0.13133
G1 X117.785 Y94.127 E-0.05265
G1 E-0.04000 F2100.00000
G1 Z0.800 F10800.000
G1 X118.318 Y97.318
G1 Z0.200
G1 E0.80000 F2100.00000
G1 F1200.000
G1 X131.682 Y97.318 E0.41902
G1 X131.682 Y112.682 E0.48173
G1 X118.318 Y112.682 E0.41902
G1 X118.318 Y97.378 E0.47985
G1 X117.941 Y96.941 F10800.000
G1 F1200.000
G1 X132.059 Y96.941 E0.44267
G1 X132.059 Y113.059 E0.50537
G1 X117.941 Y113.059 E0.44267
G1 X117.941 Y97.001 E0.50349
G1 X118.325 Y97.053 F10800.000
G1 F8640.000
G1 X121.232 Y96.987 E-0.76000
G1 E-0.04000 F2100.00000
G1 Z0.800 F10800.000
G1 X118.431 Y111.804
G1 Z0.200
G1 E0.80000 F2100.00000
G1 F1200.000
G1 X119.026 Y112.399 E0.02646
G1 X119.561 Y112.399 E0.01682
G1 X118.601 Y111.439 E0.04271
G1 X118.601 Y110.904 E0.01682
G1 X120.096 Y112.399 E0.06650
G1 X120.631 Y112.399 E0.01682
G1 X118.601 Y110.369 E0.09029
G1 X118.601 Y109.834 E0.01682
G1 X121.166 Y112.399 E0.11409
G1 X121.701 Y112.399 E0.01682
G1 X118.601 Y109.299 E0.13788
G1 X118.601 Y108.764 E0.01682
G1 X122.236 Y112.399 E0.16167
G1 X122.771 Y112.399 E0.01682
G1 X118.601 Y108.229 E0.18547
G1 X118.601 Y107.695 E0.01682
G1 X123.305 Y112.399 E0.20926
G1 X123.840 Y112.399 E0.01682
G1 X118.601 Y107.160 E0.23305
G1 X118.601 Y106.625 E0.01682
G1 X124.375 Y112.399 E0.25685
G1 X124.910 Y112.399 E0.01682
G1 X118.601 Y106.090 E0.28064
G1 X118.601 Y105.555 E0.01682
G1 X125.445 Y112.399 E0.30443
G1 X125.980 Y112.399 E0.01682
G1 X118.601 Y105.020 E0.32822
G1 X118.601 Y104.485 E0.01682
G1 X126.515 Y112.399 E0.35202
G1 X127.050 Y112.399 E0.01682
G1 X118.601 Y103.950 E0.37581
G1 X118.601 Y103.415 E0.01682
G1 X127.585 Y112.399 E0.39960
G1 X128.120 Y112.399 E0.01682
G1 X118.601 Y102.880 E0.42340
G1 X118.601 Y102.345 E0.01682
G1 X128.655 Y112.399 E0.44719
G1 X129.190 Y112.399 E0.01682
G1 X118.601 Y101.810 E0.47098
G1 X118.601 Y101.275 E0.01682
G1 X129.725 Y112.399 E0.49478
G1 X130.259 Y112.399 E0.01682
G1 X118.601 Y100.741 E0.51857
G1 X118.601 Y100.206 E0.01682
G1 X130.794 Y112.399 E0.54236
G1 X131.329 Y112.399 E0.01682
G1 X118.601 Y99.671 E0.56615
G1 X118.601 Y99.136 E0.01682
G1 X131.399 Y111.934 E0.56926
G1 X131.399 Y111.399 E0.01682
G1 X118.601 Y98.601 E0.56926
G1 X118.601 Y98.066 E0.01682
G1 X131.399 Y110.864 E0.56926
G1 X131.399 Y110.329 E0.01682
G1 X118.671 Y97.601 E0.56616
G1 X119.205 Y97.601 E0.01682
G1 X131.399 Y109.795 E0.54237
G1 X131.399 Y109.260 E0.01682
G1 X119.740 Y97.601 E0.51857
G1 X120.275 Y97.601 E0.01682
G1 X131.399 Y108.725 E0.49478
G1 X131.399 Y108.190 E0.01682
G1 X120.810 Y97.601 E0.47099
G1 X121.345 Y97.601 E0.01682
G1 X131.399 Y107.655 E0.44720
G1 X131.399 Y107.120 E0.01682
G1 X121.880 Y97.601 E0.42340
G1 X122.415 Y97.601 E0.01682
G1 X131.399 Y106.585 E0.39961
G1 X131.399 Y106.050 E0.01682
G1 X122.950 Y97.601 E0.37582
G1 X123.485 Y97.601 E0.01682
G1 X131.399 Y105.515 E0.35202
G1 X131.399 Y104.980 E0.01682
G1 X124.020 Y97.601 E0.32823
G1 X124.555 Y97.601 E0.01682
G1 X131.399 Y104.445 E0.30444
G1 X131.399 Y103.910 E0.01682
G1 X125.090 Y97.601 E0.28064
G1 X125.625 Y97.601 E0.01682
G1 X131.399 Y103.375 E0.25685
G1 X131.399 Y102.840 E0.01682
G1 X126.160 Y97.601 E0.23306
G1 X126.694 Y97.601 E0.01682
G1 X131.399 Y102.306 E0.20926
G1 X131.399 Y101.771 E0.01682
G1 X127.229 Y97.601 E0.18547
G1 X127.764 Y97.601 E0.01682
G1 X131.399 Y101.236 E0.16168
G1 X131.399 Y100.701 E0.01682
G1 X128.299 Y97.601 E0.13789
G1 X128.834 Y97.601 E0.01682
G1 X131.399 Y100.166 E0.11409
G1 X131.399 Y99.631 E0.01682
G1 X129.369 Y97.601 E0.09030
G1 X129.904 Y97.601 E0.01682
G1 X131.399 Y99.096 E0.06651
G1 X131.399 Y98.561 E0.01682
G1 X130.439 Y97.601 E0.04271
G1 X130.974 Y97.601 E0.01682
G1 X131.569 Y98.196 E0.02647
M106 S255
;BEFORE_LAYER_CHANGE
G92 E0.0
;0.55


G1 F8640.000
G1 X130.974 Y97.601 E-0.19432
G1 X130.439 Y97.601 E-0.12352
G1 X131.399 Y98.561 E-0.31358
G1 X131.399 Y99.096 E-0.12352
G1 X131.384 Y99.080 E-0.00507
G1 E-0.04000 F2100.00000
G1 Z0.800 F10800.000
;AFTER_LAYER_CHANGE
;0.55
;CURRENT_Z: 0.55
M104 S210 ; set temperature
G1 X134.944 Y95.384
G1 Z0.550
G1 E0.80000 F2100.00000
G1 F1843
G1 X135.238 Y96.398 E0.05298
G1 X135.253 Y113.386 E0.85258
G1 X135.079 Y114.301 E0.04673
G1 X134.646 Y115.092 E0.04526
G1 X134.204 Y115.558 E0.03223
G1 X133.635 Y115.935 E0.03427
G1 X133.053 Y116.155 E0.03121
G1 X132.382 Y116.253 E0.03405
G1 X117.598 Y116.252 E0.74195
G1 X116.695 Y116.078 E0.04612
G1 X115.908 Y115.646 E0.04506
G1 X115.442 Y115.204 E0.03223
G1 X115.063 Y114.631 E0.03447
G1 X114.844 Y114.049 E0.03121
G1 X114.747 Y113.373 E0.03426
G1 X114.747 Y96.610 E0.84129
G1 X114.921 Y95.699 E0.04652
G1 X115.354 Y94.908 E0.04526
G1 X115.777 Y94.458 E0.03100
G1 X116.322 Y94.088 E0.03304
G1 X116.876 Y93.865 E0.02998
G1 X117.512 Y93.752 E0.03242
G1 X132.304 Y93.746 E0.74236
G1 X133.374 Y93.948 E0.05463
G1 X134.288 Y94.515 E0.05400
G1 X134.908 Y95.336 E0.05160
G1 X134.607 Y95.559 F10800.000
G1 F1843
G1 X134.866 Y96.470 E0.04750
G1 X134.876 Y113.369 E0.84808
G1 X134.721 Y114.181 E0.04152
G1 X134.332 Y114.883 E0.04028
G1 X133.949 Y115.279 E0.02766
G1 X133.447 Y115.607 E0.03007
G1 X132.948 Y115.792 E0.02671
G1 X132.359 Y115.876 E0.02987
G1 X117.620 Y115.876 E0.73970
G1 X116.815 Y115.720 E0.04114
G1 X116.117 Y115.332 E0.04010
G1 X115.718 Y114.946 E0.02785
G1 X115.391 Y114.444 E0.03007
G1 X115.206 Y113.941 E0.02690
G1 X115.123 Y113.352 E0.02987
G1 X115.124 Y96.628 E0.83930
G1 X115.279 Y95.819 E0.04133
G1 X115.668 Y95.117 E0.04028
G1 X116.039 Y94.730 E0.02690
G1 X116.519 Y94.410 E0.02893
G1 X116.996 Y94.222 E0.02576
G1 X117.557 Y94.127 E0.02854
G1 X132.304 Y94.123 E0.74008
G1 X133.242 Y94.301 E0.04792
G1 X134.046 Y94.805 E0.04765
G1 X134.571 Y95.511 E0.04415
G1 F8640.000
G1 X134.866 Y96.470 E-0.23156
G1 X134.867 Y98.758 E-0.52844
G1 E-0.04000 F2100.00000
G1 Z1.150 F10800.000
G1 X131.760 Y97.240
G1 Z0.550
G1 E0.80000 F2100.00000
M204 S800
G1 F1843
G1 X131.760 Y112.760 E0.80148
G1 X118.240 Y112.760 E0.69820
G1 X118.240 Y97.240 E0.80148
G1 X131.700 Y97.240 E0.69510
M204 S1000
G1 X132.200 Y96.800 F10800.000
M204 S800
G1 F1843
G1 X132.200 Y113.200 E1.25260
G1 X117.800 Y113.200 E1.09985
G1 X117.800 Y96.800 E1.25260
G1 X132.140 Y96.800 E1.09526
M204 S1000
G1 X132.105 Y97.189 F10800.000
G1 F8640.000
G1 X132.152 Y100.091 E-0.76000
G1 E-0.04000 F2100.00000
G1 Z1.150 F10800.000
G1 X130.385 Y112.674
G1 Z0.550
G1 E0.80000 F2100.00000
M204 S2000
G1 F1843
G1 X131.393 Y111.667 E0.13202
G1 X131.393 Y110.766 E0.08346
G1 X129.766 Y112.393 E0.21320
G1 X128.865 Y112.393 E0.08346
G1 X131.393 Y109.865 E0.33123
G1 X131.393 Y108.965 E0.08346
G1 X127.965 Y112.393 E0.44927
G1 X127.064 Y112.393 E0.08346
G1 X131.393 Y108.064 E0.56730
G1 X131.393 Y107.163 E0.08346
G1 X126.163 Y112.393 E0.68533
G1 X125.263 Y112.393 E0.08346
G1 X131.393 Y106.263 E0.80337
G1 X131.393 Y105.362 E0.08346
G1 X124.362 Y112.393 E0.92140
G1 X123.461 Y112.393 E0.08346
G1 X131.393 Y104.461 E1.03944
G1 X131.393 Y103.561 E0.08346
G1 X122.561 Y112.393 E1.15747
G1 X121.660 Y112.393 E0.08346
G1 X131.393 Y102.660 E1.27550
G1 X131.393 Y101.759 E0.08346
G1 X120.759 Y112.393 E1.39354
G1 X119.859 Y112.393 E0.08346
G1 X131.393 Y100.859 E1.51157
G1 X131.393 Y99.958 E0.08346
G1 X118.958 Y112.393 E1.62960
M73 P0 R140
G1 X118.607 Y112.393 E0.03252
G1 X118.607 Y111.843 E0.05094
G1 X131.393 Y99.058 E1.67559
G1 X131.393 Y98.157 E0.08346
G1 X118.607 Y110.942 E1.67559
G1 X118.607 Y110.042 E0.08346
G1 X131.042 Y97.607 E1.62959
G1 X130.141 Y97.607 E0.08346
G1 X118.607 Y109.141 E1.51155
G1 X118.607 Y108.240 E0.08346
G1 X129.240 Y97.607 E1.39352
G1 X128.340 Y97.607 E0.08346
G1 X118.607 Y107.340 E1.27548
G1 X118.607 Y106.439 E0.08346
G1 X127.439 Y97.607 E1.15745
G1 X126.538 Y97.607 E0.08346
G1 X118.607 Y105.538 E1.03942
G1 X118.607 Y104.638 E0.08346
G1 X125.638 Y97.607 E0.92138
G1 X124.737 Y97.607 E0.08346
G1 X118.607 Y103.737 E0.80335
G1 X118.607 Y102.837 E0.08346
G1 X123.837 Y97.607 E0.68532
G1 X122.936 Y97.607 E0.08346
G1 X118.607 Y101.936 E0.56728
G1 X118.607 Y101.035 E0.08346
G1 X122.035 Y97.607 E0.44925
G1 X121.135 Y97.607 E0.08346
G1 X118.607 Y100.135 E0.33122
G1 X118.607 Y99.234 E0.08346
G1 X120.234 Y97.607 E0.21318
G1 X119.333 Y97.607 E0.08346
G1 X118.326 Y98.615 E0.13200
M204 S1000
;BEFORE_LAYER_CHANGE
G92 E0.0
;0.9


G1 F8640.000
G1 X119.333 Y97.607 E-0.32890
G1 X120.234 Y97.607 E-0.20796
G1 X119.551 Y98.291 E-0.22314
G1 E-0.04000 F2100.00000
G1 Z1.150 F10800.000
;AFTER_LAYER_CHANGE
;0.9
;CURRENT_Z: 0.9
G1 X114.921 Y95.699
G1 Z0.900
G1 E0.80000 F2100.00000
G1 F1845
G1 X115.354 Y94.908 E0.04526
G1 X115.777 Y94.458 E0.03100
G1 X116.322 Y94.088 E0.03304
G1 X116.876 Y93.865 E0.02998
G1 X117.512 Y93.752 E0.03242
G1 X132.304 Y93.746 E0.74236
G1 X133.374 Y93.948 E0.05463
G1 X134.288 Y94.515 E0.05400
G1 X134.944 Y95.384 E0.05461
G1 X135.238 Y96.398 E0.05298
G1 X135.253 Y113.386 E0.85258
G1 X135.079 Y114.301 E0.04673
G1 X134.646 Y115.092 E0.04526
G1 X134.204 Y115.558 E0.03223
G1 X133.635 Y115.935 E0.03427
G1 X133.053 Y116.155 E0.03121
G1 X132.382 Y116.253 E0.03405
G1 X117.598 Y116.252 E0.74195
G1 X116.695 Y116.078 E0.04612
G1 X115.908 Y115.646 E0.04506
G1 X115.442 Y115.204 E0.03223
G1 X115.063 Y114.631 E0.03447
G1 X114.844 Y114.049 E0.03121
G1 X114.747 Y113.373 E0.03426
G1 X114.747 Y96.610 E0.84129
G1 X114.910 Y95.758 E0.04351
G1 X115.277 Y95.828 F10800.000
G1 F1845
G1 X115.668 Y95.117 E0.04075
G1 X116.039 Y94.730 E0.02690
G1 X116.519 Y94.410 E0.02893
G1 X116.996 Y94.222 E0.02576
G1 X117.557 Y94.127 E0.02854
G1 X132.304 Y94.123 E0.74008
G1 X133.242 Y94.301 E0.04792
G1 X134.046 Y94.805 E0.04765
G1 X134.617 Y95.573 E0.04802
G1 X134.866 Y96.470 E0.04669
G1 X134.876 Y113.369 E0.84808
G1 X134.721 Y114.181 E0.04152
G1 X134.332 Y114.883 E0.04028
G1 X133.949 Y115.279 E0.02766
G1 X133.447 Y115.607 E0.03007
G1 X132.948 Y115.792 E0.02671
G1 X132.359 Y115.876 E0.02987
G1 X117.620 Y115.876 E0.73970
G1 X116.815 Y115.720 E0.04114
G1 X116.117 Y115.332 E0.04010
G1 X115.718 Y114.946 E0.02785
G1 X115.391 Y114.444 E0.03007
G1 X115.206 Y113.941 E0.02690
G1 X115.123 Y113.352 E0.02987
G1 X115.124 Y96.628 E0.83930
G1 X115.265 Y95.887 E0.03783
G1 F8640.000
G1 X115.668 Y95.117 E-0.20069
G1 X116.039 Y94.730 E-0.12375
G1 X116.519 Y94.410 E-0.13309
G1 X116.996 Y94.222 E-0.11850
G1 X117.557 Y94.127 E-0.13133
G1 X117.785 Y94.127 E-0.05265
G1 E-0.04000 F2100.00000
G1 Z1.500 F10800.000
G1 X118.240 Y97.240
G1 Z0.900
G1 E0.80000 F2100.00000
M204 S800
G1 F1845
G1 X131.760 Y97.240 E0.69820
G1 X131.760 Y112.760 E0.80148
G1 X118.240 Y112.760 E0.69820
G1 X118.240 Y97.300 E0.79838
M204 S1000
G1 X117.800 Y96.800 F10800.000
M204 S800
G1 F1845
G1 X132.200 Y96.800 E1.09985
G1 X132.200 Y113.200 E1.25260
G1 X117.800 Y113.200 E1.09985
G1 X117.800 Y96.860 E1.24802
M204 S1000
G1 X118.184 Y96.912 F10800.000
G1 F8640.000
G1 X121.091 Y96.846 E-0.76000
G1 E-0.04000 F2100.00000
G1 Z1.500 F10800.000
G1 X119.615 Y112.674
G1 Z0.900
G1 E0.80000 F2100.00000
M204 S2000
G1 F1845
G1 X118.607 Y111.667 E0.13200
G1 X118.607 Y110.766 E0.08346
G1 X120.234 Y112.393 E0.21318
G1 X121.135 Y112.393 E0.08346
G1 X118.607 Y109.865 E0.33121
G1 X118.607 Y108.965 E0.08346
G1 X122.035 Y112.393 E0.44925
G1 X122.936 Y112.393 E0.08346
G1 X118.607 Y108.064 E0.56728
G1 X118.607 Y107.163 E0.08346
G1 X123.837 Y112.393 E0.68531
G1 X124.737 Y112.393 E0.08346
G1 X118.607 Y106.263 E0.80335
G1 X118.607 Y105.362 E0.08346
G1 X125.638 Y112.393 E0.92138
G1 X126.538 Y112.393 E0.08346
G1 X118.607 Y104.462 E1.03941
G1 X118.607 Y103.561 E0.08346
G1 X127.439 Y112.393 E1.15745
G1 X128.340 Y112.393 E0.08346
G1 X118.607 Y102.660 E1.27548
G1 X118.607 Y101.760 E0.08346
G1 X129.240 Y112.393 E1.39351
G1 X130.141 Y112.393 E0.08346
G1 X118.607 Y100.859 E1.51155
G1 X118.607 Y99.958 E0.08346
G1 X131.042 Y112.393 E1.62958
G1 X131.393 Y112.393 E0.03253
G1 X131.393 Y111.843 E0.05093
G1 X118.607 Y99.058 E1.67559
G1 X118.607 Y98.157 E0.08346
G1 X131.393 Y110.942 E1.67559
G1 X131.393 Y110.042 E0.08346
G1 X118.958 Y97.607 E1.62961
G1 X119.859 Y97.607 E0.08346
G1 X131.393 Y109.141 E1.51157
G1 X131.393 Y108.241 E0.08346
G1 X120.759 Y97.607 E1.39354
G1 X121.660 Y97.607 E0.08346
G1 X131.393 Y107.340 E1.27550
G1 X131.393 Y106.439 E0.08346
G1 X122.561 Y97.607 E1.15747
G1 X123.461 Y97.607 E0.08346
G1 X131.393 Y105.539 E1.03944
G1 X131.393 Y104.638 E0.08346
G1 X124.362 Y97.607 E0.92140
G1 X125.263 Y97.607 E0.08346
G1 X131.393 Y103.737 E0.80337
G1 X131.393 Y102.837 E0.08346
G1 X126.163 Y97.607 E0.68533
G1 X127.064 Y97.607 E0.08346
G1 X131.393 Y101.936 E0.56730
G1 X131.393 Y101.035 E0.08346
G1 X127.965 Y97.607 E0.44927
G1 X128.865 Y97.607 E0.08346
G1 X131.393 Y100.135 E0.33123
G1 X131.393 Y99.234 E0.08346
G1 X129.766 Y97.607 E0.21320
G1 X130.667 Y97.607 E0.08346
G1 X131.674 Y98.615 E0.13202
M204 S1000
;BEFORE_LAYER_CHANGE
G92 E0.0
;1.25


G1 F8640.000
G1 X130.667 Y97.607 E-0.32895
G1 X129.766 Y97.607 E-0.20796
G1 X130.449 Y98.291 E-0.22309
