; generated by PrusaSlicer 2.5.0+linux-x64-GTK3 on 2022-09-09 at 20:22:33 UTC

; 

; external perimeters extrusion width = 0.60mm
; perimeters extrusion width = 0.43mm
; infill extrusion width = 0.45mm
; solid infill extrusion width = 0.70mm
; top infill extrusion width = 0.43mm
; first layer extrusion width = 0.42mm

M73 P0 R115
M201 X9000 Y9000 Z500 E10000 ; sets maximum accelerations, mm/sec^2
M203 X500 Y500 Z12 E120 ; sets maximum feedrates, mm / sec
M204 P2000 R1500 T2000 ; sets acceleration (P, T) and retract acceleration (R), mm/sec^2
M205 X10.00 Y10.00 Z0.20 E4.50 ; sets the jerk limits, mm/sec
M205 S0 T0 ; sets the minimum extruding and travel feed rate, mm/sec
M107
;TYPE:Custom
M862.3 P "MK2.5" ; printer model check
M862.1 P0.4 ; nozzle diameter check
M115 U3.11.0 ; tell printer latest fw version
G90 ; use absolute coordinates
M83 ; extruder relative mode
M104 S215 ; set extruder temp
M140 S60 ; set bed temp
M190 S60 ; wait for bed temp
M109 S215 ; wait for extruder temp
G28 W ; home all without mesh bed level
G80 ; mesh bed leveling

G1 Z0.2 F720
G1 Y-3 F1000 ; go outside print area
G92 E0
G1 X60 E9 F1000 ; intro line
G1 X100 E12.5 F1000 ; intro line

G92 E0
G21 ; set units to millimeters
G90 ; use absolute coordinates
M83 ; use relative distances for extrusion
M900 K0.05 ; Filament gcode LA 1.5
M900 K30 ; Filament gcode LA 1.0
M107
;LAYER_CHANGE
;Z:0.2
;HEIGHT:0.2
;BEFORE_LAYER_CHANGE
G92 E0.0
;0.2


G1 E-.8 F2100
G1 Z.4 F720
;AFTER_LAYER_CHANGE
;0.2
;CURRENT_Z: 0.2
G1 X115.269 Y95.028 F10800
G1 Z.2 F720
G1 E.8 F2100
M204 S800
;TYPE:Skirt/Brim
;WIDTH:0.42
G1 F1200
G1 X116.093 Y94.225 E.0361
G1 X117.086 Y93.814 E.03369
G1 X117.7 Y93.746 E.01936
G1 X132.3 Y93.746 E.45777
G1 X132.837 Y93.799 E.01693
G1 X133.907 Y94.225 E.0361
G1 X134.731 Y95.028 E.0361
G1 X135.186 Y96.086 E.03609
G1 X135.254 Y96.7 E.01937
G1 X135.254 Y113.3 E.52048
G1 X135.186 Y113.914 E.01936
G1 X134.731 Y114.972 E.0361
G1 X133.907 Y115.775 E.0361
G1 X132.914 Y116.186 E.03369
G1 X132.3 Y116.254 E.01937
G1 X117.7 Y116.254 E.45777
G1 X117.086 Y116.186 E.01936
G1 X116.028 Y115.731 E.0361
G1 X115.225 Y114.907 E.0361
G1 X114.814 Y113.914 E.03369
G1 X114.746 Y113.3 E.01937
G1 X114.746 Y96.7 E.52048
G1 X114.814 Y96.086 E.01937
G1 X115.245 Y95.084 E.03421
M204 S1000
G1 X115.582 Y95.238 F10800
M204 S800
G1 F1200
G1 X116.303 Y94.539 E.03149
G1 X117.16 Y94.184 E.02908
G1 X117.7 Y94.123 E.01705
G1 X132.764 Y94.169 E.47231
G1 X133.697 Y94.539 E.03148
G1 X134.418 Y95.238 E.03149
G1 X134.816 Y96.16 E.03148
G1 X134.877 Y96.7 E.01705
G1 X134.877 Y113.3 E.52048
G1 X134.816 Y113.84 E.01705
G1 X134.418 Y114.762 E.03148
G1 X133.697 Y115.461 E.03149
G1 X132.84 Y115.816 E.02908
G1 X132.3 Y115.877 E.01705
G1 X117.7 Y115.877 E.45777
G1 X117.16 Y115.816 E.01705
G1 X116.238 Y115.418 E.03148
G1 X115.539 Y114.697 E.03148
G1 X115.184 Y113.84 E.02908
G1 X115.123 Y113.3 E.01705
G1 X115.123 Y96.7 E.52048
G1 X115.184 Y96.16 E.01705
G1 X115.558 Y95.293 E.0296
M204 S1000
; printing object trilho_2.stl id:0 copy 0
;WIPE_START
G1 F8640
G1 X116.303 Y94.539 E-.24472
G1 X117.16 Y94.184 E-.21416
G1 X117.7 Y94.123 E-.12554
G1 X118.46 Y94.125 E-.17558
;WIPE_END
G1 E-.04 F2100
G1 Z.6 F720
G1 X118.318 Y97.318 F10800
G1 Z.2 F720
G1 E.8 F2100
M204 S800
;TYPE:Perimeter
;WIDTH:0.419999
G1 F1200
G1 X131.682 Y97.318 E.41902
G1 X131.682 Y112.682 E.48173
G1 X118.318 Y112.682 E.41902
G1 X118.318 Y97.378 E.47985
M204 S1000
G1 X117.941 Y96.941 F10800
M204 S800
;TYPE:External perimeter
G1 F1200
G1 X132.059 Y96.941 E.44267
G1 X132.059 Y113.059 E.50537
G1 X117.941 Y113.059 E.44267
G1 X117.941 Y97.001 E.50349
M204 S1000
G1 X118.325 Y97.053 F10800
;WIPE_START
G1 F8640
G1 X121.232 Y96.987 E-.76
;WIPE_END
G1 E-.04 F2100
G1 Z.6 F720
G1 X131.569 Y98.196 F10800
G1 Z.2 F720
G1 E.8 F2100
M204 S800
;TYPE:Solid infill
;WIDTH:0.421169
G1 F1200
G1 X130.974 Y97.601 E.02647
G1 X130.439 Y97.601 E.01682
G1 X131.399 Y98.561 E.04271
G1 X131.399 Y99.096 E.01682
G1 X129.904 Y97.601 E.06651
G1 X129.369 Y97.601 E.01682
G1 X131.399 Y99.631 E.0903
G1 X131.399 Y100.166 E.01682
G1 X128.834 Y97.601 E.11409
G1 X128.299 Y97.601 E.01682
G1 X131.399 Y100.701 E.13789
G1 X131.399 Y101.236 E.01682
G1 X127.764 Y97.601 E.16168
G1 X127.229 Y97.601 E.01682
G1 X131.399 Y101.771 E.18547
G1 X131.399 Y102.306 E.01682
G1 X126.694 Y97.601 E.20926
G1 X126.16 Y97.601 E.01682
G1 X131.399 Y102.84 E.23306
G1 X131.399 Y103.375 E.01682
G1 X125.625 Y97.601 E.25685
G1 X125.09 Y97.601 E.01682
G1 X131.399 Y103.91 E.28064
G1 X131.399 Y104.445 E.01682
G1 X124.555 Y97.601 E.30444
G1 X124.02 Y97.601 E.01682
G1 X131.399 Y104.98 E.32823
G1 X131.399 Y105.515 E.01682
G1 X123.485 Y97.601 E.35202
G1 X122.95 Y97.601 E.01682
G1 X131.399 Y106.05 E.37582
G1 X131.399 Y106.585 E.01682
G1 X122.415 Y97.601 E.39961
G1 X121.88 Y97.601 E.01682
G1 X131.399 Y107.12 E.4234
G1 X131.399 Y107.655 E.01682
G1 X121.345 Y97.601 E.44719
G1 X120.81 Y97.601 E.01682
G1 X131.399 Y108.19 E.47099
G1 X131.399 Y108.725 E.01682
G1 X120.275 Y97.601 E.49478
G1 X119.74 Y97.601 E.01682
G1 X131.399 Y109.26 E.51857
G1 X131.399 Y109.795 E.01682
G1 X119.205 Y97.601 E.54237
G1 X118.671 Y97.601 E.01682
G1 X131.399 Y110.329 E.56616
G1 X131.399 Y110.864 E.01682
G1 X118.601 Y98.066 E.56926
G1 X118.601 Y98.601 E.01682
G1 X131.399 Y111.399 E.56926
G1 X131.399 Y111.934 E.01682
G1 X118.601 Y99.136 E.56926
G1 X118.601 Y99.671 E.01682
G1 X131.329 Y112.399 E.56616
G1 X130.794 Y112.399 E.01682
G1 X118.601 Y100.206 E.54236
G1 X118.601 Y100.741 E.01682
G1 X130.259 Y112.399 E.51857
G1 X129.725 Y112.399 E.01682
G1 X118.601 Y101.275 E.49478
G1 X118.601 Y101.81 E.01682
G1 X129.19 Y112.399 E.47098
G1 X128.655 Y112.399 E.01682
G1 X118.601 Y102.345 E.44719
G1 X118.601 Y102.88 E.01682
G1 X128.12 Y112.399 E.4234
G1 X127.585 Y112.399 E.01682
G1 X118.601 Y103.415 E.3996
G1 X118.601 Y103.95 E.01682
G1 X127.05 Y112.399 E.37581
G1 X126.515 Y112.399 E.01682
G1 X118.601 Y104.485 E.35202
G1 X118.601 Y105.02 E.01682
G1 X125.98 Y112.399 E.32823
G1 X125.445 Y112.399 E.01682
G1 X118.601 Y105.555 E.30443
G1 X118.601 Y106.09 E.01682
G1 X124.91 Y112.399 E.28064
G1 X124.375 Y112.399 E.01682
G1 X118.601 Y106.625 E.25685
G1 X118.601 Y107.16 E.01682
G1 X123.84 Y112.399 E.23305
G1 X123.305 Y112.399 E.01682
G1 X118.601 Y107.695 E.20926
G1 X118.601 Y108.229 E.01682
G1 X122.771 Y112.399 E.18547
G1 X122.236 Y112.399 E.01682
G1 X118.601 Y108.764 E.16167
G1 X118.601 Y109.299 E.01682
G1 X121.701 Y112.399 E.13788
G1 X121.166 Y112.399 E.01682
G1 X118.601 Y109.834 E.11409
G1 X118.601 Y110.369 E.01682
G1 X120.631 Y112.399 E.09029
G1 X120.096 Y112.399 E.01682
G1 X118.601 Y110.904 E.0665
G1 X118.601 Y111.439 E.01682
G1 X119.561 Y112.399 E.04271
G1 X119.026 Y112.399 E.01682
G1 X118.431 Y111.804 E.02646
M204 S1000
; stop printing object trilho_2.stl id:0 copy 0
M106 S84.15
;LAYER_CHANGE
;Z:0.55
;HEIGHT:0.35
;BEFORE_LAYER_CHANGE
G92 E0.0
;0.55


;WIPE_START
G1 F8640
G1 X119.026 Y112.399 E-.19428
G1 X119.561 Y112.399 E-.12352
G1 X118.601 Y111.439 E-.31355
G1 X118.601 Y110.904 E-.12352
G1 X118.617 Y110.92 E-.00514
;WIPE_END
G1 E-.04 F2100
G1 Z.6 F720
;AFTER_LAYER_CHANGE
;0.55
;CURRENT_Z: 0.55
M104 S210 ; set temperature
G1 X114.746 Y110.92 F10800
G1 Z.55 F720
G1 E.8 F2100
;TYPE:Skirt/Brim
;WIDTH:0.42
G1 F2512
G1 X114.746 Y96.7 E.71364
G1 X114.814 Y96.086 E.031
G1 X115.269 Y95.028 E.05777
G1 X116.093 Y94.225 E.05778
G1 X117.086 Y93.814 E.05393
G1 X117.7 Y93.746 E.031
G1 X132.3 Y93.746 E.73271
G1 X132.837 Y93.799 E.02709
G1 X133.907 Y94.225 E.05778
G1 X134.731 Y95.028 E.05778
G1 X135.186 Y96.086 E.05777
G1 X135.254 Y96.7 E.031
G1 X135.254 Y113.3 E.83309
G1 X135.186 Y113.914 E.031
M73 P0 R114
G1 X134.731 Y114.972 E.05778
G1 X133.907 Y115.775 E.05778
G1 X132.914 Y116.186 E.05393
G1 X132.3 Y116.254 E.031
G1 X117.7 Y116.254 E.73271
G1 X117.086 Y116.186 E.031
G1 X116.028 Y115.731 E.05778
G1 X115.225 Y114.907 E.05778
G1 X114.814 Y113.914 E.05393
G1 X114.746 Y113.3 E.031
G1 X114.746 Y110.98 E.11644
G1 X115.123 Y110.98 F10800
G1 F2512
G1 X115.123 Y96.7 E.71665
G1 X115.184 Y96.16 E.02729
G1 X115.582 Y95.238 E.05039
G1 X116.303 Y94.539 E.0504
G1 X117.16 Y94.184 E.04655
G1 X117.7 Y94.123 E.02729
G1 X132.764 Y94.169 E.75599
G1 X133.697 Y94.539 E.0504
G1 X134.418 Y95.238 E.0504
G1 X134.816 Y96.16 E.05039
G1 X134.877 Y96.7 E.02729
G1 X134.877 Y113.3 E.83309
G1 X134.816 Y113.84 E.02729
G1 X134.418 Y114.762 E.05039
G1 X133.697 Y115.461 E.0504
G1 X132.84 Y115.816 E.04655
G1 X132.3 Y115.877 E.02729
G1 X117.7 Y115.877 E.73271
G1 X117.16 Y115.816 E.02729
G1 X116.238 Y115.418 E.05039
G1 X115.539 Y114.697 E.05039
G1 X115.184 Y113.84 E.04654
G1 X115.123 Y113.3 E.02729
G1 X115.123 Y111.04 E.11343
; printing object trilho_2.stl id:0 copy 0
;WIPE_START
G1 F8640
G1 X115.123 Y107.748 E-.76
;WIPE_END
G1 E-.04 F2100
G1 Z.95 F720
G1 X118.24 Y97.24 F10800
G1 Z.55 F720
G1 E.8 F2100
M204 S800
;TYPE:Perimeter
;WIDTH:0.43
G1 F2512
G1 X131.76 Y97.24 E.6982
G1 X131.76 Y112.76 E.80148
G1 X118.24 Y112.76 E.6982
G1 X118.24 Y97.3 E.79838
M204 S1000
G1 X117.8 Y96.8 F10800
M204 S800
;TYPE:External perimeter
;WIDTH:0.6
G1 F2400
G1 X132.2 Y96.8 E1.09985
G1 X132.2 Y113.2 E1.2526
G1 X117.8 Y113.2 E1.09985
G1 X117.8 Y96.86 E1.24802
M204 S1000
G1 X118.184 Y96.912 F10800
;WIPE_START
G1 F8640
G1 X121.091 Y96.846 E-.76
;WIPE_END
G1 E-.04 F2100
G1 Z.95 F720
G1 X130.358 Y112.64 F10800
G1 Z.55 F720
G1 E.8 F2100
M204 S2000
;TYPE:Solid infill
;WIDTH:0.708978
G1 F2512
G1 X131.359 Y111.639 E.13057
G1 X131.359 Y110.743 E.08268
G1 X129.743 Y112.359 E.21082
G1 X128.846 Y112.359 E.08268
G1 X131.359 Y109.846 E.32776
G1 X131.359 Y108.95 E.08268
G1 X127.95 Y112.359 E.44469
G1 X127.053 Y112.359 E.08268
G1 X131.359 Y108.053 E.56162
G1 X131.359 Y107.157 E.08268
G1 X126.157 Y112.359 E.67855
G1 X125.261 Y112.359 E.08268
G1 X131.359 Y106.261 E.79548
G1 X131.359 Y105.364 E.08268
G1 X124.364 Y112.359 E.91241
G1 X123.468 Y112.359 E.08268
G1 X131.359 Y104.468 E1.02934
G1 X131.359 Y103.571 E.08268
G1 X122.571 Y112.359 E1.14627
G1 X121.675 Y112.359 E.08268
G1 X131.359 Y102.675 E1.2632
G1 X131.359 Y101.778 E.08268
G1 X120.778 Y112.359 E1.38013
G1 X119.882 Y112.359 E.08268
G1 X131.359 Y100.882 E1.49706
G1 X131.359 Y99.986 E.08268
G1 X118.986 Y112.359 E1.61399
G1 X118.641 Y112.359 E.03178
G1 X118.641 Y111.807 E.0509
G1 X131.359 Y99.089 E1.65894
G1 X131.359 Y98.193 E.08268
G1 X118.641 Y110.911 E1.65894
G1 X118.641 Y110.014 E.08268
G1 X131.014 Y97.641 E1.61397
G1 X130.118 Y97.641 E.08268
G1 X118.641 Y109.118 E1.49704
G1 X118.641 Y108.221 E.08268
G1 X129.221 Y97.641 E1.38011
G1 X128.325 Y97.641 E.08268
G1 X118.641 Y107.325 E1.26318
G1 X118.641 Y106.429 E.08268
G1 X127.429 Y97.641 E1.14625
G1 X126.532 Y97.641 E.08268
G1 X118.641 Y105.532 E1.02932
G1 X118.641 Y104.636 E.08268
G1 X125.636 Y97.641 E.91239
G1 X124.739 Y97.641 E.08268
G1 X118.641 Y103.739 E.79546
G1 X118.641 Y102.843 E.08268
G1 X123.843 Y97.641 E.67853
G1 X122.946 Y97.641 E.08268
G1 X118.641 Y101.946 E.5616
G1 X118.641 Y101.05 E.08268
G1 X122.05 Y97.641 E.44467
G1 X121.154 Y97.641 E.08268
G1 X118.641 Y100.154 E.32774
G1 X118.641 Y99.257 E.08268
G1 X120.257 Y97.641 E.21081
G1 X119.361 Y97.641 E.08268
G1 X118.36 Y98.642 E.13056
M204 S1000
; stop printing object trilho_2.stl id:0 copy 0
M106 S170.85
;LAYER_CHANGE
;Z:0.9
;HEIGHT:0.35
;BEFORE_LAYER_CHANGE
G92 E0.0
;0.9


;WIPE_START
G1 F8640
G1 X119.361 Y97.641 E-.32683
G1 X120.257 Y97.641 E-.20699
G1 X119.565 Y98.334 E-.22618
;WIPE_END
G1 E-.04 F2100
G1 Z.95 F720
;AFTER_LAYER_CHANGE
;0.9
;CURRENT_Z: 0.9
G1 X119.565 Y93.746 F10800
G1 Z.9 F720
G1 E.8 F2100
;TYPE:Skirt/Brim
;WIDTH:0.42
G1 F2497
G1 X132.3 Y93.746 E.63914
G1 X132.837 Y93.799 E.02709
G1 X133.907 Y94.225 E.05778
G1 X134.731 Y95.028 E.05778
G1 X135.186 Y96.086 E.05777
G1 X135.254 Y96.7 E.031
G1 X135.254 Y113.3 E.83309
G1 X135.186 Y113.914 E.031
G1 X134.731 Y114.972 E.05778
G1 X133.907 Y115.775 E.05778
G1 X132.914 Y116.186 E.05393
G1 X132.3 Y116.254 E.031
G1 X117.7 Y116.254 E.73271
G1 X117.086 Y116.186 E.031
G1 X116.028 Y115.731 E.05778
G1 X115.225 Y114.907 E.05778
G1 X114.814 Y113.914 E.05393
G1 X114.746 Y113.3 E.031
G1 X114.746 Y96.7 E.83309
G1 X114.814 Y96.086 E.031
G1 X115.269 Y95.028 E.05777
G1 X116.093 Y94.225 E.05778
G1 X117.086 Y93.814 E.05393
G1 X117.7 Y93.746 E.031
G1 X119.505 Y93.746 E.09056
G1 X119.503 Y94.128 F10800
G1 F2497
G1 X132.764 Y94.169 E.66549
G1 X133.697 Y94.539 E.0504
G1 X134.418 Y95.238 E.0504
G1 X134.816 Y96.16 E.05039
G1 X134.877 Y96.7 E.02729
G1 X134.877 Y113.3 E.83309
G1 X134.816 Y113.84 E.02729
G1 X134.418 Y114.762 E.05039
G1 X133.697 Y115.461 E.0504
G1 X132.84 Y115.816 E.04655
G1 X132.3 Y115.877 E.02729
G1 X117.7 Y115.877 E.73271
G1 X117.16 Y115.816 E.02729
G1 X116.238 Y115.418 E.05039
G1 X115.539 Y114.697 E.05039
G1 X115.184 Y113.84 E.04654
G1 X115.123 Y113.3 E.02729
G1 X115.123 Y96.7 E.83309
G1 X115.184 Y96.16 E.02729
M73 P1 R114
G1 X115.582 Y95.238 E.05039
G1 X116.303 Y94.539 E.0504
G1 X117.16 Y94.184 E.04655
G1 X117.7 Y94.123 E.02729
G1 X119.443 Y94.128 E.08749
; printing object trilho_2.stl id:0 copy 0
;WIPE_START
G1 F8640
G1 X122.735 Y94.138 E-.76
;WIPE_END
G1 E-.04 F2100
G1 Z1.3 F720
G1 X118.24 Y97.24 F10800
G1 Z.9 F720
G1 E.8 F2100
M204 S800
;TYPE:Perimeter
;WIDTH:0.43
G1 F2497
G1 X131.76 Y97.24 E.6982
G1 X131.76 Y112.76 E.80148
G1 X118.24 Y112.76 E.6982
G1 X118.24 Y97.3 E.79838
M204 S1000
G1 X117.8 Y96.8 F10800
M204 S800
;TYPE:External perimeter
;WIDTH:0.6
G1 F2400
G1 X132.2 Y96.8 E1.09985
G1 X132.2 Y113.2 E1.2526
G1 X117.8 Y113.2 E1.09985
G1 X117.8 Y96.86 E1.24802
M204 S1000
G1 X118.184 Y96.912 F10800
;WIPE_START
G1 F8640
G1 X121.091 Y96.846 E-.76
;WIPE_END
G1 E-.04 F2100
G1 Z1.3 F720
G1 X130.358 Y97.36 F10800
G1 Z.9 F720
G1 E.8 F2100
M204 S2000
;TYPE:Solid infill
;WIDTH:0.708977
G1 F2497
G1 X131.359 Y98.361 E.13057
G1 X131.359 Y99.257 E.08268
G1 X129.743 Y97.641 E.21082
G1 X128.846 Y97.641 E.08268
G1 X131.359 Y100.154 E.32776
G1 X131.359 Y101.05 E.08268
G1 X127.95 Y97.641 E.44469
G1 X127.053 Y97.641 E.08268
G1 X131.359 Y101.947 E.56162
G1 X131.359 Y102.843 E.08268
G1 X126.157 Y97.641 E.67855
G1 X125.261 Y97.641 E.08268
G1 X131.359 Y103.739 E.79548
G1 X131.359 Y104.636 E.08268
G1 X124.364 Y97.641 E.91241
G1 X123.468 Y97.641 E.08268
G1 X131.359 Y105.532 E1.02934
G1 X131.359 Y106.429 E.08268
G1 X122.571 Y97.641 E1.14627
G1 X121.675 Y97.641 E.08268
G1 X131.359 Y107.325 E1.2632
G1 X131.359 Y108.222 E.08268
G1 X120.778 Y97.641 E1.38013
G1 X119.882 Y97.641 E.08268
G1 X131.359 Y109.118 E1.49706
G1 X131.359 Y110.014 E.08268
G1 X118.986 Y97.641 E1.61399
G1 X118.641 Y97.641 E.03178
G1 X118.641 Y98.193 E.0509
G1 X131.359 Y110.911 E1.65894
G1 X131.359 Y111.807 E.08268
G1 X118.641 Y99.089 E1.65894
G1 X118.641 Y99.986 E.08268
G1 X131.014 Y112.359 E1.61397
G1 X130.118 Y112.359 E.08268
G1 X118.641 Y100.882 E1.49704
G1 X118.641 Y101.779 E.08268
G1 X129.221 Y112.359 E1.38011
G1 X128.325 Y112.359 E.08268
G1 X118.641 Y102.675 E1.26318
G1 X118.641 Y103.571 E.08268
G1 X127.429 Y112.359 E1.14625
G1 X126.532 Y112.359 E.08268
G1 X118.641 Y104.468 E1.02932
G1 X118.641 Y105.364 E.08268
G1 X125.636 Y112.359 E.91239
G1 X124.739 Y112.359 E.08268
G1 X118.641 Y106.261 E.79546
G1 X118.641 Y107.157 E.08268
G1 X123.843 Y112.359 E.67853
G1 X122.946 Y112.359 E.08268
G1 X118.641 Y108.054 E.5616
G1 X118.641 Y108.95 E.08268
G1 X122.05 Y112.359 E.44467
G1 X121.154 Y112.359 E.08268
G1 X118.641 Y109.846 E.32774
G1 X118.641 Y110.743 E.08268
G1 X120.257 Y112.359 E.21081
G1 X119.361 Y112.359 E.08268
G1 X118.36 Y111.358 E.13056
M204 S1000
; stop printing object trilho_2.stl id:0 copy 0
M106 S255
;LAYER_CHANGE
;Z:1.25
;HEIGHT:0.35
;BEFORE_LAYER_CHANGE
G92 E0.0
;1.25


;WIPE_START
G1 F8640
G1 X119.361 Y112.359 E-.32683
G1 X120.257 Y112.359 E-.20699
G1 X119.565 Y111.666 E-.22618
;WIPE_END
G1 E-.04 F2100
G1 Z1.3 F720
;AFTER_LAYER_CHANGE
;1.25
;CURRENT_Z: 1.25
; printing object trilho_2.stl id:0 copy 0
G1 X118.24 Y97.24 F10800
G1 Z1.25 F720
G1 E.8 F2100
M204 S800
;TYPE:Perimeter
;WIDTH:0.43
G1 F1694
G1 X131.76 Y97.24 E.6982
G1 X131.76 Y112.76 E.80148
G1 X118.24 Y112.76 E.6982
G1 X118.24 Y97.3 E.79838
M204 S1000
G1 X117.8 Y96.8 F10800
M204 S800
;TYPE:External perimeter
