; generated by PrusaSlicer 2.8.0 on 2024-09-21 at 14:29:17 UTC

; 

; external perimeters extrusion width = 0.60mm
; perimeters extrusion width = 0.43mm
; infill extrusion width = 0.45mm
; solid infill extrusion width = 0.70mm
; top infill extrusion width = 0.45mm
; first layer extrusion width = 0.42mm

M73 P0 R116
M201 X9000 Y9000 Z500 E10000 ; sets maximum accelerations, mm/sec^2
M203 X500 Y500 Z12 E120 ; sets maximum feedrates, mm / sec
M204 S2000 T1500 ; sets acceleration (S) and retract acceleration (R), mm/sec^2
M205 X10.00 Y10.00 Z0.20 E4.50 ; sets the jerk limits, mm/sec
M205 S0 T0 ; sets the minimum extruding and travel feed rate, mm/sec

; printing object trilho_2.stl id:0 copy 0
; stop printing object trilho_2.stl id:0 copy 0

;TYPE:Custom
M862.3 P "MK2.5" ; printer model check
M862.1 P0.4 ; nozzle diameter check
M115 U3.11.0 ; tell printer latest fw version
G90 ; use absolute coordinates
M83 ; extruder relative mode
M104 S215 ; set extruder temp
M140 S60 ; set bed temp
M190 S60 ; wait for bed temp
M109 S215 ; wait for extruder temp
G28 W ; home all without mesh bed level
G80 ; mesh bed leveling

G1 Z0.2 F720
G1 Y-3 F1000 ; go outside print area
G92 E0
G1 X60 E9 F1000 ; intro line
G1 X100 E12.5 F1000 ; intro line

G92 E0
G21 ; set units to millimeters
G90 ; use absolute coordinates
M83 ; use relative distances for extrusion
M900 K0.05 ; Filament gcode LA 1.5
M900 K30 ; Filament gcode LA 1.0
M107
;LAYER_CHANGE
;Z:0.2
;HEIGHT:0.2
G1 E-.8 F2100
G1 Z.6 F720
G1 X115.427 Y95.131 F10800
G1 Z.2 F720
G1 E.8 F2100
M204 S800
;TYPE:Skirt/Brim
;WIDTH:0.42
G1 F1200
G1 X116.195 Y94.384 E.03359
G1 X117.124 Y93.999 E.03153
G1 X117.7 Y93.935 E.01817
G1 X132.3 Y93.935 E.45777
G1 X132.876 Y93.999 E.01817
G1 X133.869 Y94.427 E.0339
G1 X134.616 Y95.196 E.03361
G1 X135.016 Y96.197 E.0338
G1 X135.066 Y113.3 E.53625
G1 X135 Y113.88 E.0183
G1 X134.573 Y114.869 E.03378
G1 X133.805 Y115.616 E.03359
G1 X132.876 Y116.001 E.03153
G1 X132.3 Y116.065 E.01817
G1 X117.7 Y116.065 E.45777
G1 X117.124 Y116.001 E.01817
M73 P0 R115
G1 X116.131 Y115.573 E.0339
G1 X115.384 Y114.804 E.03361
G1 X114.999 Y113.88 E.03139
G1 X114.934 Y113.3 E.0183
G1 X114.934 Y96.7 E.52048
G1 X114.999 Y96.12 E.0183
G1 X115.403 Y95.186 E.03191
M204 S1000
G1 X115.403 Y95.186 F10800
G1 X115.74 Y95.341
M204 S800
G1 F1200
G1 X116.405 Y94.697 E.02903
G1 X117.197 Y94.369 E.02688
G1 X117.7 Y94.312 E.01587
G1 X132.3 Y94.312 E.45777
G1 X132.803 Y94.369 E.01587
G1 X133.659 Y94.741 E.02926
G1 X134.303 Y95.406 E.02903
G1 X134.631 Y96.194 E.02676
G1 X134.688 Y96.7 E.01597
G1 X134.688 Y113.3 E.52048
G1 X134.631 Y113.806 E.01597
G1 X134.26 Y114.659 E.02917
G1 X133.595 Y115.303 E.02903
G1 X132.803 Y115.631 E.02688
G1 X132.3 Y115.688 E.01587
G1 X117.7 Y115.688 E.45777
G1 X117.197 Y115.631 E.01587
G1 X116.341 Y115.26 E.02925
G1 X115.697 Y114.594 E.02905
G1 X115.369 Y113.806 E.02676
G1 X115.312 Y113.3 E.01597
G1 X115.312 Y96.7 E.52048
G1 X115.369 Y96.194 E.01597
G1 X115.716 Y95.396 E.02728
M204 S1000
;WIPE_START
G1 F8640
G1 X115.74 Y95.341 E-.01386
G1 X116.405 Y94.697 E-.21375
G1 X117.197 Y94.369 E-.19794
G1 X117.7 Y94.312 E-.11689
G1 X118.815 Y94.312 E-.25756
;WIPE_END
G1 Z.6 F720
; printing object trilho_2.stl id:0 copy 0
G1 X118.318 Y97.318 F10800
G1 Z.2 F720
G1 E.8 F2100
M204 S800
;TYPE:Perimeter
;WIDTH:0.419999
G1 F1200
G1 X131.682 Y97.318 E.41902
G1 X131.682 Y104 E.20951
G1 X131.682 Y112.682 E.27222
G1 X118.318 Y112.682 E.41902
G1 X118.318 Y97.378 E.47985
M204 S1000
G1 X118.318 Y97.378 F10800
G1 X117.941 Y96.941
M204 S800
;TYPE:External perimeter
G1 F1200
G1 X132.059 Y96.941 E.44266
G1 X132.059 Y104 E.22133
G1 X132.059 Y113.059 E.28404
G1 X117.941 Y113.059 E.44266
G1 X117.941 Y97.001 E.50349
M204 S1000
;WIPE_START
G1 F8640
G1 X117.941 Y96.941 E-.01385
G1 X121.346 Y96.941 E-.78615
;WIPE_END
G1 Z.6 F720
G1 X131.569 Y98.196 F10800
G1 Z.2 F720
G1 E.8 F2100
M204 S800
;TYPE:Solid infill
;WIDTH:0.421152
G1 F1200
G1 X130.974 Y97.601 E.02646
G1 X130.439 Y97.601 E.01683
G1 X131.399 Y98.561 E.0427
G1 X131.399 Y99.096 E.01683
G1 X129.904 Y97.601 E.06649
G1 X129.369 Y97.601 E.01683
G1 X131.399 Y99.631 E.09029
G1 X131.399 Y100.166 E.01683
G1 X128.834 Y97.601 E.11408
G1 X128.299 Y97.601 E.01683
G1 X131.399 Y100.701 E.13788
G1 X131.399 Y101.236 E.01683
G1 X127.764 Y97.601 E.16167
G1 X127.229 Y97.601 E.01683
G1 X131.399 Y101.771 E.18547
G1 X131.399 Y102.306 E.01683
G1 X126.694 Y97.601 E.20927
G1 X126.16 Y97.601 E.01679
G1 X131.399 Y102.841 E.23304
G1 X131.399 Y103.376 E.01683
G1 X125.625 Y97.601 E.25683
G1 X125.09 Y97.601 E.01683
G1 X131.399 Y103.91 E.28061
G1 X131.399 Y104.445 E.01683
G1 X124.555 Y97.601 E.3044
G1 X124.02 Y97.601 E.01683
G1 X131.399 Y104.98 E.3282
G1 X131.399 Y105.515 E.01683
G1 X123.485 Y97.601 E.35199
G1 X122.95 Y97.601 E.01683
G1 X131.399 Y106.05 E.37579
G1 X131.399 Y106.585 E.01683
G1 X122.415 Y97.601 E.39958
G1 X121.88 Y97.601 E.01683
G1 X131.399 Y107.12 E.42338
G1 X131.399 Y107.655 E.01683
G1 X121.345 Y97.601 E.44717
G1 X120.811 Y97.601 E.01679
G1 X131.399 Y108.19 E.47095
G1 X131.399 Y108.725 E.01683
G1 X120.276 Y97.601 E.49474
G1 X119.741 Y97.601 E.01683
G1 X131.399 Y109.259 E.51852
G1 X131.399 Y109.794 E.01683
G1 X119.206 Y97.601 E.54231
G1 X118.671 Y97.601 E.01683
G1 X131.399 Y110.329 E.56611
G1 X131.399 Y110.864 E.01683
G1 X118.601 Y98.066 E.56922
G1 X118.601 Y98.601 E.01683
G1 X131.399 Y111.399 E.56922
G1 X131.399 Y111.934 E.01683
G1 X118.601 Y99.136 E.56922
G1 X118.601 Y99.671 E.01683
G1 X131.329 Y112.399 E.56611
G1 X130.794 Y112.399 E.01683
G1 X118.601 Y100.206 E.54231
G1 X118.601 Y100.741 E.01683
G1 X130.259 Y112.399 E.51852
G1 X129.724 Y112.399 E.01683
G1 X118.601 Y101.276 E.49472
G1 X118.601 Y101.81 E.01679
G1 X129.189 Y112.399 E.47095
G1 X128.654 Y112.399 E.01683
G1 X118.601 Y102.345 E.44715
G1 X118.601 Y102.88 E.01683
G1 X128.12 Y112.399 E.42338
G1 X127.585 Y112.399 E.01683
G1 X118.601 Y103.415 E.39958
G1 X118.601 Y103.95 E.01683
G1 X127.05 Y112.399 E.37579
G1 X126.515 Y112.399 E.01683
G1 X118.601 Y104.485 E.35199
G1 X118.601 Y105.02 E.01683
G1 X125.98 Y112.399 E.3282
G1 X125.445 Y112.399 E.01683
G1 X118.601 Y105.555 E.3044
G1 X118.601 Y106.09 E.01683
G1 X124.91 Y112.399 E.28061
G1 X124.375 Y112.399 E.01683
G1 X118.601 Y106.625 E.25681
G1 X118.601 Y107.159 E.01679
G1 X123.84 Y112.399 E.23304
G1 X123.305 Y112.399 E.01683
G1 X118.601 Y107.694 E.20924
G1 X118.601 Y108.229 E.01683
G1 X122.771 Y112.399 E.18547
G1 X122.236 Y112.399 E.01683
G1 X118.601 Y108.764 E.16167
G1 X118.601 Y109.299 E.01683
G1 X121.701 Y112.399 E.13788
G1 X121.166 Y112.399 E.01683
G1 X118.601 Y109.834 E.11408
G1 X118.601 Y110.369 E.01683
G1 X120.631 Y112.399 E.09029
G1 X120.096 Y112.399 E.01683
G1 X118.601 Y110.904 E.06649
G1 X118.601 Y111.439 E.01683
G1 X119.561 Y112.399 E.0427
G1 X119.026 Y112.399 E.01683
G1 X118.431 Y111.804 E.02646
M204 S1000
M106 S84.15
;LAYER_CHANGE
;Z:0.55
;HEIGHT:0.35
;BEFORE_LAYER_CHANGE
G92 E0.0
;0.55


;WIPE_START
G1 F8640
G1 X119.026 Y112.399 E-.19429
G1 X119.561 Y112.399 E-.12353
G1 X118.601 Y111.439 E-.31348
G1 X118.601 Y110.904 E-.12353
G1 X118.739 Y111.042 E-.04517
;WIPE_END
G1 Z.55 F720
;AFTER_LAYER_CHANGE
;0.55
;CURRENT_Z: 0.55
M104 S210 ; set temperature
; stop printing object trilho_2.stl id:0 copy 0
G1 Z.95
G1 X114.934 Y111.042 F10800
G1 Z.55 F720
G1 E.8 F2100
;TYPE:Skirt/Brim
;WIDTH:0.42
G1 F2561
G1 X114.934 Y96.7 E.71977
G1 X114.999 Y96.12 E.02929
G1 X115.427 Y95.131 E.05408
G1 X116.195 Y94.384 E.05377
G1 X117.124 Y93.999 E.05047
G1 X117.7 Y93.935 E.02908
G1 X132.3 Y93.935 E.73271
G1 X132.876 Y93.999 E.02908
G1 X133.869 Y94.427 E.05427
G1 X134.616 Y95.196 E.0538
G1 X135.016 Y96.197 E.0541
G1 X135.066 Y113.3 E.85833
G1 X135 Y113.88 E.0293
G1 X134.573 Y114.869 E.05406
G1 X133.805 Y115.616 E.05377
G1 X132.876 Y116.001 E.05047
G1 X132.3 Y116.065 E.02908
G1 X117.7 Y116.065 E.73271
G1 X117.124 Y116.001 E.02908
G1 X116.131 Y115.573 E.05427
G1 X115.384 Y114.804 E.0538
G1 X114.999 Y113.88 E.05024
G1 X114.934 Y113.3 E.02929
G1 X114.934 Y111.102 E.11031
G1 X114.934 Y111.102 F10800
G1 X115.312 Y111.102
G1 F2561
G1 X115.312 Y96.7 E.72278
G1 X115.369 Y96.194 E.02555
G1 X115.74 Y95.341 E.04668
G1 X116.405 Y94.697 E.04646
G1 X117.197 Y94.369 E.04302
G1 X117.7 Y94.312 E.02541
G1 X132.3 Y94.312 E.73271
G1 X132.803 Y94.369 E.02541
G1 X133.659 Y94.741 E.04684
G1 X134.303 Y95.406 E.04646
G1 X134.631 Y96.194 E.04284
G1 X134.688 Y96.7 E.02555
G1 X134.688 Y113.3 E.83309
G1 X134.631 Y113.806 E.02555
G1 X134.26 Y114.659 E.04668
G1 X133.595 Y115.303 E.04646
G1 X132.803 Y115.631 E.04302
G1 X132.3 Y115.688 E.02541
G1 X117.7 Y115.688 E.73271
G1 X117.197 Y115.631 E.02541
G1 X116.341 Y115.26 E.04682
G1 X115.697 Y114.594 E.04649
G1 X115.369 Y113.806 E.04284
G1 X115.312 Y113.3 E.02555
G1 X115.312 Y111.162 E.1073
;WIPE_START
G1 F8640
G1 X115.312 Y111.102 E-.01385
G1 X115.312 Y107.697 E-.78615
;WIPE_END
G1 Z.95 F720
; printing object trilho_2.stl id:0 copy 0
G1 X118.24 Y97.24 F10800
G1 Z.55 F720
G1 E.8 F2100
M204 S800
;TYPE:Perimeter
;WIDTH:0.43
G1 F2561
G1 X131.76 Y97.24 E.69819
G1 X131.76 Y112.76 E.80147
G1 X118.24 Y112.76 E.69819
G1 X118.24 Y97.3 E.79837
M204 S1000
G1 X118.24 Y97.3 F10800
G1 X117.8 Y96.8
M204 S800
;TYPE:External perimeter
;WIDTH:0.6
G1 F2400
G1 X132.2 Y96.8 E1.09985
G1 X132.2 Y113.2 E1.2526
G1 X117.8 Y113.2 E1.09985
G1 X117.8 Y96.86 E1.24802
M204 S1000
;WIPE_START
G1 F8640
G1 X117.8 Y96.8 E-.01385
G1 X121.205 Y96.8 E-.78615
;WIPE_END
G1 Z.95 F720
G1 X119.186 Y97.523 F10800
G1 Z.55 F720
G1 E.8 F2100
M204 S2000
;TYPE:Solid infill
;WIDTH:0.463364
G1 F2561
G1 X118.523 Y98.186 E.05297
G1 X118.523 Y97.523 E.03746
G1 X118.873 Y97.523 E.01977
;WIDTH:0.7
G1 X120.065 Y97.364 E.10935
;WIDTH:0.415111
G1 X119.994 Y97.345 E.00364
G1 X120.013 Y97.416 E.00364
G1 X120.054 Y97.405 E.0021
;WIDTH:0.462592
G1 X120.009 Y97.444 E.00336
;WIDTH:0.510074
G1 X119.964 Y97.484 E.00381
;WIDTH:0.557555
G1 X119.919 Y97.523 E.00418
;WIDTH:0.605037
G1 X119.874 Y97.562 E.00459
;WIDTH:0.652518
G1 X119.829 Y97.602 E.00506
;WIDTH:0.7
G1 X118.641 Y98.784 E.15238
G1 X118.641 Y99.668 E.08038
G1 X120.667 Y97.641 E.2606
G1 X121.551 Y97.641 E.08038
G1 X118.641 Y100.551 E.37421
G1 X118.641 Y101.435 E.08038
G1 X122.435 Y97.641 E.48788
G1 X123.319 Y97.641 E.08038
G1 X118.641 Y102.319 E.60156
G1 X118.641 Y103.203 E.08038
G1 X124.202 Y97.641 E.71517
G1 X125.086 Y97.641 E.08038
G1 X118.641 Y104.086 E.82879
G1 X118.641 Y104.97 E.08038
G1 X125.97 Y97.641 E.94246
G1 X126.853 Y97.641 E.08029
G1 X118.641 Y105.854 E1.05608
G1 X118.641 Y106.737 E.08029
G1 X127.737 Y97.641 E1.16969
G1 X128.621 Y97.641 E.08038
G1 X118.641 Y107.621 E1.28337
G1 X118.641 Y108.505 E.08038
G1 X129.505 Y97.641 E1.39704
G1 X130.388 Y97.641 E.08029
G1 X118.641 Y109.389 E1.51066
G1 X118.641 Y110.272 E.08029
G1 X131.272 Y97.641 E1.62427
G1 X131.582 Y97.418 E.03472
;WIDTH:0.415111
G1 X131.621 Y98.132 E.03538
;WIDTH:0.7
G1 X131.359 Y98.438 E.03663
G1 X118.641 Y111.156 E1.63546
M204 S1000
;WIPE_START
G1 F8640
G1 X121.091 Y108.706 E-.8
;WIPE_END
G1 Z.95 F720
G1 X118.529 Y112.531 F10800
G1 Z.55 F720
G1 E.8 F2100
M204 S2000
;WIDTH:0.415749
G1 F2561
G1 X118.488 Y112.542 E.0021
G1 X118.469 Y112.471 E.00364
G1 X118.54 Y112.49 E.00364
;WIDTH:0.463124
G1 X118.557 Y112.415 E.00434
;WIDTH:0.510499
G1 X118.574 Y112.34 E.00487
;WIDTH:0.557874
G1 X118.591 Y112.265 E.0054
;WIDTH:0.605249
G1 X118.607 Y112.19 E.00592
;WIDTH:0.652624
G1 X118.624 Y112.115 E.00646
;WIDTH:0.7
G1 X118.641 Y112.04 E.00699
G1 X131.359 Y99.322 E1.63546
G1 X131.359 Y100.206 E.08038
G1 X119.206 Y112.359 E1.5628
G1 X120.09 Y112.359 E.08038
G1 X131.359 Y101.089 E1.44919
G1 X131.359 Y101.973 E.08038
G1 X120.973 Y112.359 E1.33557
G1 X121.857 Y112.359 E.08038
G1 X131.359 Y102.857 E1.2219
G1 X131.359 Y103.741 E.08038
G1 X122.741 Y112.359 E1.10822
G1 X123.625 Y112.359 E.08038
G1 X131.359 Y104.624 E.99461
G1 X131.359 Y105.508 E.08038
G1 X124.508 Y112.359 E.881
G1 X125.392 Y112.359 E.08038
G1 X131.359 Y106.392 E.76732
G1 X131.359 Y107.276 E.08038
G1 X126.276 Y112.359 E.65364
G1 X127.159 Y112.359 E.08029
G1 X131.359 Y108.159 E.54009
G1 X131.359 Y109.043 E.08038
G1 X128.043 Y112.359 E.42642
G1 X128.927 Y112.359 E.08038
G1 X131.359 Y109.927 E.31274
G1 X131.359 Y110.81 E.08029
G1 X129.811 Y112.359 E.19913
G1 X130.694 Y112.359 E.08029
G1 X131.359 Y111.694 E.08551
M204 S1000
M106 S170.85
;LAYER_CHANGE
;Z:0.9
;HEIGHT:0.35
;BEFORE_LAYER_CHANGE
G92 E0.0
;0.9


;WIPE_START
G1 F8640
G1 X130.694 Y112.359 E-.21715
G1 X129.811 Y112.359 E-.20389
G1 X130.971 Y111.198 E-.37896
;WIPE_END
G1 Z.9 F720
;AFTER_LAYER_CHANGE
;0.9
;CURRENT_Z: 0.9
; stop printing object trilho_2.stl id:0 copy 0
G1 Z1.3
G1 X135.059 Y111.186 F10800
G1 Z.9 F720
G1 E.8 F2100
;TYPE:Skirt/Brim
;WIDTH:0.42
G1 F2588
G1 X135.066 Y113.3 E.10609
G1 X135 Y113.88 E.0293
G1 X134.573 Y114.869 E.05406
G1 X133.805 Y115.616 E.05377
G1 X132.876 Y116.001 E.05047
G1 X132.3 Y116.065 E.02908
G1 X117.7 Y116.065 E.73271
G1 X117.124 Y116.001 E.02908
G1 X116.131 Y115.573 E.05427
G1 X115.384 Y114.804 E.0538
G1 X114.999 Y113.88 E.05024
G1 X114.934 Y113.3 E.02929
G1 X114.934 Y96.7 E.83309
G1 X114.999 Y96.12 E.02929
G1 X115.427 Y95.131 E.05408
G1 X116.195 Y94.384 E.05377
G1 X117.124 Y93.999 E.05047
G1 X117.7 Y93.935 E.02908
G1 X132.3 Y93.935 E.73271
G1 X132.876 Y93.999 E.02908
G1 X133.869 Y94.427 E.05427
G1 X134.616 Y95.196 E.0538
G1 X135.016 Y96.197 E.0541
G1 X135.059 Y111.126 E.74923
G1 X135.059 Y111.126 F10800
G1 X134.688 Y111.126
G1 F2588
G1 X134.688 Y113.3 E.1091
G1 X134.631 Y113.806 E.02555
G1 X134.26 Y114.659 E.04668
G1 X133.595 Y115.303 E.04646
G1 X132.803 Y115.631 E.04302
G1 X132.3 Y115.688 E.02541
G1 X117.7 Y115.688 E.73271
G1 X117.197 Y115.631 E.02541
G1 X116.341 Y115.26 E.04682
G1 X115.697 Y114.594 E.04649
G1 X115.369 Y113.806 E.04284
G1 X115.312 Y113.3 E.02555
G1 X115.312 Y96.7 E.83309
G1 X115.369 Y96.194 E.02555
G1 X115.74 Y95.341 E.04668
G1 X116.405 Y94.697 E.04646
G1 X117.197 Y94.369 E.04302
G1 X117.7 Y94.312 E.02541
G1 X132.3 Y94.312 E.73271
G1 X132.803 Y94.369 E.02541
G1 X133.659 Y94.741 E.04684
G1 X134.303 Y95.406 E.04646
G1 X134.631 Y96.194 E.04284
G1 X134.688 Y96.7 E.02555
G1 X134.688 Y111.066 E.72097
;WIPE_START
G1 F8640
M73 P1 R114
G1 X134.688 Y111.126 E-.01385
G1 X134.688 Y113.3 E-.50198
G1 X134.631 Y113.806 E-.11758
G1 X134.343 Y114.468 E-.16659
;WIPE_END
G1 Z1.3 F720
; printing object trilho_2.stl id:0 copy 0
G1 X118.24 Y97.24 F10800
G1 Z.9 F720
G1 E.8 F2100
M204 S800
;TYPE:Perimeter
;WIDTH:0.43
G1 F2588
G1 X131.76 Y97.24 E.69819
G1 X131.76 Y112.76 E.80147
G1 X118.24 Y112.76 E.69819
G1 X118.24 Y97.3 E.79837
M204 S1000
G1 X118.24 Y97.3 F10800
G1 X117.8 Y96.8
M204 S800
;TYPE:External perimeter
;WIDTH:0.6
G1 F2400
G1 X132.2 Y96.8 E1.09985
G1 X132.2 Y113.2 E1.2526
G1 X117.8 Y113.2 E1.09985
G1 X117.8 Y96.86 E1.24802
M204 S1000
;WIPE_START
G1 F8640
G1 X117.8 Y96.8 E-.01385
G1 X121.205 Y96.8 E-.78615
;WIPE_END
G1 Z1.3 F720
G1 X118.523 Y111.814 F10800
G1 Z.9 F720
G1 E.8 F2100
M204 S2000
;TYPE:Solid infill
;WIDTH:0.463364
G1 F2588
G1 X119.186 Y112.477 E.05297
G1 X118.523 Y112.477 E.03746
G1 X118.523 Y112.127 E.01977
;WIDTH:0.7
G1 X118.641 Y111.216 E.08353
G1 X119.784 Y112.359 E.14698
G1 X120.667 Y112.359 E.08029
G1 X118.641 Y110.332 E.2606
G1 X118.641 Y109.449 E.08029
G1 X121.551 Y112.359 E.37421
G1 X122.435 Y112.359 E.08038
G1 X118.641 Y108.565 E.48788
G1 X118.641 Y107.681 E.08038
G1 X123.319 Y112.359 E.60156
G1 X124.202 Y112.359 E.08029
G1 X118.641 Y106.797 E.71517
G1 X118.641 Y105.914 E.08029
G1 X125.086 Y112.359 E.82879
G1 X125.97 Y112.359 E.08038
G1 X118.641 Y105.03 E.94246
G1 X118.641 Y104.146 E.08038
G1 X126.853 Y112.359 E1.05608
G1 X127.737 Y112.359 E.08038
G1 X118.641 Y103.263 E1.16969
G1 X118.641 Y102.379 E.08038
G1 X128.621 Y112.359 E1.28337
G1 X129.505 Y112.359 E.08038
G1 X118.641 Y101.495 E1.39704
G1 X118.641 Y100.611 E.08038
G1 X130.388 Y112.359 E1.51066
M204 S1000
;WIPE_START
G1 F8640
G1 X127.938 Y109.909 E-.8
;WIPE_END
G1 Z1.3 F720
G1 X131.621 Y111.868 F10800
G1 Z.9 F720
G1 E.8 F2100
M204 S2000
;WIDTH:0.415111
G1 F2588
G1 X131.582 Y112.582 E.03538
;WIDTH:0.462592
G1 X131.531 Y112.545 E.00355
;WIDTH:0.510074
