; generated by PrusaSlicer 2.2.0+linux-x64 on 2021-01-30 at 22:55:26 UTC

; 

; external perimeters extrusion width = 0.45mm
; perimeters extrusion width = 0.45mm
; infill extrusion width = 0.45mm
; solid infill extrusion width = 0.45mm
; top infill extrusion width = 0.40mm
; first layer extrusion width = 0.42mm

M73 P0 R249
M201 X9000 Y9000 Z500 E10000 ; sets maximum accelerations, mm/sec^2
M203 X500 Y500 Z12 E120 ; sets maximum feedrates, mm/sec
M204 P2000 R1500 T2000 ; sets acceleration (P, T) and retract acceleration (R), mm/sec^2
M205 X10.00 Y10.00 Z0.20 E4.50 ; sets the jerk limits, mm/sec
M205 S0 T0 ; sets the minimum extruding and travel feed rate, mm/sec
M107
M862.3 P "MK2.5" ; printer model check
M862.1 P0.4 ; nozzle diameter check
M115 U3.9.1 ; tell printer latest fw version
G90 ; use absolute coordinates
M83 ; extruder relative mode
M104 S215 ; set extruder temp
M140 S60 ; set bed temp
M190 S60 ; wait for bed temp
M109 S215 ; wait for extruder temp
G28 W ; home all without mesh bed level
G80 ; mesh bed leveling
G1 Y-3.0 F1000.0 ; go outside print area
G92 E0.0
G1 X60.0 E9.0 F1000.0 ; intro line
M73 P0 R249
G1 X100.0 E12.5 F1000.0 ; intro line
G92 E0.0
G21 ; set units to millimeters
G90 ; use absolute coordinates
M83 ; use relative distances for extrusion
M900 K0.05 ; Filament gcode LA 1.5
M900 K30 ; Filament gcode LA 1.0
;BEFORE_LAYER_CHANGE
G92 E0.0
;0.2


G1 E-0.80000 F2100.00000
G1 Z0.600 F10800.000
;AFTER_LAYER_CHANGE
;0.2
;CURRENT_Z: 0.2
G1 X114.921 Y95.699
G1 Z0.200
G1 E0.80000 F2100.00000
M204 S1000
G1 F1200.000
G1 X115.354 Y94.908 E0.02828
G1 X115.780 Y94.455 E0.01950
G1 X116.325 Y94.086 E0.02064
G1 X116.876 Y93.865 E0.01860
G1 X117.512 Y93.752 E0.02026
G1 X132.300 Y93.746 E0.46367
G1 X133.370 Y93.946 E0.03413
G1 X134.288 Y94.515 E0.03387
G1 X134.944 Y95.384 E0.03412
G1 X135.238 Y96.398 E0.03310
G1 X135.253 Y113.386 E0.53266
G1 X135.079 Y114.301 E0.02919
G1 X134.646 Y115.092 E0.02828
G1 X134.204 Y115.558 E0.02014
G1 X133.635 Y115.935 E0.02141
G1 X133.053 Y116.155 E0.01950
G1 X132.382 Y116.253 E0.02128
G1 X117.598 Y116.252 E0.46354
G1 X116.691 Y116.076 E0.02894
G1 X115.908 Y115.646 E0.02803
G1 X115.442 Y115.204 E0.02014
G1 X115.063 Y114.631 E0.02154
G1 X114.844 Y114.049 E0.01950
G1 X114.747 Y113.373 E0.02140
G1 X114.747 Y96.610 E0.52561
G1 X114.910 Y95.758 E0.02719
G1 X115.277 Y95.828 F10800.000
G1 F1200.000
G1 X115.668 Y95.117 E0.02545
G1 X116.039 Y94.730 E0.01680
G1 X116.519 Y94.410 E0.01807
G1 X116.996 Y94.222 E0.01609
G1 X117.557 Y94.127 E0.01783
G1 X132.300 Y94.123 E0.46225
G1 X133.242 Y94.301 E0.03006
G1 X134.046 Y94.805 E0.02977
G1 X134.617 Y95.573 E0.03000
G1 X134.866 Y96.470 E0.02917
G1 X134.876 Y113.369 E0.52985
G1 X134.721 Y114.181 E0.02594
G1 X134.332 Y114.883 E0.02517
G1 X133.949 Y115.279 E0.01728
G1 X133.447 Y115.607 E0.01878
G1 X132.948 Y115.792 E0.01668
G1 X132.359 Y115.876 E0.01866
G1 X117.620 Y115.876 E0.46214
G1 X116.815 Y115.720 E0.02570
G1 X116.117 Y115.332 E0.02505
G1 X115.718 Y114.946 E0.01740
G1 X115.391 Y114.444 E0.01879
G1 X115.206 Y113.941 E0.01680
G1 X115.123 Y113.352 E0.01866
G1 X115.124 Y96.628 E0.52437
G1 X115.265 Y95.887 E0.02364
G1 F8640.000
G1 X115.668 Y95.117 E-0.20068
G1 X116.039 Y94.730 E-0.12375
G1 X116.519 Y94.410 E-0.13310
G1 X116.996 Y94.222 E-0.11850
G1 X117.557 Y94.127 E-0.13132
G1 X117.785 Y94.127 E-0.05265
G1 E-0.04000 F2100.00000
G1 Z0.800 F10800.000
G1 X118.318 Y97.318
G1 Z0.200
G1 E0.80000 F2100.00000
G1 F1200.000
G1 X131.682 Y97.318 E0.41902
G1 X131.682 Y112.682 E0.48173
G1 X118.318 Y112.682 E0.41902
G1 X118.318 Y97.378 E0.47985
G1 X117.941 Y96.941 F10800.000
G1 F1200.000
G1 X132.059 Y96.941 E0.44267
G1 X132.059 Y113.059 E0.50537
G1 X117.941 Y113.059 E0.44267
G1 X117.941 Y97.001 E0.50349
G1 X118.325 Y97.053 F10800.000
G1 F8640.000
G1 X121.232 Y96.987 E-0.76000
G1 E-0.04000 F2100.00000
G1 Z0.800 F10800.000
G1 X118.431 Y111.804
G1 Z0.200
G1 E0.80000 F2100.00000
G1 F1200.000
G1 X119.026 Y112.399 E0.02646
G1 X119.561 Y112.399 E0.01682
G1 X118.601 Y111.439 E0.04271
G1 X118.601 Y110.904 E0.01682
G1 X120.096 Y112.399 E0.06650
G1 X120.631 Y112.399 E0.01682
G1 X118.601 Y110.369 E0.09029
G1 X118.601 Y109.834 E0.01682
G1 X121.166 Y112.399 E0.11409
G1 X121.701 Y112.399 E0.01682
G1 X118.601 Y109.299 E0.13788
G1 X118.601 Y108.764 E0.01682
G1 X122.236 Y112.399 E0.16167
G1 X122.771 Y112.399 E0.01682
G1 X118.601 Y108.229 E0.18547
G1 X118.601 Y107.695 E0.01682
G1 X123.305 Y112.399 E0.20926
G1 X123.840 Y112.399 E0.01682
G1 X118.601 Y107.160 E0.23305
G1 X118.601 Y106.625 E0.01682
G1 X124.375 Y112.399 E0.25685
G1 X124.910 Y112.399 E0.01682
G1 X118.601 Y106.090 E0.28064
G1 X118.601 Y105.555 E0.01682
G1 X125.445 Y112.399 E0.30443
G1 X125.980 Y112.399 E0.01682
G1 X118.601 Y105.020 E0.32822
G1 X118.601 Y104.485 E0.01682
G1 X126.515 Y112.399 E0.35202
G1 X127.050 Y112.399 E0.01682
G1 X118.601 Y103.950 E0.37581
G1 X118.601 Y103.415 E0.01682
G1 X127.585 Y112.399 E0.39960
G1 X128.120 Y112.399 E0.01682
G1 X118.601 Y102.880 E0.42340
G1 X118.601 Y102.345 E0.01682
G1 X128.655 Y112.399 E0.44719
G1 X129.190 Y112.399 E0.01682
G1 X118.601 Y101.810 E0.47098
G1 X118.601 Y101.275 E0.01682
G1 X129.725 Y112.399 E0.49478
G1 X130.259 Y112.399 E0.01682
G1 X118.601 Y100.741 E0.51857
G1 X118.601 Y100.206 E0.01682
G1 X130.794 Y112.399 E0.54236
G1 X131.329 Y112.399 E0.01682
G1 X118.601 Y99.671 E0.56615
G1 X118.601 Y99.136 E0.01682
G1 X131.399 Y111.934 E0.56926
G1 X131.399 Y111.399 E0.01682
G1 X118.601 Y98.601 E0.56926
G1 X118.601 Y98.066 E0.01682
G1 X131.399 Y110.864 E0.56926
G1 X131.399 Y110.329 E0.01682
G1 X118.671 Y97.601 E0.56616
G1 X119.205 Y97.601 E0.01682
G1 X131.399 Y109.795 E0.54237
G1 X131.399 Y109.260 E0.01682
G1 X119.740 Y97.601 E0.51857
G1 X120.275 Y97.601 E0.01682
G1 X131.399 Y108.725 E0.49478
G1 X131.399 Y108.190 E0.01682
G1 X120.810 Y97.601 E0.47099
G1 X121.345 Y97.601 E0.01682
G1 X131.399 Y107.655 E0.44720
G1 X131.399 Y107.120 E0.01682
G1 X121.880 Y97.601 E0.42340
G1 X122.415 Y97.601 E0.01682
G1 X131.399 Y106.585 E0.39961
G1 X131.399 Y106.050 E0.01682
G1 X122.950 Y97.601 E0.37582
G1 X123.485 Y97.601 E0.01682
G1 X131.399 Y105.515 E0.35202
G1 X131.399 Y104.980 E0.01682
G1 X124.020 Y97.601 E0.32823
G1 X124.555 Y97.601 E0.01682
G1 X131.399 Y104.445 E0.30444
G1 X131.399 Y103.910 E0.01682
G1 X125.090 Y97.601 E0.28064
G1 X125.625 Y97.601 E0.01682
G1 X131.399 Y103.375 E0.25685
G1 X131.399 Y102.840 E0.01682
G1 X126.160 Y97.601 E0.23306
G1 X126.694 Y97.601 E0.01682
G1 X131.399 Y102.306 E0.20926
G1 X131.399 Y101.771 E0.01682
G1 X127.229 Y97.601 E0.18547
G1 X127.764 Y97.601 E0.01682
G1 X131.399 Y101.236 E0.16168
G1 X131.399 Y100.701 E0.01682
G1 X128.299 Y97.601 E0.13789
G1 X128.834 Y97.601 E0.01682
G1 X131.399 Y100.166 E0.11409
G1 X131.399 Y99.631 E0.01682
G1 X129.369 Y97.601 E0.09030
G1 X129.904 Y97.601 E0.01682
G1 X131.399 Y99.096 E0.06651
G1 X131.399 Y98.561 E0.01682
G1 X130.439 Y97.601 E0.04271
G1 X130.974 Y97.601 E0.01682
G1 X131.569 Y98.196 E0.02647
M106 S255
;BEFORE_LAYER_CHANGE
G92 E0.0
;0.4


G1 F8640.000
G1 X130.974 Y97.601 E-0.19432
G1 X130.439 Y97.601 E-0.12352
G1 X131.399 Y98.561 E-0.31358
G1 X131.399 Y99.096 E-0.12352
G1 X131.384 Y99.080 E-0.00507
G1 E-0.04000 F2100.00000
G1 Z0.800 F10800.000
;AFTER_LAYER_CHANGE
;0.4
;CURRENT_Z: 0.4
M104 S210 ; set temperature
G1 X134.944 Y95.384
G1 Z0.400
G1 E0.80000 F2100.00000
G1 F2417
G1 X135.238 Y96.398 E0.03310
G1 X135.253 Y113.386 E0.53266
G1 X135.079 Y114.301 E0.02919
G1 X134.646 Y115.092 E0.02828
G1 X134.204 Y115.558 E0.02014
G1 X133.635 Y115.935 E0.02141
G1 X133.053 Y116.155 E0.01950
G1 X132.382 Y116.253 E0.02128
G1 X117.598 Y116.252 E0.46354
G1 X116.691 Y116.076 E0.02894
G1 X115.908 Y115.646 E0.02803
G1 X115.442 Y115.204 E0.02014
G1 X115.063 Y114.631 E0.02154
G1 X114.844 Y114.049 E0.01950
G1 X114.747 Y113.373 E0.02140
G1 X114.747 Y96.610 E0.52561
G1 X114.921 Y95.699 E0.02907
G1 X115.354 Y94.908 E0.02828
G1 X115.780 Y94.455 E0.01950
G1 X116.325 Y94.086 E0.02064
G1 X116.876 Y93.865 E0.01860
G1 X117.512 Y93.752 E0.02026
G1 X132.300 Y93.746 E0.46367
G1 X133.370 Y93.946 E0.03413
G1 X134.288 Y94.515 E0.03387
G1 X134.908 Y95.336 E0.03224
G1 X134.607 Y95.559 F10800.000
G1 F2417
G1 X134.866 Y96.470 E0.02968
G1 X134.876 Y113.369 E0.52985
G1 X134.721 Y114.181 E0.02594
G1 X134.332 Y114.883 E0.02517
G1 X133.949 Y115.279 E0.01728
G1 X133.447 Y115.607 E0.01878
G1 X132.948 Y115.792 E0.01668
G1 X132.359 Y115.876 E0.01866
G1 X117.620 Y115.876 E0.46214
G1 X116.815 Y115.720 E0.02570
G1 X116.117 Y115.332 E0.02505
G1 X115.718 Y114.946 E0.01740
G1 X115.391 Y114.444 E0.01879
G1 X115.206 Y113.941 E0.01680
G1 X115.123 Y113.352 E0.01866
G1 X115.124 Y96.628 E0.52437
G1 X115.279 Y95.819 E0.02582
G1 X115.668 Y95.117 E0.02517
G1 X116.039 Y94.730 E0.01680
G1 X116.519 Y94.410 E0.01807
G1 X116.996 Y94.222 E0.01609
G1 X117.557 Y94.127 E0.01783
G1 X132.300 Y94.123 E0.46225
G1 X133.242 Y94.301 E0.03006
G1 X134.046 Y94.805 E0.02977
G1 X134.571 Y95.511 E0.02758
G1 F8640.000
G1 X134.866 Y96.470 E-0.23156
G1 X134.867 Y98.758 E-0.52844
G1 E-0.04000 F2100.00000
G1 Z1.000 F10800.000
G1 X131.868 Y97.132
G1 Z0.400
G1 E0.80000 F2100.00000
M204 S800
G1 F2417
G1 X131.868 Y112.868 E0.53264
G1 X118.132 Y112.868 E0.46494
G1 X118.132 Y97.132 E0.53264
G1 X131.808 Y97.132 E0.46291
M204 S1000
G1 X132.275 Y96.725 F10800.000
M204 S800
G1 F2400.000
G1 X132.275 Y113.275 E0.56020
G1 X117.725 Y113.275 E0.49250
G1 X117.725 Y96.725 E0.56020
G1 X132.215 Y96.725 E0.49047
M204 S1000
G1 X132.180 Y97.114 F10800.000
G1 F8640.000
G1 X132.227 Y100.016 E-0.76000
G1 E-0.04000 F2100.00000
G1 Z1.000 F10800.000
G1 X130.914 Y112.746
G1 Z0.400
G1 E0.80000 F2100.00000
M204 S2000
G1 F2417
G1 X131.563 Y112.098 E0.03133
G1 X131.563 Y111.516 E0.01987
G1 X130.516 Y112.563 E0.05057
G1 X129.935 Y112.563 E0.01987
G1 X131.563 Y110.935 E0.07867
G1 X131.563 Y110.354 E0.01987
G1 X129.354 Y112.563 E0.10676
G1 X128.773 Y112.563 E0.01987
G1 X131.563 Y109.773 E0.13486
G1 X131.563 Y109.191 E0.01987
G1 X128.191 Y112.563 E0.16295
G1 X127.610 Y112.563 E0.01987
G1 X131.563 Y108.610 E0.19105
G1 X131.563 Y108.029 E0.01987
G1 X127.029 Y112.563 E0.21915
G1 X126.447 Y112.563 E0.01987
G1 X131.563 Y107.447 E0.24724
G1 X131.563 Y106.866 E0.01987
G1 X125.866 Y112.563 E0.27534
G1 X125.285 Y112.563 E0.01987
G1 X131.563 Y106.285 E0.30344
G1 X131.563 Y105.703 E0.01987
G1 X124.703 Y112.563 E0.33153
G1 X124.122 Y112.563 E0.01987
G1 X131.563 Y105.122 E0.35963
G1 X131.563 Y104.541 E0.01987
G1 X123.541 Y112.563 E0.38773
G1 X122.960 Y112.563 E0.01987
G1 X131.563 Y103.960 E0.41582
G1 X131.563 Y103.378 E0.01987
G1 X122.378 Y112.563 E0.44392
G1 X121.797 Y112.563 E0.01987
G1 X131.563 Y102.797 E0.47202
G1 X131.563 Y102.216 E0.01987
G1 X121.216 Y112.563 E0.50011
G1 X120.634 Y112.563 E0.01987
G1 X131.563 Y101.634 E0.52821
G1 X131.563 Y101.053 E0.01987
G1 X120.053 Y112.563 E0.55631
G1 X119.472 Y112.563 E0.01987
G1 X131.563 Y100.472 E0.58440
G1 X131.563 Y99.891 E0.01987
G1 X118.891 Y112.563 E0.61250
G1 X118.437 Y112.563 E0.01549
G1 X118.437 Y112.434 E0.00438
G1 X131.563 Y99.309 E0.63440
G1 X131.563 Y98.728 E0.01987
G1 X118.437 Y111.853 E0.63440
M73 P0 R248
G1 X118.437 Y111.272 E0.01987
G1 X131.563 Y98.147 E0.63440
G1 X131.563 Y97.565 E0.01987
G1 X118.437 Y110.691 E0.63440
G1 X118.437 Y110.109 E0.01987
G1 X131.109 Y97.437 E0.61249
G1 X130.528 Y97.437 E0.01987
G1 X118.437 Y109.528 E0.58440
G1 X118.437 Y108.947 E0.01987
G1 X129.947 Y97.437 E0.55630
G1 X129.365 Y97.437 E0.01987
G1 X118.437 Y108.365 E0.52820
G1 X118.437 Y107.784 E0.01987
G1 X128.784 Y97.437 E0.50011
G1 X128.203 Y97.437 E0.01987
G1 X118.437 Y107.203 E0.47201
G1 X118.437 Y106.622 E0.01987
G1 X127.622 Y97.437 E0.44391
G1 X127.040 Y97.437 E0.01987
G1 X118.437 Y106.040 E0.41582
G1 X118.437 Y105.459 E0.01987
G1 X126.459 Y97.437 E0.38772
G1 X125.878 Y97.437 E0.01987
G1 X118.437 Y104.878 E0.35962
G1 X118.437 Y104.296 E0.01987
G1 X125.296 Y97.437 E0.33153
G1 X124.715 Y97.437 E0.01987
G1 X118.437 Y103.715 E0.30343
G1 X118.437 Y103.134 E0.01987
G1 X124.134 Y97.437 E0.27534
G1 X123.553 Y97.437 E0.01987
G1 X118.437 Y102.553 E0.24724
G1 X118.437 Y101.971 E0.01987
G1 X122.971 Y97.437 E0.21914
G1 X122.390 Y97.437 E0.01987
G1 X118.437 Y101.390 E0.19105
G1 X118.437 Y100.809 E0.01987
G1 X121.809 Y97.437 E0.16295
G1 X121.227 Y97.437 E0.01987
G1 X118.437 Y100.227 E0.13485
G1 X118.437 Y99.646 E0.01987
G1 X120.646 Y97.437 E0.10676
G1 X120.065 Y97.437 E0.01987
G1 X118.437 Y99.065 E0.07866
G1 X118.437 Y98.484 E0.01987
G1 X119.484 Y97.437 E0.05056
G1 X118.902 Y97.437 E0.01987
G1 X118.254 Y98.085 E0.03132
M204 S1000
;BEFORE_LAYER_CHANGE
G92 E0.0
;0.6


G1 F8640.000
G1 X118.902 Y97.437 E-0.21161
G1 X119.484 Y97.437 E-0.13422
G1 X118.437 Y98.484 E-0.34161
G1 X118.437 Y98.798 E-0.07257
G1 E-0.04000 F2100.00000
G1 Z1.000 F10800.000
;AFTER_LAYER_CHANGE
;0.6
;CURRENT_Z: 0.6
G1 X114.921 Y95.699
G1 Z0.600
G1 E0.80000 F2100.00000
G1 F2419
G1 X115.354 Y94.908 E0.02828
G1 X115.780 Y94.455 E0.01950
G1 X116.325 Y94.086 E0.02064
G1 X116.876 Y93.865 E0.01860
G1 X117.512 Y93.752 E0.02026
G1 X132.300 Y93.746 E0.46367
G1 X133.370 Y93.946 E0.03413
G1 X134.288 Y94.515 E0.03387
G1 X134.944 Y95.384 E0.03412
G1 X135.238 Y96.398 E0.03310
G1 X135.253 Y113.386 E0.53266
G1 X135.079 Y114.301 E0.02919
G1 X134.646 Y115.092 E0.02828
G1 X134.204 Y115.558 E0.02014
G1 X133.635 Y115.935 E0.02141
G1 X133.053 Y116.155 E0.01950
G1 X132.382 Y116.253 E0.02128
G1 X117.598 Y116.252 E0.46354
G1 X116.691 Y116.076 E0.02894
G1 X115.908 Y115.646 E0.02803
G1 X115.442 Y115.204 E0.02014
G1 X115.063 Y114.631 E0.02154
G1 X114.844 Y114.049 E0.01950
G1 X114.747 Y113.373 E0.02140
G1 X114.747 Y96.610 E0.52561
G1 X114.910 Y95.758 E0.02719
G1 X115.277 Y95.828 F10800.000
G1 F2419
G1 X115.668 Y95.117 E0.02545
G1 X116.039 Y94.730 E0.01680
G1 X116.519 Y94.410 E0.01807
G1 X116.996 Y94.222 E0.01609
G1 X117.557 Y94.127 E0.01783
G1 X132.300 Y94.123 E0.46225
G1 X133.242 Y94.301 E0.03006
G1 X134.046 Y94.805 E0.02977
G1 X134.617 Y95.573 E0.03000
G1 X134.866 Y96.470 E0.02917
G1 X134.876 Y113.369 E0.52985
G1 X134.721 Y114.181 E0.02594
G1 X134.332 Y114.883 E0.02517
G1 X133.949 Y115.279 E0.01728
G1 X133.447 Y115.607 E0.01878
G1 X132.948 Y115.792 E0.01668
G1 X132.359 Y115.876 E0.01866
G1 X117.620 Y115.876 E0.46214
G1 X116.815 Y115.720 E0.02570
G1 X116.117 Y115.332 E0.02505
G1 X115.718 Y114.946 E0.01740
G1 X115.391 Y114.444 E0.01879
G1 X115.206 Y113.941 E0.01680
G1 X115.123 Y113.352 E0.01866
G1 X115.124 Y96.628 E0.52437
G1 X115.265 Y95.887 E0.02364
G1 F8640.000
G1 X115.668 Y95.117 E-0.20068
G1 X116.039 Y94.730 E-0.12375
G1 X116.519 Y94.410 E-0.13310
G1 X116.996 Y94.222 E-0.11850
G1 X117.557 Y94.127 E-0.13132
G1 X117.785 Y94.127 E-0.05265
G1 E-0.04000 F2100.00000
G1 Z1.200 F10800.000
G1 X118.132 Y97.132
G1 Z0.600
G1 E0.80000 F2100.00000
M204 S800
G1 F2419
G1 X131.868 Y97.132 E0.46494
G1 X131.868 Y112.868 E0.53264
G1 X118.132 Y112.868 E0.46494
G1 X118.132 Y97.192 E0.53061
M204 S1000
G1 X117.725 Y96.725 F10800.000
M204 S800
G1 F2400.000
G1 X132.275 Y96.725 E0.49250
G1 X132.275 Y113.275 E0.56020
G1 X117.725 Y113.275 E0.49250
G1 X117.725 Y96.785 E0.55817
M204 S1000
G1 X118.109 Y96.837 F10800.000
G1 F8640.000
G1 X121.016 Y96.771 E-0.76000
G1 E-0.04000 F2100.00000
G1 Z1.200 F10800.000
G1 X119.085 Y112.746
G1 Z0.600
G1 E0.80000 F2100.00000
M204 S2000
G1 F2419
G1 X118.437 Y112.098 E0.03132
G1 X118.437 Y111.517 E0.01987
G1 X119.483 Y112.563 E0.05056
G1 X120.065 Y112.563 E0.01987
G1 X118.437 Y110.935 E0.07866
G1 X118.437 Y110.354 E0.01987
G1 X120.646 Y112.563 E0.10676
G1 X121.227 Y112.563 E0.01987
G1 X118.437 Y109.773 E0.13485
G1 X118.437 Y109.191 E0.01987
G1 X121.809 Y112.563 E0.16295
G1 X122.390 Y112.563 E0.01987
G1 X118.437 Y108.610 E0.19104
G1 X118.437 Y108.029 E0.01987
G1 X122.971 Y112.563 E0.21914
G1 X123.553 Y112.563 E0.01987
G1 X118.437 Y107.447 E0.24724
G1 X118.437 Y106.866 E0.01987
G1 X124.134 Y112.563 E0.27533
G1 X124.715 Y112.563 E0.01987
G1 X118.437 Y106.285 E0.30343
G1 X118.437 Y105.704 E0.01987
G1 X125.296 Y112.563 E0.33153
G1 X125.878 Y112.563 E0.01987
G1 X118.437 Y105.122 E0.35962
G1 X118.437 Y104.541 E0.01987
G1 X126.459 Y112.563 E0.38772
G1 X127.040 Y112.563 E0.01987
