; generated by PrusaSlicer 2.6.0-alpha6+linux-x64-GTK3 on 2023-05-08 at 03:33:28 UTC

; 

; external perimeters extrusion width = 0.60mm
; perimeters extrusion width = 0.43mm
; infill extrusion width = 0.45mm
; solid infill extrusion width = 0.70mm
; top infill extrusion width = 0.45mm
; first layer extrusion width = 0.42mm

M73 P0 R113
M201 X9000 Y9000 Z500 E10000 ; sets maximum accelerations, mm/sec^2
M203 X500 Y500 Z12 E120 ; sets maximum feedrates, mm / sec
M204 S2000 T1500 ; sets acceleration (S) and retract acceleration (R), mm/sec^2
M205 X10.00 Y10.00 Z0.20 E4.50 ; sets the jerk limits, mm/sec
M205 S0 T0 ; sets the minimum extruding and travel feed rate, mm/sec
;TYPE:Custom
M862.3 P "MK2.5" ; printer model check
M862.1 P0.4 ; nozzle diameter check
M115 U3.11.0 ; tell printer latest fw version
G90 ; use absolute coordinates
M83 ; extruder relative mode
M104 S215 ; set extruder temp
M140 S60 ; set bed temp
M190 S60 ; wait for bed temp
M109 S215 ; wait for extruder temp
G28 W ; home all without mesh bed level
G80 ; mesh bed leveling

G1 Z0.2 F720
G1 Y-3 F1000 ; go outside print area
G92 E0
G1 X60 E9 F1000 ; intro line
G1 X100 E12.5 F1000 ; intro line

G92 E0
G21 ; set units to millimeters
G90 ; use absolute coordinates
M83 ; use relative distances for extrusion
M900 K0.05 ; Filament gcode LA 1.5
M900 K30 ; Filament gcode LA 1.0
M107
;LAYER_CHANGE
;Z:0.2
;HEIGHT:0.2
;BEFORE_LAYER_CHANGE
G92 E0.0
;0.2


G1 E-.8 F2100
G1 Z.4 F720
;AFTER_LAYER_CHANGE
;0.2
;CURRENT_Z: 0.2
G1 X115.274 Y95.021 F10800
G1 Z.2 F720
G1 E.8 F2100
M204 S800
;TYPE:Skirt/Brim
;WIDTH:0.42
G1 F1200
G1 X116.096 Y94.224 E.0359
G1 X117.092 Y93.813 E.03378
G1 X117.7 Y93.746 E.01918
G1 X132.3 Y93.746 E.45777
G1 X132.908 Y93.813 E.01918
G1 X133.969 Y94.267 E.03618
G1 X134.77 Y95.086 E.03592
G1 X135.202 Y96.168 E.03653
G1 X135.254 Y96.7 E.01676
G1 X135.254 Y113.3 E.52048
G1 X135.187 Y113.909 E.01921
G1 X134.727 Y114.979 E.03652
G1 X133.904 Y115.776 E.03592
G1 X132.908 Y116.187 E.03378
G1 X132.3 Y116.254 E.01918
G1 X117.7 Y116.254 E.45777
G1 X117.092 Y116.187 E.01918
G1 X116.031 Y115.733 E.03618
G1 X115.23 Y114.914 E.03592
G1 X114.813 Y113.909 E.03412
G1 X114.746 Y113.3 E.01921
G1 X114.746 Y96.7 E.52048
G1 X114.813 Y96.091 E.01921
G1 X115.25 Y95.076 E.03465
M204 S1000
G1 X115.586 Y95.232 F10800
M204 S800
G1 F1200
G1 X116.305 Y94.537 E.03135
G1 X117.165 Y94.183 E.02916
G1 X117.7 Y94.123 E.01688
G1 X132.3 Y94.123 E.45777
G1 X132.836 Y94.183 E.01691
G1 X133.76 Y94.581 E.03154
G1 X134.457 Y95.296 E.03131
G1 X134.832 Y96.241 E.03188
G1 X134.877 Y113.3 E.53487
G1 X134.817 Y113.836 E.01691
G1 X134.414 Y114.768 E.03184
G1 X133.695 Y115.463 E.03135
G1 X132.835 Y115.817 E.02916
G1 X132.3 Y115.877 E.01688
G1 X117.7 Y115.877 E.45777
G1 X117.165 Y115.817 E.01688
G1 X116.24 Y115.419 E.03157
G1 X115.543 Y114.704 E.03131
G1 X115.183 Y113.836 E.02946
G1 X115.123 Y113.3 E.01691
G1 X115.123 Y96.7 E.52048
G1 X115.183 Y96.164 E.01691
G1 X115.563 Y95.287 E.02997
M204 S1000
; printing object trilho_1.stl id:0 copy 0
;WIPE_START
G1 F8640
G1 X116.305 Y94.537 E-.24361
G1 X117.165 Y94.183 E-.21474
G1 X117.7 Y94.123 E-.12431
G1 X118.641 Y94.123 E-.21734
;WIPE_END
G1 Z.6 F720
G1 X118.318 Y97.318 F10800
G1 Z.2 F720
G1 E.8 F2100
M204 S800
;TYPE:Perimeter
;WIDTH:0.419999
G1 F1200
G1 X131.682 Y97.318 E.41902
G1 X131.682 Y112.682 E.48173
G1 X118.318 Y112.682 E.41902
G1 X118.318 Y97.378 E.47985
M204 S1000
G1 X117.941 Y96.941 F10800
M204 S800
;TYPE:External perimeter
G1 F1200
G1 X132.059 Y96.941 E.44266
G1 X132.059 Y113.059 E.50537
G1 X117.941 Y113.059 E.44266
G1 X117.941 Y97.001 E.50349
M204 S1000
G1 X118.325 Y97.053 F10800
;WIPE_START
G1 F8640
G1 X121.406 Y96.986 E-.8
;WIPE_END
G1 Z.6 F720
G1 X130.804 Y97.431 F10800
G1 Z.2 F720
G1 E.8 F2100
M204 S800
;TYPE:Solid infill
;WIDTH:0.421164
G1 F1200
G1 X131.399 Y98.026 E.02646
G1 X131.399 Y98.561 E.01683
G1 X130.439 Y97.601 E.0427
G1 X129.904 Y97.601 E.01683
G1 X131.399 Y99.096 E.0665
G1 X131.399 Y99.631 E.01683
G1 X129.369 Y97.601 E.09029
G1 X128.834 Y97.601 E.01683
G1 X131.399 Y100.166 E.11409
G1 X131.399 Y100.701 E.01683
G1 X128.299 Y97.601 E.13788
G1 X127.764 Y97.601 E.01683
G1 X131.399 Y101.236 E.16168
G1 X131.399 Y101.771 E.01683
G1 X127.229 Y97.601 E.18548
G1 X126.695 Y97.601 E.01679
G1 X131.399 Y102.306 E.20925
G1 X131.399 Y102.841 E.01683
G1 X126.16 Y97.601 E.23305
G1 X125.625 Y97.601 E.01683
G1 X131.399 Y103.376 E.25684
G1 X131.399 Y103.91 E.01679
G1 X125.09 Y97.601 E.28062
G1 X124.555 Y97.601 E.01683
G1 X131.399 Y104.445 E.30441
G1 X131.399 Y104.98 E.01683
G1 X124.02 Y97.601 E.32821
G1 X123.485 Y97.601 E.01683
G1 X131.399 Y105.515 E.352
G1 X131.399 Y106.05 E.01683
G1 X122.95 Y97.601 E.3758
G1 X122.415 Y97.601 E.01683
G1 X131.399 Y106.585 E.3996
G1 X131.399 Y107.12 E.01683
G1 X121.88 Y97.601 E.42339
G1 X121.345 Y97.601 E.01683
G1 X131.399 Y107.655 E.44719
G1 X131.399 Y108.19 E.01683
G1 X120.81 Y97.601 E.47098
G1 X120.276 Y97.601 E.01679
G1 X131.399 Y108.725 E.49476
G1 X131.399 Y109.26 E.01683
G1 X119.741 Y97.601 E.51855
G1 X119.206 Y97.601 E.01683
G1 X131.399 Y109.795 E.54235
G1 X131.399 Y110.329 E.01679
G1 X118.671 Y97.601 E.56612
G1 X118.601 Y97.601 E.0022
G1 X118.601 Y98.066 E.01462
G1 X131.399 Y110.864 E.56924
G1 X131.399 Y111.399 E.01683
G1 X118.601 Y98.601 E.56924
G1 X118.601 Y99.136 E.01683
G1 X131.399 Y111.934 E.56924
G1 X131.399 Y112.399 E.01462
G1 X131.329 Y112.399 E.0022
G1 X118.601 Y99.671 E.56612
G1 X118.601 Y100.206 E.01683
G1 X130.794 Y112.399 E.54233
G1 X130.259 Y112.399 E.01683
G1 X118.601 Y100.74 E.51855
G1 X118.601 Y101.275 E.01683
G1 X129.724 Y112.399 E.49476
G1 X129.189 Y112.399 E.01683
G1 X118.601 Y101.81 E.47096
G1 X118.601 Y102.345 E.01683
G1 X128.655 Y112.399 E.44719
G1 X128.12 Y112.399 E.01683
G1 X118.601 Y102.88 E.42339
G1 X118.601 Y103.415 E.01683
G1 X127.585 Y112.399 E.3996
G1 X127.05 Y112.399 E.01683
G1 X118.601 Y103.95 E.3758
G1 X118.601 Y104.485 E.01683
G1 X126.515 Y112.399 E.352
G1 X125.98 Y112.399 E.01683
G1 X118.601 Y105.02 E.32821
G1 X118.601 Y105.555 E.01683
G1 X125.445 Y112.399 E.30441
G1 X124.91 Y112.399 E.01683
G1 X118.601 Y106.09 E.28062
G1 X118.601 Y106.625 E.01683
G1 X124.375 Y112.399 E.25682
G1 X123.84 Y112.399 E.01683
G1 X118.601 Y107.159 E.23305
G1 X118.601 Y107.694 E.01683
G1 X123.305 Y112.399 E.20925
G1 X122.77 Y112.399 E.01683
G1 X118.601 Y108.229 E.18545
G1 X118.601 Y108.764 E.01683
G1 X122.236 Y112.399 E.16168
G1 X121.701 Y112.399 E.01683
G1 X118.601 Y109.299 E.13788
G1 X118.601 Y109.834 E.01683
G1 X121.166 Y112.399 E.11409
G1 X120.631 Y112.399 E.01683
G1 X118.601 Y110.369 E.09029
G1 X118.601 Y110.904 E.01683
G1 X120.096 Y112.399 E.0665
G1 X119.561 Y112.399 E.01683
G1 X118.601 Y111.439 E.0427
G1 X118.601 Y111.974 E.01683
G1 X119.196 Y112.569 E.02646
M204 S1000
; stop printing object trilho_1.stl id:0 copy 0
M106 S84.15
;LAYER_CHANGE
;Z:0.55
;HEIGHT:0.35
;BEFORE_LAYER_CHANGE
G92 E0.0
;0.55


;WIPE_START
G1 F8640
G1 X118.601 Y111.974 E-.19429
G1 X118.601 Y111.439 E-.12353
G1 X119.561 Y112.399 E-.31348
G1 X120.096 Y112.399 E-.12353
G1 X119.958 Y112.261 E-.04517
;WIPE_END
G1 Z.6 F720
;AFTER_LAYER_CHANGE
;0.55
;CURRENT_Z: 0.55
M104 S210 ; set temperature
G1 X119.958 Y116.254 F10800
G1 Z.55 F720
G1 E.8 F2100
;TYPE:Skirt/Brim
;WIDTH:0.42
G1 F2523
G1 X117.7 Y116.254 E.11332
G1 X117.092 Y116.187 E.0307
G1 X116.031 Y115.733 E.05792
G1 X115.23 Y114.914 E.05749
G1 X114.813 Y113.909 E.05461
G1 X114.746 Y113.3 E.03075
G1 X114.746 Y96.7 E.83309
G1 X114.813 Y96.091 E.03075
G1 X115.274 Y95.021 E.05847
G1 X116.096 Y94.224 E.05746
G1 X117.092 Y93.813 E.05407
G1 X117.7 Y93.746 E.0307
G1 X132.3 Y93.746 E.73271
G1 X132.908 Y93.813 E.0307
G1 X133.969 Y94.267 E.05792
G1 X134.77 Y95.086 E.05749
G1 X135.202 Y96.168 E.05847
G1 X135.254 Y96.7 E.02683
G1 X135.254 Y113.3 E.83309
G1 X135.187 Y113.909 E.03075
G1 X134.727 Y114.979 E.05845
G1 X133.904 Y115.776 E.0575
G1 X132.908 Y116.187 E.05407
G1 X132.3 Y116.254 E.0307
G1 X120.018 Y116.254 E.61638
G1 X120.018 Y115.877 F10800
G1 F2523
G1 X117.7 Y115.877 E.11633
G1 X117.165 Y115.817 E.02702
G1 X116.24 Y115.419 E.05054
G1 X115.543 Y114.704 E.05011
G1 X115.183 Y113.836 E.04716
G1 X115.123 Y113.3 E.02707
G1 X115.123 Y96.7 E.83309
G1 X115.183 Y96.164 E.02707
G1 X115.586 Y95.232 E.05096
G1 X116.305 Y94.537 E.05019
G1 X117.165 Y94.183 E.04667
G1 X117.7 Y94.123 E.02702
G1 X132.3 Y94.123 E.73271
G1 X132.836 Y94.183 E.02707
G1 X133.76 Y94.581 E.05049
G1 X134.457 Y95.296 E.05011
G1 X134.832 Y96.241 E.05102
G1 X134.877 Y113.3 E.85612
G1 X134.817 Y113.836 E.02707
G1 X134.414 Y114.768 E.05096
G1 X133.695 Y115.463 E.05019
G1 X132.835 Y115.817 E.04667
G1 X132.3 Y115.877 E.02702
G1 X120.078 Y115.877 E.61337
; printing object trilho_1.stl id:0 copy 0
;WIPE_START
G1 F8640
G1 X117.7 Y115.877 E-.54909
G1 X117.165 Y115.817 E-.12431
G1 X116.661 Y115.6 E-.1266
;WIPE_END
G1 Z.95 F720
G1 X118.24 Y97.24 F10800
G1 Z.55 F720
G1 E.8 F2100
M204 S800
;TYPE:Perimeter
;WIDTH:0.43
G1 F2523
G1 X131.76 Y97.24 E.69819
G1 X131.76 Y112.76 E.80147
G1 X118.24 Y112.76 E.69819
G1 X118.24 Y97.3 E.79837
M204 S1000
G1 X117.8 Y96.8 F10800
M204 S800
;TYPE:External perimeter
;WIDTH:0.6
G1 F2400
G1 X132.2 Y96.8 E1.09985
G1 X132.2 Y113.2 E1.2526
G1 X117.8 Y113.2 E1.09985
G1 X117.8 Y96.86 E1.24802
M204 S1000
G1 X118.184 Y96.912 F10800
;WIPE_START
G1 F8640
G1 X121.265 Y96.846 E-.8
;WIPE_END
G1 Z.95 F720
G1 X131.64 Y111.358 F10800
G1 Z.55 F720
G1 E.8 F2100
M204 S2000
;TYPE:Solid infill
;WIDTH:0.708969
G1 F2523
G1 X130.639 Y112.359 E.13057
G1 X129.743 Y112.359 E.08264
G1 X131.359 Y110.742 E.21086
G1 X131.359 Y109.846 E.08264
G1 X128.846 Y112.359 E.32779
G1 X127.95 Y112.359 E.08264
G1 X131.359 Y108.95 E.44467
G1 X131.359 Y108.053 E.08273
G1 X127.054 Y112.359 E.56161
G1 X126.157 Y112.359 E.08273
G1 X131.359 Y107.157 E.67855
G1 X131.359 Y106.26 E.08273
G1 X125.261 Y112.359 E.79549
G1 X124.364 Y112.359 E.08273
G1 X131.359 Y105.364 E.91242
G1 X131.359 Y104.468 E.08264
M73 P0 R112
G1 X123.468 Y112.359 E1.0293
G1 X122.571 Y112.359 E.08273
G1 X131.359 Y103.571 E1.1463
G1 X131.359 Y102.675 E.08264
G1 X121.675 Y112.359 E1.26318
G1 X120.779 Y112.359 E.08264
G1 X131.359 Y101.778 E1.38011
G1 X131.359 Y100.882 E.08264
G1 X119.882 Y112.359 E1.49705
G1 X118.986 Y112.359 E.08264
G1 X131.359 Y99.986 E1.61393
G1 X131.359 Y99.089 E.08273
G1 X118.641 Y111.807 E1.65893
G1 X118.641 Y110.911 E.08264
G1 X131.359 Y98.193 E1.65893
G1 X131.359 Y97.641 E.05091
G1 X131.014 Y97.641 E.03182
G1 X118.641 Y110.014 E1.61393
G1 X118.641 Y109.118 E.08264
G1 X130.118 Y97.641 E1.49705
G1 X129.221 Y97.641 E.08273
G1 X118.641 Y108.221 E1.38005
G1 X118.641 Y107.325 E.08264
G1 X128.325 Y97.641 E1.26318
G1 X127.428 Y97.641 E.08273
G1 X118.641 Y106.429 E1.14624
G1 X118.641 Y105.532 E.08273
G1 X126.532 Y97.641 E1.0293
G1 X125.636 Y97.641 E.08264
G1 X118.641 Y104.636 E.91242
G1 X118.641 Y103.739 E.08273
G1 X124.739 Y97.641 E.79542
G1 X123.843 Y97.641 E.08264
G1 X118.641 Y102.843 E.67855
G1 X118.641 Y101.947 E.08264
G1 X122.946 Y97.641 E.56161
G1 X122.05 Y97.641 E.08264
G1 X118.641 Y101.05 E.44467
G1 X118.641 Y100.154 E.08264
G1 X121.154 Y97.641 E.32779
G1 X120.257 Y97.641 E.08273
G1 X118.641 Y99.257 E.21079
G1 X118.641 Y98.361 E.08264
G1 X119.642 Y97.36 E.13057
M204 S1000
; stop printing object trilho_1.stl id:0 copy 0
M106 S170.85
;LAYER_CHANGE
;Z:0.9
;HEIGHT:0.35
;BEFORE_LAYER_CHANGE
G92 E0.0
;0.9


;WIPE_START
G1 F8640
G1 X118.641 Y98.361 E-.32687
G1 X118.641 Y99.257 E-.20689
G1 X119.456 Y98.442 E-.26624
;WIPE_END
G1 Z.95 F720
;AFTER_LAYER_CHANGE
;0.9
;CURRENT_Z: 0.9
G1 X119.456 Y93.746 F10800
G1 Z.9 F720
G1 E.8 F2100
;TYPE:Skirt/Brim
;WIDTH:0.42
G1 F2498
G1 X132.3 Y93.746 E.64459
G1 X132.908 Y93.813 E.0307
G1 X133.969 Y94.267 E.05792
G1 X134.77 Y95.086 E.05749
G1 X135.202 Y96.168 E.05847
G1 X135.254 Y96.7 E.02683
G1 X135.254 Y113.3 E.83309
G1 X135.187 Y113.909 E.03075
G1 X134.727 Y114.979 E.05845
G1 X133.904 Y115.776 E.0575
G1 X132.908 Y116.187 E.05407
G1 X132.3 Y116.254 E.0307
G1 X117.7 Y116.254 E.73271
G1 X117.092 Y116.187 E.0307
G1 X116.031 Y115.733 E.05792
G1 X115.23 Y114.914 E.05749
G1 X114.813 Y113.909 E.05461
G1 X114.746 Y113.3 E.03075
G1 X114.746 Y96.7 E.83309
G1 X114.813 Y96.091 E.03075
G1 X115.274 Y95.021 E.05847
G1 X116.096 Y94.224 E.05746
G1 X117.092 Y93.813 E.05407
G1 X117.7 Y93.746 E.0307
G1 X119.396 Y93.746 E.08512
G1 X119.396 Y94.123 F10800
G1 F2498
G1 X132.3 Y94.123 E.6476
G1 X132.836 Y94.183 E.02707
G1 X133.76 Y94.581 E.05049
G1 X134.457 Y95.296 E.05011
G1 X134.832 Y96.241 E.05102
G1 X134.877 Y113.3 E.85612
G1 X134.817 Y113.836 E.02707
M73 P1 R112
G1 X134.414 Y114.768 E.05096
G1 X133.695 Y115.463 E.05019
G1 X132.835 Y115.817 E.04667
G1 X132.3 Y115.877 E.02702
G1 X117.7 Y115.877 E.73271
G1 X117.165 Y115.817 E.02702
G1 X116.24 Y115.419 E.05054
G1 X115.543 Y114.704 E.05011
G1 X115.183 Y113.836 E.04716
G1 X115.123 Y113.3 E.02707
G1 X115.123 Y96.7 E.83309
G1 X115.183 Y96.164 E.02707
G1 X115.586 Y95.232 E.05096
G1 X116.305 Y94.537 E.05019
G1 X117.165 Y94.183 E.04667
G1 X117.7 Y94.123 E.02702
G1 X119.336 Y94.123 E.0821
; printing object trilho_1.stl id:0 copy 0
;WIPE_START
G1 F8640
G1 X122.801 Y94.123 E-.8
;WIPE_END
G1 Z1.3 F720
G1 X118.24 Y97.24 F10800
G1 Z.9 F720
G1 E.8 F2100
M204 S800
;TYPE:Perimeter
;WIDTH:0.43
G1 F2498
G1 X131.76 Y97.24 E.69819
G1 X131.76 Y112.76 E.80147
G1 X118.24 Y112.76 E.69819
G1 X118.24 Y97.3 E.79837
M204 S1000
G1 X117.8 Y96.8 F10800
M204 S800
;TYPE:External perimeter
;WIDTH:0.6
G1 F2400
G1 X132.2 Y96.8 E1.09985
G1 X132.2 Y113.2 E1.2526
G1 X117.8 Y113.2 E1.09985
G1 X117.8 Y96.86 E1.24802
M204 S1000
G1 X118.184 Y96.912 F10800
;WIPE_START
G1 F8640
G1 X121.265 Y96.846 E-.8
;WIPE_END
G1 Z1.3 F720
G1 X131.64 Y98.642 F10800
G1 Z.9 F720
G1 E.8 F2100
M204 S2000
;TYPE:Solid infill
;WIDTH:0.708969
G1 F2498
G1 X130.639 Y97.641 E.13057
G1 X129.743 Y97.641 E.08264
G1 X131.359 Y99.258 E.21086
G1 X131.359 Y100.154 E.08264
G1 X128.846 Y97.641 E.32779
G1 X127.95 Y97.641 E.08264
G1 X131.359 Y101.05 E.44467
G1 X131.359 Y101.947 E.08273
G1 X127.054 Y97.641 E.56161
G1 X126.157 Y97.641 E.08273
G1 X131.359 Y102.843 E.67855
G1 X131.359 Y103.74 E.08273
G1 X125.261 Y97.641 E.79549
G1 X124.364 Y97.641 E.08273
G1 X131.359 Y104.636 E.91242
G1 X131.359 Y105.532 E.08264
G1 X123.468 Y97.641 E1.0293
G1 X122.571 Y97.641 E.08273
G1 X131.359 Y106.429 E1.1463
G1 X131.359 Y107.325 E.08264
G1 X121.675 Y97.641 E1.26318
G1 X120.779 Y97.641 E.08264
G1 X131.359 Y108.222 E1.38011
G1 X131.359 Y109.118 E.08264
G1 X119.882 Y97.641 E1.49705
G1 X118.986 Y97.641 E.08264
G1 X131.359 Y110.014 E1.61393
G1 X131.359 Y110.911 E.08273
G1 X118.641 Y98.193 E1.65893
G1 X118.641 Y99.089 E.08264
G1 X131.359 Y111.807 E1.65893
G1 X131.359 Y112.359 E.05091
G1 X131.014 Y112.359 E.03182
G1 X118.641 Y99.986 E1.61393
G1 X118.641 Y100.882 E.08264
G1 X130.118 Y112.359 E1.49705
G1 X129.221 Y112.359 E.08273
G1 X118.641 Y101.779 E1.38005
G1 X118.641 Y102.675 E.08264
G1 X128.325 Y112.359 E1.26318
G1 X127.428 Y112.359 E.08273
G1 X118.641 Y103.571 E1.14624
G1 X118.641 Y104.468 E.08273
G1 X126.532 Y112.359 E1.0293
G1 X125.636 Y112.359 E.08264
G1 X118.641 Y105.364 E.91242
G1 X118.641 Y106.261 E.08273
G1 X124.739 Y112.359 E.79542
G1 X123.843 Y112.359 E.08264
G1 X118.641 Y107.157 E.67855
G1 X118.641 Y108.053 E.08264
G1 X122.946 Y112.359 E.56161
G1 X122.05 Y112.359 E.08264
G1 X118.641 Y108.95 E.44467
G1 X118.641 Y109.846 E.08264
G1 X121.154 Y112.359 E.32779
G1 X120.257 Y112.359 E.08273
G1 X118.641 Y110.743 E.21079
G1 X118.641 Y111.639 E.08264
G1 X119.642 Y112.64 E.13057
M204 S1000
; stop printing object trilho_1.stl id:0 copy 0
M106 S255
;LAYER_CHANGE
;Z:1.25
;HEIGHT:0.35
;BEFORE_LAYER_CHANGE
G92 E0.0
;1.25


;WIPE_START
G1 F8640
G1 X118.641 Y111.639 E-.32687
G1 X118.641 Y110.743 E-.20689
G1 X119.456 Y111.558 E-.26624
;WIPE_END
G1 Z1.3 F720
;AFTER_LAYER_CHANGE
;1.25
;CURRENT_Z: 1.25
; printing object trilho_1.stl id:0 copy 0
G1 X118.24 Y97.24 F10800
G1 Z1.25 F720
G1 E.8 F2100
M204 S800
;TYPE:Perimeter
;WIDTH:0.43
G1 F1291
G1 X131.76 Y97.24 E.69819
G1 X131.76 Y112.76 E.80147
G1 X118.24 Y112.76 E.69819
G1 X118.24 Y97.3 E.79837
M204 S1000
G1 X117.8 Y96.8 F10800
M204 S800
