; generated by PrusaSlicer 2.8.0 on 2024-09-21 at 14:29:56 UTC

; 

; external perimeters extrusion width = 0.45mm
; perimeters extrusion width = 0.45mm
; infill extrusion width = 0.45mm
; solid infill extrusion width = 0.45mm
; top infill extrusion width = 0.40mm
; first layer extrusion width = 0.42mm

M73 P0 R35
M201 X9000 Y9000 Z500 E10000 ; sets maximum accelerations, mm/sec^2
M203 X500 Y500 Z12 E120 ; sets maximum feedrates, mm / sec
M204 S2000 T1500 ; sets acceleration (S) and retract acceleration (R), mm/sec^2
M205 X10.00 Y10.00 Z0.20 E4.50 ; sets the jerk limits, mm/sec
M205 S0 T0 ; sets the minimum extruding and travel feed rate, mm/sec

; printing object axoblock-test-files-e-axoblock-frame.stl.stl id:0 copy 0
; stop printing object axoblock-test-files-e-axoblock-frame.stl.stl id:0 copy 0

;TYPE:Custom
M862.3 P "MK2.5" ; printer model check
M862.1 P0.4 ; nozzle diameter check
M115 U3.11.0 ; tell printer latest fw version
G90 ; use absolute coordinates
M83 ; extruder relative mode
M104 S215 ; set extruder temp
M140 S60 ; set bed temp
M190 S60 ; wait for bed temp
M109 S215 ; wait for extruder temp
G28 W ; home all without mesh bed level
G80 ; mesh bed leveling

G1 Z0.2 F720
G1 Y-3 F1000 ; go outside print area
G92 E0
G1 X60 E9 F1000 ; intro line
G1 X100 E12.5 F1000 ; intro line

G92 E0
G21 ; set units to millimeters
G90 ; use absolute coordinates
M83 ; use relative distances for extrusion
M900 K0.05 ; Filament gcode LA 1.5
M900 K30 ; Filament gcode LA 1.0
M107
;LAYER_CHANGE
;Z:0.2
;HEIGHT:0.2
G1 E-.8 F2100
G1 Z.6 F720
G1 X97.812 Y78.36 F10800
G1 Z.2 F720
G1 E.8 F2100
M204 S800
;TYPE:Skirt/Brim
;WIDTH:0.42
G1 F1200
G1 X98.845 Y77.557 E.04102
G1 X99.61 Y77.419 E.02437
G1 X150.41 Y77.419 E1.5928
G1 X151.658 Y77.81 E.04101
G1 X152.461 Y78.843 E.04102
G1 X152.599 Y79.608 E.02437
G1 X152.599 Y130.388 E1.59217
G1 X152.208 Y131.636 E.04101
G1 X151.175 Y132.438 E.041
G1 X150.41 Y132.576 E.02437
G1 X99.61 Y132.576 E1.5928
G1 X98.362 Y132.186 E.041
G1 X97.559 Y131.153 E.04102
G1 X97.421 Y130.388 E.02437
G1 X97.421 Y79.608 E1.59217
G1 X97.794 Y78.417 E.03913
M204 S1000
;WIPE_START
G1 F8640
G1 X97.812 Y78.36 E-.0138
G1 X98.845 Y77.557 E-.30211
G1 X99.61 Y77.419 E-.17949
G1 X100.929 Y77.419 E-.3046
;WIPE_END
G1 Z.6 F720
; printing object axoblock-test-files-e-axoblock-frame.stl.stl id:0 copy 0
G1 X125.369 Y123.828 F10800
G1 Z.2 F720
G1 E.8 F2100
M204 S800
;TYPE:Perimeter
;WIDTH:0.449476
G1 F1200
G1 X125.202 Y123.457 E.01375
G1 X125.202 Y113.09 E.35046
G1 X125.423 Y112.653 E.01655
;WIDTH:0.419999
G1 X125.567 Y112.567 E.00526
G1 X127.751 Y111.666 E.07408
G1 X130.523 Y110.521 E.09404
G1 X132.567 Y105.567 E.16803
G1 X132.653 Y105.423 E.00526
;WIDTH:0.450381
G1 X133.09 Y105.202 E.01659
G1 X143.477 Y105.202 E.35192
G1 X143.875 Y105.38 E.01477
;WIDTH:0.419999
G1 X144.026 Y105.644 E.00954
G1 X144.043 Y105.783 E.00439
G1 X144.043 Y109.829 E.12686
G1 X145.038 Y110.948 E.04695
G1 X145.142 Y111.116 E.0062
G1 X145.181 Y111.324 E.00664
G1 X145.181 Y124.615 E.41673
G1 X145.101 Y124.905 E.00943
G1 X144.906 Y125.101 E.00867
G1 X144.615 Y125.181 E.00946
G1 X131.325 Y125.181 E.4167
G1 X131.115 Y125.141 E.0067
M73 P1 R35
G1 X130.945 Y125.035 E.00628
G1 X129.827 Y124.023 E.04728
G1 X125.783 Y124.023 E.1268
G1 X125.528 Y123.963 E.00821
G1 X125.405 Y123.873 E.00478
M204 S1000
G1 X125.405 Y123.873 F10800
G1 X125.682 Y123.604
M204 S800
;TYPE:External perimeter
G1 F1200
G1 X125.649 Y123.59 E.00112
G1 X125.594 Y123.457 E.00451
G1 X125.594 Y113.09 E.32505
G1 X125.711 Y112.915 E.0066
G1 X127.894 Y112.014 E.07405
G1 X130.812 Y110.81 E.09897
G1 X132.915 Y105.711 E.17294
G1 X133.073 Y105.595 E.00615
G1 X143.477 Y105.594 E.32621
G1 X143.61 Y105.648 E.0045
G1 X143.666 Y105.783 E.00458
G1 X143.666 Y109.972 E.13134
G1 X144.756 Y111.198 E.05144
G1 X144.804 Y111.324 E.00423
G1 X144.804 Y124.615 E.41673
G1 X144.749 Y124.749 E.00454
G1 X144.615 Y124.804 E.00454
G1 X131.325 Y124.804 E.4167
G1 X131.198 Y124.755 E.00427
G1 X129.972 Y123.646 E.05183
G1 X125.783 Y123.646 E.13134
G1 X125.737 Y123.627 E.00156
M204 S1000
;WIPE_START
G1 F8640
G1 X125.682 Y123.604 E-.01377
G1 X125.649 Y123.59 E-.00828
G1 X125.594 Y123.457 E-.03323
G1 X125.594 Y120.232 E-.74472
;WIPE_END
G1 Z.6 F720
G1 X104.994 Y125.003 F10800
G1 Z.2 F720
G1 E.8 F2100
M204 S800
;TYPE:Perimeter
G1 F1200
G1 X104.896 Y124.904 E.00437
G1 X104.817 Y124.615 E.00939
G1 X104.817 Y111.322 E.41679
G1 X104.857 Y111.112 E.0067
G1 X104.963 Y110.943 E.00625
G1 X105.975 Y109.825 E.04728
G1 X105.975 Y105.783 E.12673
G1 X106.035 Y105.528 E.00821
G1 X106.142 Y105.381 E.0057
;WIDTH:0.450381
G1 X106.54 Y105.202 E.01479
G1 X116.908 Y105.202 E.35127
G1 X117.344 Y105.423 E.01656
;WIDTH:0.419999
G1 X117.431 Y105.567 E.00528
G1 X119.475 Y110.521 E.16803
G1 X124.431 Y112.567 E.16811
G1 X124.575 Y112.653 E.00526
;WIDTH:0.449476
G1 X124.796 Y113.09 E.01655
G1 X124.796 Y123.457 E.35046
G1 X124.617 Y123.856 E.01478
;WIDTH:0.419999
G1 X124.353 Y124.006 E.00952
G1 X124.215 Y124.023 E.00436
G1 X120.171 Y124.023 E.1268
G1 X119.053 Y125.035 E.04728
G1 X118.771 Y125.172 E.00983
G1 X118.673 Y125.181 E.00309
G1 X105.382 Y125.181 E.41673
G1 X105.091 Y125.1 E.00947
G1 X105.037 Y125.046 E.00239
M204 S1000
G1 X105.037 Y125.046 F10800
G1 X105.282 Y124.762
M204 S800
;TYPE:External perimeter
G1 F1200
G1 X105.249 Y124.748 E.00112
G1 X105.194 Y124.615 E.00451
G1 X105.194 Y111.322 E.41679
G1 X105.243 Y111.196 E.00424
G1 X106.352 Y109.97 E.05183
G1 X106.352 Y105.783 E.13128
G1 X106.408 Y105.649 E.00455
G1 X106.54 Y105.594 E.00448
G1 X116.908 Y105.594 E.32508
G1 X117.082 Y105.711 E.00657
G1 X119.186 Y110.81 E.17295
G1 X124.287 Y112.915 E.17302
G1 X124.404 Y113.09 E.0066
G1 X124.404 Y123.457 E.32505
G1 X124.349 Y123.59 E.00451
G1 X124.215 Y123.646 E.00455
G1 X120.026 Y123.646 E.13134
G1 X118.8 Y124.755 E.05183
G1 X118.673 Y124.804 E.00427
G1 X105.382 Y124.804 E.41673
G1 X105.337 Y124.785 E.00153
M204 S1000
;WIPE_START
G1 F8640
G1 X105.282 Y124.762 E-.01377
G1 X105.249 Y124.748 E-.00828
G1 X105.194 Y124.615 E-.03323
G1 X105.194 Y121.39 E-.74472
;WIPE_END
G1 Z.6 F720
G1 X124.629 Y86.168 F10800
G1 Z.2 F720
G1 E.8 F2100
M204 S800
;TYPE:Perimeter
;WIDTH:0.449476
G1 F1200
G1 X124.796 Y86.538 E.01372
G1 X124.796 Y96.906 E.35049
G1 X124.575 Y97.342 E.01652
;WIDTH:0.419999
G1 X124.431 Y97.429 E.00528
G1 X119.475 Y99.475 E.16811
G1 X117.431 Y104.429 E.16803
G1 X117.344 Y104.573 E.00528
;WIDTH:0.450381
G1 X116.908 Y104.794 E.01656
G1 X106.54 Y104.794 E.35127
G1 X106.142 Y104.615 E.01479
;WIDTH:0.419999
G1 X105.992 Y104.352 E.00949
G1 X105.975 Y104.213 E.00439
G1 X105.975 Y100.171 E.12673
G1 X104.963 Y99.053 E.04728
G1 X104.825 Y98.771 E.00984
G1 X104.817 Y98.673 E.00308
G1 X104.817 Y85.38 E.41679
G1 X104.898 Y85.089 E.00947
G1 X105.094 Y84.894 E.00867
G1 X105.382 Y84.815 E.00936
G1 X118.673 Y84.815 E.41673
G1 X118.883 Y84.855 E.0067
G1 X119.053 Y84.961 E.00628
G1 X120.171 Y85.973 E.04728
G1 X124.216 Y85.973 E.12683
G1 X124.469 Y86.033 E.00815
G1 X124.593 Y86.122 E.00479
M204 S1000
G1 X124.593 Y86.122 F10800
G1 X124.316 Y86.392
M204 S800
;TYPE:External perimeter
G1 F1200
G1 X124.349 Y86.405 E.00111
G1 X124.404 Y86.538 E.00451
G1 X124.404 Y96.906 E.32508
G1 X124.335 Y97.051 E.00503
G1 X119.186 Y99.186 E.17477
G1 X117.082 Y104.285 E.17295
G1 X116.908 Y104.402 E.00657
G1 X106.54 Y104.402 E.32508
G1 X106.408 Y104.347 E.00448
G1 X106.352 Y104.213 E.00455
G1 X106.352 Y100.026 E.13128
G1 X105.243 Y98.8 E.05183
G1 X105.194 Y98.673 E.00427
G1 X105.194 Y85.38 E.41679
G1 X105.25 Y85.246 E.00455
G1 X105.382 Y85.192 E.00447
G1 X118.673 Y85.192 E.41673
G1 X118.8 Y85.24 E.00426
G1 X120.026 Y86.35 E.05185
G1 X124.215 Y86.35 E.13134
G1 X124.261 Y86.369 E.00156
M204 S1000
;WIPE_START
G1 F8640
G1 X124.316 Y86.392 E-.01377
G1 X124.349 Y86.405 E-.00819
G1 X124.404 Y86.538 E-.03323
G1 X124.404 Y89.764 E-.74481
;WIPE_END
G1 Z.6 F720
G1 X143.848 Y104.628 F10800
G1 Z.2 F720
G1 E.8 F2100
M204 S800
;TYPE:Perimeter
;WIDTH:0.450381
G1 F1200
G1 X143.477 Y104.794 E.01377
G1 X133.09 Y104.794 E.35192
G1 X132.653 Y104.573 E.01659
;WIDTH:0.419999
G1 X132.567 Y104.429 E.00526
G1 X130.523 Y99.475 E.16803
G1 X125.567 Y97.429 E.16811
G1 X125.422 Y97.342 E.0053
M73 P2 R35
;WIDTH:0.449476
G1 X125.202 Y96.906 E.01651
G1 X125.202 Y86.538 E.35049
G1 X125.381 Y86.139 E.01478
;WIDTH:0.419999
G1 X125.645 Y85.99 E.0095
G1 X125.783 Y85.973 E.00436
G1 X129.827 Y85.973 E.1268
G1 X130.945 Y84.961 E.04728
G1 X131.227 Y84.823 E.00984
G1 X131.325 Y84.815 E.00308
G1 X144.616 Y84.815 E.41673
G1 X144.906 Y84.895 E.00943
G1 X145.101 Y85.09 E.00865
G1 X145.181 Y85.38 E.00943
G1 X145.181 Y98.672 E.41676
G1 X145.142 Y98.88 E.00664
G1 X144.696 Y99.432 E.02225
G1 X144.043 Y100.167 E.03083
G1 X144.034 Y104.311 E.12993
G1 X143.982 Y104.469 E.00522
G1 X143.893 Y104.591 E.00473
M204 S1000
G1 X143.893 Y104.591 F10800
G1 X143.578 Y104.361
M204 S800
;TYPE:External perimeter
G1 F1200
G1 X143.477 Y104.402 E.00342
G1 X133.09 Y104.402 E.32568
G1 X132.944 Y104.333 E.00506
G1 X130.812 Y99.186 E.17468
G1 X125.711 Y97.08 E.17303
G1 X125.595 Y96.922 E.00615
G1 X125.594 Y86.538 E.32558
G1 X125.698 Y86.37 E.0062
G1 X125.783 Y86.35 E.00274
G1 X129.972 Y86.35 E.13134
G1 X131.198 Y85.24 E.05185
G1 X131.325 Y85.192 E.00426
G1 X144.615 Y85.192 E.4167
G1 X144.749 Y85.247 E.00454
G1 X144.804 Y85.38 E.00451
G1 X144.804 Y98.672 E.41676
G1 X144.756 Y98.797 E.0042
G1 X143.666 Y100.024 E.05146
G1 X143.663 Y104.246 E.13238
G1 X143.622 Y104.325 E.00279
M204 S1000
;WIPE_START
G1 F8640
G1 X143.578 Y104.361 E-.01313
G1 X143.477 Y104.402 E-.02517
G1 X140.178 Y104.402 E-.7617
;WIPE_END
G1 Z.6 F720
G1 X100.763 Y129.218 F10800
G1 Z.2 F720
G1 E.8 F2100
M204 S800
;TYPE:Perimeter
G1 F1200
G1 X100.763 Y122.761 E.20245
G1 X100.785 Y121.087 E.05249
G1 X100.785 Y80.764 E1.2643
G1 X149.215 Y80.782 E1.51849
G1 X149.215 Y83.241 E.0771
G1 X149.218 Y129.216 E1.44151
G1 X100.823 Y129.218 E1.51739
M204 S1000
G1 X100.823 Y129.218 F10800
M73 P2 R34
G1 X100.386 Y129.595
M204 S800
;TYPE:External perimeter
G1 F1200
G1 X100.386 Y122.758 E.21437
G1 X100.408 Y121.09 E.0523
G1 X100.408 Y80.387 E1.27621
G1 X149.592 Y80.405 E1.54213
G1 X149.592 Y83.241 E.08892
M73 P3 R34
G1 X149.595 Y129.593 E1.45333
G1 X100.446 Y129.595 E1.54103
M204 S1000
;WIPE_START
G1 F8640
G1 X100.386 Y129.595 E-.01385
G1 X100.386 Y126.19 E-.78615
;WIPE_END
G1 Z.6 F720
G1 X130.99 Y100.904 F10800
G1 Z.2 F720
G1 E.8 F2100
M204 S800
;TYPE:Solid infill
;WIDTH:0.428403
G1 F1200
G1 X129.406 Y99.319 E.07183
G1 X128.477 Y98.936 E.03221
G1 X131.061 Y101.52 E.11713
G1 X131.443 Y102.448 E.03217
G1 X127.549 Y98.553 E.17654
G1 X126.62 Y98.17 E.03221
G1 X131.826 Y103.375 E.23596
G1 X132.209 Y104.303 E.03218
G1 X125.692 Y97.786 E.29541
G1 X125.452 Y97.688 E.00831
G1 X125.233 Y97.556 E.0082
G1 X124.999 Y97.16 E.01474
G1 X124.821 Y97.46 E.01118
G1 X132.537 Y105.176 E.34977
G1 X132.439 Y105.234 E.00365
G1 X132.296 Y105.481 E.00915
G1 X124.515 Y97.7 E.35271
G1 X124.129 Y97.859 E.01338
G1 X132.137 Y105.867 E.363
G1 X131.978 Y106.253 E.01338
G1 X123.744 Y98.019 E.37325
G1 X123.358 Y98.178 E.01338
G1 X131.819 Y106.639 E.38354
G1 X131.659 Y107.025 E.01339
G1 X122.972 Y98.337 E.3938
G1 X122.586 Y98.496 E.01338
G1 X131.5 Y107.411 E.40409
G1 X131.341 Y107.797 E.01338
G1 X122.2 Y98.656 E.41436
G1 X121.814 Y98.815 E.01338
G1 X131.182 Y108.183 E.42465
G1 X131.023 Y108.569 E.01338
G1 X121.428 Y98.974 E.43494
G1 X121.042 Y99.134 E.01339
G1 X130.863 Y108.955 E.44518
G1 X130.704 Y109.34 E.01335
G1 X120.657 Y99.293 E.45543
G1 X120.271 Y99.452 E.01338
G1 X130.545 Y109.726 E.46572
G1 X130.386 Y110.112 E.01338
G1 X119.885 Y99.611 E.47601
G1 X119.691 Y99.691 E.00673
G1 X119.612 Y99.884 E.00668
G1 X130.113 Y110.385 E.47601
G1 X129.727 Y110.544 E.01338
G1 X119.453 Y100.27 E.46572
G1 X119.294 Y100.656 E.01338
G1 X129.341 Y110.703 E.45543
G1 X128.955 Y110.862 E.01338
G1 X119.134 Y101.042 E.44516
G1 X118.975 Y101.427 E.01335
G1 X128.569 Y111.022 E.43492
G1 X128.183 Y111.181 E.01338
G1 X118.816 Y101.813 E.42463
G1 X118.657 Y102.199 E.01338
G1 X127.798 Y111.34 E.41436
G1 X127.412 Y111.499 E.01338
M73 P4 R34
G1 X118.498 Y102.585 E.40407
G1 X118.338 Y102.971 E.01339
G1 X127.026 Y111.659 E.39383
G1 X126.64 Y111.818 E.01338
G1 X118.179 Y103.357 E.38354
G1 X118.02 Y103.743 E.01338
G1 X126.254 Y111.977 E.37325
G1 X125.868 Y112.137 E.01339
G1 X117.861 Y104.129 E.36298
G1 X117.702 Y104.515 E.01338
G1 X125.482 Y112.296 E.35269
G1 X125.231 Y112.441 E.00929
G1 X125.18 Y112.539 E.00354
G1 X117.458 Y104.817 E.35004
G1 X117.111 Y104.998 E.01254
G1 X117.557 Y105.231 E.01613
G1 X117.69 Y105.453 E.0083
G1 X117.789 Y105.693 E.00832
G1 X124.305 Y112.209 E.29537
G1 X123.377 Y111.826 E.03218
G1 X118.172 Y106.621 E.23594
G1 X118.554 Y107.549 E.03217
G1 X122.448 Y111.443 E.17651
G1 X121.52 Y111.06 E.03218
G1 X118.937 Y108.477 E.11709
G1 X119.32 Y109.404 E.03215
G1 X120.905 Y110.989 E.07185
M204 S1000
;WIPE_START
G1 F8640
G1 X119.32 Y109.404 E-.51758
G1 X118.937 Y108.477 E-.2316
G1 X119.093 Y108.633 E-.05082
;WIPE_END
G1 Z.6 F720
G1 X149.102 Y81.662 F10800
G1 Z.2 F720
G1 E.8 F2100
M204 S800
;WIDTH:0.422048
G1 F1200
G1 X148.505 Y81.065 E.02662
G1 X147.968 Y81.065 E.01693
G1 X148.932 Y82.029 E.04298
G1 X148.932 Y82.565 E.0169
G1 X147.432 Y81.065 E.06687
G1 X146.896 Y81.064 E.0169
G1 X148.932 Y83.101 E.09079
G1 X148.932 Y83.637 E.0169
G1 X146.359 Y81.064 E.11471
G1 X145.823 Y81.064 E.0169
G1 X148.932 Y84.173 E.13861
G1 X148.932 Y84.71 E.01693
G1 X145.286 Y81.064 E.16255
G1 X144.75 Y81.064 E.0169
G1 X148.932 Y85.246 E.18644
G1 X148.932 Y85.782 E.0169
G1 X144.214 Y81.063 E.21036
G1 X143.677 Y81.063 E.01693
G1 X148.932 Y86.318 E.23428
G1 X148.933 Y86.854 E.0169
G1 X143.141 Y81.063 E.2582
G1 X142.605 Y81.063 E.0169
G1 X148.933 Y87.391 E.28212
G1 X148.933 Y87.927 E.0169
G1 X142.068 Y81.063 E.30604
G1 X141.532 Y81.062 E.0169
G1 X148.933 Y88.463 E.32996
G1 X148.933 Y88.999 E.0169
G1 X145.464 Y85.53 E.15466
G1 X145.464 Y85.374 E.00492
G1 X145.433 Y85.15 E.00713
G1 X145.345 Y84.945 E.00703
G1 X145.216 Y84.78 E.0066
G1 X145.051 Y84.651 E.0066
G1 X144.845 Y84.563 E.00706
G1 X144.622 Y84.532 E.0071
G1 X144.465 Y84.532 E.00495
G1 X140.995 Y81.062 E.1547
G1 X140.459 Y81.062 E.0169
G1 X143.929 Y84.532 E.1547
G1 X143.393 Y84.532 E.0169
G1 X139.923 Y81.062 E.1547
G1 X139.386 Y81.061 E.01693
G1 X142.857 Y84.532 E.15475
G1 X142.321 Y84.532 E.0169
G1 X138.85 Y81.061 E.15475
G1 X138.314 Y81.061 E.0169
G1 X141.784 Y84.532 E.15472
G1 X141.248 Y84.532 E.0169
G1 X137.777 Y81.061 E.15475
G1 X137.241 Y81.061 E.0169
G1 X140.712 Y84.532 E.15475
G1 X140.176 Y84.532 E.0169
G1 X136.705 Y81.06 E.15477
G1 X136.168 Y81.06 E.01693
G1 X139.64 Y84.532 E.15479
G1 X139.104 Y84.532 E.0169
G1 X135.632 Y81.06 E.15479
G1 X135.095 Y81.06 E.01693
G1 X138.567 Y84.532 E.15479
G1 X138.031 Y84.532 E.0169
G1 X134.559 Y81.06 E.15479
G1 X134.023 Y81.059 E.0169
G1 X137.495 Y84.532 E.15481
G1 X136.959 Y84.532 E.0169
G1 X133.486 Y81.059 E.15484
G1 X132.95 Y81.059 E.0169
G1 X136.423 Y84.532 E.15484
G1 X135.887 Y84.532 E.0169
G1 X132.414 Y81.059 E.15484
G1 X131.877 Y81.059 E.01693
G1 X135.35 Y84.532 E.15484
G1 X134.814 Y84.532 E.0169
G1 X131.341 Y81.058 E.15486
G1 X130.804 Y81.058 E.01693
G1 X134.278 Y84.532 E.15488
G1 X133.742 Y84.532 E.0169
G1 X130.268 Y81.058 E.15488
G1 X129.732 Y81.058 E.0169
G1 X133.206 Y84.532 E.15488
G1 X132.67 Y84.532 E.0169
G1 X129.195 Y81.058 E.1549
G1 X128.659 Y81.057 E.0169
G1 X132.133 Y84.532 E.1549
G1 X131.597 Y84.532 E.0169
G1 X128.123 Y81.057 E.1549
G1 X127.586 Y81.057 E.01693
G1 X131.097 Y84.567 E.15651
G1 X131.006 Y84.593 E.00298
G1 X130.75 Y84.756 E.00957
G1 X127.05 Y81.057 E.16493
G1 X126.513 Y81.057 E.01693
G1 X130.468 Y85.011 E.1763
G1 X130.186 Y85.266 E.01199
G1 X125.977 Y81.056 E.18767
G1 X125.441 Y81.056 E.0169
G1 X129.905 Y85.52 E.19902
G1 X129.718 Y85.69 E.00797
G1 X129.539 Y85.69 E.00564
G1 X124.904 Y81.056 E.20662
G1 X124.368 Y81.056 E.0169
G1 X129.004 Y85.692 E.20668
G1 X128.469 Y85.693 E.01687
G1 X123.832 Y81.056 E.20673
G1 X123.295 Y81.055 E.01693
G1 X127.935 Y85.695 E.20686
G1 X127.4 Y85.696 E.01687
G1 X122.759 Y81.055 E.20691
G1 X122.222 Y81.055 E.01693
M73 P5 R34
