; generated by PrusaSlicer 2.8.0 on 2024-09-21 at 14:30:01 UTC

; 

; external perimeters extrusion width = 0.45mm
; perimeters extrusion width = 0.45mm
; infill extrusion width = 0.45mm
; solid infill extrusion width = 0.45mm
; top infill extrusion width = 0.40mm
; first layer extrusion width = 0.42mm

M73 P0 R43
M201 X9000 Y9000 Z500 E10000 ; sets maximum accelerations, mm/sec^2
M203 X500 Y500 Z12 E120 ; sets maximum feedrates, mm / sec
M204 S2000 T1500 ; sets acceleration (S) and retract acceleration (R), mm/sec^2
M205 X10.00 Y10.00 Z0.20 E4.50 ; sets the jerk limits, mm/sec
M205 S0 T0 ; sets the minimum extruding and travel feed rate, mm/sec

; printing object axoblock.stl id:0 copy 0
; stop printing object axoblock.stl id:0 copy 0

;TYPE:Custom
M862.3 P "MK2.5" ; printer model check
M862.1 P0.4 ; nozzle diameter check
M115 U3.11.0 ; tell printer latest fw version
G90 ; use absolute coordinates
M83 ; extruder relative mode
M104 S215 ; set extruder temp
M140 S60 ; set bed temp
M190 S60 ; wait for bed temp
M109 S215 ; wait for extruder temp
G28 W ; home all without mesh bed level
G80 ; mesh bed leveling

G1 Z0.2 F720
G1 Y-3 F1000 ; go outside print area
G92 E0
G1 X60 E9 F1000 ; intro line
G1 X100 E12.5 F1000 ; intro line

G92 E0
G21 ; set units to millimeters
G90 ; use absolute coordinates
M83 ; use relative distances for extrusion
M900 K0.05 ; Filament gcode LA 1.5
M900 K30 ; Filament gcode LA 1.0
M107
;LAYER_CHANGE
;Z:0.2
;HEIGHT:0.2
G1 E-.8 F2100
G1 Z.6 F720
G1 X97.812 Y78.36 F10800
G1 Z.2 F720
G1 E.8 F2100
M204 S800
;TYPE:Skirt/Brim
;WIDTH:0.42
G1 F1200
G1 X98.845 Y77.557 E.04102
G1 X99.61 Y77.419 E.02437
G1 X150.41 Y77.419 E1.5928
G1 X151.658 Y77.81 E.04101
G1 X152.46 Y78.843 E.041
G1 X152.598 Y79.608 E.02437
G1 X152.598 Y130.388 E1.59217
G1 X152.207 Y131.636 E.04101
G1 X151.175 Y132.438 E.04098
G1 X150.41 Y132.576 E.02437
G1 X99.61 Y132.576 E1.5928
G1 X98.362 Y132.186 E.041
G1 X97.559 Y131.153 E.04102
G1 X97.421 Y130.388 E.02437
G1 X97.421 Y79.608 E1.59217
G1 X97.794 Y78.417 E.03913
M204 S1000
;WIPE_START
G1 F8640
G1 X97.812 Y78.36 E-.0138
G1 X98.845 Y77.557 E-.30211
G1 X99.61 Y77.419 E-.17949
G1 X100.929 Y77.419 E-.3046
;WIPE_END
G1 Z.6 F720
; printing object axoblock.stl id:0 copy 0
G1 X100.763 Y129.218 F10800
G1 Z.2 F720
G1 E.8 F2100
M204 S800
;TYPE:Perimeter
;WIDTH:0.419999
G1 F1200
G1 X100.763 Y122.761 E.20245
G1 X100.785 Y121.087 E.05249
G1 X100.785 Y80.764 E1.2643
G1 X149.215 Y80.782 E1.51849
G1 X149.216 Y104.988 E.75896
G1 X149.218 Y129.216 E.75965
G1 X100.823 Y129.218 E1.51739
M204 S1000
G1 X100.823 Y129.218 F10800
M73 P1 R43
G1 X100.386 Y129.595
M204 S800
;TYPE:External perimeter
G1 F1200
G1 X100.386 Y122.758 E.21437
G1 X100.408 Y121.089 E.05233
G1 X100.407 Y80.387 E1.27618
G1 X149.592 Y80.405 E1.54216
G1 X149.593 Y104.988 E.77078
G1 X149.595 Y129.593 E.77147
G1 X100.446 Y129.595 E1.54103
M204 S1000
;WIPE_START
G1 F8640
G1 X100.386 Y129.595 E-.01385
G1 X100.386 Y126.19 E-.78615
;WIPE_END
G1 Z.6 F720
G1 X148.335 Y80.895 F10800
G1 Z.2 F720
G1 E.8 F2100
M204 S800
;TYPE:Solid infill
;WIDTH:0.422047
G1 F1200
G1 X148.932 Y81.492 E.02662
G1 X148.932 Y82.029 E.01693
G1 X147.968 Y81.065 E.04298
G1 X147.432 Y81.065 E.0169
G1 X148.932 Y82.565 E.06687
G1 X148.932 Y83.101 E.0169
G1 X146.895 Y81.064 E.09081
G1 X146.359 Y81.064 E.0169
G1 X148.932 Y83.637 E.11471
G1 X148.932 Y84.173 E.0169
G1 X145.823 Y81.064 E.13861
G1 X145.286 Y81.064 E.01693
G1 X148.932 Y84.71 E.16255
G1 X148.932 Y85.246 E.0169
G1 X144.75 Y81.064 E.18644
G1 X144.214 Y81.063 E.0169
G1 X148.932 Y85.782 E.21036
G1 X148.932 Y86.318 E.0169
G1 X143.677 Y81.063 E.23428
G1 X143.141 Y81.063 E.0169
G1 X148.932 Y86.854 E.25818
G1 X148.932 Y87.391 E.01693
G1 X142.604 Y81.063 E.28212
G1 X142.068 Y81.063 E.0169
G1 X148.932 Y87.927 E.30601
G1 X148.932 Y88.463 E.0169
G1 X141.532 Y81.062 E.32993
G1 X140.995 Y81.062 E.01693
G1 X148.932 Y88.999 E.35385
G1 X148.932 Y89.535 E.0169
G1 X140.459 Y81.062 E.37775
G1 X139.923 Y81.062 E.0169
G1 X148.933 Y90.072 E.40169
G1 X148.933 Y90.608 E.0169
G1 X139.386 Y81.061 E.42563
G1 X138.85 Y81.061 E.0169
G1 X148.933 Y91.144 E.44952
G1 X148.933 Y91.68 E.0169
G1 X138.313 Y81.061 E.47344
G1 X137.777 Y81.061 E.0169
G1 X148.933 Y92.216 E.49734
G1 X148.933 Y92.753 E.01693
G1 X137.241 Y81.061 E.52126
G1 X136.704 Y81.06 E.01693
G1 X148.933 Y93.289 E.5452
G1 X148.933 Y93.825 E.0169
G1 X136.168 Y81.06 E.56909
G1 X135.632 Y81.06 E.0169
M73 P1 R42
G1 X148.933 Y94.361 E.59299
G1 X148.933 Y94.897 E.0169
G1 X135.095 Y81.06 E.61691
G1 X134.559 Y81.06 E.0169
M73 P2 R42
G1 X148.933 Y95.434 E.64083
G1 X148.933 Y95.97 E.0169
G1 X134.023 Y81.059 E.66475
G1 X133.486 Y81.059 E.01693
G1 X148.933 Y96.506 E.68866
G1 X148.933 Y97.042 E.0169
G1 X132.95 Y81.059 E.71256
G1 X132.413 Y81.059 E.01693
G1 X148.933 Y97.578 E.73648
G1 X148.933 Y98.115 E.01693
G1 X131.877 Y81.059 E.7604
G1 X131.341 Y81.058 E.0169
G1 X148.933 Y98.651 E.78432
G1 X148.933 Y99.187 E.0169
G1 X130.804 Y81.058 E.80823
G1 X130.268 Y81.058 E.0169
G1 X148.933 Y99.723 E.83213
G1 X148.933 Y100.259 E.0169
G1 X129.732 Y81.058 E.85603
G1 X129.195 Y81.058 E.01693
G1 X148.933 Y100.796 E.87997
G1 X148.933 Y101.332 E.0169
G1 X128.659 Y81.057 E.90389
G1 X128.122 Y81.057 E.01693
G1 X148.933 Y101.868 E.9278
G1 X148.933 Y102.404 E.0169
G1 X127.586 Y81.057 E.9517
G1 X127.05 Y81.057 E.0169
G1 X148.933 Y102.94 E.9756
G1 X148.933 Y103.477 E.01693
G1 X126.513 Y81.057 E.99954
G1 X125.977 Y81.056 E.0169
G1 X148.933 Y104.013 E1.02346
G1 X148.933 Y104.549 E.0169
G1 X125.441 Y81.056 E1.04735
G1 X124.904 Y81.056 E.01693
G1 X148.933 Y105.085 E1.07127
G1 X148.933 Y105.621 E.0169
M73 P3 R42
G1 X124.368 Y81.056 E1.09517
G1 X123.831 Y81.056 E.01693
G1 X148.933 Y106.158 E1.11911
G1 X148.933 Y106.694 E.0169
G1 X123.295 Y81.055 E1.14303
G1 X122.759 Y81.055 E.0169
G1 X148.933 Y107.23 E1.16692
G1 X148.934 Y107.766 E.0169
G1 X122.222 Y81.055 E1.19086
G1 X121.686 Y81.055 E.0169
G1 X148.934 Y108.302 E1.21476
G1 X148.934 Y108.839 E.01693
G1 X121.15 Y81.055 E1.23868
G1 X120.613 Y81.054 E.01693
G1 X148.934 Y109.375 E1.26262
G1 X148.934 Y109.911 E.0169
G1 X120.077 Y81.054 E1.28652
G1 X119.541 Y81.054 E.0169
G1 X148.934 Y110.447 E1.31041
G1 X148.934 Y110.983 E.0169
G1 X119.004 Y81.054 E1.33433
G1 X118.468 Y81.054 E.0169
G1 X148.934 Y111.52 E1.35825
G1 X148.934 Y112.056 E.0169
G1 X117.931 Y81.053 E1.38219
G1 X117.395 Y81.053 E.0169
M73 P4 R42
G1 X148.934 Y112.592 E1.40609
G1 X148.934 Y113.128 E.0169
G1 X116.859 Y81.053 E1.42998
G1 X116.322 Y81.053 E.01693
G1 X148.934 Y113.664 E1.4539
G1 X148.934 Y114.201 E.01693
M73 P4 R41
G1 X115.786 Y81.053 E1.47782
G1 X115.25 Y81.052 E.0169
G1 X148.934 Y114.737 E1.50174
G1 X148.934 Y115.273 E.0169
G1 X114.713 Y81.052 E1.52566
G1 X114.177 Y81.052 E.0169
G1 X148.934 Y115.809 E1.54955
G1 X148.934 Y116.345 E.0169
G1 X113.64 Y81.052 E1.57347
G1 X113.104 Y81.052 E.0169
G1 X148.934 Y116.881 E1.59737
G1 X148.934 Y117.418 E.01693
G1 X112.568 Y81.051 E1.62131
G1 X112.031 Y81.051 E.01693
G1 X148.934 Y117.954 E1.64523
G1 X148.934 Y118.49 E.0169
M73 P5 R41
G1 X111.495 Y81.051 E1.66912
G1 X110.959 Y81.051 E.0169
G1 X148.934 Y119.026 E1.69302
G1 X148.934 Y119.562 E.0169
G1 X110.422 Y81.051 E1.71694
G1 X109.886 Y81.05 E.0169
G1 X148.934 Y120.099 E1.74088
G1 X148.934 Y120.635 E.0169
G1 X109.349 Y81.05 E1.7648
G1 X108.813 Y81.05 E.0169
G1 X148.934 Y121.171 E1.78869
G1 X148.934 Y121.707 E.0169
G1 X108.277 Y81.05 E1.81259
G1 X107.74 Y81.049 E.01693
G1 X148.934 Y122.243 E1.83653
G1 X148.934 Y122.78 E.01693
G1 X107.204 Y81.049 E1.86045
G1 X106.668 Y81.049 E.0169
M73 P6 R41
G1 X148.934 Y123.316 E1.88434
G1 X148.934 Y123.852 E.0169
G1 X106.131 Y81.049 E1.90826
G1 X105.595 Y81.049 E.0169
G1 X148.934 Y124.388 E1.93216
G1 X148.935 Y124.924 E.0169
G1 X105.059 Y81.048 E1.9561
G1 X104.522 Y81.048 E.01693
G1 X148.935 Y125.461 E1.98004
G1 X148.935 Y125.997 E.0169
M73 P6 R40
G1 X103.986 Y81.048 E2.00394
G1 X103.449 Y81.048 E.01693
G1 X148.935 Y126.533 E2.02785
G1 X148.935 Y127.069 E.0169
G1 X102.913 Y81.048 E2.05175
G1 X102.377 Y81.047 E.0169
G1 X148.935 Y127.605 E2.07567
G1 X148.935 Y128.142 E.01693
M73 P7 R40
G1 X101.84 Y81.047 E2.09961
G1 X101.304 Y81.047 E.0169
G1 X148.935 Y128.678 E2.12351
G1 X148.935 Y128.933 E.00804
G1 X148.654 Y128.933 E.00886
G1 X101.067 Y81.347 E2.12152
G1 X101.067 Y81.883 E.0169
G1 X148.118 Y128.933 E2.09763
G1 X147.582 Y128.933 E.0169
G1 X101.067 Y82.419 E2.07373
G1 X101.067 Y82.955 E.0169
G1 X147.046 Y128.933 E2.04983
G1 X146.51 Y128.933 E.0169
G1 X101.067 Y83.491 E2.02594
G1 X101.067 Y84.027 E.0169
G1 X145.973 Y128.933 E2.00202
G1 X145.437 Y128.933 E.0169
M73 P8 R40
G1 X101.067 Y84.564 E1.9781
G1 X101.067 Y85.1 E.0169
G1 X144.901 Y128.933 E1.9542
G1 X144.365 Y128.934 E.0169
G1 X101.067 Y85.636 E1.93033
G1 X101.067 Y86.172 E.0169
G1 X143.829 Y128.934 E1.90643
G1 X143.293 Y128.934 E.0169
G1 X101.067 Y86.708 E1.88254
G1 X101.067 Y87.245 E.01693
G1 X142.756 Y128.934 E1.8586
G1 X142.22 Y128.934 E.0169
M73 P8 R39
G1 X101.067 Y87.781 E1.8347
G1 X101.067 Y88.317 E.0169
G1 X141.684 Y128.934 E1.8108
G1 X141.148 Y128.934 E.0169
M73 P9 R39
G1 X101.067 Y88.853 E1.78691
G1 X101.067 Y89.389 E.0169
G1 X140.612 Y128.934 E1.76301
G1 X140.076 Y128.934 E.0169
G1 X101.067 Y89.925 E1.73912
G1 X101.067 Y90.462 E.01693
G1 X139.54 Y128.934 E1.7152
G1 X139.003 Y128.934 E.01693
G1 X101.067 Y90.998 E1.69128
G1 X101.067 Y91.534 E.0169
G1 X138.467 Y128.934 E1.66738
G1 X137.931 Y128.934 E.0169
G1 X101.067 Y92.07 E1.64349
G1 X101.067 Y92.606 E.0169
G1 X137.395 Y128.934 E1.61959
G1 X136.859 Y128.934 E.0169
G1 X101.067 Y93.142 E1.59569
G1 X101.067 Y93.679 E.01693
G1 X136.323 Y128.934 E1.57178
G1 X135.787 Y128.934 E.0169
M73 P10 R39
G1 X101.067 Y94.215 E1.54788
G1 X101.067 Y94.751 E.0169
G1 X135.25 Y128.934 E1.52396
G1 X134.714 Y128.934 E.0169
G1 X101.067 Y95.287 E1.50007
G1 X101.067 Y95.823 E.0169
G1 X134.178 Y128.934 E1.47617
G1 X133.642 Y128.934 E.0169
G1 X101.067 Y96.359 E1.45227
G1 X101.067 Y96.896 E.01693
G1 X133.106 Y128.934 E1.42835
G1 X132.57 Y128.934 E.0169
G1 X101.068 Y97.432 E1.40444
G1 X101.068 Y97.968 E.0169
G1 X132.033 Y128.934 E1.38052
G1 X131.497 Y128.934 E.0169
G1 X101.068 Y98.504 E1.35662
G1 X101.068 Y99.04 E.0169
G1 X130.961 Y128.934 E1.33272
G1 X130.425 Y128.934 E.0169
G1 X101.068 Y99.576 E1.30883
G1 X101.068 Y100.113 E.01693
M73 P11 R39
G1 X129.889 Y128.934 E1.28491
G1 X129.353 Y128.934 E.0169
M73 P11 R38
G1 X101.068 Y100.649 E1.26101
G1 X101.068 Y101.185 E.0169
G1 X128.817 Y128.934 E1.23712
G1 X128.28 Y128.934 E.01693
G1 X101.068 Y101.721 E1.2132
G1 X101.068 Y102.257 E.0169
G1 X127.744 Y128.934 E1.1893
G1 X127.208 Y128.934 E.0169
G1 X101.068 Y102.793 E1.16541
G1 X101.068 Y103.33 E.01693
G1 X126.672 Y128.934 E1.14149
G1 X126.136 Y128.934 E.0169
G1 X101.068 Y103.866 E1.11759
G1 X101.068 Y104.402 E.0169
G1 X125.6 Y128.934 E1.0937
G1 X125.064 Y128.934 E.0169
G1 X101.068 Y104.938 E1.0698
G1 X101.068 Y105.474 E.0169
G1 X124.527 Y128.934 E1.04588
G1 X123.991 Y128.934 E.0169
G1 X101.068 Y106.011 E1.02196
G1 X101.068 Y106.547 E.0169
G1 X123.455 Y128.934 E.99807
G1 X122.919 Y128.934 E.0169
G1 X101.068 Y107.083 E.97417
G1 X101.068 Y107.619 E.0169
G1 X122.383 Y128.934 E.95027
G1 X121.847 Y128.934 E.0169
M73 P12 R38
G1 X101.068 Y108.155 E.92638
G1 X101.068 Y108.691 E.0169
G1 X121.31 Y128.934 E.90246
G1 X120.774 Y128.934 E.0169
G1 X101.068 Y109.228 E.87854
G1 X101.068 Y109.764 E.0169
G1 X120.238 Y128.934 E.85465
G1 X119.702 Y128.934 E.0169
G1 X101.068 Y110.3 E.83075
G1 X101.068 Y110.836 E.0169
G1 X119.166 Y128.934 E.80685
G1 X118.63 Y128.934 E.0169
G1 X101.068 Y111.372 E.78296
G1 X101.068 Y111.908 E.0169
G1 X118.094 Y128.934 E.75906
G1 X117.557 Y128.934 E.01693
G1 X101.068 Y112.445 E.73512
G1 X101.068 Y112.981 E.0169
G1 X117.021 Y128.934 E.71122
G1 X116.485 Y128.934 E.0169
G1 X101.068 Y113.517 E.68733
G1 X101.068 Y114.053 E.0169
G1 X115.949 Y128.934 E.66343
G1 X115.413 Y128.934 E.0169
G1 X101.068 Y114.589 E.63953
G1 X101.068 Y115.125 E.0169
G1 X114.877 Y128.934 E.61564
G1 X114.341 Y128.934 E.0169
G1 X101.068 Y115.662 E.59172
G1 X101.068 Y116.198 E.0169
G1 X113.804 Y128.934 E.5678
G1 X113.268 Y128.934 E.0169
G1 X101.068 Y116.734 E.54391
G1 X101.068 Y117.27 E.0169
G1 X112.732 Y128.935 E.52003
G1 X112.196 Y128.935 E.0169
G1 X101.068 Y117.806 E.49614
G1 X101.068 Y118.342 E.0169
G1 X111.66 Y128.935 E.47224
G1 X111.124 Y128.935 E.0169
G1 X101.068 Y118.879 E.44832
G1 X101.068 Y119.415 E.0169
G1 X110.587 Y128.935 E.4244
G1 X110.051 Y128.935 E.0169
G1 X101.068 Y119.951 E.40051
G1 X101.068 Y120.487 E.0169
G1 X109.515 Y128.935 E.37661
G1 X108.979 Y128.935 E.0169
M73 P13 R38
G1 X101.068 Y121.023 E.35271
G1 X101.062 Y121.553 E.01671
G1 X108.443 Y128.935 E.32909
G1 X107.907 Y128.935 E.0169
G1 X101.055 Y122.083 E.30548
G1 X101.048 Y122.612 E.01668
G1 X107.371 Y128.935 E.28189
G1 X106.834 Y128.935 E.01693
G1 X101.046 Y123.146 E.25807
G1 X101.046 Y123.682 E.0169
G1 X106.298 Y128.935 E.23417
G1 X105.762 Y128.935 E.0169
G1 X101.046 Y124.219 E.21025
G1 X101.046 Y124.755 E.0169
G1 X105.226 Y128.935 E.18635
G1 X104.69 Y128.935 E.0169
G1 X101.046 Y125.291 E.16246
G1 X101.046 Y125.827 E.0169
G1 X104.154 Y128.935 E.13856
G1 X103.618 Y128.935 E.0169
G1 X101.046 Y126.363 E.11467
G1 X101.046 Y126.899 E.0169
G1 X103.081 Y128.935 E.09075
G1 X102.545 Y128.935 E.0169
G1 X101.046 Y127.435 E.06685
G1 X101.046 Y127.972 E.01693
G1 X102.009 Y128.935 E.04293
G1 X101.473 Y128.935 E.0169
G1 X100.876 Y128.338 E.02662
M204 S1000
M106 S84.15
;LAYER_CHANGE
;Z:0.4
;HEIGHT:0.2
;BEFORE_LAYER_CHANGE
G92 E0.0
;0.4


;WIPE_START
G1 F8640
G1 X101.473 Y128.935 E-.19495
G1 X102.009 Y128.935 E-.12376
G1 X101.046 Y127.972 E-.31446
G1 X101.046 Y127.435 E-.12399
G1 X101.177 Y127.566 E-.04284
;WIPE_END
G1 Z.4 F720
;AFTER_LAYER_CHANGE
;0.4
;CURRENT_Z: 0.4
M104 S210 ; set temperature
; stop printing object axoblock.stl id:0 copy 0
G1 Z.8
G1 X97.421 Y127.566 F10800
G1 Z.4 F720
G1 E.8 F2100
;TYPE:Skirt/Brim
;WIDTH:0.42
G1 F3000
G1 X97.421 Y79.608 E1.50369
G1 X97.812 Y78.36 E.04101
G1 X98.845 Y77.557 E.04102
G1 X99.61 Y77.419 E.02437
G1 X150.41 Y77.419 E1.5928
G1 X151.658 Y77.81 E.04101
G1 X152.46 Y78.843 E.041
G1 X152.598 Y79.608 E.02437
G1 X152.598 Y130.388 E1.59217
G1 X152.207 Y131.636 E.04101
M73 P13 R37
G1 X151.175 Y132.438 E.04098
G1 X150.41 Y132.576 E.02437
G1 X99.61 Y132.576 E1.5928
G1 X98.362 Y132.186 E.041
G1 X97.559 Y131.153 E.04102
G1 X97.421 Y130.388 E.02437
G1 X97.421 Y127.626 E.0866
;WIPE_START
G1 F8640
G1 X97.421 Y127.566 E-.01385
G1 X97.421 Y124.161 E-.78615
;WIPE_END
G1 Z.8 F720
; printing object axoblock.stl id:0 copy 0
G1 X123.556 Y106.435 F10800
G1 Z.4 F720
G1 E.8 F2100
M204 S800
;TYPE:External perimeter
;WIDTH:0.449999
G1 F2400
G1 X123.571 Y106.442 E.00056
G1 X123.624 Y106.579 E.00497
G1 X123.624 Y112.221 E.19097
G1 X123.42 Y112.425 E.00977
G1 X122.614 Y112.425 E.02728
G1 X124.093 Y113.035 E.05415
G1 X124.21 Y113.163 E.00587
G1 X124.219 Y123.257 E.34167
G1 X124.159 Y123.401 E.00528
G1 X124.015 Y123.461 E.00528
G1 X123.624 Y123.461 E.01323
G1 X123.624 Y128.821 E.18143
G1 X123.583 Y128.943 E.00436
G1 X123.42 Y129.025 E.00618
G1 X117.778 Y129.025 E.19097
G1 X117.615 Y128.943 E.00618
G1 X117.574 Y128.821 E.00436
G1 X117.574 Y124.619 E.14223
G1 X105.582 Y124.619 E.40591
G1 X105.438 Y124.559 E.00528
G1 X105.379 Y124.415 E.00527
G1 X105.379 Y112.425 E.40585
G1 X101.178 Y112.425 E.1422
G1 X101.055 Y112.384 E.00439
G1 X100.974 Y112.221 E.00616
G1 X100.974 Y106.579 E.19097
G1 X101.055 Y106.416 E.00616
G1 X101.178 Y106.375 E.00439
G1 X106.537 Y106.375 E.1814
G1 X106.537 Y105.983 E.01327
G1 X106.641 Y105.805 E.00698
G1 X106.694 Y105.784 E.00193
G1 X116.775 Y105.779 E.34123
G1 X116.899 Y105.822 E.00444
G1 X117.266 Y106.64 E.03035
G1 X117.574 Y107.387 E.02735
G1 X117.574 Y106.579 E.02735
G1 X117.777 Y106.375 E.00974
G1 X123.42 Y106.375 E.19101
G1 X123.501 Y106.411 E.003
M204 S1000
;WIPE_START
G1 F8640
G1 X123.556 Y106.435 E-.01386
G1 X123.571 Y106.442 E-.00382
G1 X123.624 Y106.579 E-.03392
G1 X123.624 Y109.82 E-.7484
;WIPE_END
G1 Z.8 F720
G1 X101.031 Y81.041 F10800
G1 Z.4 F720
G1 E.8 F2100
M204 S800
G1 F1500
G1 X101.034 Y81.034 E.00026
