; generated by PrusaSlicer 2.6.0-alpha6+linux-x64-GTK3 on 2023-05-08 at 03:34:23 UTC

; 

; external perimeters extrusion width = 0.45mm
; perimeters extrusion width = 0.45mm
; infill extrusion width = 0.45mm
; solid infill extrusion width = 0.45mm
; top infill extrusion width = 0.40mm
; first layer extrusion width = 0.42mm

M73 P0 R42
M201 X9000 Y9000 Z500 E10000 ; sets maximum accelerations, mm/sec^2
M203 X500 Y500 Z12 E120 ; sets maximum feedrates, mm / sec
M204 S2000 T1500 ; sets acceleration (S) and retract acceleration (R), mm/sec^2
M205 X10.00 Y10.00 Z0.20 E4.50 ; sets the jerk limits, mm/sec
M205 S0 T0 ; sets the minimum extruding and travel feed rate, mm/sec
;TYPE:Custom
M862.3 P "MK2.5" ; printer model check
M862.1 P0.4 ; nozzle diameter check
M115 U3.11.0 ; tell printer latest fw version
G90 ; use absolute coordinates
M83 ; extruder relative mode
M104 S215 ; set extruder temp
M140 S60 ; set bed temp
M190 S60 ; wait for bed temp
M109 S215 ; wait for extruder temp
G28 W ; home all without mesh bed level
G80 ; mesh bed leveling

G1 Z0.2 F720
G1 Y-3 F1000 ; go outside print area
G92 E0
G1 X60 E9 F1000 ; intro line
G1 X100 E12.5 F1000 ; intro line

G92 E0
G21 ; set units to millimeters
G90 ; use absolute coordinates
M83 ; use relative distances for extrusion
M900 K0.05 ; Filament gcode LA 1.5
M900 K30 ; Filament gcode LA 1.0
M107
;LAYER_CHANGE
;Z:0.2
;HEIGHT:0.2
;BEFORE_LAYER_CHANGE
G92 E0.0
;0.2


G1 E-.8 F2100
G1 Z.4 F720
;AFTER_LAYER_CHANGE
;0.2
;CURRENT_Z: 0.2
G1 X97.624 Y78.301 F10800
G1 Z.2 F720
G1 E.8 F2100
M204 S800
;TYPE:Skirt/Brim
;WIDTH:0.42
G1 F1200
G1 X98.67 Y77.424 E.0428
G1 X99.61 Y77.231 E.03009
G1 X150.41 Y77.231 E1.5928
G1 X151.717 Y77.622 E.04277
G1 X152.593 Y78.668 E.04278
G1 X152.787 Y79.608 E.03009
G1 X152.787 Y130.388 E1.59217
G1 X152.395 Y131.695 E.04278
G1 X151.35 Y132.571 E.04275
G1 X150.41 Y132.765 E.03009
G1 X99.61 Y132.765 E1.5928
G1 X98.303 Y132.373 E.04278
G1 X97.426 Y131.328 E.04277
G1 X97.233 Y130.388 E.03009
G1 X97.233 Y79.608 E1.59217
G1 X97.607 Y78.358 E.04091
M204 S1000
; printing object axoblock.stl id:0 copy 0
;WIPE_START
G1 F8640
G1 X98.67 Y77.424 E-.32674
G1 X99.61 Y77.231 E-.22158
G1 X100.7 Y77.231 E-.25168
;WIPE_END
G1 Z.6 F720
G1 X149.218 Y129.216 F10800
G1 Z.2 F720
G1 E.8 F2100
M204 S800
;TYPE:Perimeter
;WIDTH:0.419999
G1 F1200
G1 X100.763 Y129.218 E1.51927
G1 X100.763 Y122.761 E.20245
G1 X100.785 Y121.087 E.05249
G1 X100.785 Y80.764 E1.2643
G1 X149.215 Y80.782 E1.51849
G1 X149.218 Y129.156 E1.51673
M204 S1000
M73 P1 R42
G1 X149.595 Y129.593 F10800
M204 S800
;TYPE:External perimeter
G1 F1200
G1 X100.386 Y129.595 E1.54291
G1 X100.386 Y122.758 E.21437
G1 X100.408 Y121.089 E.05233
G1 X100.408 Y80.387 E1.27618
G1 X149.592 Y80.405 E1.54213
G1 X149.595 Y129.533 E1.54037
M204 S1000
G1 X149.208 Y129.49 F10800
;WIPE_START
G1 F8640
G1 X146.13 Y129.537 E-.8
;WIPE_END
G1 Z.6 F720
G1 X148.335 Y80.895 F10800
G1 Z.2 F720
G1 E.8 F2100
M204 S800
;TYPE:Solid infill
;WIDTH:0.422047
G1 F1200
G1 X148.932 Y81.492 E.02662
G1 X148.932 Y82.029 E.01693
G1 X147.968 Y81.065 E.04298
G1 X147.432 Y81.065 E.0169
G1 X148.932 Y82.565 E.06687
G1 X148.932 Y83.101 E.0169
G1 X146.895 Y81.064 E.09081
G1 X146.359 Y81.064 E.0169
G1 X148.932 Y83.637 E.11471
G1 X148.932 Y84.173 E.0169
G1 X145.823 Y81.064 E.13861
G1 X145.286 Y81.064 E.01693
G1 X148.932 Y84.71 E.16255
G1 X148.932 Y85.246 E.0169
G1 X144.75 Y81.064 E.18644
G1 X144.214 Y81.063 E.0169
G1 X148.932 Y85.782 E.21036
G1 X148.932 Y86.318 E.0169
G1 X143.677 Y81.063 E.23428
G1 X143.141 Y81.063 E.0169
G1 X148.932 Y86.854 E.25818
G1 X148.932 Y87.391 E.01693
G1 X142.605 Y81.063 E.2821
G1 X142.068 Y81.063 E.01693
G1 X148.932 Y87.927 E.30601
G1 X148.932 Y88.463 E.0169
G1 X141.532 Y81.062 E.32993
G1 X140.995 Y81.062 E.01693
G1 X148.933 Y88.999 E.35387
G1 X148.933 Y89.535 E.0169
G1 X140.459 Y81.062 E.37777
G1 X139.923 Y81.062 E.0169
G1 X148.933 Y90.072 E.40169
G1 X148.933 Y90.608 E.0169
G1 X139.386 Y81.062 E.42561
G1 X138.85 Y81.061 E.0169
G1 X148.933 Y91.144 E.44952
G1 X148.933 Y91.68 E.0169
G1 X138.314 Y81.061 E.47342
G1 X137.777 Y81.061 E.01693
G1 X148.933 Y92.216 E.49734
G1 X148.933 Y92.753 E.01693
M73 P1 R41
G1 X137.241 Y81.061 E.52126
G1 X136.704 Y81.06 E.01693
G1 X148.933 Y93.289 E.5452
G1 X148.933 Y93.825 E.0169
G1 X136.168 Y81.06 E.56909
G1 X135.632 Y81.06 E.0169
G1 X148.933 Y94.361 E.59299
G1 X148.933 Y94.897 E.0169
M73 P2 R41
G1 X135.095 Y81.06 E.61691
G1 X134.559 Y81.06 E.0169
G1 X148.933 Y95.434 E.64083
G1 X148.933 Y95.97 E.0169
G1 X134.023 Y81.059 E.66475
G1 X133.486 Y81.059 E.01693
G1 X148.933 Y96.506 E.68866
G1 X148.933 Y97.042 E.0169
G1 X132.95 Y81.059 E.71256
G1 X132.413 Y81.059 E.01693
G1 X148.933 Y97.578 E.73648
G1 X148.933 Y98.115 E.01693
G1 X131.877 Y81.059 E.7604
G1 X131.341 Y81.058 E.0169
G1 X148.933 Y98.651 E.78432
G1 X148.933 Y99.187 E.0169
G1 X130.804 Y81.058 E.80823
G1 X130.268 Y81.058 E.0169
G1 X148.933 Y99.723 E.83213
G1 X148.933 Y100.259 E.0169
G1 X129.732 Y81.058 E.85603
G1 X129.195 Y81.058 E.01693
G1 X148.933 Y100.796 E.87997
G1 X148.933 Y101.332 E.0169
G1 X128.659 Y81.057 E.90389
G1 X128.123 Y81.057 E.0169
G1 X148.933 Y101.868 E.92778
G1 X148.933 Y102.404 E.0169
G1 X127.586 Y81.057 E.9517
G1 X127.05 Y81.057 E.0169
G1 X148.933 Y102.94 E.9756
G1 X148.933 Y103.477 E.01693
G1 X126.513 Y81.057 E.99954
G1 X125.977 Y81.056 E.0169
G1 X148.933 Y104.013 E1.02346
G1 X148.933 Y104.549 E.0169
G1 X125.441 Y81.056 E1.04735
G1 X124.904 Y81.056 E.01693
M73 P3 R41
G1 X148.933 Y105.085 E1.07127
G1 X148.933 Y105.621 E.0169
G1 X124.368 Y81.056 E1.09517
G1 X123.832 Y81.056 E.0169
G1 X148.934 Y106.158 E1.11911
G1 X148.934 Y106.694 E.0169
G1 X123.295 Y81.055 E1.14305
G1 X122.759 Y81.055 E.0169
G1 X148.934 Y107.23 E1.16695
G1 X148.934 Y107.766 E.0169
G1 X122.222 Y81.055 E1.19086
G1 X121.686 Y81.055 E.0169
G1 X148.934 Y108.302 E1.21476
G1 X148.934 Y108.839 E.01693
G1 X121.15 Y81.055 E1.23868
G1 X120.613 Y81.054 E.01693
G1 X148.934 Y109.375 E1.26262
G1 X148.934 Y109.911 E.0169
G1 X120.077 Y81.054 E1.28652
G1 X119.541 Y81.054 E.0169
G1 X148.934 Y110.447 E1.31041
G1 X148.934 Y110.983 E.0169
G1 X119.004 Y81.054 E1.33433
G1 X118.468 Y81.054 E.0169
G1 X148.934 Y111.52 E1.35825
G1 X148.934 Y112.056 E.0169
M73 P4 R41
G1 X117.931 Y81.053 E1.38219
G1 X117.395 Y81.053 E.0169
G1 X148.934 Y112.592 E1.40609
G1 X148.934 Y113.128 E.0169
M73 P4 R40
G1 X116.859 Y81.053 E1.42998
G1 X116.322 Y81.053 E.01693
G1 X148.934 Y113.664 E1.4539
G1 X148.934 Y114.201 E.01693
G1 X115.786 Y81.053 E1.47782
G1 X115.25 Y81.052 E.0169
G1 X148.934 Y114.737 E1.50174
G1 X148.934 Y115.273 E.0169
G1 X114.713 Y81.052 E1.52566
G1 X114.177 Y81.052 E.0169
G1 X148.934 Y115.809 E1.54955
G1 X148.934 Y116.345 E.0169
G1 X113.641 Y81.052 E1.57345
G1 X113.104 Y81.052 E.01693
G1 X148.934 Y116.881 E1.59737
G1 X148.934 Y117.418 E.01693
G1 X112.568 Y81.051 E1.62131
G1 X112.031 Y81.051 E.01693
M73 P5 R40
G1 X148.934 Y117.954 E1.64523
G1 X148.934 Y118.49 E.0169
G1 X111.495 Y81.051 E1.66912
G1 X110.959 Y81.051 E.0169
G1 X148.934 Y119.026 E1.69302
G1 X148.934 Y119.562 E.0169
G1 X110.422 Y81.051 E1.71694
G1 X109.886 Y81.05 E.0169
G1 X148.934 Y120.099 E1.74088
G1 X148.934 Y120.635 E.0169
G1 X109.35 Y81.05 E1.76477
G1 X108.813 Y81.05 E.01693
G1 X148.934 Y121.171 E1.78869
G1 X148.934 Y121.707 E.0169
G1 X108.277 Y81.05 E1.81259
G1 X107.74 Y81.049 E.01693
G1 X148.934 Y122.243 E1.83653
G1 X148.934 Y122.78 E.01693
M73 P6 R40
G1 X107.204 Y81.049 E1.86045
G1 X106.668 Y81.049 E.0169
G1 X148.934 Y123.316 E1.88434
G1 X148.935 Y123.852 E.0169
G1 X106.131 Y81.049 E1.90828
G1 X105.595 Y81.049 E.0169
G1 X148.935 Y124.388 E1.93218
G1 X148.935 Y124.924 E.0169
G1 X105.059 Y81.048 E1.9561
G1 X104.522 Y81.048 E.01693
M73 P6 R39
G1 X148.935 Y125.461 E1.98004
G1 X148.935 Y125.997 E.0169
G1 X103.986 Y81.048 E2.00394
G1 X103.45 Y81.048 E.0169
G1 X148.935 Y126.533 E2.02783
G1 X148.935 Y127.069 E.0169
M73 P7 R39
G1 X102.913 Y81.048 E2.05175
G1 X102.377 Y81.047 E.0169
G1 X148.935 Y127.605 E2.07567
G1 X148.935 Y128.142 E.01693
G1 X101.84 Y81.047 E2.09961
G1 X101.304 Y81.047 E.0169
G1 X148.935 Y128.678 E2.12351
G1 X148.935 Y128.933 E.00804
G1 X148.654 Y128.933 E.00886
G1 X101.067 Y81.347 E2.12152
G1 X101.067 Y81.883 E.0169
G1 X148.118 Y128.933 E2.09763
G1 X147.582 Y128.933 E.0169
G1 X101.067 Y82.419 E2.07373
G1 X101.067 Y82.955 E.0169
G1 X147.046 Y128.933 E2.04983
G1 X146.51 Y128.933 E.0169
M73 P8 R39
G1 X101.067 Y83.491 E2.02594
G1 X101.067 Y84.027 E.0169
G1 X145.973 Y128.933 E2.00202
G1 X145.437 Y128.933 E.0169
G1 X101.067 Y84.564 E1.9781
G1 X101.067 Y85.1 E.0169
G1 X144.901 Y128.933 E1.9542
G1 X144.365 Y128.934 E.0169
G1 X101.067 Y85.636 E1.93033
G1 X101.067 Y86.172 E.0169
G1 X143.829 Y128.934 E1.90643
G1 X143.293 Y128.934 E.0169
G1 X101.067 Y86.708 E1.88254
G1 X101.067 Y87.245 E.01693
M73 P8 R38
G1 X142.757 Y128.934 E1.85862
G1 X142.22 Y128.934 E.01693
M73 P9 R38
G1 X101.067 Y87.781 E1.8347
G1 X101.067 Y88.317 E.0169
G1 X141.684 Y128.934 E1.8108
G1 X141.148 Y128.934 E.0169
G1 X101.067 Y88.853 E1.78691
G1 X101.067 Y89.389 E.0169
G1 X140.612 Y128.934 E1.76301
G1 X140.076 Y128.934 E.0169
G1 X101.068 Y89.925 E1.73909
G1 X101.068 Y90.462 E.01693
G1 X139.54 Y128.934 E1.71518
G1 X139.003 Y128.934 E.01693
G1 X101.068 Y90.998 E1.69126
G1 X101.068 Y91.534 E.0169
G1 X138.467 Y128.934 E1.66736
G1 X137.931 Y128.934 E.0169
G1 X101.068 Y92.07 E1.64346
G1 X101.068 Y92.606 E.0169
M73 P10 R38
G1 X137.395 Y128.934 E1.61957
G1 X136.859 Y128.934 E.0169
G1 X101.068 Y93.142 E1.59567
G1 X101.068 Y93.679 E.01693
G1 X136.323 Y128.934 E1.57175
G1 X135.787 Y128.934 E.0169
G1 X101.068 Y94.215 E1.54786
G1 X101.068 Y94.751 E.0169
G1 X135.25 Y128.934 E1.52394
G1 X134.714 Y128.934 E.0169
G1 X101.068 Y95.287 E1.50004
G1 X101.068 Y95.823 E.0169
G1 X134.178 Y128.934 E1.47615
G1 X133.642 Y128.934 E.0169
G1 X101.068 Y96.359 E1.45225
G1 X101.068 Y96.896 E.01693
G1 X133.106 Y128.934 E1.42833
G1 X132.57 Y128.934 E.0169
G1 X101.068 Y97.432 E1.40444
G1 X101.068 Y97.968 E.0169
G1 X132.034 Y128.934 E1.38054
G1 X131.497 Y128.934 E.01693
M73 P11 R38
G1 X101.068 Y98.504 E1.35662
G1 X101.068 Y99.04 E.0169
G1 X130.961 Y128.934 E1.33272
G1 X130.425 Y128.934 E.0169
M73 P11 R37
G1 X101.068 Y99.576 E1.30883
G1 X101.068 Y100.113 E.01693
G1 X129.889 Y128.934 E1.28491
G1 X129.353 Y128.934 E.0169
G1 X101.068 Y100.649 E1.26101
G1 X101.068 Y101.185 E.0169
G1 X128.817 Y128.934 E1.23712
G1 X128.28 Y128.934 E.01693
G1 X101.068 Y101.721 E1.2132
G1 X101.068 Y102.257 E.0169
G1 X127.744 Y128.934 E1.1893
G1 X127.208 Y128.934 E.0169
G1 X101.068 Y102.793 E1.16541
G1 X101.068 Y103.33 E.01693
G1 X126.672 Y128.934 E1.14149
G1 X126.136 Y128.934 E.0169
G1 X101.068 Y103.866 E1.11759
G1 X101.068 Y104.402 E.0169
G1 X125.6 Y128.934 E1.0937
G1 X125.064 Y128.934 E.0169
G1 X101.068 Y104.938 E1.0698
G1 X101.068 Y105.474 E.0169
M73 P12 R37
G1 X124.527 Y128.934 E1.04588
G1 X123.991 Y128.934 E.0169
G1 X101.068 Y106.011 E1.02196
G1 X101.068 Y106.547 E.0169
G1 X123.455 Y128.934 E.99807
G1 X122.919 Y128.934 E.0169
G1 X101.068 Y107.083 E.97417
G1 X101.068 Y107.619 E.0169
G1 X122.383 Y128.934 E.95027
G1 X121.847 Y128.934 E.0169
G1 X101.068 Y108.155 E.92638
G1 X101.068 Y108.691 E.0169
G1 X121.311 Y128.934 E.90248
G1 X120.774 Y128.934 E.01693
G1 X101.068 Y109.228 E.87854
G1 X101.068 Y109.764 E.0169
G1 X120.238 Y128.934 E.85465
G1 X119.702 Y128.934 E.0169
G1 X101.068 Y110.3 E.83075
G1 X101.068 Y110.836 E.0169
G1 X119.166 Y128.934 E.80685
G1 X118.63 Y128.934 E.0169
G1 X101.068 Y111.372 E.78296
G1 X101.068 Y111.908 E.0169
G1 X118.094 Y128.934 E.75906
G1 X117.557 Y128.934 E.01693
G1 X101.068 Y112.445 E.73512
G1 X101.068 Y112.981 E.0169
G1 X117.021 Y128.934 E.71122
G1 X116.485 Y128.934 E.0169
G1 X101.068 Y113.517 E.68733
G1 X101.068 Y114.053 E.0169
G1 X115.949 Y128.934 E.66343
G1 X115.413 Y128.934 E.0169
G1 X101.068 Y114.589 E.63953
G1 X101.068 Y115.125 E.0169
G1 X114.877 Y128.934 E.61564
G1 X114.341 Y128.934 E.0169
M73 P13 R37
G1 X101.068 Y115.662 E.59172
G1 X101.068 Y116.198 E.0169
G1 X113.804 Y128.934 E.5678
G1 X113.268 Y128.934 E.0169
G1 X101.068 Y116.734 E.54391
G1 X101.068 Y117.27 E.0169
G1 X112.732 Y128.935 E.52003
G1 X112.196 Y128.935 E.0169
G1 X101.068 Y117.806 E.49614
G1 X101.068 Y118.342 E.0169
G1 X111.66 Y128.935 E.47224
G1 X111.124 Y128.935 E.0169
G1 X101.068 Y118.879 E.44832
G1 X101.068 Y119.415 E.0169
G1 X110.588 Y128.935 E.42442
G1 X110.051 Y128.935 E.01693
G1 X101.068 Y119.951 E.40051
G1 X101.068 Y120.487 E.0169
G1 X109.515 Y128.935 E.37661
G1 X108.979 Y128.935 E.0169
G1 X101.068 Y121.023 E.35271
G1 X101.062 Y121.553 E.01671
G1 X108.443 Y128.935 E.32909
G1 X107.907 Y128.935 E.0169
G1 X101.055 Y122.083 E.30548
G1 X101.048 Y122.612 E.01668
G1 X107.371 Y128.935 E.28189
G1 X106.835 Y128.935 E.0169
G1 X101.046 Y123.146 E.25809
G1 X101.046 Y123.682 E.0169
G1 X106.298 Y128.935 E.23417
G1 X105.762 Y128.935 E.0169
G1 X101.046 Y124.219 E.21025
G1 X101.046 Y124.755 E.0169
G1 X105.226 Y128.935 E.18635
G1 X104.69 Y128.935 E.0169
G1 X101.046 Y125.291 E.16246
G1 X101.046 Y125.827 E.0169
G1 X104.154 Y128.935 E.13856
G1 X103.618 Y128.935 E.0169
G1 X101.046 Y126.363 E.11467
G1 X101.046 Y126.899 E.0169
G1 X103.081 Y128.935 E.09075
G1 X102.545 Y128.935 E.0169
G1 X101.046 Y127.435 E.06685
G1 X101.046 Y127.972 E.01693
G1 X102.009 Y128.935 E.04293
G1 X101.473 Y128.935 E.0169
G1 X100.876 Y128.338 E.02662
M204 S1000
; stop printing object axoblock.stl id:0 copy 0
M106 S84.15
;LAYER_CHANGE
;Z:0.4
;HEIGHT:0.2
;BEFORE_LAYER_CHANGE
G92 E0.0
;0.4


;WIPE_START
G1 F8640
G1 X101.473 Y128.935 E-.19495
G1 X102.009 Y128.935 E-.12376
G1 X101.046 Y127.972 E-.31446
G1 X101.046 Y127.435 E-.12399
M73 P13 R36
G1 X101.177 Y127.566 E-.04284
;WIPE_END
G1 Z.6 F720
;AFTER_LAYER_CHANGE
;0.4
;CURRENT_Z: 0.4
M104 S210 ; set temperature
G1 X97.233 Y127.566 F10800
G1 Z.4 F720
G1 E.8 F2100
;TYPE:Skirt/Brim
;WIDTH:0.42
G1 F3000
G1 X97.233 Y79.608 E1.50369
G1 X97.624 Y78.301 E.04277
G1 X98.67 Y77.424 E.0428
G1 X99.61 Y77.231 E.03009
G1 X150.41 Y77.231 E1.5928
G1 X151.717 Y77.622 E.04277
G1 X152.593 Y78.668 E.04278
G1 X152.787 Y79.608 E.03009
G1 X152.787 Y130.388 E1.59217
G1 X152.395 Y131.695 E.04278
G1 X151.35 Y132.571 E.04275
G1 X150.41 Y132.765 E.03009
G1 X99.61 Y132.765 E1.5928
G1 X98.303 Y132.373 E.04278
G1 X97.426 Y131.328 E.04277
G1 X97.233 Y130.388 E.03009
G1 X97.233 Y127.626 E.0866
; printing object axoblock.stl id:0 copy 0
;WIPE_START
G1 F8640
G1 X97.233 Y124.161 E-.8
;WIPE_END
G1 Z.8 F720
G1 X100.491 Y106.578 F10800
G1 Z.4 F720
G1 E.8 F2100
M204 S800
;TYPE:Perimeter
;WIDTH:0.602818
G1 F3000
G1 X100.471 Y106.407 E.00802
;WIDTH:0.564614
G1 X100.452 Y106.235 E.00751
;WIDTH:0.526409
G1 X100.433 Y106.063 E.00696
;WIDTH:0.488204
G1 X100.414 Y105.892 E.00637
;WIDTH:0.449999
G1 X100.419 Y87.506 E.62234
;WIDTH:0.489476
G1 X100.439 Y87.365 E.00529
;WIDTH:0.528953
G1 X100.459 Y87.223 E.0058
;WIDTH:0.56843
G1 X100.478 Y87.082 E.00622
;WIDTH:0.607906
G1 X100.498 Y86.94 E.00674
G1 X100.576 Y87.033 E.0057
;WIDTH:0.56843
G1 X100.655 Y87.125 E.0053
;WIDTH:0.528953
G1 X100.733 Y87.218 E.00491
;WIDTH:0.489476
G1 X100.811 Y87.31 E.00448
;WIDTH:0.449999
G1 X101.177 Y87.432 E.01306
G1 X104.476 Y87.432 E.11167
G1 X104.573 Y87.424 E.00329
G1 X104.814 Y87.33 E.00876
G1 X104.991 Y87.149 E.00857
G1 X105.107 Y86.788 E.01283
G1 X105.329 Y86.289 E.01849
G1 X105.651 Y85.845 E.01857
G1 X106.06 Y85.478 E.0186
G1 X106.534 Y85.204 E.01853
G1 X107.159 Y84.977 E.02251
G1 X107.361 Y84.754 E.01018
G1 X107.431 Y84.47 E.0099
G1 X107.431 Y81.178 E.11143
G1 X107.309 Y80.812 E.01306
;WIDTH:0.499281
G1 X107.146 Y80.706 E.00738
;WIDTH:0.548563
G1 X106.983 Y80.6 E.00817
;WIDTH:0.597844
G1 X106.82 Y80.494 E.00897
G1 X107.049 Y80.469 E.01063
;WIDTH:0.548563
G1 X107.277 Y80.445 E.00964
;WIDTH:0.499281
G1 X107.505 Y80.42 E.0087
;WIDTH:0.449999
G1 X149.57 Y80.427 E1.42385
G1 X149.581 Y122.493 E1.42388
;WIDTH:0.487578
G1 X149.562 Y122.664 E.00636
;WIDTH:0.525156
G1 X149.544 Y122.836 E.00693
;WIDTH:0.562734
G1 X149.525 Y123.007 E.00744
;WIDTH:0.600312
G1 X149.506 Y123.178 E.00797
G1 X149.426 Y123.056 E.00676
;WIDTH:0.562734
G1 X149.347 Y122.934 E.00628
;WIDTH:0.525156
