; generated by PrusaSlicer 2.5.0+linux-x64-GTK3 on 2022-09-09 at 20:22:51 UTC

; 

; external perimeters extrusion width = 0.45mm
; perimeters extrusion width = 0.45mm
; infill extrusion width = 0.45mm
; solid infill extrusion width = 0.45mm
; top infill extrusion width = 0.40mm
; first layer extrusion width = 0.42mm

M73 P0 R48
M201 X9000 Y9000 Z500 E10000 ; sets maximum accelerations, mm/sec^2
M203 X500 Y500 Z12 E120 ; sets maximum feedrates, mm / sec
M204 P2000 R1500 T2000 ; sets acceleration (P, T) and retract acceleration (R), mm/sec^2
M205 X10.00 Y10.00 Z0.20 E4.50 ; sets the jerk limits, mm/sec
M205 S0 T0 ; sets the minimum extruding and travel feed rate, mm/sec
M107
;TYPE:Custom
M862.3 P "MK2.5" ; printer model check
M862.1 P0.4 ; nozzle diameter check
M115 U3.11.0 ; tell printer latest fw version
G90 ; use absolute coordinates
M83 ; extruder relative mode
M104 S215 ; set extruder temp
M140 S60 ; set bed temp
M190 S60 ; wait for bed temp
M109 S215 ; wait for extruder temp
G28 W ; home all without mesh bed level
G80 ; mesh bed leveling

G1 Z0.2 F720
G1 Y-3 F1000 ; go outside print area
G92 E0
G1 X60 E9 F1000 ; intro line
G1 X100 E12.5 F1000 ; intro line

G92 E0
G21 ; set units to millimeters
G90 ; use absolute coordinates
M83 ; use relative distances for extrusion
M900 K0.05 ; Filament gcode LA 1.5
M900 K30 ; Filament gcode LA 1.0
M107
;LAYER_CHANGE
;Z:0.2
;HEIGHT:0.2
;BEFORE_LAYER_CHANGE
G92 E0.0
;0.2


G1 E-.8 F2100
G1 Z.4 F720
;AFTER_LAYER_CHANGE
;0.2
;CURRENT_Z: 0.2
G1 X97.819 Y78.498 F10800
G1 Z.2 F720
G1 E.8 F2100
M204 S800
;TYPE:Skirt/Brim
;WIDTH:0.42
G1 F1200
G1 X98.865 Y77.621 E.04278
G1 X99.805 Y77.428 E.03007
G1 X150.198 Y77.426 E1.58004
G1 X151.505 Y77.817 E.04278
G1 X152.381 Y78.863 E.04278
G1 X152.575 Y79.803 E.03008
G1 X152.574 Y130.197 E1.58009
G1 X152.182 Y131.504 E.04278
G1 X151.136 Y132.381 E.04278
G1 X150.197 Y132.574 E.03007
G1 X99.805 Y132.572 E1.58002
G1 X98.498 Y132.18 E.04278
G1 X97.621 Y131.134 E.04278
G1 X97.428 Y130.195 E.03007
G1 X97.428 Y79.805 E1.57995
G1 X97.802 Y78.555 E.0409
M204 S1000
; printing object axoblock-test-files-e-dungeon-tile.stl id:0 copy 0
;WIPE_START
G1 F8640
G1 X98.865 Y77.621 E-.32671
G1 X99.805 Y77.428 E-.22147
G1 X100.722 Y77.428 E-.21182
;WIPE_END
G1 E-.04 F2100
G1 Z.6 F720
G1 X107.097 Y104.171 F10800
G1 Z.2 F720
G1 E.8 F2100
M204 S800
;TYPE:Perimeter
;WIDTH:0.419999
G1 F1200
G1 X107.264 Y104.133 E.00538
G1 X107.411 Y104.031 E.00561
G1 X107.522 Y103.884 E.00576
G1 X107.586 Y103.622 E.00846
G1 X107.586 Y97.58 E.18946
G1 X107.582 Y97.51 E.0022
G1 X107.5 Y97.28 E.00764
G1 X107.289 Y97.082 E.00908
G1 X107.02 Y97.014 E.0087
G1 X102.131 Y97.02 E.15329
G1 X101.026 Y97.119 E.03479
G1 X100.944 Y97.202 E.00363
G1 X100.987 Y96.331 E.02732
G1 X100.99 Y88.858 E.2343
G1 X100.981 Y88.103 E.02369
G1 X100.942 Y87.421 E.02141
G1 X101.011 Y87.481 E.00288
G1 X101.629 Y87.554 E.0195
G1 X102.128 Y87.583 E.01569
G1 X104.637 Y87.588 E.07866
G1 X104.758 Y87.575 E.00379
G1 X104.94 Y87.501 E.00617
G1 X105.125 Y87.31 E.00834
G1 X105.256 Y86.837 E.01539
G1 X105.464 Y86.368 E.01609
G1 X105.767 Y85.951 E.01617
G1 X106.152 Y85.605 E.01621
G1 X106.597 Y85.348 E.01611
G1 X107.356 Y85.072 E.02533
G1 X107.53 Y84.861 E.00857
G1 X107.586 Y84.615 E.00792
G1 X107.581 Y82.129 E.07795
G1 X107.481 Y81.028 E.03467
G1 X107.447 Y80.958 E.00245
G1 X108.033 Y80.986 E.0184
G1 X115.945 Y80.989 E.24807
G1 X117.172 Y80.95 E.0385
G1 X117.117 Y81.013 E.00263
G1 X117.098 Y81.178 E.00518
G1 X117.03 Y82.091 E.02872
G1 X117.012 Y82.601 E.016
G1 X117.026 Y87.149 E.1426
G1 X117.135 Y87.375 E.00788
G1 X117.324 Y87.528 E.00764
G1 X117.577 Y87.588 E.00815
G1 X123.62 Y87.588 E.18947
G1 X123.67 Y87.586 E.00155
G1 X123.944 Y87.487 E.00914
G1 X124.131 Y87.266 E.00906
G1 X124.186 Y87.022 E.00786
G1 X124.181 Y82.133 E.15328
G1 X124.074 Y80.976 E.03643
G1 X124.142 Y80.963 E.00216
G1 X125.121 Y80.988 E.0307
G1 X125.937 Y80.953 E.0256
G1 X125.846 Y81.632 E.02149
G1 X125.817 Y82.133 E.01573
G1 X125.812 Y87.022 E.15328
G1 X125.867 Y87.266 E.00786
G1 X125.969 Y87.413 E.00561
G1 X126.116 Y87.524 E.00576
G1 X126.377 Y87.588 E.00846
G1 X132.42 Y87.588 E.18948
G1 X132.72 Y87.502 E.00978
G1 X132.918 Y87.291 E.00908
G1 X132.986 Y87.022 E.00868
G1 X132.985 Y82.581 E.13926
G1 X132.949 Y81.6 E.03077
G1 X132.88 Y81.013 E.01853
G1 X132.814 Y80.949 E.00291
G1 X133.588 Y80.987 E.0243
G1 X141.372 Y80.989 E.24409
G1 X142.57 Y80.952 E.03755
G1 X142.517 Y81.013 E.00252
G1 X142.449 Y81.599 E.0185
G1 X142.417 Y82.13 E.01668
G1 X142.412 Y84.637 E.07861
G1 X142.424 Y84.758 E.00379
G1 X142.499 Y84.941 E.0062
G1 X142.689 Y85.125 E.00832
G1 X143.162 Y85.256 E.01537
G1 X143.631 Y85.466 E.01612
G1 X144.05 Y85.77 E.01622
G1 X144.395 Y86.152 E.01616
G1 X144.652 Y86.597 E.01609
G1 X144.928 Y87.358 E.02539
G1 X145.139 Y87.532 E.00859
G1 X145.385 Y87.588 E.0079
G1 X147.871 Y87.583 E.07795
G1 X148.973 Y87.484 E.03468
G1 X149.059 Y87.411 E.00355
G1 X149.02 Y87.842 E.01355
G1 X149.012 Y88.351 E.01597
G1 X149.013 Y95.874 E.23587
G1 X149.015 Y96.337 E.01451
G1 X149.072 Y97.208 E.0274
G1 X148.987 Y97.119 E.00387
G1 X148.367 Y97.048 E.01955
G1 X147.867 Y97.019 E.01572
G1 X142.851 Y97.028 E.15725
G1 X142.625 Y97.137 E.00789
G1 X142.472 Y97.327 E.00764
G1 X142.412 Y97.58 E.00815
G1 X142.412 Y103.622 E.18946
G1 X142.414 Y103.672 E.00155
G1 X142.513 Y103.946 E.00914
G1 X142.734 Y104.133 E.00906
G1 X142.978 Y104.188 E.00786
G1 X147.867 Y104.183 E.15329
G1 X149.036 Y104.079 E.03681
G1 X149.017 Y105.289 E.03795
G1 X149.056 Y105.991 E.02204
G1 X148.987 Y105.92 E.0031
G1 X148.368 Y105.848 E.01954
G1 X147.867 Y105.819 E.01573
G1 X142.978 Y105.814 E.15329
G1 X142.734 Y105.869 E.00786
G1 X142.586 Y105.971 E.00561
G1 X142.476 Y106.118 E.00576
G1 X142.412 Y106.38 E.00846
G1 X142.412 Y112.422 E.18946
G1 X142.498 Y112.722 E.00978
G1 X142.709 Y112.92 E.00908
G1 X142.978 Y112.988 E.0087
G1 X147.867 Y112.983 E.15329
G1 X148.972 Y112.884 E.0348
G1 X149.05 Y112.818 E.00318
G1 X149.011 Y114.051 E.03869
G1 X149.016 Y121.37 E.22948
G1 X149.018 Y122.023 E.02047
G1 X149.063 Y122.584 E.01764
G1 X148.987 Y122.519 E.00313
G1 X148.401 Y122.451 E.0185
G1 X147.87 Y122.419 E.01668
G1 X145.363 Y122.414 E.0786
G1 X145.243 Y122.427 E.00379
G1 X145.06 Y122.501 E.00619
G1 X144.882 Y122.68 E.00793
G1 X144.745 Y123.161 E.01567
G1 X144.534 Y123.631 E.01614
G1 X144.23 Y124.05 E.01623
G1 X143.847 Y124.395 E.01616
G1 X143.403 Y124.652 E.01608
G1 X142.642 Y124.928 E.02539
G1 X142.467 Y125.14 E.0086
G1 X142.412 Y125.385 E.00789
G1 X142.417 Y127.873 E.07799
G1 X142.516 Y128.975 E.03469
G1 X142.606 Y129.061 E.00391
G1 X141.871 Y129.016 E.02307
G1 X133.388 Y129.016 E.26598
G1 X132.871 Y129.042 E.01624
G1 X132.952 Y128.37 E.02122
G1 X132.981 Y127.869 E.01573
G1 X132.972 Y122.854 E.15725
G1 X132.863 Y122.627 E.00788
G1 X132.673 Y122.474 E.00764
G1 X132.42 Y122.414 E.00815
G1 X126.377 Y122.414 E.18948
G1 X126.304 Y122.419 E.0023
G1 X126.054 Y122.516 E.00841
G1 X125.867 Y122.736 E.00906
G1 X125.812 Y122.98 E.00786
G1 X125.817 Y127.869 E.15328
G1 X125.927 Y129.042 E.03693
G1 X124.864 Y129.015 E.03333
G1 X124.006 Y129.072 E.02695
G1 X124.08 Y128.989 E.00347
G1 X124.152 Y128.37 E.01953
G1 X124.181 Y127.869 E.01573
G1 X124.186 Y122.98 E.15328
G1 X124.131 Y122.736 E.00786
M73 P1 R48
G1 X124.029 Y122.589 E.00561
G1 X123.882 Y122.478 E.00576
G1 X123.62 Y122.414 E.00846
G1 X117.577 Y122.414 E.18948
G1 X117.507 Y122.418 E.0022
G1 X117.278 Y122.5 E.00764
G1 X117.08 Y122.711 E.00908
G1 X117.012 Y122.98 E.0087
G1 X117.017 Y127.869 E.15328
G1 X117.127 Y129.041 E.0369
G1 X116.616 Y129.015 E.01606
G1 X108.803 Y129.01 E.24497
G1 X108.104 Y129.02 E.02192
G1 X107.421 Y129.056 E.02143
G1 X107.479 Y128.989 E.0028
G1 X107.552 Y128.371 E.0195
G1 X107.581 Y127.871 E.01569
G1 X107.574 Y125.243 E.08242
G1 X107.499 Y125.06 E.00618
G1 X107.319 Y124.882 E.00795
G1 X106.838 Y124.744 E.0157
G1 X106.368 Y124.535 E.01612
G1 X105.951 Y124.233 E.01616
G1 X105.605 Y123.848 E.01621
G1 X105.348 Y123.403 E.01613
G1 X105.072 Y122.644 E.02531
G1 X104.86 Y122.47 E.00859
G1 X104.615 Y122.414 E.00789
G1 X102.076 Y122.422 E.0796
G1 X101.026 Y122.52 E.03308
G1 X100.938 Y122.608 E.00391
G1 X100.981 Y122.127 E.01513
G1 X100.99 Y121.593 E.01675
G1 X100.988 Y113.742 E.24615
G1 X100.952 Y112.863 E.02759
G1 X101.63 Y112.954 E.02145
G1 X102.131 Y112.983 E.01574
G1 X106.395 Y112.987 E.1337
G1 X107.146 Y112.974 E.02356
G1 X107.373 Y112.865 E.00789
G1 X107.526 Y112.675 E.00764
G1 X107.586 Y112.422 E.00815
G1 X107.586 Y106.38 E.18946
G1 X107.581 Y106.306 E.0023
G1 X107.485 Y106.056 E.00841
G1 X107.264 Y105.869 E.00906
G1 X107.02 Y105.814 E.00786
G1 X102.131 Y105.82 E.15329
G1 X101.077 Y105.915 E.03319
G1 X100.951 Y105.996 E.00469
G1 X100.985 Y104.763 E.03867
G1 X100.937 Y104.015 E.02349
G1 X101.011 Y104.081 E.00313
G1 X101.63 Y104.154 E.01953
G1 X102.131 Y104.183 E.01574
G1 X107.038 Y104.184 E.15387
M204 S1000
;WIPE_START
G1 F8640
G1 X107.264 Y104.133 E-.05345
G1 X107.411 Y104.031 E-.04129
G1 X107.522 Y103.884 E-.04242
G1 X107.586 Y103.622 E-.06228
G1 X107.586 Y101.195 E-.56056
;WIPE_END
G1 E-.04 F2100
G1 Z.6 F720
G1 X149.415 Y80.584 F10800
G1 Z.2 F720
G1 E.8 F2100
M204 S800
;TYPE:External perimeter
;WIDTH:0.465467
G1 F1200
G1 X149.487 Y81.209 E.0221
;WIDTH:0.419977
G1 X149.487 Y86.525 E.16667
G1 X149.473 Y87.037 E.01607
G1 X149.421 Y87.592 E.01747
G1 X149.389 Y88.349 E.02374
G1 X149.391 Y96.312 E.24967
G1 X149.487 Y97.779 E.04611
G1 X149.487 Y103.13 E.16775
G1 X149.415 Y104.155 E.03223
G1 X149.394 Y105.28 E.03526
G1 X149.487 Y106.607 E.04172
G1 X149.487 Y112.079 E.17156
G1 X149.408 Y113.075 E.03133
G1 X149.388 Y114.051 E.0306
G1 X149.393 Y121.903 E.24617
G1 X149.487 Y123.447 E.04849
G1 X149.487 Y126.126 E.08402
;WIDTH:0.420093
G1 X149.486 Y128.82 E.08448
;WIDTH:0.465462
G1 X149.416 Y129.418 E.02115
G1 X148.793 Y129.488 E.02206
;WIDTH:0.419999
G1 X143.377 Y129.488 E.1698
G1 X141.871 Y129.393 E.04731
G1 X133.495 Y129.393 E.26263
G1 X132.946 Y129.415 E.01723
G1 X132.386 Y129.48 E.01767
G1 X131.889 Y129.488 E.01557
G1 X126.903 Y129.488 E.15634
G1 X126.414 Y129.48 E.01532
G1 X125.912 Y129.418 E.01588
G1 X125.403 Y129.393 E.01597
G1 X124.889 Y129.391 E.0161
G1 X123.426 Y129.488 E.04598
G1 X118.091 Y129.488 E.16728
G1 X116.615 Y129.392 E.04637
G1 X108.802 Y129.387 E.24497
G1 X107.568 Y129.422 E.03872
G1 X106.818 Y129.487 E.02359
;WIDTH:0.419893
G1 X104.1 Y129.487 E.08522
;WIDTH:0.419378
G1 X101.126 Y129.486 E.09308
;WIDTH:0.419095
G1 X101.11 Y129.485 E.00051
;WIDTH:0.465376
G1 X100.585 Y129.416 E.01861
G1 X100.513 Y128.815 E.02128
;WIDTH:0.419999
G1 X100.519 Y123.032 E.18131
G1 X100.577 Y122.412 E.01951
G1 X100.612 Y121.595 E.02564
G1 X100.611 Y114.124 E.23426
G1 X100.569 Y112.747 E.0432
;WIDTH:0.419374
G1 X100.513 Y112.249 E.01568
;WIDTH:0.42
G1 X100.512 Y106.807 E.17065
G1 X100.587 Y105.801 E.03161
G1 X100.609 Y104.787 E.03181
G1 X100.512 Y103.298 E.04679
;WIDTH:0.419999
G1 X100.512 Y97.842 E.17107
G1 X100.597 Y96.835 E.03168
G1 X100.61 Y96.331 E.01581
G1 X100.613 Y88.858 E.2343
G1 X100.604 Y88.107 E.02355
G1 X100.513 Y86.857 E.03931
;WIDTH:0.419471
G1 X100.514 Y84.13 E.08538
;WIDTH:0.419194
G1 X100.514 Y81.129 E.09389
;WIDTH:0.418995
G1 X100.515 Y81.113 E.00051
;WIDTH:0.465417
G1 X100.584 Y80.586 E.01866
G1 X101.182 Y80.515 E.02117
;WIDTH:0.42
G1 X106.531 Y80.514 E.16771
G1 X108.034 Y80.609 E.0472
G1 X115.938 Y80.612 E.24784
G1 X117.034 Y80.583 E.03437
M73 P1 R47
G1 X117.872 Y80.514 E.02637
G1 X123.153 Y80.514 E.16559
G1 X124.152 Y80.586 E.03142
G1 X125.104 Y80.612 E.02986
G1 X125.848 Y80.579 E.02335
G1 X126.531 Y80.515 E.02149
G1 X132.136 Y80.514 E.17575
G1 X132.965 Y80.583 E.02608
G1 X133.588 Y80.61 E.01955
G1 X141.373 Y80.612 E.24409
G1 X142.435 Y80.585 E.03334
G1 X143.311 Y80.513 E.02755
G1 X145.896 Y80.514 E.08105
;WIDTH:0.419674
G1 X148.855 Y80.514 E.09268
;WIDTH:0.419444
G1 X148.87 Y80.515 E.00049
;WIDTH:0.465467
G1 X149.356 Y80.576 E.01719
M204 S1000
;WIPE_START
G1 F8640
G1 X149.487 Y81.209 E-.14913
G1 X149.487 Y83.854 E-.61087
;WIPE_END
G1 E-.04 F2100
G1 Z.6 F720
G1 X107.02 Y103.811 F10800
G1 Z.2 F720
G1 E.8 F2100
M204 S800
;WIDTH:0.419999
G1 F1200
G1 X102.131 Y103.805 E.15329
G1 X101.056 Y103.707 E.03387
G1 X100.894 Y103.531 E.00748
G1 X100.889 Y97.842 E.17839
G1 X100.893 Y97.683 E.005
G1 X101.061 Y97.495 E.00789
G1 X102.131 Y97.397 E.03371
G1 X107.02 Y97.391 E.15329
G1 X107.162 Y97.456 E.00489
G1 X107.209 Y97.58 E.00416
G1 X107.209 Y103.622 E.18946
G1 X107.151 Y103.759 E.00465
G1 X107.076 Y103.789 E.00253
M204 S1000
G1 X106.916 Y104.197 F10800
;WIPE_START
G1 F8640
G1 X103.785 Y103.8 E-.76
;WIPE_END
G1 E-.04 F2100
G1 Z.6 F720
G1 X100.928 Y80.931 F10800
G1 Z.2 F720
G1 E.8 F2100
M204 S800
;WIDTH:0.465417
G1 F1200
G1 X101.19 Y80.892 E.00929
;WIDTH:0.420068
G1 X103.893 Y80.891 E.08478
;WIDTH:0.427122
G1 X103.997 Y80.935 E.00359
G1 X104.1 Y80.891 E.00359
;WIDTH:0.420031
G1 X106.931 Y80.899 E.08877
G1 X107.106 Y81.062 E.00751
G1 X107.204 Y82.13 E.03361
G1 X107.209 Y84.616 E.07795
G1 X107.144 Y84.759 E.00493
G1 X106.443 Y85.002 E.02327
G1 X105.929 Y85.299 E.0186
G1 X105.485 Y85.697 E.0187
G1 X105.136 Y86.179 E.01866
G1 X104.895 Y86.72 E.01858
G1 X104.781 Y87.145 E.0138
G1 X104.638 Y87.211 E.00494
G1 X102.129 Y87.206 E.07867
G1 X101.056 Y87.107 E.03381
G1 X100.892 Y86.936 E.00741
;WIDTH:0.419471
G1 X100.89 Y84.13 E.08786
;WIDTH:0.430311
G1 X100.941 Y84.001 E.00448
G1 X100.89 Y83.871 E.00448
;WIDTH:0.419194
G1 X100.89 Y81.129 E.0858
;WIDTH:0.465417
G1 X100.917 Y80.99 E.00497
M204 S1000
;WIPE_START
G1 F8640
G1 X101.19 Y80.892 E-.067
G1 X103.893 Y80.891 E-.6242
G1 X103.997 Y80.935 E-.02593
G1 X104.1 Y80.891 E-.02592
G1 X104.174 Y80.892 E-.01695
;WIPE_END
G1 E-.04 F2100
G1 Z.6 F720
G1 X123.809 Y87.022 F10800
G1 Z.2 F720
G1 E.8 F2100
M204 S800
;WIDTH:0.419999
G1 F1200
G1 X123.757 Y87.153 E.00441
G1 X123.62 Y87.211 E.00465
G1 X117.577 Y87.211 E.18947
G1 X117.43 Y87.14 E.00513
G1 X117.389 Y87.022 E.0039
G1 X117.389 Y82.601 E.13864
G1 X117.422 Y81.66 E.02953
G1 X117.492 Y81.057 E.01901
G1 X117.664 Y80.896 E.0074
G1 X123.532 Y80.898 E.18398
G1 X123.706 Y81.062 E.0075
G1 X123.804 Y82.134 E.03373
G1 X123.809 Y86.962 E.1514
M204 S1000
G1 X123.91 Y87.12 F10800
;WIPE_START
G1 F8640
G1 X123.757 Y87.153 E-.04562
G1 X123.62 Y87.211 E-.03422
G1 X120.675 Y87.211 E-.68017
;WIPE_END
G1 E-.04 F2100
G1 Z.6 F720
G1 X126.189 Y87.022 F10800
G1 Z.2 F720
G1 E.8 F2100
M204 S800
G1 F1200
G1 X126.194 Y82.134 E.15328
G1 X126.292 Y81.057 E.03388
G1 X126.32 Y80.98 E.00259
;WIDTH:0.419402
G1 X126.48 Y80.893 E.00568
;WIDTH:0.418953
G1 X126.531 Y80.891 E.0016
;WIDTH:0.419997
G1 X132.334 Y80.896 E.18196
G1 X132.506 Y81.057 E.0074
G1 X132.575 Y81.644 E.01853
G1 X132.609 Y82.601 E.03001
G1 X132.609 Y87.022 E.13864
G1 X132.545 Y87.164 E.00489
G1 X132.42 Y87.211 E.00416
G1 X126.377 Y87.211 E.18947
;WIDTH:0.419999
G1 X126.241 Y87.153 E.00465
G1 X126.211 Y87.078 E.00253
M204 S1000
G1 X125.803 Y86.918 F10800
;WIPE_START
G1 F8640
G1 X126.2 Y83.786 E-.76
;WIPE_END
G1 E-.04 F2100
G1 Z.6 F720
G1 X132.498 Y104.171 F10800
G1 Z.2 F720
G1 E.8 F2100
M204 S800
;TYPE:Perimeter
G1 F1200
G1 X132.42 Y104.188 E.00248
G1 X126.377 Y104.188 E.18947
G1 X126.125 Y104.128 E.00815
G1 X125.978 Y104.022 E.00568
G1 X125.872 Y103.875 E.00568
G1 X125.812 Y103.622 E.00815
G1 X125.812 Y97.58 E.18946
G1 X125.867 Y97.335 E.00785
G1 X126.054 Y97.116 E.00905
G1 X126.328 Y97.016 E.00914
G1 X126.377 Y97.014 E.00155
G1 X132.42 Y97.014 E.18947
G1 X132.673 Y97.074 E.00815
G1 X132.873 Y97.24 E.00815
G1 X132.982 Y97.51 E.0091
G1 X132.986 Y97.58 E.0022
G1 X132.986 Y103.622 E.18946
G1 X132.922 Y103.884 E.00845
G1 X132.812 Y104.031 E.00575
G1 X132.665 Y104.133 E.0056
G1 X132.556 Y104.157 E.00349
M204 S1000
G1 X132.42 Y103.811 F10800
M204 S800
;TYPE:External perimeter
G1 F1200
G1 X126.377 Y103.811 E.18947
G1 X126.244 Y103.756 E.00452
G1 X126.189 Y103.622 E.00452
G1 X126.189 Y97.58 E.18946
G1 X126.27 Y97.425 E.00547
G1 X126.377 Y97.391 E.00354
G1 X132.42 Y97.391 E.18947
G1 X132.562 Y97.456 E.00489
G1 X132.609 Y97.58 E.00416
G1 X132.609 Y103.622 E.18946
G1 X132.551 Y103.759 E.00464
G1 X132.476 Y103.789 E.00252
M204 S1000
