; generated by PrusaSlicer 2.8.0 on 2024-09-21 at 14:30:00 UTC

; 

; external perimeters extrusion width = 0.45mm
; perimeters extrusion width = 0.45mm
; infill extrusion width = 0.45mm
; solid infill extrusion width = 0.45mm
; top infill extrusion width = 0.40mm
; first layer extrusion width = 0.42mm

M73 P0 R50
M201 X9000 Y9000 Z500 E10000 ; sets maximum accelerations, mm/sec^2
M203 X500 Y500 Z12 E120 ; sets maximum feedrates, mm / sec
M204 S2000 T1500 ; sets acceleration (S) and retract acceleration (R), mm/sec^2
M205 X10.00 Y10.00 Z0.20 E4.50 ; sets the jerk limits, mm/sec
M205 S0 T0 ; sets the minimum extruding and travel feed rate, mm/sec

; printing object axoblock-test-files-e-dungeon-tile.stl.stl id:0 copy 0
; stop printing object axoblock-test-files-e-dungeon-tile.stl.stl id:0 copy 0

;TYPE:Custom
M862.3 P "MK2.5" ; printer model check
M862.1 P0.4 ; nozzle diameter check
M115 U3.11.0 ; tell printer latest fw version
G90 ; use absolute coordinates
M83 ; extruder relative mode
M104 S215 ; set extruder temp
M140 S60 ; set bed temp
M190 S60 ; wait for bed temp
M109 S215 ; wait for extruder temp
G28 W ; home all without mesh bed level
G80 ; mesh bed leveling

G1 Z0.2 F720
G1 Y-3 F1000 ; go outside print area
G92 E0
G1 X60 E9 F1000 ; intro line
G1 X100 E12.5 F1000 ; intro line
M73 P0 R49

G92 E0
G21 ; set units to millimeters
G90 ; use absolute coordinates
M83 ; use relative distances for extrusion
M900 K0.05 ; Filament gcode LA 1.5
M900 K30 ; Filament gcode LA 1.0
M107
;LAYER_CHANGE
;Z:0.2
;HEIGHT:0.2
G1 E-.8 F2100
G1 Z.6 F720
G1 X98.007 Y78.556 F10800
G1 Z.2 F720
G1 E.8 F2100
M204 S800
;TYPE:Skirt/Brim
;WIDTH:0.42
G1 F1200
G1 X99.04 Y77.754 E.041
G1 X99.805 Y77.616 E.02437
G1 X150.198 Y77.614 E1.58004
G1 X151.446 Y78.005 E.04101
G1 X152.248 Y79.038 E.041
G1 X152.386 Y79.803 E.02437
G1 X152.386 Y130.197 E1.58007
G1 X151.995 Y131.445 E.04101
G1 X150.961 Y132.248 E.04105
G1 X150.197 Y132.385 E.02434
G1 X99.805 Y132.383 E1.58001
G1 X98.556 Y131.992 E.04104
G1 X97.754 Y130.959 E.041
G1 X97.616 Y130.195 E.02434
G1 X97.616 Y79.805 E1.57994
G1 X97.989 Y78.614 E.03913
M204 S1000
;WIPE_START
G1 F8640
G1 X98.007 Y78.556 E-.01402
G1 X99.04 Y77.754 E-.30197
G1 X99.805 Y77.616 E-.17949
G1 X101.124 Y77.616 E-.30452
;WIPE_END
G1 Z.6 F720
; printing object axoblock-test-files-e-dungeon-tile.stl.stl id:0 copy 0
G1 X149.033 Y87.029 F10800
G1 Z.2 F720
G1 E.8 F2100
M204 S800
;TYPE:External perimeter
;WIDTH:0.420062
G1 F1200
G1 X148.938 Y87.109 E.00389
G1 X147.887 Y87.205 E.0331
G1 X145.384 Y87.211 E.07849
G1 X145.241 Y87.146 E.00493
G1 X144.998 Y86.443 E.02333
G1 X144.701 Y85.929 E.01862
G1 X144.303 Y85.488 E.01863
G1 X143.821 Y85.138 E.01868
G1 X143.279 Y84.895 E.01863
G1 X142.854 Y84.782 E.01379
G1 X142.799 Y84.7 E.0031
;WIDTH:0.419999
G1 X142.794 Y82.131 E.08055
G1 X142.891 Y81.057 E.03381
G1 X143.064 Y80.896 E.00741
G1 X145.895 Y80.89 E.08876
;WIDTH:0.426587
G1 X145.997 Y80.933 E.00353
G1 X146.099 Y80.89 E.00353
;WIDTH:0.419674
G1 X148.855 Y80.891 E.08634
;WIDTH:0.465467
G1 X149.07 Y80.929 E.00767
G1 X149.11 Y81.209 E.00994
;WIDTH:0.420055
G1 X149.11 Y83.874 E.08357
;WIDTH:0.430628
G1 X149.06 Y84 E.00437
G1 X149.11 Y84.126 E.00437
;WIDTH:0.420062
G1 X149.103 Y86.97 E.08919
G1 X149.079 Y86.991 E.001
M204 S1000
;WIPE_START
G1 F8640
G1 X149.033 Y87.029 E-.01378
G1 X148.938 Y87.109 E-.02868
G1 X147.887 Y87.205 E-.24369
G1 X145.662 Y87.21 E-.51385
;WIPE_END
G1 Z.6 F720
G1 X107.015 Y129.03 F10800
G1 Z.2 F720
G1 E.8 F2100
M204 S800
;WIDTH:0.420004
G1 F1200
G1 X106.934 Y129.107 E.0035
;WIDTH:0.419893
G1 X104.1 Y129.11 E.08883
;WIDTH:0.42639
G1 X103.997 Y129.067 E.00356
G1 X103.895 Y129.11 E.00353
;WIDTH:0.419378
G1 X101.126 Y129.11 E.08668
;WIDTH:0.465376
G1 X100.929 Y129.071 E.00705
G1 X100.89 Y128.815 E.0091
;WIDTH:0.419954
G1 X100.89 Y126.13 E.08418
;WIDTH:0.431132
G1 X100.941 Y126.001 E.00448
G1 X100.895 Y125.936 E.00257
G1 X100.89 Y125.871 E.0021
;WIDTH:0.420004
G1 X100.892 Y123.066 E.08795
G1 X101.061 Y122.895 E.00754
G1 X102.128 Y122.797 E.0336
G1 X104.616 Y122.791 E.07801
G1 X104.759 Y122.856 E.00493
G1 X105.001 Y123.557 E.02325
G1 X105.299 Y124.071 E.01863
G1 X105.697 Y124.515 E.0187
G1 X106.179 Y124.864 E.01866
G1 X106.721 Y125.105 E.0186
G1 X107.144 Y125.219 E.01374
G1 X107.209 Y125.362 E.00493
G1 X107.204 Y127.871 E.07867
G1 X107.105 Y128.944 E.03379
G1 X107.058 Y128.988 E.00202
M204 S1000
;WIPE_START
G1 F8640
G1 X107.015 Y129.03 E-.01388
G1 X106.934 Y129.107 E-.02581
G1 X104.1 Y129.11 E-.65438
G1 X103.997 Y129.067 E-.02577
G1 X103.895 Y129.11 E-.02556
G1 X103.659 Y129.11 E-.0546
;WIPE_END
G1 Z.6 F720
G1 X149.032 Y112.427 F10800
G1 Z.2 F720
G1 E.8 F2100
M204 S800
;WIDTH:0.419999
G1 F1200
G1 X148.938 Y112.508 E.00389
G1 X147.866 Y112.606 E.03375
G1 X142.978 Y112.611 E.15326
G1 X142.836 Y112.547 E.00488
G1 X142.789 Y112.422 E.00419
G1 X142.79 Y106.355 E.19023
G1 X142.847 Y106.243 E.00394
G1 X142.978 Y106.191 E.00442
G1 X147.866 Y106.197 E.15326
G1 X148.943 Y106.294 E.03391
G1 X149.107 Y106.482 E.00782
G1 X149.1 Y112.367 E.18452
G1 X149.077 Y112.387 E.00096
M204 S1000
;WIPE_START
G1 F8640
G1 X149.032 Y112.427 E-.0139
G1 X148.938 Y112.508 E-.02865
G1 X147.866 Y112.606 E-.24856
G1 X145.662 Y112.608 E-.50889
;WIPE_END
G1 Z.6 F720
G1 X132.816 Y112.808 F10800
G1 Z.2 F720
G1 E.8 F2100
M204 S800
;TYPE:Perimeter
G1 F1200
G1 X132.76 Y112.875 E.00274
G1 X132.491 Y112.984 E.0091
G1 X132.42 Y112.988 E.00223
G1 X126.377 Y112.988 E.18947
G1 X126.116 Y112.924 E.00843
G1 X125.969 Y112.814 E.00576
G1 X125.867 Y112.667 E.00561
G1 X125.812 Y112.422 E.00787
G1 X125.812 Y106.38 E.18944
G1 X125.872 Y106.127 E.00815
G1 X125.978 Y105.98 E.00568
G1 X126.125 Y105.874 E.00568
G1 X126.377 Y105.814 E.00812
G1 X132.42 Y105.814 E.18947
G1 X132.665 Y105.87 E.00788
G1 X132.885 Y106.056 E.00903
G1 X132.981 Y106.306 E.0084
G1 X132.986 Y106.38 E.00233
G1 X132.986 Y112.422 E.18944
G1 X132.926 Y112.675 E.00815
G1 X132.854 Y112.762 E.00354
M204 S1000
G1 X132.854 Y112.762 F10800
G1 X132.563 Y112.524
M204 S800
;TYPE:External perimeter
G1 F1200
G1 X132.545 Y112.564 E.00138
G1 X132.42 Y112.611 E.00419
G1 X126.377 Y112.611 E.18947
G1 X126.241 Y112.553 E.00464
G1 X126.189 Y112.422 E.00442
G1 X126.189 Y106.38 E.18944
G1 X126.244 Y106.246 E.00454
G1 X126.377 Y106.191 E.00451
G1 X132.42 Y106.191 E.18947
G1 X132.575 Y106.272 E.00548
G1 X132.609 Y106.38 E.00355
G1 X132.609 Y112.422 E.18944
G1 X132.588 Y112.47 E.00164
M204 S1000
;WIPE_START
G1 F8640
G1 X132.563 Y112.524 E-.01374
G1 X132.545 Y112.564 E-.01013
G1 X132.42 Y112.611 E-.03084
G1 X129.193 Y112.611 E-.74529
;WIPE_END
G1 Z.6 F720
G1 X107.012 Y80.975 F10800
G1 Z.2 F720
G1 E.8 F2100
M204 S800
;WIDTH:0.420031
G1 F1200
G1 X107.106 Y81.062 E.00402
G1 X107.204 Y82.13 E.03363
G1 X107.209 Y84.616 E.07795
G1 X107.144 Y84.759 E.00493
G1 X106.443 Y85.002 E.02326
G1 X105.929 Y85.299 E.01861
G1 X105.485 Y85.697 E.0187
G1 X105.136 Y86.179 E.01866
G1 X104.895 Y86.72 E.01857
G1 X104.818 Y87.079 E.01151
;WIDTH:0.419999
G1 X104.719 Y87.193 E.00473
G1 X104.638 Y87.211 E.0026
G1 X102.129 Y87.206 E.07867
G1 X101.056 Y87.107 E.03379
G1 X100.892 Y86.936 E.00743
;WIDTH:0.419472
G1 X100.89 Y84.13 E.08786
;WIDTH:0.430316
G1 X100.941 Y84.001 E.00447
G1 X100.89 Y83.871 E.0045
;WIDTH:0.419195
G1 X100.89 Y81.129 E.08579
;WIDTH:0.465418
G1 X100.928 Y80.931 E.00708
G1 X101.19 Y80.892 E.00931
;WIDTH:0.420068
G1 X103.893 Y80.891 E.08477
;WIDTH:0.427122
G1 X103.997 Y80.935 E.00361
G1 X104.1 Y80.891 E.00358
;WIDTH:0.420031
G1 X106.931 Y80.899 E.08877
G1 X106.969 Y80.934 E.00162
M204 S1000
;WIPE_START
G1 F8640
G1 X107.012 Y80.975 E-.01372
G1 X107.106 Y81.062 E-.02957
G1 X107.204 Y82.13 E-.24764
G1 X107.208 Y84.335 E-.50907
;WIPE_END
G1 Z.6 F720
G1 X117.475 Y87.162 F10800
G1 Z.2 F720
G1 E.8 F2100
M204 S800
;WIDTH:0.419999
G1 F1200
G1 X117.43 Y87.14 E.00157
G1 X117.389 Y87.022 E.00392
G1 X117.389 Y82.601 E.13862
G1 X117.422 Y81.66 E.02952
G1 X117.492 Y81.057 E.01903
G1 X117.664 Y80.896 E.00739
G1 X123.153 Y80.891 E.1721
G1 X123.532 Y80.898 E.01189
G1 X123.706 Y81.062 E.0075
G1 X123.804 Y82.134 E.03375
G1 X123.809 Y87.022 E.15326
G1 X123.757 Y87.153 E.00442
G1 X123.62 Y87.211 E.00466
G1 X117.577 Y87.211 E.18947
G1 X117.529 Y87.188 E.00167
M73 P1 R49
M204 S1000
;WIPE_START
G1 F8640
G1 X117.475 Y87.162 E-.01384
G1 X117.43 Y87.14 E-.01157
G1 X117.389 Y87.022 E-.02884
G1 X117.389 Y83.792 E-.74575
;WIPE_END
G1 Z.6 F720
G1 X126.276 Y87.168 F10800
G1 Z.2 F720
G1 E.8 F2100
M204 S800
G1 F1200
G1 X126.241 Y87.153 E.00119
G1 X126.189 Y87.022 E.00442
G1 X126.194 Y82.134 E.15326
G1 X126.292 Y81.057 E.03391
G1 X126.32 Y80.98 E.00257
;WIDTH:0.419402
G1 X126.48 Y80.893 E.0057
;WIDTH:0.418954
G1 X126.531 Y80.891 E.0016
;WIDTH:0.419997
G1 X132.334 Y80.896 E.18195
G1 X132.506 Y81.057 E.00739
G1 X132.525 Y81.219 E.00511
;WIDTH:0.419999
G1 X132.609 Y82.601 E.04341
G1 X132.609 Y87.022 E.13862
G1 X132.545 Y87.164 E.00488
G1 X132.42 Y87.211 E.00419
G1 X126.377 Y87.211 E.18947
G1 X126.331 Y87.191 E.00157
M204 S1000
;WIPE_START
G1 F8640
G1 X126.276 Y87.168 E-.01377
G1 X126.241 Y87.153 E-.00879
G1 X126.189 Y87.022 E-.03254
G1 X126.192 Y83.796 E-.7449
;WIPE_END
G1 Z.6 F720
G1 X132.827 Y104.011 F10800
G1 Z.2 F720
G1 E.8 F2100
M204 S800
;TYPE:Perimeter
G1 F1200
G1 X132.812 Y104.031 E.00078
G1 X132.665 Y104.133 E.00561
G1 X132.42 Y104.188 E.00787
G1 X126.377 Y104.188 E.18947
G1 X126.125 Y104.128 E.00812
G1 X125.978 Y104.022 E.00568
G1 X125.872 Y103.875 E.00568
G1 X125.812 Y103.622 E.00815
G1 X125.812 Y97.58 E.18944
G1 X125.867 Y97.335 E.00787
G1 X126.054 Y97.116 E.00903
G1 X126.116 Y97.078 E.00228
G1 X126.377 Y97.014 E.00843
G1 X132.42 Y97.014 E.18947
G1 X132.673 Y97.074 E.00815
G1 X132.873 Y97.24 E.00815
G1 X132.982 Y97.51 E.00913
G1 X132.986 Y97.58 E.0022
G1 X132.986 Y103.622 E.18944
G1 X132.922 Y103.884 E.00846
G1 X132.863 Y103.963 E.00309
M204 S1000
G1 X132.863 Y103.963 F10800
G1 X132.566 Y103.724
M204 S800
;TYPE:External perimeter
G1 F1200
G1 X132.551 Y103.759 E.00119
G1 X132.42 Y103.811 E.00442
G1 X126.377 Y103.811 E.18947
G1 X126.244 Y103.756 E.00451
G1 X126.189 Y103.622 E.00454
G1 X126.189 Y97.58 E.18944
G1 X126.29 Y97.413 E.00612
G1 X126.377 Y97.391 E.00281
G1 X132.42 Y97.391 E.18947
G1 X132.562 Y97.456 E.0049
G1 X132.609 Y97.58 E.00416
G1 X132.609 Y103.622 E.18944
G1 X132.589 Y103.668 E.00157
M204 S1000
;WIPE_START
G1 F8640
G1 X132.566 Y103.724 E-.01398
G1 X132.551 Y103.759 E-.00879
G1 X132.42 Y103.811 E-.03254
G1 X129.195 Y103.811 E-.74469
;WIPE_END
G1 Z.6 F720
G1 X107.122 Y97.437 F10800
G1 Z.2 F720
G1 E.8 F2100
M204 S800
G1 F1200
G1 X107.162 Y97.456 E.00139
G1 X107.209 Y97.58 E.00416
G1 X107.203 Y103.67 E.19095
G1 X107.102 Y103.793 E.00499
G1 X107.02 Y103.811 E.00263
G1 X102.131 Y103.805 E.15329
G1 X101.056 Y103.707 E.03385
G1 X100.894 Y103.531 E.0075
G1 X100.889 Y97.842 E.17837
G1 X100.894 Y97.667 E.00549
G1 X101.058 Y97.496 E.00743
G1 X101.972 Y97.398 E.02882
G1 X107.02 Y97.391 E.15828
G1 X107.068 Y97.413 E.00166
M204 S1000
;WIPE_START
G1 F8640
G1 X107.122 Y97.437 E-.01364
G1 X107.162 Y97.456 E-.01023
G1 X107.209 Y97.58 E-.03062
G1 X107.206 Y100.809 E-.74551
;WIPE_END
G1 Z.6 F720
G1 X149.031 Y103.625 F10800
G1 Z.2 F720
G1 E.8 F2100
M204 S800
;WIDTH:0.419996
G1 F1200
G1 X148.938 Y103.708 E.00391
G1 X147.866 Y103.806 E.03375
G1 X142.978 Y103.811 E.15326
G1 X142.847 Y103.759 E.00442
G1 X142.789 Y103.622 E.00466
G1 X142.789 Y97.58 E.18944
G1 X142.86 Y97.432 E.00515
G1 X142.956 Y97.392 E.00326
;WIDTH:0.419999
G1 X147.866 Y97.397 E.15395
G1 X148.943 Y97.494 E.03391
G1 X149.108 Y97.681 E.00782
;WIDTH:0.419849
G1 X149.11 Y97.779 E.00307
;WIDTH:0.419996
G1 X149.098 Y103.565 E.18141
G1 X149.076 Y103.585 E.00093
M204 S1000
;WIPE_START
G1 F8640
G1 X149.031 Y103.625 E-.0139
G1 X148.938 Y103.708 E-.02878
G1 X147.866 Y103.806 E-.24856
G1 X145.662 Y103.808 E-.50876
;WIPE_END
G1 Z.6 F720
G1 X124.012 Y112.806 F10800
G1 Z.2 F720
G1 E.8 F2100
M204 S800
;TYPE:Perimeter
;WIDTH:0.419999
G1 F1200
G1 X123.944 Y112.887 E.00332
G1 X123.694 Y112.983 E.0084
G1 X123.62 Y112.988 E.00233
G1 X117.577 Y112.988 E.18947
G1 X117.324 Y112.928 E.00815
G1 X117.125 Y112.762 E.00813
G1 X117.016 Y112.493 E.0091
G1 X117.012 Y112.422 E.00223
G1 X117.012 Y106.38 E.18944
G1 X117.076 Y106.118 E.00846
G1 X117.186 Y105.971 E.00576
G1 X117.333 Y105.87 E.00559
G1 X117.577 Y105.814 E.00785
G1 X123.62 Y105.814 E.18947
G1 X123.873 Y105.874 E.00815
G1 X124.02 Y105.98 E.00568
G1 X124.126 Y106.127 E.00568
G1 X124.186 Y106.38 E.00815
G1 X124.186 Y112.422 E.18944
G1 X124.131 Y112.667 E.00787
G1 X124.051 Y112.76 E.00385
M204 S1000
G1 X124.051 Y112.76 F10800
G1 X123.722 Y112.568
M204 S800
;TYPE:External perimeter
G1 F1200
G1 X123.62 Y112.611 E.00347
G1 X117.577 Y112.611 E.18947
G1 X117.436 Y112.547 E.00486
G1 X117.389 Y112.422 E.00419
G1 X117.389 Y106.38 E.18944
G1 X117.447 Y106.244 E.00464
G1 X117.577 Y106.191 E.0044
G1 X123.62 Y106.191 E.18947
G1 X123.754 Y106.246 E.00454
G1 X123.809 Y106.38 E.00454
G1 X123.809 Y112.422 E.18944
G1 X123.765 Y112.532 E.00371
M204 S1000
;WIPE_START
G1 F8640
G1 X123.722 Y112.568 E-.01295
G1 X123.62 Y112.611 E-.02556
G1 X120.322 Y112.611 E-.76149
;WIPE_END
G1 Z.6 F720
G1 X126.379 Y129.031 F10800
G1 Z.2 F720
G1 E.8 F2100
M204 S800
G1 F1200
G1 X126.292 Y128.94 E.00395
G1 X126.194 Y127.868 E.03375
G1 X126.189 Y122.98 E.15326
G1 X126.27 Y122.825 E.00548
G1 X126.377 Y122.791 E.00352
G1 X132.42 Y122.791 E.18947
G1 X132.568 Y122.862 E.00515
G1 X132.609 Y122.98 E.00392
G1 X132.603 Y127.879 E.1536
G1 X132.562 Y128.464 E.01839
G1 X132.502 Y128.966 E.01585
G1 X132.318 Y129.109 E.00731
G1 X126.453 Y129.108 E.18389
G1 X126.421 Y129.074 E.00146
M204 S1000
;WIPE_START
G1 F8640
G1 X126.379 Y129.031 E-.01388
G1 X126.292 Y128.94 E-.02907
G1 X126.194 Y127.868 E-.24856
G1 X126.192 Y125.666 E-.50849
;WIPE_END
G1 Z.6 F720
G1 X117.435 Y122.878 F10800
G1 Z.2 F720
G1 E.8 F2100
M204 S800
G1 F1200
G1 X117.453 Y122.838 E.00138
G1 X117.577 Y122.791 E.00416
G1 X123.62 Y122.791 E.18947
G1 X123.757 Y122.849 E.00466
G1 X123.809 Y122.98 E.00442
G1 X123.804 Y127.868 E.15326
G1 X123.705 Y128.944 E.03388
G1 X123.531 Y129.109 E.00752
;WIDTH:0.419796
G1 X123.426 Y129.111 E.00329
;WIDTH:0.419997
G1 X117.667 Y129.103 E.18057
G1 X117.492 Y128.94 E.0075
G1 X117.394 Y127.868 E.03375
;WIDTH:0.419999
G1 X117.389 Y122.98 E.15326
G1 X117.41 Y122.933 E.00161
M204 S1000
;WIPE_START
G1 F8640
G1 X117.435 Y122.878 E-.01395
G1 X117.453 Y122.838 E-.01013
G1 X117.577 Y122.791 E-.03062
G1 X120.805 Y122.791 E-.7453
;WIPE_END
G1 Z.6 F720
G1 X124.029 Y104.01 F10800
G1 Z.2 F720
G1 E.8 F2100
M204 S800
;TYPE:Perimeter
G1 F1200
G1 X124.02 Y104.022 E.00047
G1 X123.873 Y104.128 E.00568
G1 X123.62 Y104.188 E.00815
G1 X117.577 Y104.188 E.18947
G1 X117.333 Y104.133 E.00784
G1 X117.113 Y103.946 E.00905
G1 X117.014 Y103.672 E.00913
G1 X117.012 Y97.58 E.19101
G1 X117.072 Y97.327 E.00815
G1 X117.238 Y97.127 E.00815
G1 X117.507 Y97.018 E.0091
G1 X117.577 Y97.014 E.0022
G1 X123.62 Y97.014 E.18947
G1 X123.882 Y97.078 E.00846
G1 X124.029 Y97.189 E.00578
G1 X124.131 Y97.335 E.00558
G1 X124.186 Y97.58 E.00787
G1 X124.186 Y103.622 E.18944
G1 X124.126 Y103.875 E.00815
G1 X124.064 Y103.962 E.00335
M204 S1000
G1 X124.064 Y103.962 F10800
G1 X123.767 Y103.723
M204 S800
;TYPE:External perimeter
G1 F1200
G1 X123.754 Y103.756 E.00111
G1 X123.62 Y103.811 E.00454
G1 X117.577 Y103.811 E.18947
G1 X117.447 Y103.759 E.00439
G1 X117.39 Y103.639 E.00417
G1 X117.389 Y97.58 E.18998
G1 X117.453 Y97.438 E.00488
G1 X117.577 Y97.391 E.00416
G1 X123.62 Y97.391 E.18947
G1 X123.757 Y97.449 E.00466
G1 X123.809 Y97.58 E.00442
G1 X123.809 Y103.622 E.18944
G1 X123.79 Y103.668 E.00156
M204 S1000
;WIPE_START
G1 F8640
G1 X123.767 Y103.723 E-.01377
G1 X123.754 Y103.756 E-.00819
G1 X123.62 Y103.811 E-.03345
G1 X120.396 Y103.811 E-.74459
;WIPE_END
G1 Z.6 F720
G1 X142.985 Y129.028 F10800
G1 Z.2 F720
G1 E.8 F2100
M204 S800
;WIDTH:0.420002
G1 F1200
G1 X142.892 Y128.94 E.00401
G1 X142.794 Y127.872 E.03363
G1 X142.789 Y125.384 E.07801
G1 X142.854 Y125.241 E.00493
G1 X143.558 Y124.998 E.02335
G1 X144.07 Y124.702 E.01854
G1 X144.512 Y124.303 E.01867
G1 X144.862 Y123.821 E.01868
