; generated by PrusaSlicer 2.5.0+linux-x64-GTK3 on 2022-09-09 at 20:20:56 UTC

; 

; external perimeters extrusion width = 0.45mm
; perimeters extrusion width = 0.45mm
; infill extrusion width = 0.45mm
; solid infill extrusion width = 0.45mm
; top infill extrusion width = 0.40mm
; first layer extrusion width = 0.42mm

M73 P0 R18
M201 X9000 Y9000 Z500 E10000 ; sets maximum accelerations, mm/sec^2
M203 X500 Y500 Z12 E120 ; sets maximum feedrates, mm / sec
M204 P2000 R1500 T2000 ; sets acceleration (P, T) and retract acceleration (R), mm/sec^2
M205 X10.00 Y10.00 Z0.20 E4.50 ; sets the jerk limits, mm/sec
M205 S0 T0 ; sets the minimum extruding and travel feed rate, mm/sec
M107
;TYPE:Custom
M862.3 P "MK2.5" ; printer model check
M862.1 P0.4 ; nozzle diameter check
M115 U3.11.0 ; tell printer latest fw version
G90 ; use absolute coordinates
M83 ; extruder relative mode
M104 S215 ; set extruder temp
M140 S60 ; set bed temp
M190 S60 ; wait for bed temp
M109 S215 ; wait for extruder temp
G28 W ; home all without mesh bed level
G80 ; mesh bed leveling

G1 Z0.2 F720
G1 Y-3 F1000 ; go outside print area
G92 E0
G1 X60 E9 F1000 ; intro line
G1 X100 E12.5 F1000 ; intro line

G92 E0
G21 ; set units to millimeters
G90 ; use absolute coordinates
M83 ; use relative distances for extrusion
M900 K0.05 ; Filament gcode LA 1.5
M900 K30 ; Filament gcode LA 1.0
M107
;LAYER_CHANGE
;Z:0.2
;HEIGHT:0.2
;BEFORE_LAYER_CHANGE
G92 E0.0
;0.2


G1 E-.8 F2100
G1 Z.4 F720
;AFTER_LAYER_CHANGE
;0.2
;CURRENT_Z: 0.2
G1 X106.861 Y92.577 F10800
G1 Z.2 F720
G1 E.8 F2100
M204 S800
;TYPE:Skirt/Brim
;WIDTH:0.42
G1 F1200
G1 X107.077 Y92.361 E.00957
G1 X108.151 Y91.689 E.03973
G1 X108.787 Y91.494 E.02086
G1 X109.5 Y91.4 E.02254
G1 X140.5 Y91.4 E.97198
G1 X141.213 Y91.494 E.02254
G1 X142.03 Y91.764 E.02697
G1 X142.923 Y92.361 E.03369
G1 X143.736 Y93.47 E.04312
G1 X144.006 Y94.287 E.02697
G1 X144.1 Y95 E.02254
G1 X144.1 Y104 E.28219
G1 X144.006 Y104.713 E.02254
G1 X143.811 Y105.349 E.02086
G1 X143.139 Y106.423 E.03973
G1 X142.923 Y106.639 E.00957
G1 X131.923 Y117.639 E.48776
G1 X130.849 Y118.311 E.03973
G1 X130.213 Y118.506 E.02086
G1 X129.5 Y118.6 E.02254
G1 X120.5 Y118.6 E.28219
G1 X119.787 Y118.506 E.02254
G1 X118.97 Y118.236 E.02697
G1 X118.077 Y117.639 E.03369
G1 X106.861 Y106.423 E.49733
M73 P1 R18
G1 X106.189 Y105.349 E.03973
G1 X105.994 Y104.713 E.02086
G1 X105.9 Y104 E.02254
G1 X105.9 Y95 E.28219
G1 X105.994 Y94.287 E.02254
G1 X106.264 Y93.47 E.02697
G1 X106.828 Y92.627 E.03181
M204 S1000
G1 X107.128 Y92.843 F10800
M204 S800
G1 F1200
G1 X107.343 Y92.628 E.00957
G1 X108.295 Y92.037 E.03512
G1 X108.885 Y91.858 E.01931
G1 X109.5 Y91.777 E.01946
G1 X140.5 Y91.777 E.97198
G1 X141.115 Y91.858 E.01946
G1 X141.885 Y92.112 E.02542
G1 X142.657 Y92.628 E.02908
G1 X143.388 Y93.615 E.03851
G1 X143.642 Y94.385 E.02543
G1 X143.723 Y95 E.01946
G1 X143.723 Y104 E.28219
G1 X143.642 Y104.615 E.01946
G1 X143.463 Y105.205 E.01931
G1 X142.872 Y106.157 E.03512
G1 X142.657 Y106.372 E.00957
G1 X131.657 Y117.372 E.48776
G1 X130.705 Y117.963 E.03512
G1 X130.115 Y118.142 E.01931
G1 X129.5 Y118.223 E.01946
G1 X120.5 Y118.223 E.28219
G1 X119.885 Y118.142 E.01946
G1 X119.115 Y117.888 E.02543
G1 X118.343 Y117.372 E.02908
G1 X107.128 Y106.157 E.49733
G1 X106.537 Y105.205 E.03512
G1 X106.358 Y104.615 E.01931
G1 X106.277 Y104 E.01946
G1 X106.277 Y95 E.28219
G1 X106.358 Y94.385 E.01946
G1 X106.612 Y93.615 E.02543
G1 X107.094 Y92.893 E.0272
M204 S1000
; printing object peça.stl id:0 copy 0
;WIPE_START
G1 F8640
G1 X107.343 Y92.628 E-.08413
G1 X108.295 Y92.037 E-.25863
G1 X108.885 Y91.858 E-.14221
G1 X109.5 Y91.777 E-.14329
G1 X110.071 Y91.777 E-.13174
;WIPE_END
G1 E-.04 F2100
G1 Z.6 F720
G1 X129.153 Y104.113 F10800
G1 Z.2 F720
G1 E.8 F2100
M204 S800
;TYPE:Perimeter
;WIDTH:0.419999
G1 F1200
G1 X129.131 Y104.197 E.00273
G1 X129.131 Y114.631 E.32716
G1 X120.869 Y114.631 E.25907
G1 X120.869 Y104.197 E.32716
G1 X120.859 Y104.093 E.00328
G1 X120.756 Y103.858 E.00805
G1 X120.569 Y103.698 E.00769
G1 X120.303 Y103.631 E.0086
G1 X109.869 Y103.631 E.32716
G1 X109.869 Y95.369 E.25907
G1 X140.131 Y95.369 E.94886
G1 X140.131 Y103.631 E.25907
M73 P2 R17
G1 X129.697 Y103.631 E.32716
G1 X129.603 Y103.639 E.00295
G1 X129.358 Y103.744 E.00838
G1 X129.204 Y103.92 E.00731
G1 X129.169 Y104.055 E.00438
M204 S1000
G1 X129.508 Y104.197 F10800
M204 S800
;TYPE:External perimeter
G1 F1200
G1 X129.508 Y114.862 E.33441
G1 X129.362 Y115.008 E.00647
G1 X120.638 Y115.008 E.27356
G1 X120.492 Y114.862 E.00647
G1 X120.492 Y104.197 E.33441
G1 X120.437 Y104.064 E.0045
G1 X120.303 Y104.008 E.00455
G1 X109.638 Y104.008 E.33441
G1 X109.492 Y103.862 E.00647
G1 X109.492 Y95.138 E.27356
G1 X109.638 Y94.992 E.00647
G1 X140.362 Y94.992 E.96336
G1 X140.508 Y95.138 E.00647
G1 X140.508 Y103.862 E.27356
G1 X140.362 Y104.008 E.00647
G1 X129.697 Y104.008 E.33441
G1 X129.563 Y104.064 E.00455
G1 X129.531 Y104.141 E.00262
M204 S1000
G1 X129.122 Y104.3 F10800
;WIPE_START
G1 F8640
G1 X129.524 Y107.433 E-.76
;WIPE_END
G1 E-.04 F2100
G1 Z.6 F720
G1 X140.018 Y96.25 F10800
G1 Z.2 F720
G1 E.8 F2100
M204 S800
;TYPE:Solid infill
;WIDTH:0.422848
G1 F1200
G1 X139.42 Y95.651 E.02674
G1 X138.882 Y95.651 E.01697
G1 X139.849 Y96.618 E.04317
G1 X139.849 Y97.155 E.01697
G1 X138.345 Y95.651 E.06717
G1 X137.808 Y95.651 E.01697
G1 X139.849 Y97.692 E.09118
G1 X139.849 Y98.23 E.01697
G1 X137.27 Y95.651 E.11518
G1 X136.733 Y95.651 E.01697
G1 X139.849 Y98.767 E.13919
G1 X139.849 Y99.304 E.01697
G1 X136.196 Y95.651 E.16319
G1 X135.659 Y95.651 E.01697
G1 X139.849 Y99.841 E.1872
G1 X139.849 Y100.379 E.01697
G1 X135.121 Y95.651 E.2112
G1 X134.584 Y95.651 E.01697
G1 X139.849 Y100.916 E.23521
G1 X139.849 Y101.453 E.01697
G1 X134.047 Y95.651 E.25921
G1 X133.509 Y95.651 E.01697
G1 X139.849 Y101.991 E.28322
G1 X139.849 Y102.528 E.01697
G1 X132.972 Y95.651 E.30722
G1 X132.435 Y95.651 E.01697
G1 X139.849 Y103.065 E.33123
G1 X139.849 Y103.349 E.00895
M73 P3 R17
G1 X139.595 Y103.349 E.00803
G1 X131.897 Y95.651 E.34388
G1 X131.36 Y95.651 E.01697
G1 X139.057 Y103.349 E.34388
G1 X138.52 Y103.349 E.01697
G1 X130.823 Y95.651 E.34388
G1 X130.286 Y95.651 E.01697
G1 X137.983 Y103.349 E.34388
G1 X137.445 Y103.349 E.01697
G1 X129.748 Y95.651 E.34388
G1 X129.211 Y95.651 E.01697
G1 X136.908 Y103.349 E.34388
G1 X136.371 Y103.349 E.01697
G1 X128.674 Y95.651 E.34388
G1 X128.136 Y95.651 E.01697
G1 X135.833 Y103.349 E.34388
G1 X135.296 Y103.349 E.01697
G1 X127.599 Y95.651 E.34388
G1 X127.062 Y95.651 E.01697
G1 X134.759 Y103.349 E.34388
G1 X134.222 Y103.349 E.01697
G1 X126.524 Y95.651 E.34388
G1 X125.987 Y95.651 E.01697
G1 X133.684 Y103.349 E.34388
G1 X133.147 Y103.349 E.01697
G1 X125.45 Y95.651 E.34388
G1 X124.913 Y95.651 E.01697
G1 X132.61 Y103.349 E.34388
G1 X132.072 Y103.349 E.01697
G1 X124.375 Y95.651 E.34388
G1 X123.838 Y95.651 E.01697
G1 X131.535 Y103.349 E.34388
G1 X130.998 Y103.349 E.01697
G1 X123.301 Y95.651 E.34388
G1 X122.763 Y95.651 E.01697
G1 X130.46 Y103.349 E.34388
G1 X129.923 Y103.349 E.01697
G1 X122.226 Y95.651 E.34388
G1 X121.689 Y95.651 E.01697
M73 P4 R17
G1 X129.437 Y103.399 E.34615
G1 X129.298 Y103.447 E.00465
G1 X129.097 Y103.597 E.00791
G1 X121.151 Y95.651 E.35497
G1 X120.614 Y95.651 E.01697
G1 X128.899 Y103.937 E.37016
G1 X128.863 Y104.037 E.00337
G1 X128.849 Y104.423 E.0122
G1 X120.077 Y95.651 E.39189
G1 X119.54 Y95.651 E.01697
G1 X128.849 Y104.96 E.4159
G1 X128.849 Y105.498 E.01697
G1 X119.002 Y95.651 E.4399
G1 X118.465 Y95.651 E.01697
G1 X128.849 Y106.035 E.4639
G1 X128.849 Y106.572 E.01697
G1 X117.928 Y95.651 E.48791
G1 X117.39 Y95.651 E.01697
G1 X128.849 Y107.11 E.51191
G1 X128.849 Y107.647 E.01697
G1 X116.853 Y95.651 E.53592
G1 X116.316 Y95.651 E.01697
G1 X128.849 Y108.184 E.55992
G1 X128.849 Y108.722 E.01697
G1 X115.778 Y95.651 E.58393
G1 X115.241 Y95.651 E.01697
G1 X128.849 Y109.259 E.60793
G1 X128.849 Y109.796 E.01697
G1 X114.704 Y95.651 E.63194
G1 X114.167 Y95.651 E.01697
M73 P5 R17
G1 X128.849 Y110.333 E.65594
G1 X128.849 Y110.871 E.01697
G1 X113.629 Y95.651 E.67995
G1 X113.092 Y95.651 E.01697
G1 X128.849 Y111.408 E.70395
G1 X128.849 Y111.945 E.01697
G1 X121.151 Y104.248 E.34388
G1 X121.137 Y104.037 E.00668
G1 X121.044 Y103.782 E.00859
G1 X120.906 Y103.598 E.00726
G1 X120.702 Y103.447 E.008
G1 X120.453 Y103.361 E.00833
G1 X120.252 Y103.349 E.00637
G1 X112.555 Y95.651 E.34388
G1 X112.017 Y95.651 E.01697
G1 X119.714 Y103.349 E.34388
G1 X119.177 Y103.349 E.01697
G1 X111.48 Y95.651 E.34388
G1 X110.943 Y95.651 E.01697
G1 X118.64 Y103.349 E.34388
G1 X118.103 Y103.349 E.01697
G1 X110.405 Y95.651 E.34388
G1 X110.151 Y95.651 E.00802
G1 X110.151 Y95.935 E.00895
G1 X117.565 Y103.349 E.33122
G1 X117.028 Y103.349 E.01697
G1 X110.151 Y96.472 E.30722
G1 X110.151 Y97.009 E.01697
G1 X116.491 Y103.349 E.28321
G1 X115.953 Y103.349 E.01697
G1 X110.151 Y97.547 E.25921
G1 X110.151 Y98.084 E.01697
G1 X115.416 Y103.349 E.2352
G1 X114.879 Y103.349 E.01697
G1 X110.151 Y98.621 E.2112
G1 X110.151 Y99.159 E.01697
G1 X114.341 Y103.349 E.18719
G1 X113.804 Y103.349 E.01697
G1 X110.151 Y99.696 E.16319
G1 X110.151 Y100.233 E.01697
G1 X113.267 Y103.349 E.13918
G1 X112.73 Y103.349 E.01697
M73 P6 R17
G1 X110.151 Y100.77 E.11518
G1 X110.151 Y101.308 E.01697
G1 X112.192 Y103.349 E.09118
G1 X111.655 Y103.349 E.01697
G1 X110.151 Y101.845 E.06717
G1 X110.151 Y102.382 E.01697
G1 X111.118 Y103.349 E.04317
G1 X110.58 Y103.349 E.01697
G1 X109.982 Y102.75 E.02674
M204 S1000
;WIPE_START
G1 F8640
G1 X110.58 Y103.349 E-.19546
G1 X111.118 Y103.349 E-.12406
G1 X110.151 Y102.382 E-.3155
G1 X110.151 Y101.845 E-.12406
G1 X110.154 Y101.848 E-.00091
;WIPE_END
G1 E-.04 F2100
G1 Z.6 F720
G1 X120.982 Y104.616 F10800
G1 Z.2 F720
G1 E.8 F2100
M204 S800
G1 F1200
G1 X128.849 Y112.483 E.35146
G1 X128.849 Y113.02 E.01697
G1 X121.151 Y105.323 E.34388
G1 X121.151 Y105.86 E.01697
G1 X128.849 Y113.557 E.34388
G1 X128.849 Y114.095 E.01697
G1 X121.151 Y106.397 E.34388
G1 X121.151 Y106.935 E.01697
G1 X128.565 Y114.349 E.33122
G1 X128.028 Y114.349 E.01697
G1 X121.151 Y107.472 E.30722
G1 X121.151 Y108.009 E.01697
G1 X127.491 Y114.349 E.28321
G1 X126.953 Y114.349 E.01697
G1 X121.151 Y108.547 E.25921
G1 X121.151 Y109.084 E.01697
G1 X126.416 Y114.349 E.2352
G1 X125.879 Y114.349 E.01697
G1 X121.151 Y109.621 E.2112
G1 X121.151 Y110.159 E.01697
G1 X125.341 Y114.349 E.18719
G1 X124.804 Y114.349 E.01697
G1 X121.151 Y110.696 E.16319
G1 X121.151 Y111.233 E.01697
G1 X124.267 Y114.349 E.13918
G1 X123.73 Y114.349 E.01697
G1 X121.151 Y111.77 E.11518
G1 X121.151 Y112.308 E.01697
G1 X123.192 Y114.349 E.09118
G1 X122.655 Y114.349 E.01697
G1 X121.151 Y112.845 E.06717
G1 X121.151 Y113.382 E.01697
G1 X122.118 Y114.349 E.04317
G1 X121.58 Y114.349 E.01697
G1 X120.982 Y113.75 E.02674
M204 S1000
; stop printing object peça.stl id:0 copy 0
M106 S84.15
;LAYER_CHANGE
;Z:0.4
;HEIGHT:0.2
;BEFORE_LAYER_CHANGE
G92 E0.0
;0.4


;WIPE_START
G1 F8640
G1 X121.58 Y114.349 E-.19546
G1 X122.118 Y114.349 E-.12406
G1 X121.151 Y113.382 E-.3155
G1 X121.151 Y112.845 E-.12406
G1 X121.154 Y112.848 E-.00091
;WIPE_END
G1 E-.04 F2100
G1 Z.6 F720
;AFTER_LAYER_CHANGE
;0.4
;CURRENT_Z: 0.4
M104 S210 ; set temperature
G1 X117.22 Y116.782 F10800
G1 Z.4 F720
G1 E.8 F2100
;TYPE:Skirt/Brim
;WIDTH:0.42
G1 F3000
G1 X106.861 Y106.423 E.45933
G1 X106.189 Y105.349 E.03973
G1 X105.994 Y104.713 E.02086
G1 X105.9 Y104 E.02254
G1 X105.9 Y95 E.28219
G1 X105.994 Y94.287 E.02254
G1 X106.264 Y93.47 E.02697
G1 X106.861 Y92.577 E.03369
G1 X107.077 Y92.361 E.00957
G1 X108.151 Y91.689 E.03973
G1 X108.787 Y91.494 E.02086
G1 X109.5 Y91.4 E.02254
G1 X140.5 Y91.4 E.97198
G1 X141.213 Y91.494 E.02254
G1 X142.03 Y91.764 E.02697
G1 X142.923 Y92.361 E.03369
G1 X143.736 Y93.47 E.04312
G1 X144.006 Y94.287 E.02697
G1 X144.1 Y95 E.02254
G1 X144.1 Y104 E.28219
G1 X144.006 Y104.713 E.02254
G1 X143.811 Y105.349 E.02086
G1 X143.139 Y106.423 E.03973
G1 X131.923 Y117.639 E.49733
G1 X130.849 Y118.311 E.03973
G1 X130.213 Y118.506 E.02086
G1 X129.5 Y118.6 E.02254
G1 X120.5 Y118.6 E.28219
G1 X119.787 Y118.506 E.02254
G1 X118.97 Y118.236 E.02697
G1 X118.077 Y117.639 E.03369
G1 X117.262 Y116.825 E.03612
G1 X117.529 Y116.558 F10800
G1 F3000
G1 X107.128 Y106.157 E.46122
G1 X106.537 Y105.205 E.03512
M73 P7 R17
G1 X106.358 Y104.615 E.01931
G1 X106.277 Y104 E.01946
G1 X106.277 Y95 E.28219
G1 X106.358 Y94.385 E.01946
G1 X106.612 Y93.615 E.02543
G1 X107.128 Y92.843 E.02908
G1 X107.343 Y92.628 E.00957
G1 X108.295 Y92.037 E.03512
G1 X108.885 Y91.858 E.01931
G1 X109.5 Y91.777 E.01946
G1 X140.5 Y91.777 E.97198
G1 X141.115 Y91.858 E.01946
G1 X141.885 Y92.112 E.02542
G1 X142.657 Y92.628 E.02908
G1 X143.388 Y93.615 E.03851
G1 X143.642 Y94.385 E.02543
G1 X143.723 Y95 E.01946
G1 X143.723 Y104 E.28219
G1 X143.642 Y104.615 E.01946
G1 X143.463 Y105.205 E.01931
G1 X142.872 Y106.157 E.03512
G1 X131.657 Y117.372 E.49733
G1 X130.705 Y117.963 E.03512
G1 X130.115 Y118.142 E.01931
G1 X129.5 Y118.223 E.01946
G1 X120.5 Y118.223 E.28219
G1 X119.885 Y118.142 E.01946
G1 X119.115 Y117.888 E.02543
G1 X118.343 Y117.372 E.02908
G1 X117.571 Y116.6 E.03423
; printing object peça.stl id:0 copy 0
;WIPE_START
G1 F8640
G1 X115.244 Y114.273 E-.76
;WIPE_END
G1 E-.04 F2100
G1 Z.8 F720
G1 X129.6 Y104.605 F10800
G1 Z.4 F720
G1 E.8 F2100
M204 S800
;TYPE:Perimeter
;WIDTH:0.449999
G1 F3000
G1 X129.58 Y104.69 E.00298
G1 X129.58 Y114.825 E.34306
G1 X129.521 Y115.018 E.00683
G1 X129.382 Y115.077 E.00511
G1 X120.679 Y115.08 E.29457
G1 X120.479 Y115.017 E.00711
G1 X120.42 Y114.875 E.00521
G1 X120.42 Y104.69 E.34474
G1 X120.402 Y104.542 E.00505
G1 X120.298 Y104.324 E.00818
G1 X120.097 Y104.152 E.00897
G1 X119.81 Y104.08 E.01003
G1 X109.675 Y104.08 E.34306
G1 X109.482 Y104.021 E.00683
G1 X109.423 Y103.882 E.00511
G1 X109.42 Y95.125 E.29642
G1 X109.479 Y94.982 E.00524
G1 X109.618 Y94.923 E.00511
G1 X140.328 Y94.923 E1.0395
G1 X140.521 Y94.982 E.00682
G1 X140.58 Y95.125 E.00524
G1 X140.58 Y103.82 E.29433
G1 X140.521 Y104.017 E.00695
G1 X140.373 Y104.08 E.00545
G1 X130.19 Y104.08 E.34466
G1 X130.089 Y104.088 E.00343
G1 X129.824 Y104.202 E.00977
G1 X129.644 Y104.417 E.0095
G1 X129.614 Y104.546 E.00449
M204 S1000
G1 X129.987 Y104.69 F10800
M204 S800
;TYPE:External perimeter
G1 F2400
G1 X129.987 Y114.956 E.34746
G1 X129.834 Y115.328 E.01363
M73 P7 R16
G1 X129.464 Y115.484 E.01357
G1 X120.545 Y115.487 E.3019
G1 X120.166 Y115.328 E.01392
G1 X120.013 Y114.956 E.01362
G1 X120.013 Y104.69 E.34746
G1 X119.954 Y104.547 E.00525
G1 X119.81 Y104.487 E.0053
G1 X109.544 Y104.487 E.34746
G1 X109.172 Y104.334 E.01363
G1 X109.016 Y103.964 E.01357
G1 X109.013 Y95.044 E.30193
G1 X109.166 Y94.672 E.01363
G1 X109.536 Y94.516 E.01357
G1 X140.464 Y94.516 E1.04691
G1 X140.834 Y94.672 E.01357
G1 X140.987 Y95.044 E.01363
G1 X140.987 Y103.956 E.30163
G1 X140.834 Y104.328 E.01362
G1 X140.455 Y104.487 E.01392
G1 X130.19 Y104.487 E.34743
G1 X130.046 Y104.547 E.0053
G1 X130.01 Y104.635 E.00321
M204 S1000
G1 X129.6 Y104.794 F10800
;WIPE_START
G1 F8640
G1 X130.002 Y107.926 E-.76
;WIPE_END
G1 E-.04 F2100
G1 Z.8 F720
G1 X140.447 Y103.138 F10800
G1 Z.4 F720
G1 E.8 F2100
M204 S2000
;TYPE:Solid infill
;WIDTH:0.451879
G1 F3000
G1 X139.811 Y103.774 E.03059
G1 X139.233 Y103.774 E.01967
G1 X140.265 Y102.743 E.04962
G1 X140.265 Y102.164 E.01969
G1 X138.655 Y103.774 E.07747
G1 X138.076 Y103.774 E.01967
G1 X140.266 Y101.584 E.10532
G1 X140.267 Y101.005 E.01969
G1 X137.498 Y103.774 E.13317
G1 X136.919 Y103.774 E.01967
G1 X140.268 Y100.426 E.16102
G1 X140.268 Y99.847 E.01969
G1 X136.341 Y103.774 E.18887
G1 X135.763 Y103.774 E.01967
G1 X140.269 Y99.268 E.21671
G1 X140.27 Y98.689 E.01969
G1 X135.184 Y103.774 E.24456
G1 X134.606 Y103.774 E.01967
G1 X140.271 Y98.11 E.27241
G1 X140.271 Y97.531 E.01969
G1 X134.028 Y103.774 E.30026
G1 X133.449 Y103.774 E.01967
G1 X140.272 Y96.952 E.32811
G1 X140.273 Y96.373 E.01969
G1 X132.871 Y103.774 E.35596
G1 X132.293 Y103.774 E.01967
G1 X140.274 Y95.793 E.38381
G1 X140.274 Y95.228 E.01922
G1 X140.26 Y95.228 E.00047
G1 X131.714 Y103.774 E.41099
G1 X131.136 Y103.774 E.01967
G1 X139.682 Y95.228 E.41099
G1 X139.104 Y95.228 E.01967
G1 X130.374 Y103.958 E.4198
M204 S1000
;WIPE_START
G1 F8640
