; generated by PrusaSlicer 2.2.0+linux-x64 on 2021-01-30 at 16:44:24 UTC

; 

; external perimeters extrusion width = 0.45mm
; perimeters extrusion width = 0.45mm
; infill extrusion width = 0.45mm
; solid infill extrusion width = 0.45mm
; top infill extrusion width = 0.40mm
; first layer extrusion width = 0.42mm

M73 P0 R23
M201 X9000 Y9000 Z500 E10000 ; sets maximum accelerations, mm/sec^2
M203 X500 Y500 Z12 E120 ; sets maximum feedrates, mm/sec
M204 P2000 R1500 T2000 ; sets acceleration (P, T) and retract acceleration (R), mm/sec^2
M205 X10.00 Y10.00 Z0.20 E4.50 ; sets the jerk limits, mm/sec
M205 S0 T0 ; sets the minimum extruding and travel feed rate, mm/sec
M107
M862.3 P "MK2.5" ; printer model check
M862.1 P0.4 ; nozzle diameter check
M115 U3.9.1 ; tell printer latest fw version
G90 ; use absolute coordinates
M83 ; extruder relative mode
M104 S215 ; set extruder temp
M140 S60 ; set bed temp
M190 S60 ; wait for bed temp
M109 S215 ; wait for extruder temp
G28 W ; home all without mesh bed level
G80 ; mesh bed leveling
G1 Y-3.0 F1000.0 ; go outside print area
G92 E0.0
G1 X60.0 E9.0 F1000.0 ; intro line
M73 P0 R23
G1 X100.0 E12.5 F1000.0 ; intro line
G92 E0.0
G21 ; set units to millimeters
G90 ; use absolute coordinates
M83 ; use relative distances for extrusion
M900 K0.05 ; Filament gcode LA 1.5
M900 K30 ; Filament gcode LA 1.0
;BEFORE_LAYER_CHANGE
G92 E0.0
;0.2


G1 E-0.80000 F2100.00000
G1 Z0.600 F10800.000
;AFTER_LAYER_CHANGE
;0.2
;CURRENT_Z: 0.2
G1 X106.624 Y92.847
G1 Z0.200
G1 E0.80000 F2100.00000
M204 S1000
G1 F1200.000
G1 X107.367 Y92.108 E0.03287
G1 X108.170 Y91.681 E0.02851
G1 X108.923 Y91.462 E0.02458
G1 X109.476 Y91.400 E0.01745
G1 X140.504 Y91.400 E0.97287
G1 X141.030 Y91.452 E0.01656
G1 X141.719 Y91.639 E0.02240
G1 X142.292 Y91.889 E0.01961
G1 X142.745 Y92.198 E0.01720
G1 X143.560 Y93.119 E0.03857
G1 X144.022 Y94.351 E0.04123
G1 X144.100 Y94.980 E0.01988
G1 X144.099 Y104.041 E0.28410
G1 X143.858 Y105.227 E0.03794
G1 X143.554 Y105.892 E0.02294
G1 X143.144 Y106.418 E0.02090
G1 X131.891 Y117.671 E0.49898
G1 X131.412 Y118.041 E0.01899
G1 X130.830 Y118.319 E0.02022
G1 X130.097 Y118.534 E0.02394
G1 X129.573 Y118.599 E0.01656
G1 X120.459 Y118.599 E0.28577
G1 X119.476 Y118.422 E0.03130
G1 X118.740 Y118.128 E0.02486
G1 X118.091 Y117.653 E0.02523
G1 X106.844 Y106.406 E0.49872
G1 X106.463 Y105.919 E0.01937
G1 X106.181 Y105.330 E0.02048
G1 X105.965 Y104.593 E0.02407
G1 X105.901 Y104.065 E0.01669
G1 X105.929 Y94.604 E0.29666
G1 X106.172 Y93.693 E0.02956
G1 X106.595 Y92.900 E0.02817
G1 X106.922 Y93.078 F10800.000
G1 F1200.000
G1 X107.599 Y92.406 E0.02994
G1 X108.334 Y92.022 E0.02600
G1 X109.483 Y91.777 E0.03683
G1 X140.504 Y91.777 E0.97263
G1 X141.599 Y91.997 E0.03502
G1 X142.119 Y92.224 E0.01779
G1 X142.522 Y92.503 E0.01538
G1 X143.249 Y93.335 E0.03463
G1 X143.665 Y94.481 E0.03824
G1 X143.723 Y94.987 E0.01597
G1 X143.722 Y104.038 E0.28379
G1 X143.492 Y105.131 E0.03503
G1 X143.226 Y105.705 E0.01981
G1 X142.872 Y106.157 E0.01800
G1 X131.629 Y117.399 E0.49853
G1 X131.202 Y117.728 E0.01692
G1 X130.666 Y117.978 E0.01854
G1 X129.559 Y118.222 E0.03554
G1 X120.462 Y118.222 E0.28522
G1 X119.568 Y118.057 E0.02851
G1 X118.911 Y117.792 E0.02219
G1 X118.354 Y117.383 E0.02166
G1 X107.111 Y106.140 E0.49853
G1 X106.776 Y105.708 E0.01716
G1 X106.522 Y105.166 E0.01878
G1 X106.278 Y104.051 E0.03578
G1 X106.300 Y94.673 E0.29403
G1 X106.519 Y93.840 E0.02701
G1 X106.894 Y93.131 E0.02513
G1 F8640.000
G1 X107.599 Y92.406 E-0.23374
G1 X108.334 Y92.022 E-0.19146
G1 X109.483 Y91.777 E-0.27124
G1 X109.759 Y91.777 E-0.06356
G1 E-0.04000 F2100.00000
G1 Z0.800 F10800.000
G1 X109.869 Y95.369
G1 Z0.200
G1 E0.80000 F2100.00000
G1 F1200.000
G1 X140.131 Y95.369 E0.94887
G1 X140.131 Y103.631 E0.25907
G1 X129.131 Y103.631 E0.34490
G1 X129.131 Y114.631 E0.34490
G1 X120.869 Y114.631 E0.25907
G1 X120.869 Y103.631 E0.34490
G1 X109.869 Y103.631 E0.34490
G1 X109.869 Y95.429 E0.25719
G1 F8640.000
G1 X113.160 Y95.422 E-0.76000
G1 E-0.04000 F2100.00000
G1 Z0.800 F10800.000
G1 X129.508 Y104.008
G1 Z0.200
G1 E0.80000 F2100.00000
G1 F1200.000
G1 X129.508 Y114.862 E0.34032
G1 X129.362 Y115.008 E0.00647
G1 X120.638 Y115.008 E0.27356
G1 X120.492 Y114.862 E0.00647
G1 X120.492 Y104.008 E0.34032
G1 X109.638 Y104.008 E0.34032
G1 X109.492 Y103.862 E0.00647
G1 X109.492 Y95.138 E0.27356
G1 X109.638 Y94.992 E0.00647
G1 X140.362 Y94.992 E0.96336
G1 X140.508 Y95.138 E0.00647
G1 X140.508 Y103.862 E0.27356
G1 X140.362 Y104.008 E0.00647
G1 X129.568 Y104.008 E0.33844
G1 X129.108 Y104.010 F10800.000
G1 F8640.000
G1 X129.550 Y107.300 E-0.76000
G1 E-0.04000 F2100.00000
G1 Z0.800 F10800.000
G1 X129.018 Y111.578
G1 Z0.200
G1 E0.80000 F2100.00000
G1 F1200.000
G1 X121.151 Y103.711 E0.35146
G1 X121.151 Y104.248 E0.01697
G1 X128.849 Y111.945 E0.34388
G1 X128.849 Y112.483 E0.01697
G1 X121.151 Y104.786 E0.34388
G1 X121.151 Y105.323 E0.01697
G1 X128.849 Y113.020 E0.34388
G1 X128.849 Y113.557 E0.01697
G1 X121.151 Y105.860 E0.34388
G1 X121.151 Y106.397 E0.01697
G1 X128.849 Y114.095 E0.34388
G1 X128.849 Y114.349 E0.00802
G1 X128.565 Y114.349 E0.00895
G1 X121.151 Y106.935 E0.33122
G1 X121.151 Y107.472 E0.01697
G1 X128.028 Y114.349 E0.30722
G1 X127.491 Y114.349 E0.01697
G1 X121.151 Y108.009 E0.28321
G1 X121.151 Y108.547 E0.01697
G1 X126.953 Y114.349 E0.25921
G1 X126.416 Y114.349 E0.01697
G1 X121.151 Y109.084 E0.23520
G1 X121.151 Y109.621 E0.01697
G1 X125.879 Y114.349 E0.21120
G1 X125.341 Y114.349 E0.01697
G1 X121.151 Y110.159 E0.18719
G1 X121.151 Y110.696 E0.01697
G1 X124.804 Y114.349 E0.16319
G1 X124.267 Y114.349 E0.01697
G1 X121.151 Y111.233 E0.13918
G1 X121.151 Y111.770 E0.01697
G1 X123.730 Y114.349 E0.11518
G1 X123.192 Y114.349 E0.01697
G1 X121.151 Y112.308 E0.09118
G1 X121.151 Y112.845 E0.01697
G1 X122.655 Y114.349 E0.06717
G1 X122.118 Y114.349 E0.01697
G1 X121.151 Y113.382 E0.04317
G1 X121.151 Y113.920 E0.01697
G1 X121.750 Y114.518 E0.02674
G1 F8640.000
G1 X121.151 Y113.920 E-0.19546
G1 X121.151 Y113.382 E-0.12406
G1 X122.118 Y114.349 E-0.31550
G1 X122.655 Y114.349 E-0.12406
G1 X122.652 Y114.346 E-0.00091
G1 E-0.04000 F2100.00000
G1 Z0.800 F10800.000
G1 X109.982 Y102.750
G1 Z0.200
G1 E0.80000 F2100.00000
G1 F1200.000
G1 X110.580 Y103.349 E0.02674
G1 X111.118 Y103.349 E0.01697
G1 X110.151 Y102.382 E0.04317
G1 X110.151 Y101.845 E0.01697
G1 X111.655 Y103.349 E0.06717
G1 X112.192 Y103.349 E0.01697
G1 X110.151 Y101.308 E0.09118
G1 X110.151 Y100.770 E0.01697
G1 X112.730 Y103.349 E0.11518
G1 X113.267 Y103.349 E0.01697
G1 X110.151 Y100.233 E0.13918
G1 X110.151 Y99.696 E0.01697
G1 X113.804 Y103.349 E0.16319
G1 X114.341 Y103.349 E0.01697
G1 X110.151 Y99.159 E0.18719
G1 X110.151 Y98.621 E0.01697
G1 X114.879 Y103.349 E0.21120
G1 X115.416 Y103.349 E0.01697
G1 X110.151 Y98.084 E0.23520
G1 X110.151 Y97.547 E0.01697
G1 X115.953 Y103.349 E0.25921
G1 X116.491 Y103.349 E0.01697
G1 X110.151 Y97.009 E0.28321
G1 X110.151 Y96.472 E0.01697
G1 X117.028 Y103.349 E0.30722
G1 X117.565 Y103.349 E0.01697
G1 X110.151 Y95.935 E0.33122
G1 X110.151 Y95.651 E0.00895
G1 X110.405 Y95.651 E0.00802
G1 X118.103 Y103.349 E0.34388
G1 X118.640 Y103.349 E0.01697
G1 X110.943 Y95.651 E0.34388
G1 X111.480 Y95.651 E0.01697
G1 X119.177 Y103.349 E0.34388
G1 X119.714 Y103.349 E0.01697
G1 X112.017 Y95.651 E0.34388
G1 X112.555 Y95.651 E0.01697
G1 X120.252 Y103.349 E0.34388
G1 X120.789 Y103.349 E0.01697
G1 X113.092 Y95.651 E0.34388
G1 X113.629 Y95.651 E0.01697
G1 X128.849 Y110.871 E0.67995
G1 X128.849 Y110.333 E0.01697
G1 X114.167 Y95.651 E0.65594
G1 X114.704 Y95.651 E0.01697
G1 X128.849 Y109.796 E0.63194
G1 X128.849 Y109.259 E0.01697
G1 X115.241 Y95.651 E0.60793
G1 X115.778 Y95.651 E0.01697
G1 X128.849 Y108.722 E0.58393
G1 X128.849 Y108.184 E0.01697
G1 X116.316 Y95.651 E0.55992
G1 X116.853 Y95.651 E0.01697
G1 X128.849 Y107.647 E0.53592
G1 X128.849 Y107.110 E0.01697
G1 X117.390 Y95.651 E0.51191
G1 X117.928 Y95.651 E0.01697
G1 X128.849 Y106.572 E0.48791
G1 X128.849 Y106.035 E0.01697
G1 X118.465 Y95.651 E0.46390
G1 X119.002 Y95.651 E0.01697
G1 X128.849 Y105.498 E0.43990
G1 X128.849 Y104.960 E0.01697
G1 X119.540 Y95.651 E0.41590
G1 X120.077 Y95.651 E0.01697
G1 X128.849 Y104.423 E0.39189
G1 X128.849 Y103.886 E0.01697
G1 X120.614 Y95.651 E0.36789
G1 X121.151 Y95.651 E0.01697
G1 X128.849 Y103.349 E0.34388
G1 X129.386 Y103.349 E0.01697
G1 X121.689 Y95.651 E0.34388
G1 X122.226 Y95.651 E0.01697
G1 X129.923 Y103.349 E0.34388
G1 X130.460 Y103.349 E0.01697
G1 X122.763 Y95.651 E0.34388
G1 X123.301 Y95.651 E0.01697
G1 X130.998 Y103.349 E0.34388
G1 X131.535 Y103.349 E0.01697
G1 X123.838 Y95.651 E0.34388
G1 X124.375 Y95.651 E0.01697
G1 X132.072 Y103.349 E0.34388
G1 X132.610 Y103.349 E0.01697
G1 X124.913 Y95.651 E0.34388
G1 X125.450 Y95.651 E0.01697
G1 X133.147 Y103.349 E0.34388
G1 X133.684 Y103.349 E0.01697
G1 X125.987 Y95.651 E0.34388
G1 X126.524 Y95.651 E0.01697
G1 X134.222 Y103.349 E0.34388
M73 P4 R22
G1 X134.759 Y103.349 E0.01697
G1 X127.062 Y95.651 E0.34388
G1 X127.599 Y95.651 E0.01697
G1 X135.296 Y103.349 E0.34388
G1 X135.833 Y103.349 E0.01697
G1 X128.136 Y95.651 E0.34388
G1 X128.674 Y95.651 E0.01697
G1 X136.371 Y103.349 E0.34388
G1 X136.908 Y103.349 E0.01697
G1 X129.211 Y95.651 E0.34388
G1 X129.748 Y95.651 E0.01697
G1 X137.445 Y103.349 E0.34388
G1 X137.983 Y103.349 E0.01697
G1 X130.286 Y95.651 E0.34388
G1 X130.823 Y95.651 E0.01697
G1 X138.520 Y103.349 E0.34388
G1 X139.057 Y103.349 E0.01697
G1 X131.360 Y95.651 E0.34388
G1 X131.897 Y95.651 E0.01697
G1 X139.594 Y103.349 E0.34388
G1 X139.849 Y103.349 E0.00803
G1 X139.849 Y103.065 E0.00895
G1 X132.435 Y95.651 E0.33123
G1 X132.972 Y95.651 E0.01697
G1 X139.849 Y102.528 E0.30722
G1 X139.849 Y101.991 E0.01697
G1 X133.509 Y95.651 E0.28322
G1 X134.047 Y95.651 E0.01697
G1 X139.849 Y101.453 E0.25921
G1 X139.849 Y100.916 E0.01697
G1 X134.584 Y95.651 E0.23521
G1 X135.121 Y95.651 E0.01697
G1 X139.849 Y100.379 E0.21120
G1 X139.849 Y99.841 E0.01697
G1 X135.659 Y95.651 E0.18720
G1 X136.196 Y95.651 E0.01697
G1 X139.849 Y99.304 E0.16319
G1 X139.849 Y98.767 E0.01697
G1 X136.733 Y95.651 E0.13919
G1 X137.270 Y95.651 E0.01697
G1 X139.849 Y98.230 E0.11518
G1 X139.849 Y97.692 E0.01697
G1 X137.808 Y95.651 E0.09118
G1 X138.345 Y95.651 E0.01697
G1 X139.849 Y97.155 E0.06717
G1 X139.849 Y96.618 E0.01697
G1 X138.882 Y95.651 E0.04317
G1 X139.420 Y95.651 E0.01697
G1 X140.018 Y96.250 E0.02674
M106 S255
;BEFORE_LAYER_CHANGE
G92 E0.0
;0.4


G1 F8640.000
G1 X139.420 Y95.651 E-0.19548
G1 X138.882 Y95.651 E-0.12406
G1 X139.849 Y96.618 E-0.31552
G1 X139.849 Y97.155 E-0.12406
G1 X139.846 Y97.152 E-0.00087
G1 E-0.04000 F2100.00000
G1 Z0.800 F10800.000
;AFTER_LAYER_CHANGE
;0.4
;CURRENT_Z: 0.4
M104 S210 ; set temperature
G1 X143.560 Y93.119
G1 Z0.400
G1 E0.80000 F2100.00000
G1 F3000.000
G1 X144.022 Y94.351 E0.04123
G1 X144.100 Y94.980 E0.01988
G1 X144.099 Y104.041 E0.28410
G1 X143.858 Y105.227 E0.03794
G1 X143.554 Y105.892 E0.02294
G1 X143.144 Y106.418 E0.02090
G1 X131.891 Y117.671 E0.49898
G1 X131.412 Y118.041 E0.01899
G1 X130.830 Y118.319 E0.02022
G1 X130.097 Y118.534 E0.02394
G1 X129.573 Y118.599 E0.01656
G1 X120.459 Y118.599 E0.28577
G1 X119.476 Y118.422 E0.03130
G1 X118.740 Y118.128 E0.02486
G1 X118.091 Y117.653 E0.02523
G1 X106.844 Y106.406 E0.49872
G1 X106.463 Y105.919 E0.01937
G1 X106.181 Y105.330 E0.02048
G1 X105.965 Y104.593 E0.02407
G1 X105.901 Y104.065 E0.01669
G1 X105.929 Y94.604 E0.29666
G1 X106.172 Y93.693 E0.02956
G1 X106.624 Y92.847 E0.03005
G1 X107.367 Y92.108 E0.03287
G1 X108.170 Y91.681 E0.02851
G1 X108.923 Y91.462 E0.02458
G1 X109.476 Y91.400 E0.01745
G1 X140.504 Y91.400 E0.97287
G1 X141.030 Y91.452 E0.01656
G1 X141.719 Y91.639 E0.02240
G1 X142.292 Y91.889 E0.01961
G1 X142.745 Y92.198 E0.01720
G1 X143.521 Y93.074 E0.03668
G1 X143.238 Y93.322 F10800.000
G1 F3000.000
G1 X143.665 Y94.481 E0.03874
G1 X143.723 Y94.987 E0.01597
G1 X143.722 Y104.038 E0.28379
G1 X143.492 Y105.131 E0.03503
G1 X143.226 Y105.705 E0.01981
G1 X142.872 Y106.157 E0.01800
G1 X131.629 Y117.399 E0.49853
G1 X131.202 Y117.728 E0.01692
G1 X130.666 Y117.978 E0.01854
G1 X129.559 Y118.222 E0.03554
G1 X120.462 Y118.222 E0.28522
G1 X119.568 Y118.057 E0.02851
G1 X118.911 Y117.792 E0.02219
G1 X118.354 Y117.383 E0.02166
G1 X107.111 Y106.140 E0.49853
G1 X106.776 Y105.708 E0.01716
G1 X106.522 Y105.166 E0.01878
G1 X106.278 Y104.051 E0.03578
G1 X106.300 Y94.673 E0.29403
G1 X106.519 Y93.840 E0.02701
G1 X106.922 Y93.078 E0.02702
G1 X107.599 Y92.406 E0.02994
G1 X108.334 Y92.022 E0.02600
G1 X109.483 Y91.777 E0.03683
G1 X140.504 Y91.777 E0.97263
G1 X141.599 Y91.997 E0.03502
G1 X142.119 Y92.224 E0.01779
G1 X142.522 Y92.503 E0.01538
G1 X143.199 Y93.276 E0.03221
G1 F8640.000
G1 X143.665 Y94.481 E-0.29825
G1 X143.723 Y94.987 E-0.11763
G1 X143.722 Y96.477 E-0.34413
G1 E-0.04000 F2100.00000
G1 Z1.000 F10800.000
G1 X140.521 Y94.982
G1 Z0.400
G1 E0.80000 F2100.00000
M204 S800
G1 F3000.000
G1 X140.580 Y95.125 E0.00524
G1 X140.580 Y103.875 E0.29618
G1 X140.521 Y104.017 E0.00521
G1 X140.373 Y104.080 E0.00545
G1 X129.580 Y104.080 E0.36533
G1 X129.580 Y114.875 E0.36541
G1 X129.521 Y115.018 E0.00524
G1 X129.382 Y115.077 E0.00511
G1 X120.627 Y115.080 E0.29633
G1 X120.479 Y115.017 E0.00545
G1 X120.420 Y114.875 E0.00521
G1 X120.420 Y104.080 E0.36541
G1 X109.625 Y104.080 E0.36541
G1 X109.482 Y104.021 E0.00524
G1 X109.423 Y103.882 E0.00511
G1 X109.420 Y95.125 E0.29642
G1 X109.479 Y94.982 E0.00524
G1 X109.618 Y94.923 E0.00511
G1 X140.382 Y94.923 E1.04132
G1 X140.466 Y94.958 E0.00308
M204 S1000
G1 X140.624 Y94.583 F10800.000
M204 S800
G1 F2400.000
G1 X140.834 Y94.672 E0.00770
G1 X140.987 Y95.044 E0.01363
G1 X140.987 Y103.956 E0.30163
G1 X140.834 Y104.328 E0.01362
G1 X140.455 Y104.487 E0.01392
G1 X129.987 Y104.487 E0.35432
G1 X129.987 Y114.956 E0.35435
G1 X129.834 Y115.328 E0.01363
G1 X129.464 Y115.484 E0.01357
G1 X120.545 Y115.487 E0.30190
G1 X120.166 Y115.328 E0.01392
G1 X120.013 Y114.956 E0.01362
G1 X120.013 Y104.487 E0.35435
G1 X109.544 Y104.487 E0.35435
G1 X109.172 Y104.334 E0.01363
G1 X109.016 Y103.964 E0.01357
G1 X109.013 Y95.044 E0.30193
G1 X109.166 Y94.672 E0.01363
G1 X109.536 Y94.516 E0.01357
G1 X140.464 Y94.516 E1.04691
G1 X140.569 Y94.560 E0.00384
M204 S1000
G1 X140.682 Y94.803 F10800.000
G1 F8640.000
G1 X140.834 Y94.672 E-0.06637
G1 X140.987 Y95.044 E-0.09299
G1 X140.987 Y97.646 E-0.60064
G1 E-0.04000 F2100.00000
G1 Z1.000 F10800.000
G1 X140.458 Y103.061
G1 Z0.400
G1 E0.80000 F2100.00000
M204 S2000
G1 F3000.000
G1 X139.745 Y103.774 E0.03417
G1 X139.168 Y103.774 E0.01953
G1 X140.274 Y102.668 E0.05302
G1 X140.274 Y102.092 E0.01953
G1 X138.592 Y103.774 E0.08063
G1 X138.016 Y103.774 E0.01953
G1 X140.274 Y101.516 E0.10825
G1 X140.274 Y100.939 E0.01953
G1 X137.439 Y103.774 E0.13587
G1 X136.863 Y103.774 E0.01953
G1 X140.274 Y100.363 E0.16349
G1 X140.274 Y99.787 E0.01953
G1 X136.287 Y103.774 E0.19111
G1 X135.710 Y103.774 E0.01953
G1 X140.274 Y99.210 E0.21873
G1 X140.274 Y98.634 E0.01953
G1 X135.134 Y103.774 E0.24635
G1 X134.558 Y103.774 E0.01953
G1 X140.274 Y98.058 E0.27397
G1 X140.274 Y97.481 E0.01953
G1 X133.981 Y103.774 E0.30159
G1 X133.405 Y103.774 E0.01953
G1 X140.274 Y96.905 E0.32921
G1 X140.274 Y96.329 E0.01953
G1 X132.829 Y103.774 E0.35683
G1 X132.252 Y103.774 E0.01953
G1 X140.274 Y95.752 E0.38445
G1 X140.274 Y95.228 E0.01775
G1 X140.222 Y95.228 E0.00178
G1 X131.676 Y103.774 E0.40956
G1 X131.100 Y103.774 E0.01953
G1 X139.646 Y95.228 E0.40956
G1 X139.069 Y95.228 E0.01953
G1 X130.523 Y103.774 E0.40956
G1 X129.947 Y103.774 E0.01953
G1 X138.493 Y95.228 E0.40956
G1 X137.917 Y95.228 E0.01953
G1 X120.726 Y112.419 E0.82384
G1 X120.726 Y112.996 E0.01953
G1 X129.274 Y104.447 E0.40969
G1 X129.274 Y105.023 E0.01953
G1 X120.726 Y113.572 E0.40969
G1 X120.726 Y114.148 E0.01953
G1 X129.274 Y105.600 E0.40969
G1 X129.274 Y106.176 E0.01953
G1 X120.726 Y114.725 E0.40969
G1 X120.726 Y114.774 E0.00168
G1 X121.252 Y114.774 E0.01785
G1 X129.274 Y106.752 E0.38444
G1 X129.274 Y107.329 E0.01953
G1 X121.829 Y114.774 E0.35681
G1 X122.405 Y114.774 E0.01954
G1 X129.274 Y107.905 E0.32918
G1 X129.274 Y108.481 E0.01953
G1 X122.982 Y114.774 E0.30155
G1 X123.558 Y114.774 E0.01954
