; generated by PrusaSlicer 2.6.0-alpha6+linux-x64-GTK3 on 2023-05-08 at 03:34:13 UTC

; 

; external perimeters extrusion width = 0.45mm
; perimeters extrusion width = 0.45mm
; infill extrusion width = 0.45mm
; solid infill extrusion width = 0.45mm
; top infill extrusion width = 0.40mm
; first layer extrusion width = 0.42mm

M73 P0 R18
M201 X9000 Y9000 Z500 E10000 ; sets maximum accelerations, mm/sec^2
M203 X500 Y500 Z12 E120 ; sets maximum feedrates, mm / sec
M204 S2000 T1500 ; sets acceleration (S) and retract acceleration (R), mm/sec^2
M205 X10.00 Y10.00 Z0.20 E4.50 ; sets the jerk limits, mm/sec
M205 S0 T0 ; sets the minimum extruding and travel feed rate, mm/sec
;TYPE:Custom
M862.3 P "MK2.5" ; printer model check
M862.1 P0.4 ; nozzle diameter check
M115 U3.11.0 ; tell printer latest fw version
G90 ; use absolute coordinates
M83 ; extruder relative mode
M104 S215 ; set extruder temp
M140 S60 ; set bed temp
M190 S60 ; wait for bed temp
M109 S215 ; wait for extruder temp
G28 W ; home all without mesh bed level
G80 ; mesh bed leveling

G1 Z0.2 F720
G1 Y-3 F1000 ; go outside print area
G92 E0
G1 X60 E9 F1000 ; intro line
G1 X100 E12.5 F1000 ; intro line

G92 E0
G21 ; set units to millimeters
G90 ; use absolute coordinates
M83 ; use relative distances for extrusion
M900 K0.05 ; Filament gcode LA 1.5
M900 K30 ; Filament gcode LA 1.0
M107
;LAYER_CHANGE
;Z:0.2
;HEIGHT:0.2
;BEFORE_LAYER_CHANGE
G92 E0.0
;0.2


G1 E-.8 F2100
G1 Z.4 F720
;AFTER_LAYER_CHANGE
;0.2
;CURRENT_Z: 0.2
G1 X106.861 Y92.577 F10800
G1 Z.2 F720
G1 E.8 F2100
M204 S800
;TYPE:Skirt/Brim
;WIDTH:0.42
G1 F1200
G1 X107.077 Y92.361 E.00958
G1 X108.15 Y91.689 E.0397
G1 X108.786 Y91.494 E.02086
G1 X109.5 Y91.4 E.02258
G1 X140.5 Y91.4 E.97198
G1 X141.214 Y91.494 E.02258
G1 X142.03 Y91.764 E.02695
G1 X143.139 Y92.577 E.04311
G1 X143.736 Y93.47 E.03368
G1 X144.006 Y94.286 E.02695
G1 X144.1 Y95 E.02258
G1 X144.1 Y104 E.28219
G1 X144.006 Y104.714 E.02258
G1 X143.811 Y105.35 E.02086
G1 X143.139 Y106.423 E.0397
G1 X131.923 Y117.639 E.49734
G1 X130.85 Y118.311 E.0397
G1 X130.214 Y118.506 E.02086
G1 X129.5 Y118.6 E.02258
G1 X120.5 Y118.6 E.28219
G1 X119.786 Y118.506 E.02258
G1 X118.97 Y118.236 E.02695
G1 X118.077 Y117.639 E.03368
M73 P1 R18
G1 X106.861 Y106.423 E.49734
G1 X106.189 Y105.35 E.0397
G1 X105.994 Y104.714 E.02086
G1 X105.9 Y104 E.02258
G1 X105.9 Y95 E.28219
G1 X105.994 Y94.286 E.02258
G1 X106.264 Y93.47 E.02695
G1 X106.828 Y92.627 E.0318
M204 S1000
G1 X107.128 Y92.844 F10800
M204 S800
G1 F1200
G1 X107.344 Y92.628 E.00958
G1 X108.295 Y92.038 E.03509
G1 X108.884 Y91.859 E.0193
G1 X109.5 Y91.777 E.01948
G1 X140.5 Y91.777 E.97198
G1 X141.116 Y91.859 E.01948
G1 X141.886 Y92.113 E.02542
G1 X142.872 Y92.844 E.03848
G1 X143.387 Y93.614 E.02905
G1 X143.641 Y94.384 E.02542
G1 X143.723 Y95 E.01948
G1 X143.723 Y104 E.28219
G1 X143.641 Y104.616 E.01948
G1 X143.462 Y105.205 E.0193
G1 X142.872 Y106.156 E.03509
G1 X131.656 Y117.372 E.49734
G1 X130.705 Y117.962 E.03509
G1 X130.116 Y118.141 E.0193
G1 X129.5 Y118.223 E.01948
G1 X120.5 Y118.223 E.28219
G1 X119.884 Y118.141 E.01948
G1 X119.114 Y117.887 E.02542
G1 X118.344 Y117.372 E.02905
G1 X107.128 Y106.156 E.49734
G1 X106.538 Y105.205 E.03509
M73 P1 R17
G1 X106.359 Y104.616 E.0193
G1 X106.277 Y104 E.01948
G1 X106.277 Y95 E.28219
G1 X106.359 Y94.384 E.01948
G1 X106.613 Y93.614 E.02542
G1 X107.094 Y92.893 E.02718
M204 S1000
; printing object peça.stl id:0 copy 0
;WIPE_START
G1 F8640
G1 X107.344 Y92.628 E-.08412
G1 X108.295 Y92.038 E-.25842
G1 X108.884 Y91.859 E-.14214
G1 X109.5 Y91.777 E-.14349
G1 X110.244 Y91.777 E-.17183
;WIPE_END
G1 Z.6 F720
G1 X129.649 Y103.635 F10800
G1 Z.2 F720
G1 E.8 F2100
M204 S800
;TYPE:Perimeter
;WIDTH:0.419999
G1 F1200
G1 X129.358 Y103.744 E.00974
G1 X129.204 Y103.92 E.00733
G1 X129.131 Y104.197 E.00898
G1 X129.131 Y114.631 E.32715
G1 X120.869 Y114.631 E.25905
G1 X120.869 Y104.197 E.32715
G1 X120.859 Y104.093 E.00328
G1 X120.756 Y103.858 E.00804
G1 X120.569 Y103.698 E.00772
G1 X120.303 Y103.631 E.0086
G1 X109.869 Y103.631 E.32715
G1 X109.869 Y95.369 E.25905
G1 X140.131 Y95.369 E.94884
G1 X140.131 Y103.631 E.25905
M73 P2 R17
G1 X129.709 Y103.631 E.32677
M204 S1000
G1 X129.697 Y104.008 F10800
M204 S800
;TYPE:External perimeter
G1 F1200
G1 X129.563 Y104.064 E.00455
G1 X129.508 Y104.197 E.00451
G1 X129.508 Y114.863 E.33442
G1 X129.363 Y115.008 E.00643
G1 X120.637 Y115.008 E.2736
G1 X120.492 Y114.863 E.00643
G1 X120.492 Y104.197 E.33442
G1 X120.437 Y104.064 E.00451
G1 X120.303 Y104.008 E.00455
G1 X109.637 Y104.008 E.33442
G1 X109.492 Y103.863 E.00643
G1 X109.492 Y95.137 E.2736
G1 X109.637 Y94.992 E.00643
G1 X140.363 Y94.992 E.96339
G1 X140.508 Y95.137 E.00643
G1 X140.508 Y103.863 E.2736
G1 X140.363 Y104.008 E.00643
G1 X129.757 Y104.008 E.33254
M204 S1000
G1 X129.594 Y103.906 F10800
;WIPE_START
G1 F8640
G1 X129.563 Y104.064 E-.04662
G1 X129.508 Y104.197 E-.03323
G1 X129.508 Y107.316 E-.72015
;WIPE_END
G1 Z.6 F720
G1 X140.018 Y96.25 F10800
G1 Z.2 F720
G1 E.8 F2100
M204 S800
;TYPE:Solid infill
;WIDTH:0.422849
G1 F1200
G1 X139.42 Y95.651 E.02674
G1 X138.882 Y95.651 E.017
G1 X139.849 Y96.618 E.0432
G1 X139.849 Y97.155 E.01696
G1 X138.345 Y95.651 E.06719
G1 X137.808 Y95.651 E.01696
G1 X139.849 Y97.692 E.09119
G1 X139.849 Y98.23 E.017
G1 X137.27 Y95.651 E.11522
G1 X136.733 Y95.651 E.01696
G1 X139.849 Y98.767 E.13921
G1 X139.849 Y99.304 E.01696
G1 X136.196 Y95.651 E.1632
G1 X135.659 Y95.651 E.01696
G1 X139.849 Y99.841 E.1872
G1 X139.849 Y100.379 E.017
G1 X135.121 Y95.651 E.21123
G1 X134.584 Y95.651 E.01696
G1 X139.849 Y100.916 E.23522
G1 X139.849 Y101.453 E.01696
G1 X134.047 Y95.651 E.25921
G1 X133.509 Y95.651 E.017
G1 X139.849 Y101.991 E.28325
G1 X139.849 Y102.528 E.01696
G1 X132.972 Y95.651 E.30724
G1 X132.435 Y95.651 E.01696
M73 P3 R17
G1 X139.849 Y103.065 E.33123
G1 X139.849 Y103.349 E.00897
G1 X139.595 Y103.349 E.00802
G1 X131.897 Y95.651 E.34392
G1 X131.36 Y95.651 E.01696
G1 X139.057 Y103.349 E.3439
G1 X138.52 Y103.349 E.01696
G1 X130.823 Y95.651 E.3439
G1 X130.285 Y95.651 E.017
G1 X137.983 Y103.349 E.34392
G1 X137.445 Y103.349 E.017
G1 X129.748 Y95.651 E.3439
G1 X129.211 Y95.651 E.01696
G1 X136.908 Y103.349 E.3439
G1 X136.371 Y103.349 E.01696
G1 X128.674 Y95.651 E.3439
G1 X128.136 Y95.651 E.017
G1 X135.833 Y103.349 E.3439
G1 X135.296 Y103.349 E.01696
G1 X127.599 Y95.651 E.3439
G1 X127.062 Y95.651 E.01696
G1 X134.759 Y103.349 E.3439
G1 X134.221 Y103.349 E.017
G1 X126.524 Y95.651 E.3439
G1 X125.987 Y95.651 E.01696
G1 X133.684 Y103.349 E.3439
G1 X133.147 Y103.349 E.01696
G1 X125.45 Y95.651 E.3439
G1 X124.912 Y95.651 E.017
G1 X132.61 Y103.349 E.34392
G1 X132.072 Y103.349 E.017
G1 X124.375 Y95.651 E.3439
G1 X123.838 Y95.651 E.01696
G1 X131.535 Y103.349 E.3439
G1 X130.998 Y103.349 E.01696
G1 X123.301 Y95.651 E.3439
G1 X122.763 Y95.651 E.017
G1 X130.46 Y103.349 E.3439
G1 X129.923 Y103.349 E.01696
M73 P4 R17
G1 X122.226 Y95.651 E.3439
G1 X121.689 Y95.651 E.01696
G1 X129.437 Y103.399 E.34616
G1 X129.298 Y103.447 E.00465
G1 X129.097 Y103.597 E.00792
G1 X121.151 Y95.651 E.355
G1 X120.614 Y95.651 E.01696
G1 X128.899 Y103.937 E.37017
G1 X128.863 Y104.037 E.00336
G1 X128.849 Y104.423 E.0122
G1 X120.077 Y95.651 E.3919
G1 X119.539 Y95.651 E.017
G1 X128.849 Y104.961 E.41594
G1 X128.849 Y105.498 E.01696
G1 X119.002 Y95.651 E.43993
G1 X118.465 Y95.651 E.01696
G1 X128.849 Y106.035 E.46392
G1 X128.849 Y106.572 E.01696
G1 X117.928 Y95.651 E.48791
G1 X117.39 Y95.651 E.017
G1 X128.849 Y107.11 E.51195
G1 X128.849 Y107.647 E.01696
G1 X116.853 Y95.651 E.53594
G1 X116.316 Y95.651 E.01696
G1 X128.849 Y108.184 E.55993
G1 X128.849 Y108.722 E.017
G1 X115.778 Y95.651 E.58397
G1 X115.241 Y95.651 E.01696
G1 X128.849 Y109.259 E.60796
G1 X128.849 Y109.796 E.01696
G1 X114.704 Y95.651 E.63195
G1 X114.166 Y95.651 E.017
M73 P5 R17
G1 X128.849 Y110.334 E.65599
G1 X128.849 Y110.871 E.01696
G1 X113.629 Y95.651 E.67998
G1 X113.092 Y95.651 E.01696
G1 X128.849 Y111.408 E.70397
G1 X128.849 Y111.945 E.01696
G1 X121.151 Y104.248 E.3439
G1 X121.137 Y104.037 E.00668
G1 X121.044 Y103.782 E.00857
G1 X120.906 Y103.598 E.00727
G1 X120.702 Y103.447 E.00802
G1 X120.453 Y103.361 E.00832
G1 X120.252 Y103.349 E.00636
G1 X112.555 Y95.651 E.3439
G1 X112.017 Y95.651 E.017
G1 X119.714 Y103.349 E.3439
G1 X119.177 Y103.349 E.01696
G1 X111.48 Y95.651 E.3439
G1 X110.943 Y95.651 E.01696
G1 X118.64 Y103.349 E.3439
G1 X118.102 Y103.349 E.017
G1 X110.405 Y95.651 E.3439
G1 X110.151 Y95.651 E.00802
G1 X110.151 Y95.935 E.00897
G1 X117.565 Y103.349 E.33123
G1 X117.028 Y103.349 E.01696
G1 X110.151 Y96.472 E.30724
G1 X110.151 Y97.009 E.01696
G1 X116.491 Y103.349 E.28325
G1 X115.953 Y103.349 E.017
G1 X110.151 Y97.547 E.25921
G1 X110.151 Y98.084 E.01696
G1 X115.416 Y103.349 E.23522
G1 X114.879 Y103.349 E.01696
G1 X110.151 Y98.621 E.21123
G1 X110.151 Y99.159 E.017
G1 X114.341 Y103.349 E.1872
G1 X113.804 Y103.349 E.01696
G1 X110.151 Y99.696 E.1632
G1 X110.151 Y100.233 E.01696
M73 P6 R17
G1 X113.267 Y103.349 E.13921
G1 X112.729 Y103.349 E.017
G1 X110.151 Y100.771 E.11518
G1 X110.151 Y101.308 E.01696
G1 X112.192 Y103.349 E.09119
G1 X111.655 Y103.349 E.01696
G1 X110.151 Y101.845 E.06719
G1 X110.151 Y102.382 E.01696
G1 X111.118 Y103.349 E.0432
G1 X110.58 Y103.349 E.017
G1 X109.982 Y102.75 E.02674
M204 S1000
;WIPE_START
G1 F8640
G1 X110.58 Y103.349 E-.19544
G1 X111.118 Y103.349 E-.12423
G1 X110.151 Y102.382 E-.31577
G1 X110.151 Y101.845 E-.12399
G1 X110.275 Y101.969 E-.04057
;WIPE_END
G1 Z.6 F720
G1 X120.982 Y104.616 F10800
G1 Z.2 F720
G1 E.8 F2100
M204 S800
G1 F1200
G1 X128.849 Y112.483 E.35147
G1 X128.849 Y113.02 E.01696
G1 X121.151 Y105.323 E.3439
G1 X121.151 Y105.86 E.01696
G1 X128.849 Y113.557 E.3439
G1 X128.849 Y114.095 E.017
G1 X121.151 Y106.398 E.3439
G1 X121.151 Y106.935 E.01696
G1 X128.565 Y114.349 E.33123
G1 X128.028 Y114.349 E.01696
G1 X121.151 Y107.472 E.30724
G1 X121.151 Y108.009 E.01696
G1 X127.491 Y114.349 E.28325
G1 X126.953 Y114.349 E.017
G1 X121.151 Y108.547 E.25921
G1 X121.151 Y109.084 E.01696
G1 X126.416 Y114.349 E.23522
G1 X125.879 Y114.349 E.01696
G1 X121.151 Y109.621 E.21123
G1 X121.151 Y110.159 E.017
G1 X125.341 Y114.349 E.1872
G1 X124.804 Y114.349 E.01696
G1 X121.151 Y110.696 E.1632
G1 X121.151 Y111.233 E.01696
G1 X124.267 Y114.349 E.13921
G1 X123.729 Y114.349 E.017
G1 X121.151 Y111.771 E.11518
G1 X121.151 Y112.308 E.01696
G1 X123.192 Y114.349 E.09119
G1 X122.655 Y114.349 E.01696
G1 X121.151 Y112.845 E.06719
G1 X121.151 Y113.382 E.01696
G1 X122.118 Y114.349 E.0432
G1 X121.58 Y114.349 E.017
G1 X120.982 Y113.75 E.02674
M204 S1000
; stop printing object peça.stl id:0 copy 0
M106 S84.15
;LAYER_CHANGE
;Z:0.4
;HEIGHT:0.2
;BEFORE_LAYER_CHANGE
G92 E0.0
;0.4


;WIPE_START
G1 F8640
G1 X121.58 Y114.349 E-.19544
G1 X122.118 Y114.349 E-.12423
G1 X121.151 Y113.382 E-.31577
G1 X121.151 Y112.845 E-.12399
G1 X121.275 Y112.969 E-.04057
;WIPE_END
G1 Z.6 F720
;AFTER_LAYER_CHANGE
;0.4
;CURRENT_Z: 0.4
M104 S210 ; set temperature
G1 X117.341 Y116.903 F10800
G1 Z.4 F720
G1 E.8 F2100
;TYPE:Skirt/Brim
;WIDTH:0.42
G1 F3000
G1 X106.861 Y106.423 E.4647
G1 X106.189 Y105.35 E.0397
G1 X105.994 Y104.714 E.02086
G1 X105.9 Y104 E.02258
G1 X105.9 Y95 E.28219
G1 X105.994 Y94.286 E.02258
G1 X106.264 Y93.47 E.02695
G1 X106.861 Y92.577 E.03368
G1 X107.077 Y92.361 E.00958
G1 X108.15 Y91.689 E.0397
G1 X108.786 Y91.494 E.02086
G1 X109.5 Y91.4 E.02258
G1 X140.5 Y91.4 E.97198
G1 X141.214 Y91.494 E.02258
G1 X142.03 Y91.764 E.02695
G1 X143.139 Y92.577 E.04311
G1 X143.736 Y93.47 E.03368
G1 X144.006 Y94.286 E.02695
G1 X144.1 Y95 E.02258
G1 X144.1 Y104 E.28219
G1 X144.006 Y104.714 E.02258
G1 X143.811 Y105.35 E.02086
G1 X143.139 Y106.423 E.0397
G1 X131.923 Y117.639 E.49734
G1 X130.85 Y118.311 E.0397
G1 X130.214 Y118.506 E.02086
G1 X129.5 Y118.6 E.02258
G1 X120.5 Y118.6 E.28219
G1 X119.786 Y118.506 E.02258
G1 X118.97 Y118.236 E.02695
G1 X118.077 Y117.639 E.03368
G1 X117.384 Y116.946 E.03073
G1 X117.65 Y116.679 F10800
M73 P7 R17
G1 F3000
G1 X107.128 Y106.156 E.46659
G1 X106.538 Y105.205 E.03509
G1 X106.359 Y104.616 E.0193
G1 X106.277 Y104 E.01948
G1 X106.277 Y95 E.28219
G1 X106.359 Y94.384 E.01948
M73 P7 R16
G1 X106.613 Y93.614 E.02542
G1 X107.128 Y92.844 E.02905
G1 X107.344 Y92.628 E.00958
G1 X108.295 Y92.038 E.03509
G1 X108.884 Y91.859 E.0193
G1 X109.5 Y91.777 E.01948
G1 X140.5 Y91.777 E.97198
G1 X141.116 Y91.859 E.01948
G1 X141.886 Y92.113 E.02542
G1 X142.872 Y92.844 E.03848
G1 X143.387 Y93.614 E.02905
G1 X143.641 Y94.384 E.02542
G1 X143.723 Y95 E.01948
G1 X143.723 Y104 E.28219
G1 X143.641 Y104.616 E.01948
G1 X143.462 Y105.205 E.0193
G1 X142.872 Y106.156 E.03509
G1 X131.656 Y117.372 E.49734
G1 X130.705 Y117.962 E.03509
G1 X130.116 Y118.141 E.0193
G1 X129.5 Y118.223 E.01948
G1 X120.5 Y118.223 E.28219
G1 X119.884 Y118.141 E.01948
G1 X119.114 Y117.887 E.02542
G1 X118.344 Y117.372 E.02905
G1 X117.693 Y116.722 E.02884
; printing object peça.stl id:0 copy 0
;WIPE_START
G1 F8640
G1 X115.243 Y114.272 E-.8
;WIPE_END
G1 Z.8 F720
G1 X130.139 Y104.084 F10800
G1 Z.4 F720
G1 E.8 F2100
M204 S800
;TYPE:Perimeter
;WIDTH:0.449999
G1 F3000
G1 X130.089 Y104.088 E.0017
G1 X129.824 Y104.202 E.00976
G1 X129.644 Y104.418 E.00952
G1 X129.58 Y104.691 E.00949
G1 X129.58 Y114.825 E.34302
G1 X129.521 Y115.018 E.00683
G1 X129.382 Y115.077 E.00511
G1 X120.68 Y115.08 E.29455
G1 X120.479 Y115.017 E.00713
G1 X120.42 Y114.875 E.0052
G1 X120.42 Y104.691 E.34472
G1 X120.402 Y104.542 E.00508
G1 X120.298 Y104.324 E.00818
G1 X120.097 Y104.152 E.00895
G1 X119.809 Y104.08 E.01005
G1 X109.675 Y104.08 E.34302
G1 X109.482 Y104.021 E.00683
G1 X109.423 Y103.882 E.00511
G1 X109.42 Y95.125 E.29641
G1 X109.479 Y94.982 E.00524
G1 X109.618 Y94.923 E.00511
G1 X140.328 Y94.923 E1.0395
G1 X140.521 Y94.982 E.00683
G1 X140.58 Y95.125 E.00524
G1 X140.58 Y103.82 E.29431
G1 X140.521 Y104.017 E.00696
G1 X140.373 Y104.08 E.00544
G1 X130.199 Y104.08 E.34438
M204 S1000
G1 X130.191 Y104.487 F10800
M204 S800
;TYPE:External perimeter
G1 F2400
G1 X130.046 Y104.547 E.00531
G1 X129.987 Y104.691 E.00527
G1 X129.987 Y114.956 E.34746
G1 X129.834 Y115.328 E.01362
G1 X129.465 Y115.484 E.01356
G1 X120.545 Y115.487 E.30193
G1 X120.166 Y115.328 E.01391
G1 X120.013 Y114.956 E.01362
G1 X120.013 Y104.691 E.34746
G1 X119.954 Y104.547 E.00527
G1 X119.809 Y104.487 E.00531
G1 X109.544 Y104.487 E.34746
G1 X109.172 Y104.334 E.01362
G1 X109.016 Y103.965 E.01356
G1 X109.013 Y95.044 E.30196
G1 X109.166 Y94.672 E.01362
G1 X109.535 Y94.516 E.01356
G1 X140.465 Y94.516 E1.04694
G1 X140.834 Y94.672 E.01356
G1 X140.987 Y95.044 E.01362
G1 X140.987 Y103.956 E.30166
G1 X140.834 Y104.328 E.01362
G1 X140.455 Y104.487 E.01391
G1 X130.251 Y104.487 E.34539
M204 S1000
G1 X130.079 Y104.377 F10800
;WIPE_START
G1 F8640
G1 X130.046 Y104.547 E-.04932
G1 X129.987 Y104.691 E-.03593
G1 X129.987 Y107.786 E-.71475
;WIPE_END
G1 Z.8 F720
G1 X128.643 Y114.946 F10800
G1 Z.4 F720
G1 E.8 F2100
M204 S2000
;TYPE:Solid infill
;WIDTH:0.451684
G1 F3000
G1 X129.263 Y114.326 E.0298
G1 X129.264 Y113.747 E.01968
G1 X128.248 Y114.763 E.04884
G1 X127.669 Y114.764 E.01968
G1 X129.265 Y113.168 E.07672
G1 X129.265 Y112.589 E.01968
G1 X127.09 Y114.765 E.10457
G1 X126.511 Y114.766 E.01968
G1 X129.266 Y112.011 E.13243
G1 X129.267 Y111.432 E.01968
G1 X125.932 Y114.767 E.16031
G1 X125.353 Y114.768 E.01968
G1 X129.267 Y110.853 E.18816
G1 X129.268 Y110.274 E.01968
G1 X124.774 Y114.768 E.21602
G1 X124.195 Y114.769 E.01968
G1 X129.269 Y109.696 E.24387
G1 X129.269 Y109.117 E.01968
G1 X123.616 Y114.77 E.27173
G1 X123.037 Y114.771 E.01968
G1 X129.27 Y108.538 E.2996
G1 X129.271 Y107.959 E.01968
G1 X122.458 Y114.772 E.32748
G1 X121.879 Y114.773 E.01968
G1 X129.271 Y107.381 E.35532
G1 X129.272 Y106.802 E.01968
G1 X121.3 Y114.774 E.38319
G1 X120.725 Y114.771 E.01954
G1 X129.273 Y106.223 E.41088
G1 X129.273 Y105.644 E.01968
G1 X120.725 Y114.192 E.41088
G1 X120.725 Y113.614 E.01965
M73 P8 R16
G1 X129.458 Y104.882 E.41975
M204 S1000
;WIPE_START
G1 F8640
G1 X127.008 Y107.332 E-.8
;WIPE_END
G1 Z.8 F720
G1 X139.631 Y103.958 F10800
G1 Z.4 F720
G1 E.8 F2100
M204 S2000
G1 F3000
G1 X140.275 Y103.314 E.03096
G1 X140.275 Y102.736 E.01965
