; generated by PrusaSlicer 2.8.0 on 2024-09-21 at 14:29:08 UTC

; 

; external perimeters extrusion width = 0.45mm
; perimeters extrusion width = 0.45mm
; infill extrusion width = 0.45mm
; solid infill extrusion width = 0.45mm
; top infill extrusion width = 0.40mm
; first layer extrusion width = 0.42mm

M73 P0 R18
M201 X9000 Y9000 Z500 E10000 ; sets maximum accelerations, mm/sec^2
M203 X500 Y500 Z12 E120 ; sets maximum feedrates, mm / sec
M204 S2000 T1500 ; sets acceleration (S) and retract acceleration (R), mm/sec^2
M205 X10.00 Y10.00 Z0.20 E4.50 ; sets the jerk limits, mm/sec
M205 S0 T0 ; sets the minimum extruding and travel feed rate, mm/sec

; printing object peça.stl id:0 copy 0
; stop printing object peça.stl id:0 copy 0

;TYPE:Custom
M862.3 P "MK2.5" ; printer model check
M862.1 P0.4 ; nozzle diameter check
M115 U3.11.0 ; tell printer latest fw version
G90 ; use absolute coordinates
M83 ; extruder relative mode
M104 S215 ; set extruder temp
M140 S60 ; set bed temp
M190 S60 ; wait for bed temp
M109 S215 ; wait for extruder temp
G28 W ; home all without mesh bed level
G80 ; mesh bed leveling

G1 Z0.2 F720
G1 Y-3 F1000 ; go outside print area
G92 E0
G1 X60 E9 F1000 ; intro line
G1 X100 E12.5 F1000 ; intro line

G92 E0
G21 ; set units to millimeters
G90 ; use absolute coordinates
M83 ; use relative distances for extrusion
M900 K0.05 ; Filament gcode LA 1.5
M900 K30 ; Filament gcode LA 1.0
M107
;LAYER_CHANGE
;Z:0.2
;HEIGHT:0.2
G1 E-.8 F2100
G1 Z.6 F720
G1 X106.994 Y92.71 F10800
G1 Z.2 F720
G1 E.8 F2100
M204 S800
;TYPE:Skirt/Brim
;WIDTH:0.42
G1 F1200
G1 X107.21 Y92.494 E.00958
G1 X108.222 Y91.864 E.03738
G1 X108.835 Y91.676 E.0201
G1 X109.5 Y91.589 E.02103
G1 X140.5 Y91.589 E.97198
G1 X141.165 Y91.676 E.02103
G1 X141.958 Y91.938 E.02619
G1 X143.006 Y92.71 E.04081
G1 X143.562 Y93.542 E.03138
G1 X143.824 Y94.335 E.02619
G1 X143.911 Y95 E.02103
G1 X143.911 Y104 E.28219
G1 X143.824 Y104.665 E.02103
G1 X143.636 Y105.278 E.0201
G1 X143.006 Y106.29 E.03738
G1 X131.79 Y117.506 E.49734
G1 X130.778 Y118.136 E.03738
G1 X130.165 Y118.324 E.0201
G1 X129.5 Y118.411 E.02103
G1 X120.5 Y118.411 E.28219
G1 X119.835 Y118.324 E.02103
G1 X119.042 Y118.062 E.02619
G1 X118.21 Y117.506 E.03138
G1 X106.994 Y106.29 E.49734
M73 P1 R18
G1 X106.364 Y105.278 E.03738
G1 X106.176 Y104.665 E.0201
G1 X106.089 Y104 E.02103
G1 X106.089 Y95 E.28219
G1 X106.176 Y94.335 E.02103
G1 X106.438 Y93.542 E.02619
G1 X106.961 Y92.76 E.0295
M204 S1000
G1 X107.261 Y92.977 F10800
M204 S800
G1 F1200
G1 X107.477 Y92.761 E.00958
G1 X108.367 Y92.212 E.03279
G1 X109.5 Y91.966 E.03635
G1 X140.5 Y91.966 E.97198
G1 X141.067 Y92.041 E.01793
G1 X141.814 Y92.287 E.02466
G1 X142.739 Y92.977 E.03618
G1 X143.213 Y93.686 E.02674
G1 X143.459 Y94.433 E.02466
G1 X143.534 Y95 E.01793
G1 X143.534 Y104 E.28219
G1 X143.288 Y105.133 E.03635
G1 X142.739 Y106.023 E.03279
G1 X131.523 Y117.239 E.49734
G1 X130.633 Y117.788 E.03279
G1 X129.5 Y118.034 E.03635
G1 X120.5 Y118.034 E.28219
G1 X119.933 Y117.959 E.01793
G1 X119.186 Y117.713 E.02466
G1 X118.477 Y117.239 E.02674
G1 X107.261 Y106.023 E.49734
G1 X106.712 Y105.133 E.03279
G1 X106.466 Y104 E.03635
G1 X106.466 Y95 E.28219
G1 X106.712 Y93.867 E.03635
G1 X107.229 Y93.028 E.0309
M204 S1000
;WIPE_START
G1 F8640
G1 X107.261 Y92.977 E-.0139
G1 X107.477 Y92.761 E-.07053
G1 X108.367 Y92.212 E-.24146
G1 X109.5 Y91.966 E-.26771
G1 X110.394 Y91.966 E-.2064
;WIPE_END
G1 Z.6 F720
; printing object peça.stl id:0 copy 0
G1 X129.301 Y103.809 F10800
G1 Z.2 F720
G1 E.8 F2100
M204 S800
;TYPE:Perimeter
;WIDTH:0.419999
G1 F1200
G1 X129.204 Y103.92 E.00462
G1 X129.131 Y104.197 E.00898
G1 X129.131 Y114.631 E.32715
G1 X120.869 Y114.631 E.25905
G1 X120.869 Y104.197 E.32715
G1 X120.859 Y104.093 E.00328
G1 X120.756 Y103.858 E.00804
G1 X120.569 Y103.698 E.00772
G1 X120.303 Y103.631 E.0086
G1 X109.869 Y103.631 E.32715
G1 X109.869 Y95.369 E.25905
G1 X140.131 Y95.369 E.94884
G1 X140.131 Y103.631 E.25905
M73 P2 R17
G1 X129.697 Y103.631 E.32715
G1 X129.603 Y103.639 E.00296
G1 X129.358 Y103.744 E.00836
G1 X129.341 Y103.764 E.00082
M204 S1000
G1 X129.341 Y103.764 F10800
G1 X129.596 Y104.051
M204 S800
;TYPE:External perimeter
G1 F1200
G1 X129.563 Y104.064 E.00111
G1 X129.508 Y104.197 E.00451
G1 X129.508 Y114.863 E.33442
G1 X129.363 Y115.008 E.00643
G1 X120.637 Y115.008 E.2736
G1 X120.492 Y114.863 E.00643
G1 X120.492 Y104.197 E.33442
G1 X120.437 Y104.064 E.00451
G1 X120.303 Y104.008 E.00455
G1 X109.637 Y104.008 E.33442
G1 X109.492 Y103.863 E.00643
G1 X109.492 Y95.137 E.2736
G1 X109.637 Y94.992 E.00643
G1 X140.363 Y94.992 E.96339
G1 X140.508 Y95.137 E.00643
G1 X140.508 Y95.241 E.00326
G1 X140.508 Y103.863 E.27034
G1 X140.363 Y104.008 E.00643
G1 X129.697 Y104.008 E.33442
G1 X129.651 Y104.027 E.00156
M204 S1000
;WIPE_START
G1 F8640
G1 X129.596 Y104.051 E-.01386
G1 X129.563 Y104.064 E-.00819
G1 X129.508 Y104.197 E-.03323
G1 X129.508 Y107.422 E-.74472
;WIPE_END
G1 Z.6 F720
G1 X140.018 Y96.25 F10800
G1 Z.2 F720
G1 E.8 F2100
M204 S800
;TYPE:Solid infill
;WIDTH:0.422849
G1 F1200
G1 X139.42 Y95.651 E.02674
G1 X138.882 Y95.651 E.017
G1 X139.849 Y96.618 E.0432
G1 X139.849 Y97.155 E.01696
G1 X138.345 Y95.651 E.06719
G1 X137.808 Y95.651 E.01696
G1 X139.849 Y97.692 E.09119
G1 X139.849 Y98.23 E.017
G1 X137.27 Y95.651 E.11522
G1 X136.733 Y95.651 E.01696
G1 X139.849 Y98.767 E.13921
G1 X139.849 Y99.304 E.01696
G1 X136.196 Y95.651 E.1632
G1 X135.659 Y95.651 E.01696
G1 X139.849 Y99.841 E.1872
G1 X139.849 Y100.379 E.017
G1 X135.121 Y95.651 E.21123
G1 X134.584 Y95.651 E.01696
G1 X139.849 Y100.916 E.23522
G1 X139.849 Y101.453 E.01696
G1 X134.047 Y95.651 E.25921
G1 X133.509 Y95.651 E.017
G1 X139.849 Y101.991 E.28325
G1 X139.849 Y102.528 E.01696
G1 X132.972 Y95.651 E.30724
G1 X132.435 Y95.651 E.01696
G1 X139.849 Y103.065 E.33123
G1 X139.849 Y103.349 E.00897
M73 P3 R17
G1 X139.595 Y103.349 E.00802
G1 X131.897 Y95.651 E.34392
G1 X131.36 Y95.651 E.01696
G1 X139.057 Y103.349 E.3439
G1 X138.52 Y103.349 E.01696
G1 X130.823 Y95.651 E.3439
G1 X130.285 Y95.651 E.017
G1 X137.983 Y103.349 E.34392
G1 X137.445 Y103.349 E.017
G1 X129.748 Y95.651 E.3439
G1 X129.211 Y95.651 E.01696
G1 X136.908 Y103.349 E.3439
G1 X136.371 Y103.349 E.01696
G1 X128.674 Y95.651 E.3439
G1 X128.136 Y95.651 E.017
G1 X135.833 Y103.349 E.3439
G1 X135.296 Y103.349 E.01696
G1 X127.599 Y95.651 E.3439
G1 X127.062 Y95.651 E.01696
G1 X134.759 Y103.349 E.3439
G1 X134.221 Y103.349 E.017
G1 X126.524 Y95.651 E.3439
G1 X125.987 Y95.651 E.01696
G1 X133.684 Y103.349 E.3439
G1 X133.147 Y103.349 E.01696
G1 X125.45 Y95.651 E.3439
G1 X124.912 Y95.651 E.017
G1 X132.61 Y103.349 E.34392
G1 X132.072 Y103.349 E.017
G1 X124.375 Y95.651 E.3439
G1 X123.838 Y95.651 E.01696
G1 X131.535 Y103.349 E.3439
G1 X130.998 Y103.349 E.01696
G1 X123.301 Y95.651 E.3439
G1 X122.763 Y95.651 E.017
G1 X130.46 Y103.349 E.3439
G1 X129.923 Y103.349 E.01696
G1 X122.226 Y95.651 E.3439
G1 X121.689 Y95.651 E.01696
M73 P4 R17
G1 X129.437 Y103.399 E.34616
G1 X129.298 Y103.447 E.00465
G1 X129.097 Y103.597 E.00792
G1 X121.151 Y95.651 E.355
G1 X120.614 Y95.651 E.01696
G1 X128.899 Y103.937 E.37017
G1 X128.863 Y104.037 E.00336
G1 X128.849 Y104.423 E.0122
G1 X120.077 Y95.651 E.3919
G1 X119.539 Y95.651 E.017
G1 X128.849 Y104.961 E.41594
G1 X128.849 Y105.498 E.01696
G1 X119.002 Y95.651 E.43993
G1 X118.465 Y95.651 E.01696
G1 X128.849 Y106.035 E.46392
G1 X128.849 Y106.572 E.01696
G1 X117.928 Y95.651 E.48791
G1 X117.39 Y95.651 E.017
G1 X128.849 Y107.11 E.51195
G1 X128.849 Y107.647 E.01696
G1 X116.853 Y95.651 E.53594
G1 X116.316 Y95.651 E.01696
G1 X128.849 Y108.184 E.55993
G1 X128.849 Y108.722 E.017
G1 X115.778 Y95.651 E.58397
G1 X115.241 Y95.651 E.01696
G1 X128.849 Y109.259 E.60796
G1 X128.849 Y109.796 E.01696
G1 X114.704 Y95.651 E.63195
G1 X114.166 Y95.651 E.017
M73 P5 R17
G1 X128.849 Y110.334 E.65599
G1 X128.849 Y110.871 E.01696
G1 X113.629 Y95.651 E.67998
G1 X113.092 Y95.651 E.01696
G1 X128.849 Y111.408 E.70397
G1 X128.849 Y111.945 E.01696
G1 X121.151 Y104.248 E.3439
G1 X121.137 Y104.037 E.00668
G1 X121.044 Y103.782 E.00857
G1 X120.906 Y103.598 E.00727
G1 X120.702 Y103.447 E.00802
G1 X120.453 Y103.361 E.00832
G1 X120.252 Y103.349 E.00636
G1 X112.555 Y95.651 E.3439
G1 X112.017 Y95.651 E.017
G1 X119.714 Y103.349 E.3439
G1 X119.177 Y103.349 E.01696
G1 X111.48 Y95.651 E.3439
G1 X110.943 Y95.651 E.01696
G1 X118.64 Y103.349 E.3439
G1 X118.102 Y103.349 E.017
G1 X110.405 Y95.651 E.3439
G1 X110.151 Y95.651 E.00802
G1 X110.151 Y95.935 E.00897
G1 X117.565 Y103.349 E.33123
G1 X117.028 Y103.349 E.01696
G1 X110.151 Y96.472 E.30724
G1 X110.151 Y97.009 E.01696
G1 X116.491 Y103.349 E.28325
G1 X115.953 Y103.349 E.017
G1 X110.151 Y97.547 E.25921
G1 X110.151 Y98.084 E.01696
G1 X115.416 Y103.349 E.23522
G1 X114.879 Y103.349 E.01696
G1 X110.151 Y98.621 E.21123
G1 X110.151 Y99.159 E.017
G1 X114.341 Y103.349 E.1872
G1 X113.804 Y103.349 E.01696
G1 X110.151 Y99.696 E.1632
G1 X110.151 Y100.233 E.01696
G1 X113.267 Y103.349 E.13921
G1 X112.729 Y103.349 E.017
G1 X110.151 Y100.771 E.11518
M73 P6 R17
G1 X110.151 Y101.308 E.01696
G1 X112.192 Y103.349 E.09119
G1 X111.655 Y103.349 E.01696
G1 X110.151 Y101.845 E.06719
G1 X110.151 Y102.382 E.01696
G1 X111.118 Y103.349 E.0432
G1 X110.58 Y103.349 E.017
G1 X109.982 Y102.75 E.02674
M204 S1000
;WIPE_START
G1 F8640
G1 X110.58 Y103.349 E-.19544
G1 X111.118 Y103.349 E-.12423
G1 X110.151 Y102.382 E-.31577
G1 X110.151 Y101.845 E-.12399
G1 X110.275 Y101.969 E-.04057
;WIPE_END
G1 Z.6 F720
G1 X120.982 Y104.616 F10800
G1 Z.2 F720
G1 E.8 F2100
M204 S800
G1 F1200
G1 X128.849 Y112.483 E.35147
G1 X128.849 Y113.02 E.01696
G1 X121.151 Y105.323 E.3439
G1 X121.151 Y105.86 E.01696
G1 X128.849 Y113.557 E.3439
G1 X128.849 Y114.095 E.017
G1 X121.151 Y106.398 E.3439
G1 X121.151 Y106.935 E.01696
G1 X128.565 Y114.349 E.33123
G1 X128.028 Y114.349 E.01696
G1 X121.151 Y107.472 E.30724
G1 X121.151 Y108.009 E.01696
G1 X127.491 Y114.349 E.28325
G1 X126.953 Y114.349 E.017
G1 X121.151 Y108.547 E.25921
G1 X121.151 Y109.084 E.01696
G1 X126.416 Y114.349 E.23522
G1 X125.879 Y114.349 E.01696
G1 X121.151 Y109.621 E.21123
G1 X121.151 Y110.159 E.017
G1 X125.341 Y114.349 E.1872
G1 X124.804 Y114.349 E.01696
G1 X121.151 Y110.696 E.1632
G1 X121.151 Y111.233 E.01696
G1 X124.267 Y114.349 E.13921
G1 X123.729 Y114.349 E.017
G1 X121.151 Y111.771 E.11518
G1 X121.151 Y112.308 E.01696
G1 X123.192 Y114.349 E.09119
G1 X122.655 Y114.349 E.01696
G1 X121.151 Y112.845 E.06719
G1 X121.151 Y113.382 E.01696
G1 X122.118 Y114.349 E.0432
G1 X121.58 Y114.349 E.017
G1 X120.982 Y113.75 E.02674
M204 S1000
M106 S84.15
;LAYER_CHANGE
;Z:0.4
;HEIGHT:0.2
;BEFORE_LAYER_CHANGE
G92 E0.0
;0.4


;WIPE_START
G1 F8640
G1 X121.58 Y114.349 E-.19544
G1 X122.118 Y114.349 E-.12423
G1 X121.151 Y113.382 E-.31577
G1 X121.151 Y112.845 E-.12399
G1 X121.275 Y112.969 E-.04057
;WIPE_END
G1 Z.4 F720
;AFTER_LAYER_CHANGE
;0.4
;CURRENT_Z: 0.4
M104 S210 ; set temperature
; stop printing object peça.stl id:0 copy 0
G1 Z.8
G1 X117.474 Y116.77 F10800
G1 Z.4 F720
G1 E.8 F2100
;TYPE:Skirt/Brim
;WIDTH:0.42
G1 F3000
G1 X106.994 Y106.29 E.4647
G1 X106.364 Y105.278 E.03738
G1 X106.176 Y104.665 E.0201
G1 X106.089 Y104 E.02103
G1 X106.089 Y95 E.28219
G1 X106.176 Y94.335 E.02103
G1 X106.438 Y93.542 E.02619
G1 X106.994 Y92.71 E.03138
G1 X107.21 Y92.494 E.00958
G1 X108.222 Y91.864 E.03738
G1 X108.835 Y91.676 E.0201
G1 X109.5 Y91.589 E.02103
G1 X140.5 Y91.589 E.97198
G1 X141.165 Y91.676 E.02103
G1 X141.958 Y91.938 E.02619
G1 X143.006 Y92.71 E.04081
G1 X143.562 Y93.542 E.03138
G1 X143.824 Y94.335 E.02619
G1 X143.911 Y95 E.02103
G1 X143.911 Y104 E.28219
G1 X143.824 Y104.665 E.02103
G1 X143.636 Y105.278 E.0201
G1 X143.006 Y106.29 E.03738
G1 X131.79 Y117.506 E.49734
G1 X130.778 Y118.136 E.03738
G1 X130.165 Y118.324 E.0201
G1 X129.5 Y118.411 E.02103
G1 X120.5 Y118.411 E.28219
G1 X119.835 Y118.324 E.02103
G1 X119.042 Y118.062 E.02619
G1 X118.21 Y117.506 E.03138
G1 X117.517 Y116.812 E.03075
G1 X117.517 Y116.812 F10800
G1 X117.783 Y116.546
G1 F3000
G1 X107.261 Y106.023 E.46659
G1 X106.712 Y105.133 E.03279
G1 X106.466 Y104 E.03635
G1 X106.466 Y95 E.28219
G1 X106.712 Y93.867 E.03635
M73 P7 R17
G1 X107.261 Y92.977 E.03279
G1 X107.477 Y92.761 E.00958
G1 X108.367 Y92.212 E.03279
G1 X109.5 Y91.966 E.03635
G1 X140.5 Y91.966 E.97198
G1 X141.067 Y92.041 E.01793
G1 X141.814 Y92.287 E.02466
G1 X142.739 Y92.977 E.03618
G1 X143.213 Y93.686 E.02674
G1 X143.459 Y94.433 E.02466
G1 X143.534 Y95 E.01793
G1 X143.534 Y104 E.28219
G1 X143.288 Y105.133 E.03635
G1 X142.739 Y106.023 E.03279
G1 X131.523 Y117.239 E.49734
G1 X130.633 Y117.788 E.03279
G1 X129.5 Y118.034 E.03635
G1 X120.5 Y118.034 E.28219
G1 X119.933 Y117.959 E.01793
G1 X119.186 Y117.713 E.02466
G1 X118.477 Y117.239 E.02674
G1 X117.826 Y116.588 E.02887
;WIPE_START
G1 F8640
G1 X117.783 Y116.546 E-.01388
G1 X115.376 Y114.139 E-.78612
;WIPE_END
G1 Z.8 F720
; printing object peça.stl id:0 copy 0
G1 X129.768 Y104.269 F10800
G1 Z.4 F720
G1 E.8 F2100
M204 S800
;TYPE:Perimeter
;WIDTH:0.449999
G1 F3000
G1 X129.644 Y104.418 E.00656
G1 X129.58 Y104.691 E.00949
G1 X129.58 Y114.825 E.34302
G1 X129.521 Y115.018 E.00683
G1 X129.382 Y115.077 E.00511
G1 X120.68 Y115.08 E.29455
G1 X120.479 Y115.017 E.00713
G1 X120.42 Y114.875 E.0052
G1 X120.42 Y104.691 E.34472
G1 X120.402 Y104.542 E.00508
G1 X120.298 Y104.324 E.00818
G1 X120.097 Y104.152 E.00895
G1 X119.809 Y104.08 E.01005
G1 X109.675 Y104.08 E.34302
G1 X109.482 Y104.021 E.00683
G1 X109.423 Y103.882 E.00511
G1 X109.42 Y95.175 E.29472
G1 X109.479 Y94.982 E.00683
G1 X109.618 Y94.923 E.00511
G1 X140.328 Y94.923 E1.0395
G1 X140.521 Y94.982 E.00683
G1 X140.58 Y95.175 E.00683
G1 X140.58 Y103.82 E.29262
G1 X140.521 Y104.017 E.00696
G1 X140.373 Y104.08 E.00544
G1 X130.191 Y104.08 E.34465
G1 X130.089 Y104.088 E.00346
G1 X129.824 Y104.202 E.00976
G1 X129.807 Y104.223 E.00091
M204 S1000
G1 X129.807 Y104.223 F10800
G1 X130.053 Y104.544
M204 S800
;TYPE:External perimeter
G1 F2400
G1 X130.046 Y104.547 E.00026
G1 X129.987 Y104.691 E.00527
G1 X129.987 Y114.956 E.34746
G1 X129.834 Y115.328 E.01362
M73 P7 R16
G1 X129.465 Y115.484 E.01356
G1 X120.545 Y115.487 E.30193
G1 X120.166 Y115.328 E.01391
G1 X120.013 Y114.956 E.01362
G1 X120.013 Y104.691 E.34746
G1 X119.954 Y104.547 E.00527
G1 X119.809 Y104.487 E.00531
G1 X109.544 Y104.487 E.34746
G1 X109.172 Y104.334 E.01362
G1 X109.016 Y103.965 E.01356
G1 X109.013 Y95.044 E.30196
G1 X109.166 Y94.672 E.01362
G1 X109.535 Y94.516 E.01356
G1 X140.465 Y94.516 E1.04694
G1 X140.834 Y94.672 E.01356
G1 X140.987 Y95.044 E.01362
G1 X140.987 Y95.175 E.00443
G1 X140.987 Y103.956 E.29723
G1 X140.834 Y104.328 E.01362
G1 X140.455 Y104.487 E.01391
G1 X130.191 Y104.487 E.34742
G1 X130.108 Y104.521 E.00304
M204 S1000
;WIPE_START
G1 F8640
G1 X130.053 Y104.544 E-.01377
G1 X130.046 Y104.547 E-.00176
G1 X129.987 Y104.691 E-.03593
G1 X129.987 Y107.933 E-.74854
;WIPE_END
G1 Z.8 F720
G1 X109.848 Y95.271 F10800
G1 Z.4 F720
G1 E.8 F2100
M204 S2000
;TYPE:Solid infill
;WIDTH:0.549262
G1 F3000
G1 X109.803 Y95.226 E.00268
G1 X109.742 Y95.243 E.00267
G1 X109.726 Y95.304 E.00266
G1 X109.77 Y95.349 E.00265
G1 X109.831 Y95.332 E.00267
;WIDTH:0.449999
G1 X109.736 Y95.984 E.0223
G1 X110.484 Y95.236 E.03581
G1 X111.061 Y95.235 E.01953
G1 X109.736 Y96.56 E.06343
G1 X109.735 Y97.136 E.0195
G1 X111.638 Y95.234 E.09107
G1 X112.215 Y95.232 E.01953
G1 X109.735 Y97.713 E.11874
G1 X109.734 Y98.289 E.0195
G1 X112.792 Y95.231 E.14638
G1 X113.369 Y95.23 E.01953
G1 X109.733 Y98.865 E.17403
G1 X109.733 Y99.442 E.01953
G1 X113.946 Y95.228 E.2017
G1 X114.522 Y95.228 E.0195
G1 X109.732 Y100.018 E.22929
G1 X109.732 Y100.594 E.0195
G1 X115.098 Y95.228 E.25687
G1 X115.673 Y95.228 E.01946
G1 X109.731 Y101.171 E.28446
G1 X109.73 Y101.747 E.0195
G1 X116.249 Y95.228 E.31206
G1 X116.825 Y95.228 E.0195
G1 X109.73 Y102.323 E.33963
G1 X109.729 Y102.899 E.0195
G1 X117.4 Y95.228 E.36721
G1 X117.976 Y95.228 E.0195
G1 X109.728 Y103.476 E.39483
G1 X109.707 Y103.662 E.00634
;WIDTH:0.41646
G1 X109.685 Y103.848 E.00582
;WIDTH:0.38292
G1 X109.614 Y103.829 E.00208
G1 X109.633 Y103.9 E.00208
G1 X109.674 Y103.889 E.0012
;WIDTH:0.449999
G1 X110.005 Y103.775 E.01185
