; generated by PrusaSlicer 2.6.0-alpha6+linux-x64-GTK3 on 2023-05-08 at 03:33:31 UTC

; 

; external perimeters extrusion width = 0.60mm
; perimeters extrusion width = 0.43mm
; infill extrusion width = 0.45mm
; solid infill extrusion width = 0.70mm
; top infill extrusion width = 0.45mm
; first layer extrusion width = 0.42mm

M73 P0 R16
M201 X9000 Y9000 Z500 E10000 ; sets maximum accelerations, mm/sec^2
M203 X500 Y500 Z12 E120 ; sets maximum feedrates, mm / sec
M204 S2000 T1500 ; sets acceleration (S) and retract acceleration (R), mm/sec^2
M205 X10.00 Y10.00 Z0.20 E4.50 ; sets the jerk limits, mm/sec
M205 S0 T0 ; sets the minimum extruding and travel feed rate, mm/sec
;TYPE:Custom
M862.3 P "MK2.5" ; printer model check
M862.1 P0.4 ; nozzle diameter check
M115 U3.11.0 ; tell printer latest fw version
G90 ; use absolute coordinates
M83 ; extruder relative mode
M104 S215 ; set extruder temp
M140 S60 ; set bed temp
M190 S60 ; wait for bed temp
M109 S215 ; wait for extruder temp
G28 W ; home all without mesh bed level
G80 ; mesh bed leveling

G1 Z0.2 F720
G1 Y-3 F1000 ; go outside print area
G92 E0
G1 X60 E9 F1000 ; intro line
G1 X100 E12.5 F1000 ; intro line

G92 E0
G21 ; set units to millimeters
G90 ; use absolute coordinates
M83 ; use relative distances for extrusion
M900 K0.05 ; Filament gcode LA 1.5
M900 K30 ; Filament gcode LA 1.0
M107
;LAYER_CHANGE
;Z:0.2
;HEIGHT:0.2
;BEFORE_LAYER_CHANGE
G92 E0.0
;0.2


G1 E-.8 F2100
G1 Z.4 F720
;AFTER_LAYER_CHANGE
;0.2
;CURRENT_Z: 0.2
G1 X97.624 Y78.301 F10800
G1 Z.2 F720
G1 E.8 F2100
M204 S800
;TYPE:Skirt/Brim
;WIDTH:0.42
G1 F1200
G1 X98.67 Y77.425 E.04278
G1 X99.61 Y77.231 E.03009
G1 X150.41 Y77.231 E1.5928
G1 X151.717 Y77.623 E.04278
G1 X152.593 Y78.668 E.04275
G1 X152.787 Y79.608 E.03009
G1 X152.787 Y130.388 E1.59217
G1 X152.395 Y131.695 E.04278
M73 P1 R16
G1 X151.35 Y132.571 E.04275
G1 X150.41 Y132.765 E.03009
G1 X99.61 Y132.765 E1.5928
G1 X98.303 Y132.373 E.04278
G1 X97.426 Y131.328 E.04277
G1 X97.233 Y130.388 E.03009
G1 X97.233 Y79.608 E1.59217
G1 X97.607 Y78.358 E.04091
M204 S1000
; printing object E - AxoBlock Frame.stl id:0 copy 0
;WIPE_START
G1 F8640
G1 X98.67 Y77.425 E-.32658
G1 X99.61 Y77.231 E-.22162
G1 X100.701 Y77.231 E-.2518
;WIPE_END
G1 Z.6 F720
G1 X100.763 Y129.218 F10800
G1 Z.2 F720
G1 E.8 F2100
M204 S800
;TYPE:Perimeter
;WIDTH:0.419999
G1 F1200
G1 X100.763 Y122.766 E.2023
G1 X100.785 Y121.085 E.05271
G1 X100.785 Y80.764 E1.26423
G1 X149.215 Y80.783 E1.51849
M73 P2 R16
G1 X149.218 Y129.216 E1.51858
G1 X100.823 Y129.218 E1.51739
M204 S1000
G1 X100.386 Y129.595 F10800
M204 S800
;TYPE:External perimeter
G1 F1200
G1 X100.386 Y122.763 E.21421
G1 X100.408 Y121.088 E.05252
G1 X100.407 Y80.387 E1.27615
G1 X149.592 Y80.406 E1.54216
M73 P3 R16
G1 X149.595 Y129.593 E1.54222
G1 X100.446 Y129.595 E1.54103
M204 S1000
G1 X100.489 Y129.209 F10800
;WIPE_START
G1 F8640
G1 X100.416 Y126.13 E-.8
;WIPE_END
G1 Z.6 F720
G1 X104.994 Y125.002 F10800
G1 Z.2 F720
G1 E.8 F2100
M204 S800
;TYPE:Perimeter
G1 F1200
G1 X104.896 Y124.904 E.00435
G1 X104.817 Y124.615 E.00939
G1 X104.817 Y111.323 E.41676
G1 X104.857 Y111.113 E.0067
G1 X104.963 Y110.943 E.00628
G1 X105.975 Y109.825 E.04728
G1 X105.975 Y105.783 E.12673
G1 X106.035 Y105.528 E.00821
G1 X106.142 Y105.381 E.0057
;WIDTH:0.450381
G1 X106.54 Y105.202 E.01479
G1 X116.908 Y105.202 E.35127
G1 X117.344 Y105.423 E.01656
;WIDTH:0.419999
G1 X117.431 Y105.567 E.00528
G1 X119.475 Y110.521 E.16803
G1 X124.431 Y112.567 E.16811
M73 P4 R16
G1 X124.575 Y112.654 E.00528
;WIDTH:0.449381
G1 X124.796 Y113.09 E.01652
G1 X124.796 Y123.457 E.35038
G1 X124.617 Y123.856 E.01478
;WIDTH:0.419999
G1 X124.353 Y124.006 E.00952
G1 X124.215 Y124.023 E.00436
G1 X120.171 Y124.023 E.1268
G1 X119.053 Y125.035 E.04728
G1 X118.771 Y125.173 E.00984
G1 X118.673 Y125.181 E.00308
G1 X105.382 Y125.181 E.41673
G1 X105.091 Y125.1 E.00947
G1 X105.036 Y125.045 E.00244
M204 S1000
G1 X105.249 Y124.748 F10800
M204 S800
;TYPE:External perimeter
G1 F1200
G1 X105.194 Y124.615 E.00451
G1 X105.194 Y111.323 E.41676
G1 X105.243 Y111.196 E.00427
G1 X106.352 Y109.97 E.05183
G1 X106.352 Y105.783 E.13128
G1 X106.408 Y105.649 E.00455
G1 X106.54 Y105.594 E.00448
G1 X116.908 Y105.594 E.32508
G1 X117.082 Y105.711 E.00657
G1 X119.186 Y110.81 E.17295
G1 X124.287 Y112.916 E.17303
G1 X124.404 Y113.09 E.00657
G1 X124.404 Y123.457 E.32505
G1 X124.349 Y123.59 E.00451
G1 X124.215 Y123.646 E.00455
G1 X120.026 Y123.646 E.13134
G1 X118.8 Y124.755 E.05183
G1 X118.673 Y124.804 E.00427
G1 X105.382 Y124.804 E.41673
G1 X105.304 Y124.771 E.00266
M204 S1000
G1 X105.11 Y124.785 F10800
;WIPE_START
G1 F8640
G1 X105.194 Y124.615 E-.04408
G1 X105.194 Y121.341 E-.75592
;WIPE_END
G1 Z.6 F720
G1 X125.255 Y123.576 F10800
G1 Z.2 F720
G1 E.8 F2100
M204 S800
;TYPE:Perimeter
;WIDTH:0.449381
G1 F1200
G1 X125.202 Y123.457 E.0044
G1 X125.202 Y113.09 E.35038
G1 X125.422 Y112.654 E.01651
;WIDTH:0.419999
M73 P4 R15
G1 X125.567 Y112.567 E.0053
G1 X130.523 Y110.521 E.16811
G1 X132.567 Y105.567 E.16803
G1 X132.653 Y105.423 E.00526
;WIDTH:0.450381
G1 X133.09 Y105.202 E.01659
G1 X143.477 Y105.202 E.35192
G1 X143.875 Y105.38 E.01477
;WIDTH:0.419999
G1 X144.026 Y105.644 E.00954
G1 X144.043 Y105.783 E.00439
G1 X144.043 Y109.829 E.12686
G1 X145.038 Y110.948 E.04695
G1 X145.142 Y111.116 E.0062
G1 X145.181 Y111.324 E.00664
G1 X145.181 Y124.615 E.41673
G1 X145.101 Y124.906 E.00946
G1 X144.906 Y125.101 E.00865
G1 X144.615 Y125.181 E.00946
G1 X131.325 Y125.181 E.4167
G1 X131.115 Y125.141 E.0067
G1 X130.945 Y125.035 E.00628
G1 X129.827 Y124.023 E.04728
G1 X125.782 Y124.023 E.12683
G1 X125.528 Y123.963 E.00818
G1 X125.381 Y123.856 E.0057
;WIDTH:0.449381
G1 X125.28 Y123.631 E.00834
M204 S1000
G1 X125.594 Y123.457 F10800
M204 S800
;TYPE:External perimeter
;WIDTH:0.419999
G1 F1200
G1 X125.594 Y113.09 E.32505
G1 X125.711 Y112.916 E.00657
M73 P5 R15
G1 X130.812 Y110.81 E.17303
G1 X132.915 Y105.711 E.17294
G1 X133.09 Y105.594 E.0066
G1 X143.477 Y105.594 E.32568
G1 X143.61 Y105.648 E.0045
G1 X143.666 Y105.783 E.00458
G1 X143.666 Y109.972 E.13134
G1 X144.756 Y111.199 E.05146
G1 X144.804 Y111.324 E.0042
G1 X144.804 Y124.615 E.41673
G1 X144.749 Y124.749 E.00454
G1 X144.615 Y124.804 E.00454
G1 X131.325 Y124.804 E.4167
G1 X131.198 Y124.755 E.00427
G1 X129.972 Y123.646 E.05183
G1 X125.782 Y123.646 E.13137
G1 X125.649 Y123.59 E.00452
G1 X125.617 Y123.513 E.00261
M204 S1000
G1 X125.208 Y123.354 F10800
;WIPE_START
G1 F8640
G1 X125.609 Y120.048 E-.8
;WIPE_END
G1 Z.6 F720
G1 X145.003 Y84.993 F10800
G1 Z.2 F720
G1 E.8 F2100
M204 S800
;TYPE:Perimeter
G1 F1200
G1 X145.101 Y85.09 E.00432
G1 X145.181 Y85.381 E.00946
G1 X145.181 Y98.672 E.41673
G1 X145.142 Y98.88 E.00664
G1 X144.696 Y99.432 E.02225
G1 X144.043 Y100.167 E.03083
G1 X144.043 Y104.213 E.12686
G1 X143.982 Y104.469 E.00825
G1 X143.875 Y104.616 E.0057
;WIDTH:0.450381
G1 X143.477 Y104.794 E.01477
G1 X133.09 Y104.794 E.35192
G1 X132.653 Y104.573 E.01659
;WIDTH:0.419999
G1 X132.567 Y104.429 E.00526
G1 X130.523 Y99.475 E.16803
G1 X125.567 Y97.429 E.16811
G1 X125.422 Y97.342 E.0053
;WIDTH:0.449381
G1 X125.202 Y96.906 E.01651
G1 X125.202 Y86.539 E.35038
G1 X125.381 Y86.14 E.01478
;WIDTH:0.419999
G1 X125.645 Y85.99 E.00952
G1 X125.782 Y85.973 E.00433
G1 X129.827 Y85.973 E.12683
G1 X130.945 Y84.961 E.04728
G1 X131.227 Y84.823 E.00984
G1 X131.325 Y84.815 E.00308
G1 X144.616 Y84.815 E.41673
G1 X144.906 Y84.895 E.00943
G1 X144.961 Y84.95 E.00244
M204 S1000
G1 X144.749 Y85.247 F10800
M204 S800
;TYPE:External perimeter
G1 F1200
G1 X144.804 Y85.381 E.00454
G1 X144.804 Y98.672 E.41673
G1 X144.756 Y98.797 E.0042
G1 X143.666 Y100.024 E.05146
G1 X143.666 Y104.213 E.13134
G1 X143.61 Y104.348 E.00458
G1 X143.477 Y104.402 E.0045
G1 X133.09 Y104.402 E.32568
G1 X132.944 Y104.333 E.00506
G1 X130.812 Y99.186 E.17468
G1 X125.711 Y97.08 E.17303
G1 X125.595 Y96.923 E.00612
G1 X125.594 Y86.539 E.32558
G1 X125.698 Y86.37 E.00622
M73 P6 R15
G1 X125.782 Y86.35 E.00271
G1 X129.972 Y86.35 E.13137
G1 X131.198 Y85.241 E.05183
G1 X131.325 Y85.192 E.00427
G1 X144.615 Y85.192 E.4167
G1 X144.693 Y85.224 E.00264
M204 S1000
G1 X144.888 Y85.21 F10800
;WIPE_START
G1 F8640
G1 X144.804 Y85.381 E-.0444
G1 X144.804 Y88.653 E-.7556
;WIPE_END
G1 Z.6 F720
G1 X104.996 Y84.992 F10800
G1 Z.2 F720
G1 E.8 F2100
M204 S800
;TYPE:Perimeter
G1 F1200
G1 X105.094 Y84.894 E.00435
G1 X105.382 Y84.815 E.00936
G1 X118.673 Y84.815 E.41673
G1 X118.883 Y84.855 E.0067
G1 X119.053 Y84.961 E.00628
G1 X120.171 Y85.973 E.04728
G1 X124.216 Y85.973 E.12683
G1 X124.469 Y86.033 E.00815
G1 X124.616 Y86.14 E.0057
;WIDTH:0.449381
G1 X124.796 Y86.539 E.01479
G1 X124.796 Y96.906 E.35038
G1 X124.575 Y97.342 E.01652
;WIDTH:0.419999
G1 X124.431 Y97.429 E.00528
G1 X119.475 Y99.475 E.16811
G1 X117.431 Y104.429 E.16803
G1 X117.344 Y104.573 E.00528
;WIDTH:0.450381
G1 X116.908 Y104.794 E.01656
G1 X106.54 Y104.794 E.35127
G1 X106.142 Y104.615 E.01479
;WIDTH:0.419999
G1 X105.992 Y104.352 E.00949
G1 X105.975 Y104.213 E.00439
G1 X105.975 Y100.171 E.12673
G1 X104.963 Y99.053 E.04728
G1 X104.825 Y98.771 E.00984
G1 X104.817 Y98.673 E.00308
G1 X104.817 Y85.381 E.41676
G1 X104.898 Y85.089 E.0095
G1 X104.953 Y85.034 E.00244
M204 S1000
G1 X105.25 Y85.247 F10800
M204 S800
;TYPE:External perimeter
G1 F1200
G1 X105.382 Y85.192 E.00448
G1 X118.673 Y85.192 E.41673
G1 X118.8 Y85.241 E.00427
G1 X120.026 Y86.35 E.05183
G1 X124.215 Y86.35 E.13134
G1 X124.349 Y86.406 E.00455
G1 X124.404 Y86.539 E.00451
G1 X124.404 Y96.906 E.32505
G1 X124.335 Y97.052 E.00506
G1 X119.186 Y99.186 E.17476
G1 X117.082 Y104.285 E.17295
G1 X116.908 Y104.402 E.00657
G1 X106.54 Y104.402 E.32508
G1 X106.408 Y104.347 E.00448
G1 X106.352 Y104.213 E.00455
G1 X106.352 Y100.026 E.13128
G1 X105.243 Y98.8 E.05183
G1 X105.194 Y98.673 E.00427
G1 X105.194 Y85.381 E.41676
G1 X105.227 Y85.302 E.00268
M204 S1000
G1 X105.213 Y85.108 F10800
;WIPE_START
G1 F8640
G1 X105.382 Y85.192 E-.04389
G1 X108.657 Y85.192 E-.75611
;WIPE_END
G1 Z.6 F720
G1 X103.906 Y87.75 F10800
G1 Z.2 F720
G1 E.8 F2100
M204 S800
;TYPE:Internal infill
;WIDTH:0.42
G1 F1200
G1 X101.886 Y87.51 E.06378
G1 X101.774 Y85.688 E.05724
M204 S1000
;WIPE_START
G1 F8640
G1 X101.886 Y87.51 E-.4215
G1 X103.514 Y87.703 E-.3785
;WIPE_END
G1 Z.6 F720
G1 X104.005 Y97.744 F10800
G1 Z.2 F720
M73 P7 R15
G1 E.8 F2100
M204 S800
G1 F1200
G1 X102.055 Y99.636 E.08519
G1 X101.737 Y99.523 E.01058
M204 S1000
G1 X102.085 Y99.821 F10800
M204 S800
G1 F1200
G1 X102.187 Y100.461 E.02032
M204 S1000
;WIPE_START
G1 F8640
G1 X102.085 Y99.821 E-.14964
;WIPE_END
G1 E-.65036 F2100
G1 Z.6 F720
G1 X101.067 Y101.96 F10800
G1 Z.2 F720
G1 E.8 F2100
M204 S800
G1 F1200
G1 X101.066 Y99.46 E.07839
G1 X101.561 Y99.46 E.01552
G1 X102.407 Y95.601 E.12387
G1 X102.439 Y93.72 E.05899
M204 S1000
;WIPE_START
G1 F8640
G1 X102.407 Y95.601 E-.43439
G1 X102.068 Y97.148 E-.36561
;WIPE_END
G1 Z.6 F720
G1 X103.987 Y91.651 F10800
G1 Z.2 F720
G1 E.8 F2100
M204 S800
G1 F1200
G1 X102.326 Y89.856 E.07668
G1 X101.816 Y85.649 E.13287
G1 X101.763 Y85.501 E.00493
G1 X101.478 Y85.229 E.01235
G1 X101.066 Y85.229 E.01292
G1 X101.066 Y81.046 E.13116
G1 X105.018 Y81.048 E.12391
G1 X105.018 Y82.185 E.03565
G1 X106.296 Y83.392 E.05512
G1 X107.141 Y82.36 E.04182
G1 X108.862 Y83.776 E.06988
M204 S1000
;WIPE_START
G1 F8640
G1 X107.141 Y82.36 E-.5146
G1 X106.358 Y83.316 E-.2854
;WIPE_END
G1 Z.6 F720
G1 X109.838 Y81.111 F10800
G1 Z.2 F720
G1 E.8 F2100
M204 S800
G1 F1200
G1 X111.579 Y81.691 E.05754
M204 S1000
;WIPE_START
G1 F8640
G1 X109.838 Y81.111 E-.42372
;WIPE_END
G1 E-.37628 F2100
G1 Z.6 F720
G1 X112.743 Y84.053 F10800
G1 Z.2 F720
G1 E.8 F2100
M204 S800
G1 F1200
G1 X111.757 Y81.751 E.07852
G1 X114.756 Y81.749 E.09403
G1 X114.757 Y81.051 E.02189
G1 X117.257 Y81.052 E.07839
M204 S1000
;WIPE_START
G1 F8640
G1 X114.757 Y81.051 E-.57726
G1 X114.756 Y81.749 E-.16117
G1 X114.489 Y81.749 E-.06157
;WIPE_END
G1 Z.6 F720
G1 X117.888 Y82.074 F10800
G1 Z.2 F720
G1 E.8 F2100
M204 S800
G1 F1200
G1 X118.124 Y82.654 E.01963
G1 X115.97 Y84.036 E.08024
G1 X114.844 Y81.915 E.07529
M204 S1000
;WIPE_START
G1 F8640
G1 X115.97 Y84.036 E-.55448
G1 X116.865 Y83.462 E-.24552
;WIPE_END
G1 Z.6 F720
G1 X125.05 Y83.638 F10800
G1 Z.2 F720
G1 E.8 F2100
M204 S800
G1 F1200
G1 X125.108 Y83.704 E.00275
G1 X126.776 Y84.901 E.06437
G1 X126.778 Y85.699 E.02502
G1 X129.278 Y85.693 E.07839
M204 S1000
;WIPE_START
G1 F8640
G1 X126.778 Y85.699 E-.57726
G1 X126.776 Y84.901 E-.18426
G1 X126.641 Y84.804 E-.03848
;WIPE_END
G1 Z.6 F720
G1 X130.534 Y81.33 F10800
G1 Z.2 F720
G1 E.8 F2100
M204 S800
G1 F1200
G1 X130.582 Y81.314 E.00159
G1 X131.73 Y82.578 E.05354
G1 X132.075 Y82.742 E.01198
G1 X133.501 Y84.025 E.06014
G1 X139.299 Y84.093 E.1818
G1 X139.14 Y81.186 E.09128
M204 S1000
;WIPE_START
G1 F8640
G1 X139.299 Y84.093 E-.67224
G1 X138.746 Y84.087 E-.12776
;WIPE_END
G1 Z.6 F720
G1 X142.398 Y81.226 F10800
G1 Z.2 F720
G1 E.8 F2100
M204 S800
G1 F1200
G1 X143.502 Y82.164 E.04542
M204 S1000
;WIPE_START
G1 F8640
G1 X142.398 Y81.226 E-.3345
;WIPE_END
G1 E-.4655 F2100
G1 Z.6 F720
G1 X142.674 Y84.068 F10800
G1 Z.2 F720
G1 E.8 F2100
M204 S800
G1 F1200
G1 X143.645 Y82.285 E.06366
G1 X143.699 Y82.153 E.00447
G1 X144.413 Y81.062 E.04088
G1 X148.933 Y81.064 E.14172
G1 X148.933 Y84.932 E.12128
G1 X147.671 Y84.932 E.03957
G1 X146.351 Y85.834 E.05013
M204 S1000
;WIPE_START
G1 F8640
G1 X147.671 Y84.932 E-.36916
G1 X148.933 Y84.932 E-.2914
G1 X148.933 Y84.328 E-.13944
;WIPE_END
G1 Z.6 F720
G1 X147.767 Y85.093 F10800
G1 Z.2 F720
G1 E.8 F2100
M204 S800
G1 F1200
G1 X148.577 Y86.452 E.04961
G1 X147.36 Y90.026 E.11838
G1 X147.064 Y88.47 E.04966
M204 S1000
;WIPE_START
G1 F8640
G1 X147.36 Y90.026 E-.36573
G1 X147.966 Y88.246 E-.43427
;WIPE_END
G1 Z.6 F720
G1 X148.616 Y94.353 F10800
G1 Z.2 F720
G1 E.8 F2100
M204 S800
G1 F1200
G1 X146.257 Y96.374 E.0974
G1 X146.61 Y97.712 E.04339
M204 S1000
G1 X147.005 Y98.291 F10800
M204 S800
G1 F1200
G1 X148.28 Y99.646 E.05834
M204 S1000
;WIPE_START
G1 F8640
G1 X147.005 Y98.291 E-.42961
;WIPE_END
G1 E-.37039 F2100
G1 Z.6 F720
G1 X148.157 Y98.229 F10800
G1 Z.2 F720
G1 E.8 F2100
M204 S800
G1 F1200
G1 X146.876 Y98.154 E.04023
G1 X146.657 Y97.893 E.01068
M73 P8 R15
G1 X145.463 Y97.893 E.03744
G1 X145.463 Y95.393 E.07839
M204 S1000
;WIPE_START
G1 F8640
G1 X145.463 Y97.893 E-.57726
G1 X146.428 Y97.893 E-.22274
;WIPE_END
G1 Z.6 F720
G1 X145.939 Y94.47 F10800
G1 Z.2 F720
G1 E.8 F2100
M204 S800
G1 F1200
G1 X146.226 Y96.189 E.05464
M204 S1000
;WIPE_START
G1 F8640
G1 X145.939 Y94.47 E-.40242
;WIPE_END
G1 E-.39758 F2100
G1 Z.6 F720
G1 X147.828 Y104.837 F10800
G1 Z.2 F720
G1 E.8 F2100
M204 S800
G1 F1200
G1 X147.469 Y111.055 E.19529
G1 X148.785 Y111.574 E.04436
G1 X148.935 Y111.574 E.0047
G1 X148.935 Y109.074 E.07839
M204 S1000
;WIPE_START
G1 F8640
G1 X148.935 Y111.574 E-.57726
G1 X148.785 Y111.574 E-.03464
G1 X148.027 Y111.275 E-.1881
;WIPE_END
G1 Z.6 F720
G1 X147.518 Y111.236 F10800
G1 Z.2 F720
G1 E.8 F2100
M204 S800
G1 F1200
G1 X147.638 Y111.68 E.01442
G1 X146.969 Y113.531 E.06171
G1 X148.612 Y115.276 E.07515
M204 S1000
;WIPE_START
G1 F8640
G1 X146.969 Y113.531 E-.55342
G1 X147.332 Y112.527 E-.24658
;WIPE_END
G1 Z.6 F720
G1 X147.064 Y117.345 F10800
G1 Z.2 F720
G1 E.8 F2100
M204 S800
G1 F1200
G1 X147.033 Y119.219 E.05877
G1 X147.408 Y121.469 E.07152
G1 X146.718 Y124.415 E.09487
G1 X144.909 Y127.264 E.10581
G1 X144.571 Y127.895 E.02244
G1 X144.623 Y128.676 E.02454
G1 X142.449 Y128.655 E.06817
G1 X140.632 Y127.498 E.06754
G1 X138.526 Y125.746 E.08589
M204 S1000
;WIPE_START
G1 F8640
G1 X140.632 Y127.498 E-.63255
G1 X141.244 Y127.888 E-.16745
;WIPE_END
G1 Z.6 F720
G1 X135.882 Y125.463 F10800
G1 Z.2 F720
G1 E.8 F2100
M204 S800
G1 F1200
G1 X138.382 Y125.463 E.07839
G1 X138.382 Y125.626 E.00511
G1 X138.718 Y128.652 E.09546
M204 S1000
;WIPE_START
G1 F8640
G1 X138.382 Y125.626 E-.70301
G1 X138.382 Y125.463 E-.03764
G1 X138.125 Y125.463 E-.05935
;WIPE_END
G1 Z.6 F720
G1 X140.8 Y127.415 F10800
G1 Z.2 F720
G1 E.8 F2100
M204 S800
G1 F1200
G1 X142.568 Y126.532 E.06196
M204 S1000
;WIPE_START
G1 F8640
G1 X140.8 Y127.415 E-.45632
;WIPE_END
G1 E-.34368 F2100
G1 Z.6 F720
G1 X146.623 Y124.253 F10800
G1 Z.2 F720
G1 E.8 F2100
