; generated by PrusaSlicer 2.8.0 on 2024-09-21 at 14:29:23 UTC

; 

; external perimeters extrusion width = 0.60mm
; perimeters extrusion width = 0.43mm
; infill extrusion width = 0.45mm
; solid infill extrusion width = 0.70mm
; top infill extrusion width = 0.45mm
; first layer extrusion width = 0.42mm

M73 P0 R17
M201 X9000 Y9000 Z500 E10000 ; sets maximum accelerations, mm/sec^2
M203 X500 Y500 Z12 E120 ; sets maximum feedrates, mm / sec
M204 S2000 T1500 ; sets acceleration (S) and retract acceleration (R), mm/sec^2
M205 X10.00 Y10.00 Z0.20 E4.50 ; sets the jerk limits, mm/sec
M205 S0 T0 ; sets the minimum extruding and travel feed rate, mm/sec

; printing object E - AxoBlock Frame.stl id:0 copy 0
; stop printing object E - AxoBlock Frame.stl id:0 copy 0

;TYPE:Custom
M862.3 P "MK2.5" ; printer model check
M862.1 P0.4 ; nozzle diameter check
M115 U3.11.0 ; tell printer latest fw version
G90 ; use absolute coordinates
M83 ; extruder relative mode
M104 S215 ; set extruder temp
M140 S60 ; set bed temp
M190 S60 ; wait for bed temp
M109 S215 ; wait for extruder temp
G28 W ; home all without mesh bed level
G80 ; mesh bed leveling

G1 Z0.2 F720
G1 Y-3 F1000 ; go outside print area
G92 E0
G1 X60 E9 F1000 ; intro line
G1 X100 E12.5 F1000 ; intro line
M73 P0 R16

G92 E0
G21 ; set units to millimeters
G90 ; use absolute coordinates
M83 ; use relative distances for extrusion
M900 K0.05 ; Filament gcode LA 1.5
M900 K30 ; Filament gcode LA 1.0
M107
;LAYER_CHANGE
;Z:0.2
;HEIGHT:0.2
G1 E-.8 F2100
G1 Z.6 F720
G1 X97.812 Y78.36 F10800
G1 Z.2 F720
G1 E.8 F2100
M204 S800
;TYPE:Skirt/Brim
;WIDTH:0.42
G1 F1200
G1 X98.845 Y77.557 E.04102
G1 X99.61 Y77.419 E.02437
G1 X150.41 Y77.419 E1.5928
G1 X151.658 Y77.81 E.04101
G1 X152.46 Y78.843 E.041
G1 X152.598 Y79.608 E.02437
G1 X152.598 Y130.388 E1.59217
G1 X152.208 Y131.636 E.041
M73 P1 R16
G1 X151.175 Y132.439 E.04102
G1 X150.41 Y132.577 E.02437
G1 X99.61 Y132.577 E1.5928
G1 X98.362 Y132.186 E.04101
G1 X97.559 Y131.153 E.04102
G1 X97.421 Y130.388 E.02437
G1 X97.421 Y79.608 E1.59217
G1 X97.794 Y78.417 E.03913
M204 S1000
;WIPE_START
G1 F8640
G1 X97.812 Y78.36 E-.0138
G1 X98.845 Y77.557 E-.30211
G1 X99.61 Y77.419 E-.17949
G1 X100.929 Y77.419 E-.3046
;WIPE_END
G1 Z.6 F720
; printing object E - AxoBlock Frame.stl id:0 copy 0
G1 X143.848 Y104.628 F10800
G1 Z.2 F720
G1 E.8 F2100
M204 S800
;TYPE:Perimeter
;WIDTH:0.450381
G1 F1200
G1 X143.477 Y104.794 E.01377
G1 X133.09 Y104.794 E.35192
G1 X132.653 Y104.573 E.01659
;WIDTH:0.419999
G1 X132.567 Y104.429 E.00526
G1 X130.523 Y99.475 E.16803
G1 X125.567 Y97.429 E.16811
G1 X125.422 Y97.342 E.0053
;WIDTH:0.449381
G1 X125.202 Y96.906 E.01651
G1 X125.202 Y86.539 E.35038
G1 X125.381 Y86.14 E.01478
;WIDTH:0.419999
G1 X125.644 Y85.99 E.00949
G1 X125.782 Y85.973 E.00436
G1 X129.827 Y85.973 E.12683
G1 X130.945 Y84.961 E.04728
G1 X131.227 Y84.823 E.00984
M73 P2 R16
G1 X131.325 Y84.815 E.00308
G1 X144.616 Y84.815 E.41673
G1 X144.906 Y84.895 E.00943
G1 X145.101 Y85.09 E.00865
G1 X145.181 Y85.381 E.00946
G1 X145.181 Y98.672 E.41673
G1 X145.141 Y98.88 E.00664
G1 X144.696 Y99.432 E.02223
G1 X144.043 Y100.167 E.03083
G1 X144.043 Y104.213 E.12686
G1 X143.982 Y104.469 E.00825
G1 X143.893 Y104.591 E.00473
M204 S1000
G1 X143.893 Y104.591 F10800
G1 X143.624 Y104.314
M204 S800
;TYPE:External perimeter
G1 F1200
G1 X143.61 Y104.348 E.00115
G1 X143.477 Y104.402 E.0045
G1 X133.09 Y104.402 E.32568
G1 X132.944 Y104.333 E.00506
G1 X132.915 Y104.285 E.00176
G1 X130.812 Y99.186 E.17294
G1 X125.71 Y97.08 E.17306
G1 X125.594 Y96.906 E.00656
G1 X125.594 Y86.539 E.32505
G1 X125.698 Y86.37 E.00622
G1 X125.782 Y86.35 E.00271
G1 X129.972 Y86.35 E.13137
G1 X131.198 Y85.241 E.05183
G1 X131.325 Y85.192 E.00427
G1 X144.615 Y85.192 E.4167
G1 X144.749 Y85.247 E.00454
G1 X144.804 Y85.381 E.00454
G1 X144.804 Y98.672 E.41673
G1 X144.756 Y98.797 E.0042
G1 X143.666 Y100.024 E.05146
G1 X143.666 Y104.213 E.13134
G1 X143.647 Y104.259 E.00156
M204 S1000
;WIPE_START
G1 F8640
G1 X143.624 Y104.314 E-.01377
G1 X143.61 Y104.348 E-.00849
G1 X143.477 Y104.402 E-.03314
G1 X140.252 Y104.402 E-.7446
;WIPE_END
G1 Z.6 F720
G1 X124.629 Y86.168 F10800
G1 Z.2 F720
G1 E.8 F2100
M204 S800
;TYPE:Perimeter
;WIDTH:0.449381
G1 F1200
G1 X124.796 Y86.539 E.01375
G1 X124.796 Y96.906 E.35038
G1 X124.575 Y97.342 E.01652
;WIDTH:0.419999
G1 X124.431 Y97.429 E.00528
G1 X119.475 Y99.475 E.16811
G1 X117.431 Y104.429 E.16803
G1 X117.344 Y104.573 E.00528
;WIDTH:0.450381
G1 X116.908 Y104.794 E.01656
G1 X106.54 Y104.794 E.35127
G1 X106.142 Y104.615 E.01479
;WIDTH:0.419999
G1 X105.992 Y104.352 E.00949
G1 X105.975 Y104.213 E.00439
G1 X105.975 Y100.171 E.12673
G1 X104.963 Y99.053 E.04728
G1 X104.825 Y98.771 E.00984
G1 X104.817 Y98.673 E.00308
G1 X104.817 Y85.381 E.41676
G1 X104.898 Y85.089 E.0095
G1 X105.094 Y84.894 E.00867
G1 X105.382 Y84.815 E.00936
G1 X118.673 Y84.815 E.41673
G1 X118.883 Y84.855 E.0067
G1 X119.053 Y84.961 E.00628
G1 X120.171 Y85.973 E.04728
G1 X124.216 Y85.973 E.12683
G1 X124.469 Y86.033 E.00815
G1 X124.593 Y86.123 E.0048
M204 S1000
G1 X124.593 Y86.123 F10800
G1 X124.316 Y86.392
M204 S800
;TYPE:External perimeter
G1 F1200
G1 X124.349 Y86.406 E.00112
G1 X124.404 Y86.539 E.00451
G1 X124.404 Y96.906 E.32505
G1 X124.335 Y97.052 E.00506
M73 P3 R16
G1 X119.186 Y99.186 E.17476
G1 X117.082 Y104.285 E.17295
G1 X116.908 Y104.402 E.00657
G1 X106.54 Y104.402 E.32508
G1 X106.408 Y104.347 E.00448
G1 X106.352 Y104.213 E.00455
G1 X106.352 Y100.026 E.13128
G1 X105.243 Y98.8 E.05183
G1 X105.194 Y98.673 E.00427
G1 X105.194 Y85.381 E.41676
G1 X105.25 Y85.247 E.00455
G1 X105.382 Y85.192 E.00448
G1 X118.673 Y85.192 E.41673
G1 X118.8 Y85.241 E.00427
G1 X120.026 Y86.35 E.05183
G1 X124.215 Y86.35 E.13134
G1 X124.261 Y86.369 E.00156
M204 S1000
;WIPE_START
G1 F8640
G1 X124.316 Y86.392 E-.01377
G1 X124.349 Y86.406 E-.00828
G1 X124.404 Y86.539 E-.03323
G1 X124.404 Y89.764 E-.74472
;WIPE_END
G1 Z.6 F720
G1 X124.629 Y123.828 F10800
G1 Z.2 F720
G1 E.8 F2100
M204 S800
;TYPE:Perimeter
;WIDTH:0.449381
G1 F1200
G1 X124.617 Y123.856 E.00103
;WIDTH:0.419999
G1 X124.353 Y124.006 E.00952
G1 X124.215 Y124.023 E.00436
G1 X120.171 Y124.023 E.1268
G1 X119.053 Y125.035 E.04728
G1 X118.771 Y125.173 E.00984
G1 X118.673 Y125.181 E.00308
G1 X105.382 Y125.181 E.41673
G1 X105.091 Y125.1 E.00947
G1 X104.896 Y124.904 E.00867
G1 X104.817 Y124.615 E.00939
G1 X104.817 Y111.323 E.41676
G1 X104.857 Y111.113 E.0067
G1 X104.963 Y110.943 E.00628
G1 X105.975 Y109.825 E.04728
G1 X105.975 Y105.783 E.12673
G1 X106.035 Y105.528 E.00821
G1 X106.142 Y105.381 E.0057
;WIDTH:0.450381
G1 X106.54 Y105.202 E.01479
G1 X116.908 Y105.202 E.35127
G1 X117.344 Y105.423 E.01656
;WIDTH:0.419999
G1 X117.431 Y105.567 E.00528
G1 X119.475 Y110.521 E.16803
G1 X124.431 Y112.567 E.16811
G1 X124.575 Y112.654 E.00528
;WIDTH:0.449381
G1 X124.796 Y113.09 E.01652
G1 X124.796 Y123.457 E.35038
G1 X124.654 Y123.773 E.01171
M204 S1000
G1 X124.654 Y123.773 F10800
G1 X124.316 Y123.604
M204 S800
;TYPE:External perimeter
;WIDTH:0.419999
G1 F1200
G1 X124.215 Y123.646 E.00343
G1 X120.026 Y123.646 E.13134
G1 X118.8 Y124.755 E.05183
G1 X118.673 Y124.804 E.00427
G1 X105.382 Y124.804 E.41673
G1 X105.249 Y124.748 E.00452
G1 X105.194 Y124.615 E.00451
G1 X105.194 Y111.323 E.41676
G1 X105.243 Y111.196 E.00427
G1 X106.352 Y109.97 E.05183
G1 X106.352 Y105.783 E.13128
G1 X106.408 Y105.649 E.00455
G1 X106.54 Y105.594 E.00448
G1 X116.908 Y105.594 E.32508
G1 X117.082 Y105.711 E.00657
G1 X119.186 Y110.81 E.17295
G1 X124.287 Y112.916 E.17303
G1 X124.404 Y113.09 E.00657
M73 P4 R16
G1 X124.404 Y123.457 E.32505
G1 X124.358 Y123.568 E.00377
M204 S1000
;WIPE_START
G1 F8640
G1 X124.316 Y123.604 E-.01277
G1 X124.215 Y123.646 E-.02526
G1 X120.915 Y123.646 E-.76197
;WIPE_END
G1 Z.6 F720
G1 X145.003 Y125.003 F10800
G1 Z.2 F720
G1 E.8 F2100
M204 S800
;TYPE:Perimeter
G1 F1200
G1 X144.906 Y125.101 E.00432
G1 X144.615 Y125.181 E.00946
G1 X131.325 Y125.181 E.4167
G1 X131.114 Y125.141 E.00673
G1 X130.945 Y125.035 E.00625
G1 X129.827 Y124.023 E.04728
G1 X128.826 Y124.023 E.03139
G1 X125.782 Y124.023 E.09544
G1 X125.528 Y123.963 E.00818
G1 X125.381 Y123.856 E.0057
;WIDTH:0.449381
G1 X125.202 Y123.457 E.01478
G1 X125.202 Y113.09 E.35038
G1 X125.422 Y112.654 E.01651
;WIDTH:0.419999
G1 X125.567 Y112.567 E.0053
G1 X130.523 Y110.521 E.16811
G1 X132.567 Y105.567 E.16803
G1 X132.653 Y105.423 E.00526
;WIDTH:0.450381
G1 X133.09 Y105.202 E.01659
G1 X143.477 Y105.202 E.35192
G1 X143.875 Y105.38 E.01477
;WIDTH:0.419999
G1 X144.026 Y105.644 E.00954
G1 X144.043 Y105.783 E.00439
G1 X144.043 Y109.829 E.12686
G1 X145.038 Y110.948 E.04695
G1 X145.141 Y111.116 E.00618
G1 X145.181 Y111.324 E.00664
G1 X145.181 Y124.615 E.41673
G1 X145.101 Y124.906 E.00946
G1 X145.046 Y124.961 E.00244
M204 S1000
G1 X145.046 Y124.961 F10800
G1 X144.716 Y124.762
M204 S800
;TYPE:External perimeter
G1 F1200
G1 X144.615 Y124.804 E.00343
G1 X131.325 Y124.804 E.4167
G1 X131.198 Y124.755 E.00427
G1 X129.972 Y123.646 E.05183
G1 X128.826 Y123.646 E.03593
G1 X125.782 Y123.646 E.09544
G1 X125.649 Y123.59 E.00452
G1 X125.594 Y123.457 E.00451
G1 X125.594 Y113.09 E.32505
G1 X125.71 Y112.916 E.00656
G1 X130.812 Y110.81 E.17306
G1 X132.915 Y105.711 E.17294
G1 X133.073 Y105.595 E.00615
G1 X143.477 Y105.594 E.32621
G1 X143.61 Y105.648 E.0045
G1 X143.666 Y105.783 E.00458
G1 X143.666 Y109.972 E.13134
G1 X144.756 Y111.199 E.05146
G1 X144.804 Y111.324 E.0042
G1 X144.804 Y124.615 E.41673
G1 X144.758 Y124.726 E.00377
M204 S1000
;WIPE_START
G1 F8640
G1 X144.716 Y124.762 E-.01277
G1 X144.615 Y124.804 E-.02526
G1 X141.315 Y124.804 E-.76197
;WIPE_END
G1 Z.6 F720
G1 X100.763 Y129.218 F10800
G1 Z.2 F720
G1 E.8 F2100
M204 S800
;TYPE:Perimeter
G1 F1200
G1 X100.763 Y122.766 E.2023
G1 X100.785 Y121.085 E.05271
G1 X100.784 Y80.764 E1.26423
G1 X149.215 Y80.783 E1.51852
M73 P5 R16
G1 X149.215 Y83.241 E.07707
G1 X149.218 Y129.216 E1.44151
G1 X100.823 Y129.218 E1.51739
M204 S1000
G1 X100.823 Y129.218 F10800
G1 X100.386 Y129.595
M204 S800
;TYPE:External perimeter
G1 F1200
G1 X100.386 Y122.763 E.21421
G1 X100.408 Y121.088 E.05252
G1 X100.407 Y80.387 E1.27615
G1 X149.592 Y80.406 E1.54216
M73 P6 R15
G1 X149.592 Y83.241 E.08889
G1 X149.595 Y129.593 E1.45333
G1 X100.446 Y129.595 E1.54103
M204 S1000
;WIPE_START
G1 F8640
G1 X100.386 Y129.595 E-.01385
G1 X100.386 Y126.19 E-.78615
;WIPE_END
G1 Z.6 F720
G1 X103.779 Y127.656 F10800
G1 Z.2 F720
G1 E.8 F2100
M204 S800
;TYPE:Internal infill
;WIDTH:0.42
G1 F1200
G1 X105.38 Y126.376 E.06427
G1 X107.285 Y128.195 E.08259
G1 X108.723 Y125.694 E.09046
G1 X110.033 Y125.729 E.04109
G1 X110.6 Y128.683 E.09431
G1 X115.299 Y128.717 E.14734
G1 X116.192 Y126.177 E.08442
M204 S1000
;WIPE_START
G1 F8640
G1 X115.299 Y128.717 E-.62168
G1 X114.527 Y128.711 E-.17832
;WIPE_END
G1 Z.6 F720
G1 X113.605 Y126 F10800
G1 Z.2 F720
G1 E.8 F2100
M204 S800
G1 F1200
G1 X119.067 Y126.001 E.17126
M204 S1000
G1 X119.067 Y126.001 F10800
M73 P7 R15
G1 X119.209 Y126.183
M204 S800
G1 F1200
G1 X118.59 Y128.66 E.08005
M204 S1000
;WIPE_START
G1 F8640
G1 X119.209 Y126.183 E-.58953
;WIPE_END
G1 E-.21047 F2100
G1 Z.6 F720
G1 X121.236 Y127.651 F10800
G1 Z.2 F720
G1 E.8 F2100
M204 S800
G1 F1200
G1 X119.254 Y126.001 E.08086
G1 X118.991 Y125.402 E.02051
G1 X119.235 Y125.249 E.00903
G1 X120.28 Y124.305 E.04415
G1 X124.361 Y124.293 E.12796
G1 X124.597 Y124.215 E.00779
G1 X124.822 Y124.052 E.00871
G1 X124.999 Y123.723 E.01171
G1 X125.175 Y124.052 E.0117
G1 X125.576 Y124.28 E.01446
G1 X127.365 Y124.305 E.0561
G1 X127.365 Y125.119 E.02552
G1 X126.655 Y128.935 E.1217
G1 X129.155 Y128.935 E.07839
M204 S1000
;WIPE_START
G1 F8640
G1 X126.655 Y128.935 E-.57726
G1 X126.831 Y127.987 E-.22274
;WIPE_END
G1 Z.6 F720
G1 X126.809 Y128.884 F10800
G1 Z.2 F720
G1 E.8 F2100
M204 S800
G1 F1200
G1 X129.165 Y127.811 E.08117
G1 X133.878 Y127.126 E.14933
G1 X130.029 Y125.094 E.13647
M204 S1000
;WIPE_START
G1 F8640
G1 X133.093 Y126.712 E-.8
;WIPE_END
G1 Z.6 F720
G1 X132.279 Y128.406 F10800
G1 Z.2 F720
G1 E.8 F2100
M204 S800
G1 F1200
G1 X133.732 Y127.243 E.05835
M204 S1000
G1 X133.732 Y127.243 F10800
G1 X133.996 Y127.272
M204 S800
G1 F1200
G1 X135.162 Y128.727 E.05846
M204 S1000
;WIPE_START
G1 F8640
G1 X133.996 Y127.272 E-.43053
;WIPE_END
G1 E-.36947 F2100
G1 Z.6 F720
G1 X138.162 Y128.727 F10800
G1 Z.2 F720
G1 E.8 F2100
M204 S800
G1 F1200
G1 X137.196 Y127.277 E.05463
G1 X140.196 Y127.277 E.09406
G1 X142.879 Y127.125 E.08426
G1 X142.879 Y125.463 E.05211
G1 X144.845 Y125.432 E.06165
G1 X145.05 Y125.343 E.00701
G1 X145.344 Y125.05 E.01301
G1 X145.463 Y124.622 E.01393
G1 X145.463 Y123 E.05086
G1 X146.255 Y123 E.02483
G1 X148.155 Y124.871 E.08361
G1 X146.904 Y126.156 E.05623
M204 S1000
;WIPE_START
G1 F8640
G1 X148.155 Y124.871 E-.4141
G1 X146.964 Y123.698 E-.3859
;WIPE_END
G1 Z.6 F720
G1 X142.762 Y127.272 F10800
G1 Z.2 F720
G1 E.8 F2100
M204 S800
G1 F1200
G1 X141.599 Y128.727 E.0584
M204 S1000
;WIPE_START
G1 F8640
G1 X142.762 Y127.272 E-.4301
;WIPE_END
G1 E-.3699 F2100
G1 Z.6 F720
G1 X148.559 Y122.013 F10800
G1 Z.2 F720
G1 E.8 F2100
M204 S800
G1 F1200
G1 X146.428 Y122.926 E.07269
M204 S1000
G1 X146.428 Y122.926 F10800
G1 X146.224 Y122.815
M204 S800
G1 F1200
G1 X145.938 Y121.095 E.05467
M204 S1000
;WIPE_START
G1 F8640
G1 X146.224 Y122.815 E-.40261
;WIPE_END
G1 E-.39739 F2100
G1 Z.6 F720
G1 X147.438 Y117.345 F10800
G1 Z.2 F720
G1 E.8 F2100
M204 S800
G1 F1200
G1 X147.981 Y118.983 E.05411
G1 X148.935 Y118.983 E.02991
G1 X148.935 Y113.558 E.1701
G1 X147.279 Y114.531 E.06022
M204 S1000
;WIPE_START
G1 F8640
G1 X148.935 Y113.558 E-.44349
G1 X148.935 Y115.102 E-.35651
;WIPE_END
G1 Z.6 F720
G1 X146.278 Y101.458 F10800
G1 Z.2 F720
G1 E.8 F2100
M204 S800
G1 F1200
G1 X147.817 Y102.22 E.05385
M204 S1000
;WIPE_START
G1 F8640
G1 X146.278 Y101.458 E-.39653
;WIPE_END
G1 E-.40347 F2100
G1 Z.6 F720
G1 X146.466 Y107.808 F10800
G1 Z.2 F720
G1 E.8 F2100
M204 S800
G1 F1200
G1 X146.562 Y107.903 E.00423
M204 S1000
G1 X146.562 Y107.903 F10800
G1 X146.386 Y108.8
M204 S800
G1 F1200
G1 X146.694 Y108.036 E.02583
G1 X147.83 Y107.806 E.03634
G1 X148.535 Y110.195 E.0781
G1 X146.315 Y111.223 E.07671
G1 X145.462 Y111.313 E.02689
G1 X145.405 Y111.013 E.00957
G1 X145.254 Y110.767 E.00905
G1 X144.325 Y109.722 E.04384
G1 X144.325 Y105.777 E.12369
G1 X144.233 Y105.398 E.01223
G1 X144.07 Y105.174 E.00869
G1 X143.743 Y104.998 E.01164
G1 X144.07 Y104.822 E.01164
G1 X144.234 Y104.597 E.00873
G1 X144.313 Y104.359 E.00786
G1 X144.324 Y100.469 E.12197
G1 X144.813 Y100.47 E.01533
G1 X146.11 Y101.375 E.04959
G1 X146.921 Y100.09 E.04764
G1 X146.822 Y97.793 E.07209
G1 X148.548 Y98.139 E.05519
M204 S1000
;WIPE_START
G1 F8640
G1 X146.822 Y97.793 E-.40647
G1 X146.895 Y99.496 E-.39353
;WIPE_END
G1 Z.6 F720
G1 X148.236 Y95.776 F10800
G1 Z.2 F720
G1 E.8 F2100
M204 S800
G1 F1200
G1 X146.136 Y94.454 E.0778
G1 X145.463 Y94.454 E.0211
G1 X145.463 Y91.875 E.08086
G1 X145.53 Y91.875 E.0021
G1 X147.606 Y87.858 E.14178
G1 X147.063 Y86.22 E.05411
M204 S1000
;WIPE_START
G1 F8640
M73 P8 R15
G1 X147.606 Y87.858 E-.39846
G1 X146.808 Y89.403 E-.40154
;WIPE_END
G1 Z.6 F720
G1 X148.611 Y84.151 F10800
G1 Z.2 F720
G1 E.8 F2100
M204 S800
G1 F1200
G1 X146.774 Y82.621 E.07496
M204 S1000
G1 X146.774 Y82.621 F10800
G1 X146.442 Y82.511
M204 S800
G1 F1200
G1 X143.946 Y82.652 E.07839
G1 X140.946 Y82.652 E.09406
G1 X141.912 Y84.102 E.05463
M204 S1000
;WIPE_START
G1 F8640
G1 X140.946 Y82.652 E-.40231
G1 X142.668 Y82.652 E-.39769
;WIPE_END
G1 Z.6 F720
G1 X138.912 Y84.102 F10800
G1 Z.2 F720
G1 E.8 F2100
M204 S800
G1 F1200
G1 X137.491 Y82.821 E.05999
G1 X132.944 Y82.872 E.14258
M204 S1000
;WIPE_START
G1 F8640
G1 X136.408 Y82.833 E-.8
;WIPE_END
G1 Z.6 F720
G1 X135.438 Y82.095 F10800
G1 Z.2 F720
G1 E.8 F2100
M204 S800
G1 F1200
G1 X135.533 Y83.73 E.05135
G1 X132.756 Y82.874 E.09111
G1 X130.65 Y81.121 E.08591
M204 S1000
;WIPE_START
G1 F8640
G1 X132.756 Y82.874 E-.6327
G1 X133.448 Y83.087 E-.1673
;WIPE_END
G1 Z.6 F720
G1 X130.611 Y84.151 F10800
G1 Z.2 F720
G1 E.8 F2100
M204 S800
G1 F1200
G1 X128.98 Y82.503 E.0727
G1 X130.449 Y81.057 E.06463
G1 X122.941 Y81.054 E.23541
G1 X122.941 Y82.255 E.03766
G1 X120.005 Y81.376 E.09609
