; generated by PrusaSlicer 2.5.0+linux-x64-GTK3 on 2022-09-09 at 21:35:52 UTC

; 

; external perimeters extrusion width = 0.60mm
; perimeters extrusion width = 0.43mm
; infill extrusion width = 0.45mm
; solid infill extrusion width = 0.70mm
; top infill extrusion width = 0.45mm
; first layer extrusion width = 0.42mm

M73 P0 R17
M201 X9000 Y9000 Z500 E10000 ; sets maximum accelerations, mm/sec^2
M203 X500 Y500 Z12 E120 ; sets maximum feedrates, mm / sec
M204 P2000 R1500 T2000 ; sets acceleration (P, T) and retract acceleration (R), mm/sec^2
M205 X10.00 Y10.00 Z0.20 E4.50 ; sets the jerk limits, mm/sec
M205 S0 T0 ; sets the minimum extruding and travel feed rate, mm/sec
M107
;TYPE:Custom
M862.3 P "MK2.5" ; printer model check
M862.1 P0.4 ; nozzle diameter check
M115 U3.11.0 ; tell printer latest fw version
G90 ; use absolute coordinates
M83 ; extruder relative mode
M104 S215 ; set extruder temp
M140 S60 ; set bed temp
M190 S60 ; wait for bed temp
M109 S215 ; wait for extruder temp
G28 W ; home all without mesh bed level
G80 ; mesh bed leveling

G1 Z0.2 F720
G1 Y-3 F1000 ; go outside print area
G92 E0
G1 X60 E9 F1000 ; intro line
G1 X100 E12.5 F1000 ; intro line

G92 E0
G21 ; set units to millimeters
G90 ; use absolute coordinates
M83 ; use relative distances for extrusion
M900 K0.05 ; Filament gcode LA 1.5
M900 K30 ; Filament gcode LA 1.0
M107
;LAYER_CHANGE
;Z:0.2
;HEIGHT:0.2
;BEFORE_LAYER_CHANGE
G92 E0.0
;0.2


G1 E-.8 F2100
M73 P0 R16
G1 Z.4 F720
;AFTER_LAYER_CHANGE
;0.2
;CURRENT_Z: 0.2
G1 X97.624 Y78.301 F10800
G1 Z.2 F720
G1 E.8 F2100
M204 S800
;TYPE:Skirt/Brim
;WIDTH:0.42
G1 F1200
G1 X98.67 Y77.425 E.04278
G1 X99.61 Y77.231 E.03008
G1 X150.41 Y77.231 E1.5928
G1 X151.717 Y77.623 E.04278
G1 X152.593 Y78.668 E.04278
G1 X152.787 Y79.608 E.03008
G1 X152.787 Y130.388 E1.59217
G1 X152.395 Y131.695 E.04278
M73 P1 R16
G1 X151.35 Y132.571 E.04278
G1 X150.41 Y132.765 E.03008
G1 X99.61 Y132.765 E1.5928
G1 X98.303 Y132.373 E.04278
G1 X97.426 Y131.328 E.04278
G1 X97.233 Y130.388 E.03008
G1 X97.233 Y79.608 E1.59217
G1 X97.607 Y78.358 E.0409
M204 S1000
; printing object E - AxoBlock Frame.stl id:0 copy 0
;WIPE_START
G1 F8640
G1 X98.67 Y77.425 E-.32671
G1 X99.61 Y77.231 E-.22155
G1 X100.527 Y77.231 E-.21174
;WIPE_END
G1 E-.04 F2100
G1 Z.6 F720
G1 X100.785 Y80.764 F10800
G1 Z.2 F720
G1 E.8 F2100
M204 S800
;TYPE:Perimeter
;WIDTH:0.419999
G1 F1200
G1 X149.215 Y80.783 E1.5185
G1 X149.218 Y129.216 E1.51859
M73 P2 R16
G1 X100.763 Y129.218 E1.51926
G1 X100.763 Y122.766 E.2023
G1 X100.785 Y121.085 E.0527
G1 X100.785 Y80.824 E1.26235
M204 S1000
G1 X100.407 Y80.387 F10800
M204 S800
;TYPE:External perimeter
G1 F1200
G1 X149.592 Y80.406 E1.54214
G1 X149.595 Y129.593 E1.54224
G1 X100.386 Y129.595 E1.54291
M73 P3 R16
G1 X100.386 Y122.763 E.2142
G1 X100.408 Y121.088 E.05254
G1 X100.407 Y80.447 E1.27426
M204 S1000
G1 X100.754 Y80.587 F10800
;WIPE_START
G1 F8640
G1 X103.699 Y80.444 E-.76
;WIPE_END
G1 E-.04 F2100
G1 Z.6 F720
G1 X104.994 Y125.002 F10800
G1 Z.2 F720
G1 E.8 F2100
M204 S800
;TYPE:Perimeter
G1 F1200
G1 X104.896 Y124.904 E.00433
G1 X104.817 Y124.615 E.00939
G1 X104.817 Y111.323 E.41678
G1 X104.857 Y111.113 E.00671
G1 X104.963 Y110.943 E.00626
G1 X105.975 Y109.825 E.04729
G1 X105.975 Y105.783 E.12674
G1 X106.035 Y105.528 E.00821
G1 X106.142 Y105.381 E.0057
;WIDTH:0.450381
G1 X106.54 Y105.202 E.0148
G1 X116.908 Y105.202 E.35126
G1 X117.344 Y105.423 E.01657
;WIDTH:0.419999
G1 X117.431 Y105.567 E.00528
G1 X119.475 Y110.521 E.16804
G1 X124.431 Y112.567 E.16812
G1 X124.575 Y112.654 E.00528
;WIDTH:0.449382
G1 X124.796 Y113.09 E.01652
G1 X124.796 Y123.457 E.3504
G1 X124.617 Y123.856 E.01477
;WIDTH:0.419999
M73 P4 R16
G1 X124.353 Y124.006 E.0095
G1 X124.215 Y124.023 E.00436
G1 X120.171 Y124.023 E.1268
G1 X119.053 Y125.035 E.04729
G1 X118.771 Y125.173 E.00983
G1 X118.673 Y125.181 E.00308
G1 X105.382 Y125.181 E.41672
G1 X105.091 Y125.1 E.00949
G1 X105.036 Y125.045 E.00245
M204 S1000
G1 X105.249 Y124.748 F10800
M204 S800
;TYPE:External perimeter
G1 F1200
G1 X105.194 Y124.615 E.0045
G1 X105.194 Y111.323 E.41678
G1 X105.243 Y111.196 E.00425
G1 X106.352 Y109.97 E.05184
G1 X106.352 Y105.783 E.1313
G1 X106.408 Y105.649 E.00455
G1 X106.54 Y105.594 E.0045
G1 X116.908 Y105.594 E.32507
G1 X117.082 Y105.711 E.00658
G1 X119.186 Y110.81 E.17296
G1 X124.287 Y112.916 E.17304
G1 X124.404 Y113.09 E.00657
G1 X124.404 Y123.457 E.32507
G1 X124.349 Y123.59 E.00451
G1 X124.215 Y123.646 E.00454
G1 X120.026 Y123.646 E.13136
G1 X118.8 Y124.755 E.05184
G1 X118.673 Y124.804 E.00425
G1 X105.382 Y124.804 E.41672
G1 X105.304 Y124.771 E.00266
M204 S1000
G1 X105.11 Y124.785 F10800
;WIPE_START
G1 F8640
G1 X105.194 Y124.615 E-.04406
G1 X105.194 Y121.515 E-.71594
;WIPE_END
G1 E-.04 F2100
G1 Z.6 F720
G1 X143.596 Y105.255 F10800
G1 Z.2 F720
G1 E.8 F2100
M204 S800
;TYPE:Perimeter
;WIDTH:0.450381
G1 F1200
G1 X143.875 Y105.38 E.01036
;WIDTH:0.419999
G1 X144.026 Y105.644 E.00952
G1 X144.043 Y105.783 E.00438
G1 X144.043 Y109.829 E.12687
G1 X145.038 Y110.948 E.04696
G1 X145.142 Y111.116 E.00619
G1 X145.181 Y111.324 E.00662
G1 X145.181 Y124.615 E.41675
G1 X145.101 Y124.906 E.00944
G1 X144.906 Y125.101 E.00866
G1 X144.615 Y125.181 E.00945
G1 X131.325 Y125.181 E.41672
G1 X131.115 Y125.141 E.00671
G1 X130.945 Y125.035 E.00626
G1 X129.827 Y124.023 E.04729
G1 X125.782 Y124.023 E.1268
G1 X125.528 Y123.963 E.00819
G1 X125.381 Y123.856 E.00569
;WIDTH:0.449382
G1 X125.202 Y123.457 E.01477
G1 X125.202 Y113.09 E.3504
G1 X125.422 Y112.654 E.01652
;WIDTH:0.419999
G1 X125.567 Y112.567 E.00528
G1 X130.523 Y110.521 E.16812
G1 X132.567 Y105.567 E.16804
G1 X132.653 Y105.423 E.00528
;WIDTH:0.450381
G1 X133.09 Y105.202 E.01657
G1 X143.477 Y105.202 E.35194
G1 X143.541 Y105.23 E.00238
M204 S1000
G1 X143.477 Y105.594 F10800
M204 S800
;TYPE:External perimeter
;WIDTH:0.419999
G1 F1200
G1 X143.61 Y105.648 E.00449
G1 X143.666 Y105.783 E.00455
G1 X143.666 Y109.972 E.13136
G1 X144.756 Y111.199 E.05145
G1 X144.804 Y111.324 E.0042
G1 X144.804 Y124.615 E.41675
G1 X144.749 Y124.749 E.00452
G1 X144.615 Y124.804 E.00453
G1 X131.325 Y124.804 E.41672
G1 X131.198 Y124.755 E.00425
M73 P5 R16
G1 X129.972 Y123.646 E.05184
G1 X125.782 Y123.646 E.13136
G1 X125.649 Y123.59 E.00454
G1 X125.594 Y123.457 E.00451
G1 X125.594 Y113.09 E.32507
G1 X125.711 Y112.916 E.00657
G1 X130.812 Y110.81 E.17304
G1 X132.915 Y105.711 E.17296
G1 X133.073 Y105.595 E.00614
G1 X143.417 Y105.594 E.32433
M204 S1000
G1 X143.578 Y105.492 F10800
;WIPE_START
G1 F8640
G1 X143.61 Y105.648 E-.04621
G1 X143.666 Y105.783 E-.03354
G1 X143.666 Y108.729 E-.68025
;WIPE_END
G1 E-.04 F2100
G1 Z.6 F720
G1 X145.003 Y84.993 F10800
G1 Z.2 F720
G1 E.8 F2100
M204 S800
;TYPE:Perimeter
G1 F1200
G1 X145.101 Y85.09 E.00433
G1 X145.181 Y85.381 E.00944
G1 X145.181 Y98.672 E.41675
G1 X145.142 Y98.88 E.00663
G1 X144.696 Y99.432 E.02224
G1 X144.043 Y100.167 E.03084
G1 X144.043 Y104.213 E.12686
G1 X143.982 Y104.469 E.00823
G1 X143.875 Y104.616 E.0057
;WIDTH:0.450381
G1 X143.477 Y104.794 E.01477
G1 X133.09 Y104.794 E.35194
G1 X132.653 Y104.573 E.01657
;WIDTH:0.419999
G1 X132.567 Y104.429 E.00528
G1 X130.523 Y99.475 E.16804
G1 X125.567 Y97.429 E.16812
G1 X125.422 Y97.342 E.00528
;WIDTH:0.449382
G1 X125.202 Y96.906 E.01652
G1 X125.202 Y86.539 E.3504
G1 X125.381 Y86.14 E.01478
;WIDTH:0.419999
G1 X125.645 Y85.99 E.00949
G1 X125.782 Y85.973 E.00436
G1 X129.827 Y85.973 E.1268
G1 X130.945 Y84.961 E.04729
G1 X131.227 Y84.823 E.00984
G1 X131.325 Y84.815 E.00307
G1 X144.616 Y84.815 E.41673
G1 X144.906 Y84.895 E.00944
G1 X144.961 Y84.95 E.00245
M204 S1000
G1 X144.749 Y85.247 F10800
M204 S800
;TYPE:External perimeter
G1 F1200
G1 X144.804 Y85.381 E.00452
G1 X144.804 Y98.672 E.41675
G1 X144.756 Y98.797 E.0042
G1 X143.666 Y100.024 E.05145
G1 X143.666 Y104.213 E.13136
G1 X143.61 Y104.348 E.00455
G1 X143.477 Y104.402 E.00449
G1 X133.09 Y104.402 E.3257
G1 X132.944 Y104.333 E.00504
G1 X130.812 Y99.186 E.1747
G1 X125.711 Y97.08 E.17304
G1 X125.595 Y96.923 E.00614
G1 X125.594 Y86.539 E.32558
G1 X125.698 Y86.37 E.0062
G1 X125.782 Y86.35 E.00273
G1 X129.972 Y86.35 E.13136
G1 X131.198 Y85.241 E.05184
G1 X131.325 Y85.192 E.00425
G1 X144.615 Y85.192 E.41672
G1 X144.693 Y85.224 E.00264
M204 S1000
M73 P6 R16
G1 X144.888 Y85.21 F10800
;WIPE_START
G1 F8640
G1 X144.804 Y85.381 E-.04421
G1 X144.804 Y88.481 E-.71579
;WIPE_END
G1 E-.04 F2100
G1 Z.6 F720
G1 X105.296 Y84.839 F10800
G1 Z.2 F720
G1 E.8 F2100
M204 S800
;TYPE:Perimeter
G1 F1200
G1 X105.382 Y84.815 E.00281
G1 X118.673 Y84.815 E.41673
G1 X118.883 Y84.855 E.0067
G1 X119.053 Y84.961 E.00626
G1 X120.171 Y85.973 E.04729
G1 X124.216 Y85.973 E.12681
G1 X124.469 Y86.033 E.00818
G1 X124.616 Y86.14 E.00569
;WIDTH:0.449382
G1 X124.796 Y86.539 E.01478
G1 X124.796 Y96.906 E.3504
G1 X124.575 Y97.342 E.01652
;WIDTH:0.419999
G1 X124.431 Y97.429 E.00528
G1 X119.475 Y99.475 E.16812
G1 X117.431 Y104.429 E.16804
M73 P6 R15
G1 X117.344 Y104.573 E.00528
;WIDTH:0.450381
G1 X116.908 Y104.794 E.01657
G1 X106.54 Y104.794 E.35126
G1 X106.142 Y104.615 E.0148
;WIDTH:0.419999
G1 X105.992 Y104.352 E.00951
G1 X105.975 Y104.213 E.00437
G1 X105.975 Y100.171 E.12674
G1 X104.963 Y99.053 E.04729
G1 X104.825 Y98.771 E.00983
G1 X104.817 Y98.673 E.00308
G1 X104.817 Y85.381 E.41678
G1 X104.898 Y85.089 E.00949
G1 X105.094 Y84.894 E.00866
G1 X105.238 Y84.855 E.0047
M204 S1000
G1 X105.382 Y85.192 F10800
M204 S800
;TYPE:External perimeter
G1 F1200
G1 X118.673 Y85.192 E.41672
G1 X118.8 Y85.241 E.00425
G1 X120.026 Y86.35 E.05184
G1 X124.215 Y86.35 E.13136
G1 X124.349 Y86.406 E.00454
G1 X124.404 Y86.539 E.00451
G1 X124.404 Y96.906 E.32507
G1 X124.335 Y97.052 E.00504
G1 X124.287 Y97.08 E.00176
G1 X119.186 Y99.186 E.17304
G1 X117.082 Y104.285 E.17296
G1 X116.908 Y104.402 E.00658
G1 X106.54 Y104.402 E.32507
G1 X106.408 Y104.347 E.0045
G1 X106.352 Y104.213 E.00455
G1 X106.352 Y100.026 E.1313
G1 X105.243 Y98.8 E.05184
G1 X105.194 Y98.673 E.00425
G1 X105.194 Y85.381 E.41678
G1 X105.25 Y85.247 E.00455
G1 X105.327 Y85.215 E.00262
M204 S1000
G1 X105.486 Y84.806 F10800
;WIPE_START
G1 F8640
G1 X108.618 Y85.209 E-.76
;WIPE_END
G1 E-.04 F2100
G1 Z.6 F720
G1 X104.271 Y85.125 F10800
G1 Z.2 F720
G1 E.8 F2100
M204 S800
;TYPE:Internal infill
;WIDTH:0.42
G1 F1200
G1 X104.089 Y85.283 E.00756
M204 S1000
;WIPE_START
G1 F8640
G1 X104.271 Y85.125 E-.05568
;WIPE_END
G1 E-.74432 F2100
G1 Z.6 F720
G1 X104.216 Y87.777 F10800
G1 Z.2 F720
G1 E.8 F2100
M204 S800
G1 F1200
G1 X103.948 Y85.407 E.0748
G1 X103.317 Y85.48 E.01991
M204 S1000
G1 X103.074 Y85.68 F10800
M204 S800
G1 F1200
G1 X101.969 Y89.164 E.11459
G1 X103.611 Y90.901 E.07494
M204 S1000
;WIPE_START
G1 F8640
G1 X101.969 Y89.164 E-.55185
G1 X102.242 Y88.305 E-.20815
;WIPE_END
G1 E-.04 F2100
G1 Z.6 F720
G1 X103.923 Y93.264 F10800
G1 Z.2 F720
G1 E.8 F2100
M204 S800
G1 F1200
G1 X102.232 Y92.891 E.05428
G1 X102.607 Y95.141 E.07152
G1 X102.742 Y96.939 E.05653
M204 S1000
;WIPE_START
G1 F8640
G1 X102.607 Y95.141 E-.41628
G1 X102.363 Y93.673 E-.34372
;WIPE_END
G1 E-.04 F2100
G1 Z.6 F720
G1 X102.536 Y102.477 F10800
G1 Z.2 F720
M73 P7 R15
G1 E.8 F2100
M204 S800
G1 F1200
G1 X101.591 Y100.974 E.05566
G1 X103.99 Y100.647 E.07591
G1 X102.756 Y97.126 E.11698
G1 X103.896 Y98.443 E.0546
G1 X104.271 Y99 E.02107
G1 X104.535 Y98.674 E.01317
G1 X104.548 Y98.821 E.00462
G1 X104.596 Y98.992 E.00558
G1 X104.749 Y99.236 E.00902
G1 X105.693 Y100.28 E.04415
G1 X105.705 Y104.359 E.1279
G1 X105.783 Y104.596 E.00783
G1 X105.947 Y104.821 E.00871
G1 X106.275 Y104.998 E.01171
G1 X105.947 Y105.175 E.01171
G1 X105.784 Y105.399 E.00866
G1 X105.718 Y105.576 E.00593
G1 X105.694 Y105.774 E.00625
G1 X105.396 Y105.75 E.00937
M204 S1000
;WIPE_START
G1 F8640
G1 X105.694 Y105.774 E-.06903
G1 X105.718 Y105.576 E-.046
G1 X105.784 Y105.399 E-.0437
G1 X105.947 Y105.175 E-.06377
G1 X106.275 Y104.998 E-.08623
G1 X105.947 Y104.821 E-.08623
G1 X105.783 Y104.596 E-.06418
G1 X105.705 Y104.359 E-.05768
G1 X105.702 Y103.306 E-.24317
;WIPE_END
G1 E-.04 F2100
G1 Z.6 F720
G1 X104.63 Y108.725 F10800
G1 Z.2 F720
G1 E.8 F2100
M204 S800
G1 F1200
G1 X104.447 Y110.327 E.05056
G1 X102.03 Y108.746 E.09053
G1 X101.067 Y106.767 E.06903
G1 X101.067 Y106.311 E.01428
G1 X101.196 Y105.668 E.02059
M204 S1000
;WIPE_START
G1 F8640
G1 X101.067 Y106.311 E-.15163
G1 X101.067 Y106.767 E-.10517
G1 X102.02 Y108.726 E-.5032
;WIPE_END
G1 E-.04 F2100
G1 Z.6 F720
G1 X101.528 Y86.781 F10800
G1 Z.2 F720
G1 E.8 F2100
M204 S800
G1 F1200
G1 X103.13 Y85.502 E.06429
G1 X101.903 Y82.656 E.09715
G1 X103.19 Y81.223 E.06038
G1 X103.19 Y81.047 E.00553
G1 X106.41 Y81.048 E.10096
G1 X106.41 Y81.367 E.01
G1 X106.188 Y83.28 E.06037
M204 S1000
;WIPE_START
G1 F8640
G1 X106.41 Y81.367 E-.44461
G1 X106.41 Y81.048 E-.07366
G1 X105.363 Y81.048 E-.24174
;WIPE_END
G1 E-.04 F2100
G1 Z.6 F720
G1 X109.105 Y84.375 F10800
G1 Z.2 F720
G1 E.8 F2100
M204 S800
G1 F1200
G1 X111.54 Y84.099 E.07682
G1 X112.441 Y81.551 E.08473
M204 S1000
;WIPE_START
G1 F8640
G1 X111.54 Y84.099 E-.624
G1 X110.954 Y84.165 E-.136
;WIPE_END
G1 E-.04 F2100
G1 Z.6 F720
G1 X110.003 Y81.049 F10800
G1 Z.2 F720
G1 E.8 F2100
M204 S800
G1 F1200
G1 X112.503 Y81.05 E.07839
G1 X112.503 Y81.375 E.01017
G1 X109.855 Y81.375 E.08303
M204 S1000
;WIPE_START
G1 F8640
G1 X112.503 Y81.375 E-.61149
G1 X112.503 Y81.05 E-.07487
G1 X112.185 Y81.05 E-.07364
;WIPE_END
G1 E-.04 F2100
G1 Z.6 F720
G1 X114.755 Y83.6 F10800
G1 Z.2 F720
G1 E.8 F2100
M204 S800
G1 F1200
G1 X114.755 Y84.533 E.02926
G1 X117.255 Y84.533 E.07839
M204 S1000
G1 X117.716 Y84.027 F10800
M204 S800
G1 F1200
G1 X117.641 Y81.233 E.08763
G1 X119.763 Y81.053 E.06677
G1 X120.433 Y81.053 E.02102
G1 X122.28 Y82.872 E.08126
G1 X121.028 Y84.156 E.05624
M204 S1000
;WIPE_START
G1 F8640
G1 X122.28 Y82.872 E-.41419
G1 X121.213 Y81.821 E-.34581
;WIPE_END
G1 E-.04 F2100
G1 Z.6 F720
G1 X127.48 Y82.5 F10800
G1 Z.2 F720
G1 E.8 F2100
M204 S800
G1 F1200
G1 X129.942 Y82.5 E.0772
M204 S1000
;WIPE_START
G1 F8640
G1 X127.48 Y82.5 E-.56852
;WIPE_END
G1 E-.23148 F2100
G1 Z.6 F720
G1 X131.411 Y84.102 F10800
G1 Z.2 F720
G1 E.8 F2100
M204 S800
G1 F1200
G1 X130.13 Y82.5 E.06433
G1 X130.13 Y81.057 E.04524
G1 X132.63 Y81.058 E.07839
M204 S1000
;WIPE_START
G1 F8640
G1 X130.13 Y81.057 E-.57726
G1 X130.13 Y81.848 E-.18274
;WIPE_END
G1 E-.04 F2100
G1 Z.6 F720
G1 X134.411 Y84.102 F10800
G1 Z.2 F720
G1 E.8 F2100
M204 S800
G1 F1200
G1 X133.464 Y82.605 E.05554
G1 X138.712 Y81.722 E.16685
G1 X138.423 Y84.378 E.08375
G1 X138.423 Y84.533 E.00488
G1 X140.923 Y84.533 E.07839
M204 S1000
;WIPE_START
G1 F8640
G1 X138.423 Y84.533 E-.57726
G1 X138.423 Y84.378 E-.03591
G1 X138.492 Y83.745 E-.14683
;WIPE_END
G1 E-.04 F2100
G1 Z.6 F720
G1 X141.355 Y82.125 F10800
G1 Z.2 F720
G1 E.8 F2100
M204 S800
G1 F1200
G1 X143.818 Y82.126 E.07721
M204 S1000
;WIPE_START
G1 F8640
G1 X141.355 Y82.125 E-.56857
;WIPE_END
G1 E-.23143 F2100
G1 Z.6 F720
G1 X143.688 Y84.03 F10800
G1 Z.2 F720
G1 E.8 F2100
M204 S800
G1 F1200
G1 X144.005 Y82.126 E.06051
G1 X146.817 Y82.125 E.08818
M204 S1000
;WIPE_START
G1 F8640
G1 X144.005 Y82.126 E-.64941
G1 X143.926 Y82.598 E-.11059
;WIPE_END
G1 E-.04 F2100
G1 Z.6 F720
G1 X148.607 Y83.406 F10800
G1 Z.2 F720
G1 E.8 F2100
M204 S800
G1 F1200
G1 X147.005 Y82.125 E.06433
G1 X147.005 Y81.063 E.03327
G1 X148.933 Y81.064 E.06045
G1 X148.933 Y86.101 E.15793
G1 X148.772 Y86.101 E.00506
G1 X148.823 Y87.78 E.05265
M204 S1000
;WIPE_START
G1 F8640
M73 P8 R15
G1 X148.772 Y86.101 E-.38776
G1 X148.933 Y86.101 E-.03723
G1 X148.933 Y84.65 E-.335
;WIPE_END
G1 E-.04 F2100
G1 Z.6 F720
G1 X146.313 Y85.47 F10800
G1 Z.2 F720
G1 E.8 F2100
M204 S800
G1 F1200
G1 X146.856 Y87.108 E.0541
G1 X147.606 Y91.608 E.14304
G1 X148.934 Y91.608 E.04162
G1 X148.934 Y94.108 E.07839
M204 S1000
;WIPE_START
G1 F8640
G1 X148.934 Y91.608 E-.57726
G1 X148.142 Y91.608 E-.18274
;WIPE_END
G1 E-.04 F2100
G1 Z.6 F720
G1 X145.463 Y93.125 F10800
G1 Z.2 F720
G1 E.8 F2100
M204 S800
G1 F1200
G1 X145.463 Y95.625 E.07839
G1 X145.53 Y95.625 E.00211
M204 S1000
;WIPE_START
G1 F8640
G1 X145.463 Y95.625 E-.01556
G1 X145.463 Y93.125 E-.57726
;WIPE_END
G1 E-.20718 F2100
G1 Z.6 F720
G1 X145.778 Y100.656 F10800
G1 Z.2 F720
G1 E.8 F2100
M204 S800
G1 F1200
