; generated by PrusaSlicer 2.5.0+linux-x64-GTK3 on 2022-09-09 at 21:35:58 UTC

; 

; external perimeters extrusion width = 0.60mm
; perimeters extrusion width = 0.43mm
; infill extrusion width = 0.45mm
; solid infill extrusion width = 0.70mm
; top infill extrusion width = 0.45mm
; first layer extrusion width = 0.42mm

M73 P0 R34
M201 X9000 Y9000 Z500 E10000 ; sets maximum accelerations, mm/sec^2
M203 X500 Y500 Z12 E120 ; sets maximum feedrates, mm / sec
M204 P2000 R1500 T2000 ; sets acceleration (P, T) and retract acceleration (R), mm/sec^2
M205 X10.00 Y10.00 Z0.20 E4.50 ; sets the jerk limits, mm/sec
M205 S0 T0 ; sets the minimum extruding and travel feed rate, mm/sec
M107
;TYPE:Custom
M862.3 P "MK2.5" ; printer model check
M862.1 P0.4 ; nozzle diameter check
M115 U3.11.0 ; tell printer latest fw version
G90 ; use absolute coordinates
M83 ; extruder relative mode
M104 S215 ; set extruder temp
M140 S60 ; set bed temp
M190 S60 ; wait for bed temp
M109 S215 ; wait for extruder temp
G28 W ; home all without mesh bed level
G80 ; mesh bed leveling

G1 Z0.2 F720
G1 Y-3 F1000 ; go outside print area
G92 E0
G1 X60 E9 F1000 ; intro line
G1 X100 E12.5 F1000 ; intro line

G92 E0
G21 ; set units to millimeters
G90 ; use absolute coordinates
M83 ; use relative distances for extrusion
M900 K0.05 ; Filament gcode LA 1.5
M900 K30 ; Filament gcode LA 1.0
M107
;LAYER_CHANGE
;Z:0.2
;HEIGHT:0.2
;BEFORE_LAYER_CHANGE
G92 E0.0
;0.2


G1 E-.8 F2100
G1 Z.4 F720
;AFTER_LAYER_CHANGE
;0.2
;CURRENT_Z: 0.2
G1 X84.916 Y65.595 F10800
G1 Z.2 F720
G1 E.8 F2100
M204 S800
;TYPE:Skirt/Brim
;WIDTH:0.42
G1 F1200
G1 X85.961 Y64.719 E.04278
G1 X86.901 Y64.525 E.03008
G1 X163.099 Y64.525 E2.38914
G1 X164.406 Y64.917 E.04278
G1 X165.282 Y65.962 E.04278
G1 X165.476 Y66.902 E.03008
G1 X165.476 Y143.1 E2.38914
G1 X165.085 Y144.407 E.04278
M73 P0 R33
G1 X164.039 Y145.283 E.04278
G1 X163.099 Y145.477 E.03008
G1 X86.901 Y145.477 E2.38914
G1 X85.594 Y145.085 E.04278
G1 X84.718 Y144.04 E.04278
G1 X84.524 Y143.1 E.03008
G1 X84.524 Y66.902 E2.38914
G1 X84.898 Y65.652 E.0409
M204 S1000
; printing object EA - AxoBlock Frame.stl id:0 copy 0
;WIPE_START
M73 P1 R33
G1 F8640
G1 X85.961 Y64.719 E-.32671
G1 X86.901 Y64.525 E-.22152
G1 X87.818 Y64.525 E-.21177
;WIPE_END
G1 E-.04 F2100
G1 Z.6 F720
G1 X161.777 Y141.777 F10800
G1 Z.2 F720
G1 E.8 F2100
M204 S800
;TYPE:Perimeter
;WIDTH:0.419999
G1 F1200
G1 X88.223 Y141.777 E2.30624
G1 X88.223 Y68.223 E2.30624
G1 X161.777 Y68.223 E2.30624
G1 X161.777 Y141.717 E2.30436
M204 S1000
G1 X162.154 Y142.154 F10800
M204 S800
;TYPE:External perimeter
G1 F1200
G1 X87.846 Y142.154 E2.32988
G1 X87.846 Y67.846 E2.32988
M73 P2 R33
G1 X162.154 Y67.846 E2.32988
G1 X162.154 Y142.094 E2.328
M204 S1000
G1 X161.768 Y142.051 F10800
;WIPE_START
G1 F8640
G1 X158.863 Y142.097 E-.76
;WIPE_END
G1 E-.04 F2100
G1 Z.6 F720
G1 X92.29 Y137.709 F10800
G1 Z.2 F720
G1 E.8 F2100
M204 S800
;TYPE:Perimeter
G1 F1200
G1 X92.192 Y137.612 E.00433
G1 X92.112 Y137.321 E.00944
G1 X92.112 Y124.031 E.41671
G1 X92.152 Y123.822 E.00667
G1 X92.257 Y123.653 E.00623
G1 X93.264 Y122.531 E.0473
G1 X93.264 Y118.481 E.12699
G1 X93.326 Y118.222 E.00833
G1 X93.435 Y118.075 E.00573
;WIDTH:0.445384
G1 X93.83 Y117.902 E.01442
G1 X104.205 Y117.902 E.34721
G1 X104.641 Y118.12 E.01629
;WIDTH:0.419999
G1 X104.728 Y118.264 E.0053
G1 X106.779 Y123.217 E.1681
G1 X111.737 Y125.269 E.16823
G1 X111.881 Y125.356 E.00529
;WIDTH:0.444381
G1 X112.098 Y125.792 E.01624
G1 X112.098 Y136.167 E.34635
G1 X111.925 Y136.562 E.01439
;WIDTH:0.419999
G1 X111.661 Y136.715 E.00958
G1 X111.52 Y136.733 E.00444
G1 X107.469 Y136.733 E.12703
G1 X106.348 Y137.742 E.04728
G1 X106.068 Y137.879 E.00979
G1 X105.97 Y137.887 E.00308
G1 X92.678 Y137.887 E.41678
G1 X92.387 Y137.807 E.00944
G1 X92.332 Y137.752 E.00245
M204 S1000
G1 X92.544 Y137.455 F10800
M204 S800
;TYPE:External perimeter
G1 F1200
G1 X92.489 Y137.321 E.00453
G1 X92.489 Y124.031 E.41671
G1 X92.537 Y123.905 E.00423
G1 X93.641 Y122.675 E.05182
G1 X93.641 Y118.481 E.13152
G1 X93.698 Y118.345 E.0046
G1 X93.83 Y118.292 E.00445
G1 X104.205 Y118.292 E.32531
G1 X104.35 Y118.36 E.00503
G1 X106.491 Y123.506 E.17475
G1 X111.593 Y125.618 E.17313
G1 X111.709 Y125.792 E.00657
G1 X111.709 Y136.167 E.32531
G1 X111.655 Y136.299 E.00446
G1 X111.52 Y136.356 E.00459
G1 X107.324 Y136.356 E.13157
G1 X106.096 Y137.462 E.05181
G1 X105.97 Y137.51 E.00424
G1 X92.678 Y137.51 E.41678
G1 X92.6 Y137.478 E.00264
M204 S1000
M73 P3 R33
G1 X92.405 Y137.492 F10800
;WIPE_START
G1 F8640
G1 X92.489 Y137.321 E-.04422
G1 X92.489 Y134.222 E-.71578
;WIPE_END
G1 E-.04 F2100
G1 Z.6 F720
G1 X112.551 Y136.284 F10800
G1 Z.2 F720
G1 E.8 F2100
M204 S800
;TYPE:Perimeter
;WIDTH:0.444381
G1 F1200
G1 X112.5 Y136.167 E.00424
G1 X112.5 Y125.792 E.34635
G1 X112.717 Y125.356 E.01624
;WIDTH:0.419999
G1 X112.862 Y125.269 E.00531
G1 X117.815 Y123.218 E.16809
G1 X119.867 Y118.264 E.16811
G1 X119.954 Y118.12 E.00529
;WIDTH:0.445384
G1 X120.389 Y117.902 E.01629
G1 X129.603 Y117.902 E.30834
G1 X130.039 Y118.12 E.01629
;WIDTH:0.419999
G1 X130.126 Y118.264 E.0053
G1 X132.177 Y123.217 E.1681
G1 X137.135 Y125.269 E.16823
G1 X137.279 Y125.356 E.00528
;WIDTH:0.443389
G1 X137.496 Y125.792 E.0162
G1 X137.496 Y136.167 E.34549
G1 X137.323 Y136.563 E.01436
;WIDTH:0.419999
G1 X137.059 Y136.715 E.00957
G1 X136.918 Y136.733 E.00443
G1 X132.865 Y136.733 E.12708
G1 X131.747 Y137.742 E.04722
G1 X131.466 Y137.879 E.0098
G1 X131.368 Y137.887 E.00308
G1 X118.626 Y137.887 E.39952
G1 X118.416 Y137.847 E.00669
G1 X118.247 Y137.742 E.00625
G1 X117.129 Y136.733 E.04722
G1 X113.078 Y136.733 E.12702
G1 X112.82 Y136.671 E.00832
G1 X112.673 Y136.562 E.00572
;WIDTH:0.444381
G1 X112.575 Y136.339 E.00815
M204 S1000
G1 X112.889 Y136.167 F10800
M204 S800
;TYPE:External perimeter
;WIDTH:0.419999
G1 F1200
G1 X112.889 Y125.792 E.32531
G1 X113.006 Y125.618 E.00659
G1 X118.103 Y123.506 E.17299
G1 X120.215 Y118.408 E.17301
G1 X120.373 Y118.293 E.00613
G1 X129.603 Y118.292 E.28941
G1 X129.748 Y118.36 E.00503
G1 X129.777 Y118.409 E.00177
G1 X131.889 Y123.506 E.173
G1 X136.991 Y125.618 E.17312
G1 X137.107 Y125.792 E.00657
G1 X137.107 Y136.167 E.32531
G1 X137.053 Y136.299 E.00446
G1 X136.918 Y136.356 E.00459
G1 X132.721 Y136.356 E.13162
G1 X131.494 Y137.461 E.05176
G1 X131.368 Y137.51 E.00424
G1 X118.626 Y137.51 E.39952
G1 X118.5 Y137.461 E.00424
G1 X117.273 Y136.356 E.05176
G1 X113.078 Y136.356 E.13156
G1 X112.943 Y136.299 E.00459
G1 X112.912 Y136.223 E.00258
M204 S1000
G1 X112.503 Y136.064 F10800
;WIPE_START
G1 F8640
G1 X112.904 Y132.932 E-.76
;WIPE_END
G1 E-.04 F2100
G1 Z.6 F720
G1 X157.707 Y137.709 F10800
G1 Z.2 F720
G1 E.8 F2100
M204 S800
;TYPE:Perimeter
G1 F1200
G1 X157.609 Y137.807 E.00433
G1 X157.318 Y137.887 E.00945
G1 X144.024 Y137.887 E.41684
G1 X143.814 Y137.847 E.00669
G1 X143.645 Y137.742 E.00625
G1 X142.527 Y136.733 E.04722
G1 X138.474 Y136.733 E.12708
G1 X138.216 Y136.671 E.00831
G1 X138.069 Y136.563 E.00572
;WIDTH:0.443389
G1 X137.896 Y136.167 E.01436
G1 X137.896 Y125.792 E.34549
G1 X138.113 Y125.356 E.0162
;WIDTH:0.419999
G1 X138.257 Y125.269 E.00529
G1 X143.213 Y123.218 E.16816
G1 X145.264 Y118.264 E.16811
G1 X145.351 Y118.12 E.00529
;WIDTH:0.445384
G1 X145.787 Y117.902 E.01629
G1 X156.166 Y117.902 E.34735
G1 X156.561 Y118.075 E.01443
;WIDTH:0.419999
M73 P3 R32
G1 X156.714 Y118.34 E.00958
G1 X156.732 Y118.481 E.00444
G1 X156.732 Y122.531 E.12699
G1 X157.739 Y123.653 E.0473
G1 X157.844 Y123.822 E.00623
G1 X157.884 Y124.031 E.00667
G1 X157.884 Y137.321 E.41671
G1 X157.804 Y137.611 E.00943
G1 X157.749 Y137.667 E.00245
M204 S1000
G1 X157.452 Y137.455 F10800
M204 S800
;TYPE:External perimeter
G1 F1200
G1 X157.318 Y137.51 E.00453
G1 X144.024 Y137.51 E.41684
G1 X143.898 Y137.461 E.00424
G1 X142.671 Y136.356 E.05176
G1 X138.474 Y136.356 E.13162
G1 X138.339 Y136.299 E.00459
G1 X138.285 Y136.167 E.00446
G1 X138.285 Y125.792 E.32531
G1 X138.402 Y125.618 E.00658
G1 X143.501 Y123.506 E.17306
G1 X145.613 Y118.408 E.17301
G1 X145.771 Y118.293 E.00613
G1 X156.166 Y118.292 E.32596
G1 X156.334 Y118.394 E.00616
G1 X156.355 Y118.481 E.00278
G1 X156.355 Y122.675 E.13152
G1 X157.459 Y123.905 E.05182
G1 X157.507 Y124.031 E.00423
G1 X157.507 Y137.321 E.41671
G1 X157.475 Y137.399 E.00264
M204 S1000
G1 X157.489 Y137.594 F10800
;WIPE_START
G1 F8640
G1 X157.318 Y137.51 E-.04424
G1 X154.219 Y137.51 E-.71576
;WIPE_END
G1 E-.04 F2100
G1 Z.6 F720
G1 X156.713 Y117.002 F10800
G1 Z.2 F720
G1 E.8 F2100
M204 S800
;TYPE:Perimeter
G1 F1200
G1 X156.67 Y117.18 E.00572
G1 X156.561 Y117.327 E.00573
;WIDTH:0.445384
G1 X156.166 Y117.5 E.01443
G1 X145.787 Y117.5 E.34735
G1 X145.351 Y117.282 E.01629
;WIDTH:0.419999
G1 X145.264 Y117.138 E.00529
G1 X143.213 Y112.182 E.16817
G1 X138.257 Y110.131 E.16817
G1 X138.113 Y110.044 E.00528
;WIDTH:0.443389
G1 X137.896 Y109.608 E.0162
G1 X137.896 Y100.392 E.30688
;WIDTH:0.443391
G1 X138.111 Y99.958 E.01615
;WIDTH:0.419999
G1 X138.257 Y99.869 E.00534
G1 X143.213 Y97.818 E.16817
G1 X145.264 Y92.862 E.16817
G1 X145.351 Y92.718 E.00528
;WIDTH:0.444382
G1 X145.787 Y92.501 E.01625
G1 X156.166 Y92.501 E.34649
G1 X156.562 Y92.674 E.0144
;WIDTH:0.419999
G1 X156.714 Y92.938 E.00958
G1 X156.732 Y93.079 E.00444
G1 X156.732 Y97.131 E.12705
G1 X157.739 Y98.253 E.0473
G1 X157.844 Y98.422 E.00623
G1 X157.884 Y98.631 E.00667
G1 X157.884 Y111.371 E.39944
G1 X157.844 Y111.58 E.00667
M73 P4 R32
G1 X157.739 Y111.749 E.00623
G1 X156.732 Y112.871 E.0473
G1 X156.727 Y116.944 E.12769
M204 S1000
G1 X156.355 Y116.921 F10800
M204 S800
;TYPE:External perimeter
G1 F1200
G1 X156.298 Y117.056 E.00459
G1 X156.166 Y117.11 E.00445
G1 X145.787 Y117.11 E.32544
G1 X145.642 Y117.042 E.00503
G1 X145.613 Y116.994 E.00176
G1 X143.501 Y111.894 E.17306
G1 X138.401 Y109.782 E.17306
G1 X138.286 Y109.624 E.00613
G1 X138.285 Y100.392 E.28948
G1 X138.401 Y100.218 E.00657
G1 X143.501 Y98.106 E.17306
G1 X145.613 Y93.006 E.17306
G1 X145.787 Y92.89 E.00657
G1 X156.166 Y92.89 E.32544
G1 X156.334 Y92.993 E.00617
G1 X156.355 Y93.079 E.00277
G1 X156.355 Y97.275 E.13158
G1 X157.459 Y98.505 E.05182
G1 X157.507 Y98.631 E.00423
G1 X157.507 Y111.371 E.39944
G1 X157.459 Y111.497 E.00423
G1 X156.355 Y112.727 E.05182
G1 X156.355 Y116.861 E.12963
M204 S1000
G1 X156.451 Y117.032 F10800
;WIPE_START
G1 F8640
G1 X156.298 Y117.056 E-.04691
G1 X156.166 Y117.11 E-.0328
G1 X153.22 Y117.11 E-.68029
;WIPE_END
G1 E-.04 F2100
G1 Z.6 F720
G1 X120.239 Y92.576 F10800
G1 Z.2 F720
G1 E.8 F2100
M204 S800
;TYPE:Perimeter
;WIDTH:0.444382
G1 F1200
G1 X120.389 Y92.501 E.00561
G1 X129.603 Y92.501 E.30758
G1 X130.039 Y92.718 E.01625
;WIDTH:0.419999
G1 X130.126 Y92.862 E.00528
G1 X132.177 Y97.818 E.16817
G1 X137.135 Y99.871 E.16825
G1 X137.279 Y99.959 E.00529
;WIDTH:0.443389
G1 X137.496 Y100.394 E.01619
G1 X137.496 Y109.608 E.30682
G1 X137.279 Y110.044 E.0162
;WIDTH:0.419999
G1 X137.135 Y110.131 E.00529
G1 X132.177 Y112.182 E.16822
G1 X130.126 Y117.138 E.16817
G1 X130.039 Y117.282 E.00529
;WIDTH:0.445384
G1 X129.603 Y117.5 E.01629
G1 X120.389 Y117.5 E.30834
G1 X119.953 Y117.282 E.01629
;WIDTH:0.419999
G1 X119.866 Y117.138 E.00529
G1 X117.815 Y112.182 E.16817
G1 X112.861 Y110.131 E.16811
G1 X112.717 Y110.044 E.00529
;WIDTH:0.444381
G1 X112.5 Y109.608 E.01624
G1 X112.5 Y100.392 E.30764
;WIDTH:0.444382
G1 X112.715 Y99.958 E.01619
;WIDTH:0.419999
G1 X112.861 Y99.869 E.00534
G1 X117.815 Y97.818 E.16811
G1 X119.866 Y92.862 E.16817
G1 X119.953 Y92.718 E.00528
;WIDTH:0.444382
G1 X120.185 Y92.602 E.00863
M204 S1000
G1 X120.389 Y92.89 F10800
M204 S800
;TYPE:External perimeter
;WIDTH:0.419999
G1 F1200
G1 X129.603 Y92.89 E.2889
G1 X129.777 Y93.006 E.00657
G1 X131.889 Y98.106 E.17307
G1 X136.991 Y100.22 E.17315
G1 X137.107 Y100.394 E.00657
G1 X137.107 Y109.608 E.2889
G1 X137.039 Y109.753 E.00503
G1 X136.991 Y109.782 E.00176
G1 X131.889 Y111.894 E.17312
G1 X129.777 Y116.994 E.17306
G1 X129.619 Y117.109 E.00613
G1 X120.389 Y117.11 E.28941
G1 X120.244 Y117.042 E.00503
G1 X120.215 Y116.994 E.00176
G1 X118.103 Y111.894 E.17307
G1 X113.005 Y109.782 E.17301
G1 X112.89 Y109.624 E.00613
G1 X112.889 Y100.392 E.28947
G1 X113.005 Y100.218 E.00657
G1 X118.103 Y98.106 E.17301
G1 X120.215 Y93.006 E.17307
G1 X120.337 Y92.916 E.00477
M204 S1000
G1 X120.444 Y92.494 F10800
;WIPE_START
G1 F8640
G1 X123.629 Y92.907 E-.76
;WIPE_END
G1 E-.04 F2100
G1 Z.6 F720
G1 X93.713 Y117.449 F10800
G1 Z.2 F720
G1 E.8 F2100
M204 S800
;TYPE:Perimeter
;WIDTH:0.445384
G1 F1200
G1 X93.435 Y117.327 E.01016
;WIDTH:0.419999
G1 X93.282 Y117.062 E.00959
G1 X93.264 Y116.921 E.00444
G1 X93.264 Y112.871 E.12699
G1 X92.257 Y111.749 E.0473
G1 X92.12 Y111.469 E.00976
G1 X92.112 Y111.371 E.00308
G1 X92.112 Y98.631 E.39944
G1 X92.152 Y98.422 E.00668
G1 X92.257 Y98.253 E.00623
G1 X93.264 Y97.132 E.04724
G1 X93.264 Y93.079 E.1271
G1 X93.326 Y92.82 E.00832
G1 X93.435 Y92.674 E.00572
;WIDTH:0.444382
G1 X93.83 Y92.501 E.01439
G1 X104.205 Y92.501 E.34635
G1 X104.641 Y92.718 E.01625
;WIDTH:0.419999
G1 X104.728 Y92.862 E.00528
G1 X106.779 Y97.818 E.16817
G1 X111.737 Y99.871 E.16825
G1 X111.881 Y99.959 E.00529
;WIDTH:0.444381
G1 X112.098 Y100.394 E.01624
G1 X112.098 Y109.608 E.30758
G1 X111.881 Y110.044 E.01624
;WIDTH:0.419999
G1 X111.737 Y110.131 E.00529
G1 X106.779 Y112.182 E.16822
G1 X104.728 Y117.138 E.16817
G1 X104.641 Y117.282 E.00529
;WIDTH:0.445384
G1 X104.205 Y117.5 E.01629
G1 X93.83 Y117.5 E.34721
G1 X93.768 Y117.473 E.00225
M204 S1000
G1 X93.83 Y117.11 F10800
M204 S800
;TYPE:External perimeter
;WIDTH:0.419999
G1 F1200
G1 X93.698 Y117.057 E.00445
G1 X93.641 Y116.921 E.0046
G1 X93.641 Y112.727 E.13151
G1 X92.537 Y111.497 E.05182
G1 X92.489 Y111.371 E.00423
G1 X92.489 Y98.631 E.39944
G1 X92.537 Y98.505 E.00423
G1 X93.641 Y97.277 E.05178
G1 X93.641 Y93.079 E.13163
G1 X93.698 Y92.944 E.00459
G1 X93.83 Y92.89 E.00446
G1 X104.205 Y92.89 E.32531
G1 X104.379 Y93.006 E.00657
G1 X106.491 Y98.106 E.17307
G1 X111.593 Y100.22 E.17315
G1 X111.709 Y100.394 E.00657
M73 P5 R32
G1 X111.709 Y109.608 E.2889
G1 X111.641 Y109.753 E.00503
G1 X111.593 Y109.782 E.00176
G1 X106.491 Y111.894 E.17312
G1 X104.379 Y116.994 E.17306
G1 X104.221 Y117.109 E.00613
G1 X93.89 Y117.11 E.32395
M204 S1000
G1 X93.73 Y117.211 F10800
;WIPE_START
G1 F8640
G1 X93.698 Y117.057 E-.04592
G1 X93.641 Y116.921 E-.03385
G1 X93.641 Y113.975 E-.68023
;WIPE_END
G1 E-.04 F2100
G1 Z.6 F720
G1 X112.047 Y73.716 F10800
G1 Z.2 F720
G1 E.8 F2100
M204 S800
;TYPE:Perimeter
;WIDTH:0.444381
G1 F1200
G1 X112.098 Y73.833 E.00424
G1 X112.098 Y84.208 E.34635
G1 X111.881 Y84.644 E.01624
;WIDTH:0.419999
G1 X111.737 Y84.731 E.00529
G1 X106.779 Y86.782 E.16822
G1 X104.728 Y91.738 E.16816
G1 X104.641 Y91.882 E.00528
;WIDTH:0.444382
G1 X104.205 Y92.099 E.01625
G1 X93.83 Y92.099 E.34635
G1 X93.435 Y91.926 E.01439
;WIDTH:0.419999
G1 X93.282 Y91.662 E.00958
G1 X93.264 Y91.521 E.00444
G1 X93.264 Y87.47 E.12704
G1 X92.257 Y86.349 E.04724
G1 X92.12 Y86.069 E.00977
G1 X92.112 Y85.971 E.00308
G1 X92.112 Y72.679 E.41677
G1 X92.133 Y72.525 E.00485
G1 X92.278 Y72.278 E.00897
G1 X92.524 Y72.134 E.00896
G1 X92.678 Y72.113 E.00485
G1 X105.968 Y72.115 E.41671
G1 X106.177 Y72.155 E.00667
G1 X106.346 Y72.26 E.00623
G1 X107.468 Y73.267 E.0473
G1 X111.52 Y73.267 E.12705
G1 X111.778 Y73.329 E.00832
G1 X111.925 Y73.438 E.00572
;WIDTH:0.444381
G1 X112.023 Y73.661 E.00815
M204 S1000
G1 X111.709 Y73.833 F10800
M204 S800
;TYPE:External perimeter
;WIDTH:0.419999
G1 F1200
G1 X111.709 Y84.208 E.32532
G1 X111.641 Y84.353 E.00503
G1 X111.593 Y84.382 E.00176
G1 X106.491 Y86.494 E.17312
G1 X104.379 Y91.594 E.17306
G1 X104.205 Y91.71 E.00657
G1 X93.83 Y91.71 E.32531
G1 X93.698 Y91.656 E.00446
G1 X93.641 Y91.521 E.00459
G1 X93.641 Y87.325 E.13157
G1 X92.537 Y86.097 E.05178
G1 X92.489 Y85.971 E.00423
G1 X92.489 Y72.679 E.41677
G1 X92.496 Y72.627 E.00162
G1 X92.581 Y72.517 E.00437
G1 X92.678 Y72.49 E.00315
G1 X105.968 Y72.492 E.41671
G1 X106.094 Y72.54 E.00423
G1 X107.324 Y73.644 E.05182
G1 X111.52 Y73.644 E.13158
G1 X111.655 Y73.701 E.00459
G1 X111.686 Y73.777 E.00258
M204 S1000
G1 X112.095 Y73.936 F10800
G1 X112.5 Y74.13
M204 S800
;TYPE:Perimeter
;WIDTH:0.444381
G1 F1200
G1 X112.5 Y73.833 E.00995
