; generated by PrusaSlicer 2.6.0-alpha6+linux-x64-GTK3 on 2023-05-08 at 03:33:45 UTC

; 

; external perimeters extrusion width = 0.60mm
; perimeters extrusion width = 0.43mm
; infill extrusion width = 0.45mm
; solid infill extrusion width = 0.70mm
; top infill extrusion width = 0.45mm
; first layer extrusion width = 0.42mm

M73 P0 R33
M201 X9000 Y9000 Z500 E10000 ; sets maximum accelerations, mm/sec^2
M203 X500 Y500 Z12 E120 ; sets maximum feedrates, mm / sec
M204 S2000 T1500 ; sets acceleration (S) and retract acceleration (R), mm/sec^2
M205 X10.00 Y10.00 Z0.20 E4.50 ; sets the jerk limits, mm/sec
M205 S0 T0 ; sets the minimum extruding and travel feed rate, mm/sec
;TYPE:Custom
M862.3 P "MK2.5" ; printer model check
M862.1 P0.4 ; nozzle diameter check
M115 U3.11.0 ; tell printer latest fw version
G90 ; use absolute coordinates
M83 ; extruder relative mode
M104 S215 ; set extruder temp
M140 S60 ; set bed temp
M190 S60 ; wait for bed temp
M109 S215 ; wait for extruder temp
G28 W ; home all without mesh bed level
G80 ; mesh bed leveling

G1 Z0.2 F720
G1 Y-3 F1000 ; go outside print area
G92 E0
G1 X60 E9 F1000 ; intro line
G1 X100 E12.5 F1000 ; intro line

G92 E0
G21 ; set units to millimeters
G90 ; use absolute coordinates
M83 ; use relative distances for extrusion
M900 K0.05 ; Filament gcode LA 1.5
M900 K30 ; Filament gcode LA 1.0
M107
;LAYER_CHANGE
;Z:0.2
;HEIGHT:0.2
;BEFORE_LAYER_CHANGE
G92 E0.0
;0.2


G1 E-.8 F2100
G1 Z.4 F720
;AFTER_LAYER_CHANGE
;0.2
;CURRENT_Z: 0.2
G1 X84.916 Y65.595 F10800
G1 Z.2 F720
G1 E.8 F2100
M204 S800
;TYPE:Skirt/Brim
;WIDTH:0.42
G1 F1200
G1 X85.961 Y64.719 E.04275
G1 X86.901 Y64.525 E.03009
G1 X163.099 Y64.525 E2.38913
G1 X164.406 Y64.917 E.04278
G1 X165.282 Y65.962 E.04275
G1 X165.476 Y66.902 E.03009
G1 X165.476 Y143.1 E2.38913
G1 X165.085 Y144.407 E.04277
G1 X164.039 Y145.283 E.04278
G1 X163.099 Y145.477 E.03009
G1 X86.901 Y145.477 E2.38913
G1 X85.594 Y145.085 E.04278
G1 X84.718 Y144.04 E.04275
G1 X84.524 Y143.1 E.03009
G1 X84.524 Y66.902 E2.38913
G1 X84.898 Y65.652 E.04091
M204 S1000
; printing object EA - AxoBlock Frame.stl id:0 copy 0
;WIPE_START
M73 P1 R33
G1 F8640
G1 X85.961 Y64.719 E-.32658
G1 X86.901 Y64.525 E-.22162
G1 X87.992 Y64.525 E-.2518
;WIPE_END
G1 Z.6 F720
G1 X88.223 Y68.223 F10800
G1 Z.2 F720
G1 E.8 F2100
M204 S800
;TYPE:Perimeter
;WIDTH:0.419999
G1 F1200
G1 X161.777 Y68.223 E2.30623
G1 X161.777 Y141.777 E2.30623
G1 X88.223 Y141.777 E2.30623
G1 X88.223 Y68.283 E2.30435
M204 S1000
G1 X87.846 Y67.846 F10800
M204 S800
;TYPE:External perimeter
G1 F1200
G1 X162.154 Y67.846 E2.32987
G1 X162.154 Y142.154 E2.32987
M73 P2 R33
G1 X87.846 Y142.154 E2.32987
G1 X87.846 Y67.906 E2.32799
M204 S1000
G1 X88.232 Y67.949 F10800
;WIPE_START
G1 F8640
G1 X91.311 Y67.903 E-.8
;WIPE_END
G1 Z.6 F720
G1 X92.29 Y137.709 F10800
G1 Z.2 F720
G1 E.8 F2100
M204 S800
;TYPE:Perimeter
M73 P2 R32
G1 F1200
G1 X92.192 Y137.612 E.00432
G1 X92.112 Y137.321 E.00946
G1 X92.112 Y124.031 E.4167
G1 X92.152 Y123.822 E.00667
G1 X92.257 Y123.653 E.00624
G1 X93.264 Y122.531 E.04727
G1 X93.264 Y118.481 E.12698
G1 X93.326 Y118.222 E.00835
G1 X93.435 Y118.075 E.00574
;WIDTH:0.445384
G1 X93.83 Y117.902 E.01443
G1 X104.205 Y117.902 E.3472
G1 X104.641 Y118.12 E.01631
;WIDTH:0.419999
G1 X104.728 Y118.264 E.00528
G1 X106.779 Y123.217 E.16809
G1 X111.737 Y125.269 E.16824
G1 X111.881 Y125.356 E.00528
;WIDTH:0.444381
G1 X112.098 Y125.792 E.01626
G1 X112.098 Y136.167 E.34633
G1 X111.925 Y136.562 E.01439
;WIDTH:0.419999
G1 X111.661 Y136.715 E.00957
G1 X111.52 Y136.733 E.00446
G1 X107.469 Y136.733 E.12702
G1 X106.348 Y137.742 E.04729
G1 X106.068 Y137.879 E.00977
G1 X105.97 Y137.887 E.00308
G1 X92.678 Y137.887 E.41676
G1 X92.387 Y137.807 E.00946
G1 X92.332 Y137.752 E.00244
M204 S1000
G1 X92.544 Y137.455 F10800
M204 S800
;TYPE:External perimeter
G1 F1200
G1 X92.489 Y137.321 E.00454
G1 X92.489 Y124.031 E.4167
G1 X92.537 Y123.905 E.00423
G1 X93.641 Y122.675 E.05182
G1 X93.641 Y118.481 E.1315
G1 X93.698 Y118.345 E.00462
G1 X93.83 Y118.292 E.00446
G1 X104.205 Y118.292 E.3253
G1 X104.35 Y118.36 E.00502
G1 X106.491 Y123.506 E.17476
G1 X111.593 Y125.618 E.17313
G1 X111.709 Y125.792 E.00656
G1 X111.709 Y136.167 E.3253
G1 X111.655 Y136.299 E.00447
G1 X111.52 Y136.356 E.00459
G1 X107.324 Y136.356 E.13156
G1 X106.096 Y137.462 E.05182
G1 X105.97 Y137.51 E.00423
G1 X92.678 Y137.51 E.41676
G1 X92.6 Y137.478 E.00264
M204 S1000
G1 X92.405 Y137.492 F10800
;WIPE_START
G1 F8640
G1 X92.489 Y137.321 E-.0444
G1 X92.489 Y134.049 E-.7556
;WIPE_END
M73 P3 R32
G1 Z.6 F720
G1 X112.997 Y136.714 F10800
G1 Z.2 F720
G1 E.8 F2100
M204 S800
;TYPE:Perimeter
G1 F1200
G1 X112.82 Y136.671 E.00571
G1 X112.673 Y136.562 E.00574
;WIDTH:0.444381
G1 X112.5 Y136.167 E.01439
G1 X112.5 Y125.792 E.34633
G1 X112.717 Y125.356 E.01626
;WIDTH:0.419999
G1 X112.862 Y125.269 E.0053
G1 X117.815 Y123.218 E.16809
G1 X119.867 Y118.264 E.16813
G1 X119.954 Y118.12 E.00528
;WIDTH:0.445384
G1 X120.389 Y117.902 E.01628
G1 X129.603 Y117.902 E.30835
G1 X130.039 Y118.12 E.01631
;WIDTH:0.419999
G1 X130.126 Y118.264 E.00528
G1 X132.177 Y123.217 E.16809
G1 X137.135 Y125.269 E.16824
G1 X137.279 Y125.356 E.00528
;WIDTH:0.443389
G1 X137.496 Y125.792 E.01622
G1 X137.496 Y136.167 E.34548
G1 X137.323 Y136.563 E.01439
;WIDTH:0.419999
G1 X137.059 Y136.715 E.00955
G1 X136.918 Y136.733 E.00446
G1 X132.865 Y136.733 E.12708
G1 X131.747 Y137.742 E.04722
G1 X131.466 Y137.879 E.0098
G1 X131.368 Y137.887 E.00308
G1 X118.626 Y137.887 E.39952
G1 X118.416 Y137.847 E.0067
G1 X118.247 Y137.742 E.00624
G1 X117.129 Y136.733 E.04722
G1 X113.055 Y136.728 E.12774
M204 S1000
G1 X113.078 Y136.356 F10800
M204 S800
;TYPE:External perimeter
G1 F1200
G1 X112.943 Y136.299 E.00459
G1 X112.889 Y136.167 E.00447
G1 X112.889 Y125.792 E.3253
G1 X113.006 Y125.618 E.00657
G1 X118.103 Y123.506 E.17299
G1 X120.215 Y118.408 E.17302
G1 X120.373 Y118.293 E.00613
G1 X129.603 Y118.292 E.2894
G1 X129.748 Y118.36 E.00502
G1 X129.777 Y118.409 E.00179
G1 X131.889 Y123.506 E.17299
G1 X136.991 Y125.618 E.17313
G1 X137.107 Y125.792 E.00656
G1 X137.107 Y136.167 E.3253
G1 X137.053 Y136.299 E.00447
G1 X136.918 Y136.356 E.00459
G1 X132.721 Y136.356 E.13159
G1 X131.494 Y137.461 E.05177
G1 X131.368 Y137.51 E.00424
G1 X118.626 Y137.51 E.39952
G1 X118.5 Y137.461 E.00424
G1 X117.273 Y136.356 E.05177
G1 X113.138 Y136.356 E.12965
M204 S1000
G1 X112.967 Y136.452 F10800
;WIPE_START
G1 F8640
G1 X112.943 Y136.299 E-.04691
G1 X112.889 Y136.167 E-.03293
G1 X112.889 Y133.048 E-.72016
;WIPE_END
G1 Z.6 F720
G1 X157.707 Y137.709 F10800
G1 Z.2 F720
G1 E.8 F2100
M204 S800
;TYPE:Perimeter
G1 F1200
G1 X157.609 Y137.807 E.00435
G1 X157.318 Y137.887 E.00946
G1 X144.024 Y137.887 E.41682
G1 X143.814 Y137.847 E.0067
G1 X143.645 Y137.742 E.00624
G1 X142.527 Y136.733 E.04722
G1 X138.474 Y136.733 E.12708
G1 X138.216 Y136.671 E.00832
G1 X138.069 Y136.563 E.00572
;WIDTH:0.443389
G1 X137.896 Y136.167 E.01439
G1 X137.896 Y125.792 E.34548
G1 X138.113 Y125.356 E.01622
;WIDTH:0.419999
G1 X138.257 Y125.269 E.00528
G1 X143.213 Y123.218 E.16817
G1 X145.264 Y118.264 E.16811
G1 X145.351 Y118.12 E.00528
;WIDTH:0.445384
G1 X145.787 Y117.902 E.01631
G1 X156.167 Y117.902 E.34737
G1 X156.561 Y118.075 E.0144
;WIDTH:0.419999
G1 X156.714 Y118.34 E.00959
G1 X156.732 Y118.481 E.00446
G1 X156.732 Y122.531 E.12698
G1 X157.739 Y123.653 E.04727
G1 X157.844 Y123.822 E.00624
G1 X157.884 Y124.031 E.00667
G1 X157.884 Y137.321 E.4167
G1 X157.804 Y137.611 E.00943
G1 X157.749 Y137.667 E.00246
M204 S1000
G1 X157.452 Y137.455 F10800
M204 S800
;TYPE:External perimeter
G1 F1200
G1 X157.318 Y137.51 E.00454
G1 X144.024 Y137.51 E.41682
G1 X143.898 Y137.461 E.00424
G1 X142.671 Y136.356 E.05177
G1 X138.474 Y136.356 E.13159
G1 X138.339 Y136.299 E.00459
G1 X138.285 Y136.167 E.00447
G1 X138.285 Y125.792 E.3253
G1 X138.402 Y125.618 E.00657
G1 X143.501 Y123.506 E.17305
G1 X145.613 Y118.408 E.17302
G1 X145.771 Y118.293 E.00613
G1 X156.167 Y118.292 E.32596
G1 X156.334 Y118.394 E.00614
G1 X156.355 Y118.481 E.00281
G1 X156.355 Y122.675 E.1315
G1 X157.459 Y123.905 E.05182
G1 X157.507 Y124.031 E.00423
G1 X157.507 Y137.321 E.4167
G1 X157.475 Y137.399 E.00264
M204 S1000
G1 X157.489 Y137.594 F10800
;WIPE_START
G1 F8640
G1 X157.318 Y137.51 E-.0444
G1 X154.046 Y137.51 E-.7556
;WIPE_END
G1 Z.6 F720
G1 X156.713 Y117.002 F10800
G1 Z.2 F720
G1 E.8 F2100
M204 S800
;TYPE:Perimeter
G1 F1200
G1 X156.67 Y117.18 E.00574
G1 X156.561 Y117.327 E.00574
;WIDTH:0.445384
G1 X156.167 Y117.5 E.0144
G1 X145.787 Y117.5 E.34737
G1 X145.351 Y117.282 E.01631
;WIDTH:0.419999
G1 X145.264 Y117.138 E.00528
G1 X143.213 Y112.182 E.16817
G1 X138.257 Y110.131 E.16817
G1 X138.113 Y110.044 E.00528
;WIDTH:0.443389
G1 X137.896 Y109.608 E.01622
G1 X137.896 Y100.392 E.30688
;WIDTH:0.443391
G1 X138.111 Y99.958 E.01613
;WIDTH:0.419999
G1 X138.257 Y99.869 E.00536
G1 X143.213 Y97.818 E.16817
G1 X145.264 Y92.862 E.16817
G1 X145.351 Y92.718 E.00528
;WIDTH:0.444382
G1 X145.787 Y92.501 E.01626
G1 X156.167 Y92.501 E.3465
G1 X156.562 Y92.674 E.01439
;WIDTH:0.419999
G1 X156.714 Y92.938 E.00955
G1 X156.732 Y93.079 E.00446
G1 X156.732 Y97.131 E.12705
G1 X157.739 Y98.253 E.04727
G1 X157.844 Y98.422 E.00624
G1 X157.884 Y98.631 E.00667
G1 X157.884 Y111.371 E.39945
G1 X157.844 Y111.58 E.00667
M73 P4 R32
G1 X157.739 Y111.749 E.00624
G1 X156.732 Y112.871 E.04727
G1 X156.727 Y116.944 E.12771
M204 S1000
G1 X156.355 Y116.921 F10800
M204 S800
;TYPE:External perimeter
G1 F1200
G1 X156.298 Y117.056 E.00459
G1 X156.167 Y117.11 E.00444
G1 X145.787 Y117.11 E.32546
G1 X145.642 Y117.042 E.00502
G1 X145.613 Y116.994 E.00176
G1 X143.501 Y111.894 E.17308
G1 X138.401 Y109.782 E.17308
G1 X138.286 Y109.624 E.00613
G1 X138.285 Y100.392 E.28946
G1 X138.401 Y100.218 E.00656
G1 X143.501 Y98.106 E.17308
G1 X145.613 Y93.006 E.17308
G1 X145.787 Y92.89 E.00656
G1 X156.167 Y92.89 E.32546
G1 X156.334 Y92.993 E.00615
G1 X156.355 Y93.079 E.00278
G1 X156.355 Y97.275 E.13156
G1 X157.459 Y98.505 E.05182
G1 X157.507 Y98.631 E.00423
G1 X157.507 Y111.371 E.39945
G1 X157.459 Y111.497 E.00423
G1 X156.355 Y112.727 E.05182
G1 X156.355 Y116.861 E.12962
M204 S1000
G1 X156.451 Y117.032 F10800
;WIPE_START
G1 F8640
G1 X156.298 Y117.056 E-.04691
G1 X156.167 Y117.11 E-.03272
G1 X153.047 Y117.11 E-.72037
;WIPE_END
G1 Z.6 F720
G1 X137.432 Y109.736 F10800
G1 Z.2 F720
G1 E.8 F2100
M204 S800
;TYPE:Perimeter
;WIDTH:0.443389
G1 F1200
G1 X137.279 Y110.044 E.01145
;WIDTH:0.419999
G1 X137.135 Y110.131 E.00528
G1 X132.177 Y112.182 E.16823
G1 X130.126 Y117.138 E.16817
G1 X130.039 Y117.282 E.00528
;WIDTH:0.445384
G1 X129.603 Y117.5 E.01631
G1 X120.389 Y117.5 E.30835
G1 X119.953 Y117.282 E.01631
;WIDTH:0.419999
G1 X119.866 Y117.138 E.00528
G1 X117.815 Y112.182 E.16817
G1 X112.861 Y110.131 E.16811
G1 X112.717 Y110.044 E.00528
;WIDTH:0.444381
G1 X112.5 Y109.608 E.01626
G1 X112.5 Y100.392 E.30764
;WIDTH:0.444382
G1 X112.715 Y99.958 E.01617
;WIDTH:0.419999
G1 X112.861 Y99.869 E.00536
G1 X117.815 Y97.818 E.16811
G1 X119.866 Y92.862 E.16817
G1 X119.953 Y92.718 E.00528
;WIDTH:0.444382
G1 X120.389 Y92.501 E.01626
G1 X129.603 Y92.501 E.30758
G1 X130.039 Y92.718 E.01626
;WIDTH:0.419999
G1 X130.126 Y92.862 E.00528
G1 X132.177 Y97.818 E.16817
G1 X137.135 Y99.871 E.16825
G1 X137.279 Y99.959 E.00529
;WIDTH:0.443389
G1 X137.496 Y100.394 E.01619
G1 X137.496 Y109.608 E.30682
G1 X137.459 Y109.682 E.00275
M204 S1000
G1 X137.107 Y109.608 F10800
M204 S800
;TYPE:External perimeter
;WIDTH:0.419999
G1 F1200
G1 X137.039 Y109.753 E.00502
G1 X136.991 Y109.782 E.00176
G1 X131.889 Y111.894 E.17313
G1 X129.777 Y116.994 E.17308
G1 X129.619 Y117.109 E.00613
G1 X120.389 Y117.11 E.2894
G1 X120.244 Y117.042 E.00502
G1 X120.215 Y116.994 E.00176
G1 X118.103 Y111.894 E.17308
G1 X113.005 Y109.782 E.17302
G1 X112.89 Y109.624 E.00613
G1 X112.889 Y100.392 E.28946
G1 X113.005 Y100.218 E.00656
G1 X118.103 Y98.106 E.17302
G1 X120.215 Y93.006 E.17308
G1 X120.373 Y92.891 E.00613
G1 X129.603 Y92.89 E.2894
G1 X129.777 Y93.006 E.00656
G1 X131.889 Y98.106 E.17308
G1 X136.991 Y100.22 E.17316
G1 X137.107 Y100.394 E.00656
G1 X137.107 Y109.548 E.28702
M204 S1000
G1 X137.217 Y109.725 F10800
;WIPE_START
G1 F8640
G1 X137.039 Y109.753 E-.04987
G1 X136.991 Y109.782 E-.01295
G1 X134.041 Y111.003 E-.73718
;WIPE_END
G1 Z.6 F720
G1 X93.713 Y92.552 F10800
G1 Z.2 F720
G1 E.8 F2100
M204 S800
;TYPE:Perimeter
;WIDTH:0.444382
G1 F1200
G1 X93.83 Y92.501 E.00426
G1 X104.205 Y92.501 E.34634
G1 X104.641 Y92.718 E.01626
;WIDTH:0.419999
G1 X104.728 Y92.862 E.00528
G1 X106.779 Y97.818 E.16817
G1 X111.737 Y99.871 E.16825
G1 X111.881 Y99.959 E.00529
;WIDTH:0.444381
G1 X112.098 Y100.394 E.01623
G1 X112.098 Y109.608 E.30758
G1 X111.881 Y110.044 E.01626
;WIDTH:0.419999
G1 X111.737 Y110.131 E.00528
G1 X106.779 Y112.182 E.16823
G1 X104.728 Y117.138 E.16817
G1 X104.641 Y117.282 E.00528
;WIDTH:0.445384
G1 X104.205 Y117.5 E.01631
G1 X93.83 Y117.5 E.3472
G1 X93.435 Y117.327 E.01443
;WIDTH:0.419999
G1 X93.282 Y117.062 E.00959
G1 X93.264 Y116.921 E.00446
G1 X93.264 Y112.871 E.12698
G1 X92.257 Y111.749 E.04727
G1 X92.12 Y111.469 E.00977
G1 X92.112 Y111.371 E.00308
G1 X92.112 Y98.631 E.39945
G1 X92.152 Y98.422 E.00667
G1 X92.257 Y98.253 E.00624
G1 X93.264 Y97.132 E.04725
G1 X93.264 Y93.079 E.12708
G1 X93.326 Y92.82 E.00835
G1 X93.435 Y92.674 E.00571
;WIDTH:0.444382
G1 X93.658 Y92.576 E.00813
M204 S1000
G1 X93.83 Y92.89 F10800
M204 S800
;TYPE:External perimeter
;WIDTH:0.419999
G1 F1200
G1 X104.205 Y92.89 E.3253
G1 X104.379 Y93.006 E.00656
G1 X106.491 Y98.106 E.17308
G1 X111.593 Y100.22 E.17316
G1 X111.709 Y100.394 E.00656
G1 X111.709 Y109.608 E.2889
G1 X111.641 Y109.753 E.00502
G1 X111.593 Y109.782 E.00176
G1 X106.491 Y111.894 E.17313
G1 X104.379 Y116.994 E.17308
G1 X104.221 Y117.109 E.00613
M73 P5 R32
G1 X93.83 Y117.11 E.3258
G1 X93.698 Y117.057 E.00446
G1 X93.641 Y116.921 E.00462
G1 X93.641 Y112.727 E.1315
G1 X92.537 Y111.497 E.05182
G1 X92.489 Y111.371 E.00423
G1 X92.489 Y98.631 E.39945
G1 X92.537 Y98.505 E.00423
G1 X93.641 Y97.277 E.05178
G1 X93.641 Y93.079 E.13163
G1 X93.698 Y92.944 E.00459
G1 X93.774 Y92.913 E.00257
M204 S1000
G1 X93.933 Y92.504 F10800
;WIPE_START
G1 F8640
G1 X97.239 Y92.905 E-.8
;WIPE_END
G1 Z.6 F720
G1 X111.601 Y73.286 F10800
G1 Z.2 F720
G1 E.8 F2100
M204 S800
;TYPE:Perimeter
G1 F1200
G1 X111.778 Y73.329 E.00571
G1 X111.925 Y73.438 E.00574
;WIDTH:0.444381
G1 X112.098 Y73.833 E.01439
G1 X112.098 Y84.208 E.34633
G1 X111.881 Y84.644 E.01626
;WIDTH:0.419999
G1 X111.737 Y84.731 E.00528
G1 X106.779 Y86.782 E.16823
G1 X104.728 Y91.738 E.16817
G1 X104.641 Y91.882 E.00528
;WIDTH:0.444382
G1 X104.205 Y92.099 E.01626
G1 X93.83 Y92.099 E.34634
G1 X93.435 Y91.926 E.01439
;WIDTH:0.419999
G1 X93.282 Y91.662 E.00957
G1 X93.264 Y91.521 E.00446
G1 X93.264 Y87.47 E.12702
G1 X92.257 Y86.349 E.04725
G1 X92.12 Y86.069 E.00977
G1 X92.112 Y85.971 E.00308
G1 X92.112 Y72.679 E.41676
G1 X92.192 Y72.388 E.00946
G1 X92.387 Y72.193 E.00865
G1 X92.678 Y72.113 E.00946
G1 X105.968 Y72.115 E.4167
G1 X106.177 Y72.155 E.00667
G1 X106.346 Y72.26 E.00624
G1 X107.468 Y73.267 E.04727
G1 X111.543 Y73.272 E.12777
M204 S1000
G1 X111.52 Y73.644 F10800
M204 S800
;TYPE:External perimeter
G1 F1200
G1 X111.655 Y73.701 E.00459
G1 X111.709 Y73.833 E.00447
G1 X111.709 Y84.208 E.3253
G1 X111.641 Y84.353 E.00502
G1 X106.491 Y86.494 E.17487
G1 X104.379 Y91.594 E.17308
G1 X104.205 Y91.71 E.00656
G1 X93.83 Y91.71 E.3253
G1 X93.698 Y91.656 E.00447
G1 X93.641 Y91.521 E.00459
G1 X93.641 Y87.325 E.13156
G1 X92.537 Y86.097 E.05178
G1 X92.489 Y85.971 E.00423
G1 X92.489 Y72.679 E.41676
G1 X92.544 Y72.545 E.00454
G1 X92.678 Y72.49 E.00454
G1 X105.968 Y72.492 E.4167
G1 X106.094 Y72.54 E.00423
G1 X107.324 Y73.644 E.05182
G1 X111.46 Y73.644 E.12968
M204 S1000
G1 X111.631 Y73.548 F10800
;WIPE_START
G1 F8640
G1 X111.655 Y73.701 E-.04691
G1 X111.709 Y73.833 E-.03293
G1 X111.709 Y76.952 E-.72016
;WIPE_END
G1 Z.6 F720
G1 X137.445 Y73.717 F10800
G1 Z.2 F720
G1 E.8 F2100
M204 S800
;TYPE:Perimeter
;WIDTH:0.443389
G1 F1200
G1 X137.496 Y73.833 E.00422
G1 X137.496 Y84.208 E.34548
G1 X137.279 Y84.644 E.01622
;WIDTH:0.419999
G1 X137.135 Y84.731 E.00528
