; generated by PrusaSlicer 2.8.0 on 2024-09-21 at 14:29:25 UTC

; 

; external perimeters extrusion width = 0.60mm
; perimeters extrusion width = 0.43mm
; infill extrusion width = 0.45mm
; solid infill extrusion width = 0.70mm
; top infill extrusion width = 0.45mm
; first layer extrusion width = 0.42mm

M73 P0 R34
M201 X9000 Y9000 Z500 E10000 ; sets maximum accelerations, mm/sec^2
M203 X500 Y500 Z12 E120 ; sets maximum feedrates, mm / sec
M204 S2000 T1500 ; sets acceleration (S) and retract acceleration (R), mm/sec^2
M205 X10.00 Y10.00 Z0.20 E4.50 ; sets the jerk limits, mm/sec
M205 S0 T0 ; sets the minimum extruding and travel feed rate, mm/sec

; printing object EA - AxoBlock Frame.stl id:0 copy 0
; stop printing object EA - AxoBlock Frame.stl id:0 copy 0

;TYPE:Custom
M862.3 P "MK2.5" ; printer model check
M862.1 P0.4 ; nozzle diameter check
M115 U3.11.0 ; tell printer latest fw version
G90 ; use absolute coordinates
M83 ; extruder relative mode
M104 S215 ; set extruder temp
M140 S60 ; set bed temp
M190 S60 ; wait for bed temp
M109 S215 ; wait for extruder temp
G28 W ; home all without mesh bed level
G80 ; mesh bed leveling

G1 Z0.2 F720
G1 Y-3 F1000 ; go outside print area
G92 E0
G1 X60 E9 F1000 ; intro line
G1 X100 E12.5 F1000 ; intro line

G92 E0
G21 ; set units to millimeters
G90 ; use absolute coordinates
M83 ; use relative distances for extrusion
M900 K0.05 ; Filament gcode LA 1.5
M900 K30 ; Filament gcode LA 1.0
M107
;LAYER_CHANGE
;Z:0.2
;HEIGHT:0.2
G1 E-.8 F2100
G1 Z.6 F720
G1 X85.103 Y65.654 F10800
G1 Z.2 F720
G1 E.8 F2100
M204 S800
;TYPE:Skirt/Brim
;WIDTH:0.42
G1 F1200
G1 X86.136 Y64.851 E.04102
G1 X86.901 Y64.713 E.02437
G1 X163.099 Y64.713 E2.38913
G1 X164.347 Y65.104 E.04101
G1 X165.15 Y66.137 E.04102
G1 X165.288 Y66.902 E.02437
G1 X165.288 Y143.1 E2.38913
G1 X164.897 Y144.348 E.04101
G1 X163.864 Y145.151 E.04102
G1 X163.099 Y145.289 E.02437
G1 X86.901 Y145.289 E2.38913
G1 X85.653 Y144.898 E.04101
G1 X84.85 Y143.865 E.04102
G1 X84.712 Y143.1 E.02437
G1 X84.712 Y66.902 E2.38913
G1 X85.085 Y65.711 E.03913
M73 P1 R33
M204 S1000
;WIPE_START
G1 F8640
G1 X85.103 Y65.654 E-.0138
G1 X86.136 Y64.851 E-.30211
G1 X86.901 Y64.713 E-.17949
G1 X88.22 Y64.713 E-.3046
;WIPE_END
G1 Z.6 F720
; printing object EA - AxoBlock Frame.stl id:0 copy 0
G1 X137.352 Y109.897 F10800
G1 Z.2 F720
G1 E.8 F2100
M204 S800
;TYPE:Perimeter
;WIDTH:0.443389
G1 F1200
G1 X137.279 Y110.044 E.00547
;WIDTH:0.419999
G1 X137.135 Y110.131 E.00528
G1 X132.177 Y112.182 E.16823
G1 X130.126 Y117.138 E.16817
G1 X130.039 Y117.282 E.00528
;WIDTH:0.445384
G1 X129.603 Y117.5 E.01631
G1 X120.389 Y117.5 E.30835
G1 X119.953 Y117.282 E.01631
;WIDTH:0.419999
G1 X119.866 Y117.138 E.00528
G1 X117.815 Y112.182 E.16817
G1 X112.861 Y110.131 E.16811
G1 X112.717 Y110.044 E.00528
;WIDTH:0.444381
G1 X112.5 Y109.608 E.01626
G1 X112.5 Y100.392 E.30764
G1 X112.715 Y99.958 E.01617
;WIDTH:0.419999
G1 X112.861 Y99.869 E.00536
G1 X115.055 Y98.961 E.07445
G1 X117.815 Y97.818 E.09366
G1 X119.866 Y92.862 E.16817
G1 X119.953 Y92.718 E.00528
;WIDTH:0.444382
G1 X120.389 Y92.501 E.01626
G1 X129.603 Y92.501 E.30758
G1 X130.039 Y92.718 E.01626
;WIDTH:0.419999
G1 X130.126 Y92.862 E.00528
G1 X132.177 Y97.818 E.16817
G1 X137.135 Y99.871 E.16825
G1 X137.279 Y99.959 E.00529
;WIDTH:0.443389
G1 X137.496 Y100.394 E.01619
G1 X137.496 Y109.608 E.30682
G1 X137.379 Y109.843 E.00874
M204 S1000
G1 X137.379 Y109.843 F10800
G1 X137.064 Y109.7
M204 S800
;TYPE:External perimeter
;WIDTH:0.419999
G1 F1200
G1 X137.039 Y109.753 E.00184
G1 X131.889 Y111.894 E.17487
G1 X129.777 Y116.994 E.17308
G1 X129.619 Y117.109 E.00613
G1 X120.389 Y117.11 E.2894
G1 X120.244 Y117.042 E.00502
G1 X118.103 Y111.894 E.17481
G1 X113.005 Y109.782 E.17302
G1 X112.89 Y109.624 E.00613
G1 X112.889 Y100.392 E.28946
G1 X113.005 Y100.218 E.00656
G1 X115.199 Y99.309 E.07446
G1 X118.103 Y98.106 E.09856
G1 X120.215 Y93.006 E.17308
G1 X120.373 Y92.891 E.00613
G1 X129.603 Y92.89 E.2894
G1 X129.777 Y93.006 E.00656
G1 X131.889 Y98.106 E.17308
G1 X136.991 Y100.22 E.17316
G1 X137.107 Y100.394 E.00656
G1 X137.107 Y109.608 E.2889
G1 X137.089 Y109.646 E.00132
M204 S1000
;WIPE_START
G1 F8640
G1 X137.064 Y109.7 E-.01374
G1 X137.039 Y109.753 E-.01353
G1 X133.949 Y111.038 E-.77273
;WIPE_END
G1 Z.6 F720
G1 X93.459 Y92.663 F10800
G1 Z.2 F720
G1 E.8 F2100
M204 S800
;TYPE:Perimeter
;WIDTH:0.444382
G1 F1200
G1 X93.83 Y92.501 E.01351
G1 X104.205 Y92.501 E.34634
G1 X104.641 Y92.718 E.01626
;WIDTH:0.419999
G1 X104.728 Y92.862 E.00528
G1 X106.779 Y97.818 E.16817
G1 X111.737 Y99.871 E.16825
G1 X111.881 Y99.959 E.00529
;WIDTH:0.444381
G1 X112.098 Y100.394 E.01623
G1 X112.098 Y109.608 E.30758
G1 X111.881 Y110.044 E.01626
;WIDTH:0.419999
G1 X111.737 Y110.131 E.00528
G1 X106.779 Y112.182 E.16823
G1 X104.728 Y117.138 E.16817
G1 X104.641 Y117.282 E.00528
;WIDTH:0.445384
G1 X104.205 Y117.5 E.01631
G1 X93.83 Y117.5 E.3472
G1 X93.435 Y117.327 E.01443
;WIDTH:0.419999
G1 X93.282 Y117.062 E.00959
G1 X93.264 Y116.921 E.00446
G1 X93.264 Y112.871 E.12698
G1 X92.257 Y111.749 E.04727
G1 X92.12 Y111.469 E.00977
G1 X92.112 Y111.371 E.00308
G1 X92.112 Y98.631 E.39945
G1 X92.152 Y98.422 E.00667
G1 X92.257 Y98.253 E.00624
G1 X93.264 Y97.132 E.04725
G1 X93.264 Y93.079 E.12708
G1 X93.326 Y92.82 E.00835
G1 X93.415 Y92.7 E.00468
M204 S1000
G1 X93.415 Y92.7 F10800
G1 X93.684 Y92.977
M204 S800
;TYPE:External perimeter
G1 F1200
G1 X93.698 Y92.944 E.00112
G1 X93.83 Y92.89 E.00447
G1 X104.205 Y92.89 E.3253
G1 X104.379 Y93.006 E.00656
G1 X106.491 Y98.106 E.17308
G1 X111.593 Y100.22 E.17316
G1 X111.709 Y100.394 E.00656
G1 X111.709 Y109.608 E.2889
G1 X111.641 Y109.753 E.00502
G1 X111.593 Y109.782 E.00176
G1 X106.491 Y111.894 E.17313
G1 X104.379 Y116.994 E.17308
G1 X104.221 Y117.109 E.00613
G1 X93.83 Y117.11 E.3258
G1 X93.698 Y117.057 E.00446
G1 X93.641 Y116.921 E.00462
G1 X93.641 Y112.727 E.1315
G1 X92.537 Y111.497 E.05182
G1 X92.489 Y111.371 E.00423
G1 X92.489 Y98.631 E.39945
G1 X92.537 Y98.505 E.00423
G1 X93.641 Y97.277 E.05178
G1 X93.641 Y93.079 E.13163
G1 X93.66 Y93.033 E.00156
M204 S1000
;WIPE_START
G1 F8640
G1 X93.684 Y92.977 E-.01407
G1 X93.698 Y92.944 E-.00828
G1 X93.83 Y92.89 E-.03293
G1 X97.055 Y92.89 E-.74472
;WIPE_END
G1 Z.6 F720
G1 X137.334 Y73.462 F10800
G1 Z.2 F720
M73 P2 R33
G1 E.8 F2100
M204 S800
;TYPE:Perimeter
;WIDTH:0.443389
G1 F1200
G1 X137.496 Y73.833 E.01348
G1 X137.496 Y84.208 E.34548
G1 X137.279 Y84.644 E.01622
;WIDTH:0.419999
G1 X137.135 Y84.731 E.00528
G1 X132.177 Y86.782 E.16823
G1 X130.126 Y91.738 E.16817
G1 X130.039 Y91.882 E.00528
;WIDTH:0.444382
G1 X129.603 Y92.099 E.01626
G1 X120.389 Y92.099 E.30758
G1 X119.953 Y91.882 E.01626
;WIDTH:0.419999
G1 X119.866 Y91.738 E.00528
G1 X117.815 Y86.782 E.16817
G1 X112.861 Y84.731 E.16811
G1 X112.717 Y84.644 E.00528
;WIDTH:0.444381
G1 X112.5 Y84.208 E.01626
G1 X112.5 Y73.833 E.34633
G1 X112.673 Y73.438 E.01439
;WIDTH:0.419999
G1 X112.937 Y73.285 E.00957
G1 X113.078 Y73.267 E.00446
G1 X117.129 Y73.267 E.12702
G1 X118.25 Y72.26 E.04725
G1 X118.53 Y72.123 E.00977
G1 X118.628 Y72.115 E.00308
G1 X131.366 Y72.115 E.39939
G1 X131.575 Y72.155 E.00667
G1 X131.744 Y72.26 E.00624
G1 X132.865 Y73.267 E.04725
G1 X136.918 Y73.267 E.12708
G1 X137.176 Y73.329 E.00832
G1 X137.297 Y73.418 E.00471
M204 S1000
G1 X137.297 Y73.418 F10800
G1 X137.02 Y73.687
M204 S800
;TYPE:External perimeter
G1 F1200
G1 X137.053 Y73.701 E.00112
G1 X137.107 Y73.833 E.00447
G1 X137.107 Y84.208 E.3253
G1 X137.039 Y84.353 E.00502
G1 X136.991 Y84.382 E.00176
G1 X131.889 Y86.494 E.17313
G1 X129.777 Y91.594 E.17308
G1 X129.603 Y91.71 E.00656
G1 X120.389 Y91.71 E.2889
G1 X120.244 Y91.642 E.00502
G1 X120.215 Y91.594 E.00176
G1 X118.103 Y86.494 E.17308
G1 X113.005 Y84.382 E.17302
G1 X112.889 Y84.208 E.00656
G1 X112.889 Y73.833 E.3253
G1 X112.992 Y73.665 E.00618
G1 X113.078 Y73.644 E.00278
G1 X117.274 Y73.644 E.13156
G1 X118.502 Y72.54 E.05178
G1 X118.628 Y72.492 E.00423
G1 X131.366 Y72.492 E.39939
G1 X131.492 Y72.54 E.00423
G1 X132.72 Y73.644 E.05178
G1 X136.918 Y73.644 E.13163
G1 X136.964 Y73.663 E.00156
M204 S1000
;WIPE_START
G1 F8640
G1 X137.02 Y73.687 E-.01407
G1 X137.053 Y73.701 E-.00828
G1 X137.107 Y73.833 E-.03293
G1 X137.107 Y77.058 E-.74472
;WIPE_END
G1 Z.6 F720
G1 X93.419 Y91.9 F10800
G1 Z.2 F720
G1 E.8 F2100
M204 S800
;TYPE:Perimeter
G1 F1200
G1 X93.282 Y91.662 E.00861
G1 X93.264 Y91.521 E.00446
G1 X93.264 Y87.47 E.12702
G1 X92.257 Y86.349 E.04725
G1 X92.12 Y86.069 E.00977
G1 X92.112 Y85.971 E.00308
G1 X92.112 Y72.679 E.41676
G1 X92.192 Y72.388 E.00946
G1 X92.387 Y72.193 E.00865
G1 X92.678 Y72.113 E.00946
G1 X105.968 Y72.115 E.4167
G1 X106.177 Y72.155 E.00667
G1 X106.346 Y72.26 E.00624
G1 X107.468 Y73.267 E.04727
G1 X111.52 Y73.267 E.12705
G1 X111.778 Y73.329 E.00832
G1 X111.925 Y73.438 E.00574
;WIDTH:0.444381
G1 X112.098 Y73.833 E.01439
G1 X112.098 Y84.208 E.34633
G1 X111.881 Y84.644 E.01626
;WIDTH:0.419999
G1 X111.737 Y84.731 E.00528
G1 X106.779 Y86.782 E.16823
G1 X104.728 Y91.738 E.16817
G1 X104.641 Y91.882 E.00528
;WIDTH:0.444382
G1 X104.205 Y92.099 E.01626
G1 X93.83 Y92.099 E.34634
G1 X93.462 Y91.938 E.01341
M204 S1000
G1 X93.462 Y91.938 F10800
G1 X93.684 Y91.623
M204 S800
;TYPE:External perimeter
;WIDTH:0.419999
G1 F1200
G1 X93.641 Y91.521 E.00347
G1 X93.641 Y87.325 E.13156
G1 X92.537 Y86.097 E.05178
G1 X92.489 Y85.971 E.00423
G1 X92.489 Y72.679 E.41676
G1 X92.544 Y72.545 E.00454
G1 X92.678 Y72.49 E.00454
G1 X105.968 Y72.492 E.4167
G1 X106.094 Y72.54 E.00423
G1 X107.324 Y73.644 E.05182
G1 X111.52 Y73.644 E.13156
G1 X111.655 Y73.701 E.00459
G1 X111.709 Y73.833 E.00447
G1 X111.709 Y84.208 E.3253
G1 X111.641 Y84.353 E.00502
G1 X106.491 Y86.494 E.17487
G1 X104.379 Y91.594 E.17308
G1 X104.205 Y91.71 E.00656
G1 X93.83 Y91.71 E.3253
G1 X93.719 Y91.665 E.00376
M204 S1000
;WIPE_START
G1 F8640
G1 X93.684 Y91.623 E-.01262
G1 X93.641 Y91.521 E-.02556
G1 X93.641 Y88.222 E-.76182
;WIPE_END
G1 Z.6 F720
G1 X156.537 Y91.937 F10800
G1 Z.2 F720
G1 E.8 F2100
M204 S800
;TYPE:Perimeter
;WIDTH:0.444382
G1 F1200
G1 X156.166 Y92.099 E.01351
G1 X145.787 Y92.099 E.34647
G1 X145.351 Y91.882 E.01626
;WIDTH:0.419999
G1 X145.264 Y91.738 E.00528
G1 X143.213 Y86.782 E.16817
G1 X138.257 Y84.731 E.16817
G1 X138.113 Y84.644 E.00528
;WIDTH:0.443389
G1 X137.896 Y84.208 E.01622
G1 X137.896 Y73.833 E.34548
G1 X138.069 Y73.437 E.01439
;WIDTH:0.419999
G1 X138.333 Y73.285 E.00955
G1 X138.474 Y73.267 E.00446
G1 X142.527 Y73.267 E.12708
G1 X143.648 Y72.26 E.04725
G1 X143.928 Y72.123 E.00977
G1 X144.026 Y72.115 E.00308
G1 X157.318 Y72.113 E.41676
G1 X157.609 Y72.193 E.00946
G1 X157.804 Y72.389 E.00867
G1 X157.884 Y72.679 E.00943
G1 X157.884 Y85.971 E.41676
G1 X157.844 Y86.18 E.00667
G1 X157.739 Y86.349 E.00624
G1 X156.732 Y87.47 E.04725
G1 X156.732 Y91.521 E.12702
G1 X156.67 Y91.779 E.00832
G1 X156.581 Y91.9 E.00471
M204 S1000
G1 X156.581 Y91.9 F10800
G1 X156.312 Y91.623
M204 S800
;TYPE:External perimeter
G1 F1200
G1 X156.298 Y91.656 E.00112
G1 X156.166 Y91.71 E.00447
G1 X145.787 Y91.71 E.32543
G1 X145.613 Y91.594 E.00656
M73 P3 R33
G1 X143.501 Y86.494 E.17308
G1 X138.353 Y84.353 E.17481
G1 X138.285 Y84.208 E.00502
G1 X138.285 Y73.833 E.3253
G1 X138.388 Y73.665 E.00618
G1 X138.474 Y73.644 E.00278
G1 X142.672 Y73.644 E.13163
G1 X143.9 Y72.54 E.05178
G1 X144.026 Y72.492 E.00423
G1 X157.318 Y72.49 E.41676
G1 X157.452 Y72.545 E.00454
G1 X157.507 Y72.679 E.00454
G1 X157.507 Y85.971 E.41676
G1 X157.459 Y86.097 E.00423
G1 X156.355 Y87.325 E.05178
G1 X156.355 Y91.521 E.13156
G1 X156.336 Y91.567 E.00156
M204 S1000
;WIPE_START
G1 F8640
G1 X156.312 Y91.623 E-.01407
G1 X156.298 Y91.656 E-.00828
G1 X156.166 Y91.71 E-.03293
G1 X152.941 Y91.71 E-.74472
;WIPE_END
G1 Z.6 F720
G1 X156.537 Y117.337 F10800
G1 Z.2 F720
G1 E.8 F2100
M204 S800
;TYPE:Perimeter
;WIDTH:0.445384
G1 F1200
G1 X156.166 Y117.5 E.01356
G1 X145.787 Y117.5 E.34733
G1 X145.351 Y117.282 E.01631
;WIDTH:0.419999
G1 X145.264 Y117.138 E.00528
G1 X143.213 Y112.182 E.16817
G1 X138.257 Y110.131 E.16817
G1 X138.113 Y110.044 E.00528
;WIDTH:0.443389
G1 X137.896 Y109.608 E.01622
G1 X137.896 Y100.392 E.30688
G1 X138.111 Y99.958 E.01613
;WIDTH:0.419999
G1 X138.257 Y99.869 E.00536
G1 X140.451 Y98.961 E.07445
G1 X143.213 Y97.818 E.09372
G1 X145.264 Y92.862 E.16817
G1 X145.351 Y92.718 E.00528
;WIDTH:0.444382
G1 X145.787 Y92.501 E.01626
G1 X156.166 Y92.501 E.34647
G1 X156.562 Y92.674 E.01443
;WIDTH:0.419999
G1 X156.714 Y92.938 E.00955
G1 X156.732 Y93.079 E.00446
G1 X156.732 Y97.131 E.12705
G1 X157.739 Y98.253 E.04727
G1 X157.844 Y98.422 E.00624
G1 X157.884 Y98.631 E.00667
G1 X157.884 Y111.371 E.39945
G1 X157.844 Y111.58 E.00667
G1 X157.739 Y111.749 E.00624
G1 X156.732 Y112.871 E.04727
G1 X156.732 Y116.921 E.12698
G1 X156.67 Y117.18 E.00835
G1 X156.581 Y117.3 E.00468
M204 S1000
G1 X156.581 Y117.3 F10800
G1 X156.312 Y117.023
M204 S800
;TYPE:External perimeter
G1 F1200
G1 X156.298 Y117.056 E.00112
G1 X156.166 Y117.11 E.00447
G1 X145.787 Y117.11 E.32543
G1 X145.642 Y117.042 E.00502
G1 X145.613 Y116.994 E.00176
G1 X143.501 Y111.894 E.17308
G1 X138.401 Y109.782 E.17308
G1 X138.285 Y109.608 E.00656
G1 X138.285 Y100.392 E.28896
G1 X138.401 Y100.218 E.00656
G1 X140.596 Y99.309 E.07449
G1 X143.501 Y98.106 E.09859
G1 X145.613 Y93.006 E.17308
G1 X145.787 Y92.89 E.00656
G1 X156.166 Y92.89 E.32543
G1 X156.334 Y92.993 E.00618
G1 X156.355 Y93.079 E.00278
G1 X156.355 Y97.275 E.13156
G1 X157.459 Y98.505 E.05182
G1 X157.507 Y98.631 E.00423
G1 X157.507 Y111.371 E.39945
G1 X157.459 Y111.497 E.00423
G1 X156.355 Y112.727 E.05182
G1 X156.355 Y116.921 E.1315
G1 X156.336 Y116.967 E.00156
M204 S1000
;WIPE_START
G1 F8640
G1 X156.312 Y117.023 E-.01407
G1 X156.298 Y117.056 E-.00828
G1 X156.166 Y117.11 E-.03293
G1 X152.941 Y117.11 E-.74472
;WIPE_END
G1 Z.6 F720
G1 X137.297 Y136.578 F10800
G1 Z.2 F720
G1 E.8 F2100
M204 S800
;TYPE:Perimeter
G1 F1200
G1 X137.059 Y136.715 E.00861
G1 X136.918 Y136.733 E.00446
G1 X132.865 Y136.733 E.12708
G1 X131.747 Y137.742 E.04722
G1 X131.466 Y137.879 E.0098
G1 X131.368 Y137.887 E.00308
G1 X118.626 Y137.887 E.39952
G1 X118.416 Y137.847 E.0067
G1 X118.247 Y137.742 E.00624
G1 X117.129 Y136.733 E.04722
G1 X113.078 Y136.733 E.12702
G1 X112.82 Y136.671 E.00832
G1 X112.673 Y136.562 E.00574
;WIDTH:0.444381
G1 X112.5 Y136.167 E.01439
G1 X112.5 Y125.792 E.34633
G1 X112.717 Y125.356 E.01626
;WIDTH:0.419999
G1 X112.862 Y125.269 E.0053
G1 X117.815 Y123.218 E.16809
G1 X119.867 Y118.264 E.16813
G1 X119.954 Y118.12 E.00528
;WIDTH:0.445384
G1 X120.389 Y117.902 E.01628
G1 X129.603 Y117.902 E.30835
G1 X130.039 Y118.12 E.01631
;WIDTH:0.419999
G1 X130.126 Y118.264 E.00528
G1 X132.177 Y123.217 E.16809
G1 X137.135 Y125.269 E.16824
G1 X137.279 Y125.356 E.00528
;WIDTH:0.443389
G1 X137.496 Y125.792 E.01622
G1 X137.496 Y136.167 E.34548
G1 X137.335 Y136.535 E.01338
M204 S1000
G1 X137.335 Y136.535 F10800
G1 X137.02 Y136.313
M204 S800
;TYPE:External perimeter
;WIDTH:0.419999
G1 F1200
G1 X136.918 Y136.356 E.00347
G1 X132.721 Y136.356 E.13159
G1 X131.494 Y137.461 E.05177
G1 X131.368 Y137.51 E.00424
G1 X118.626 Y137.51 E.39952
G1 X118.5 Y137.461 E.00424
G1 X117.273 Y136.356 E.05177
G1 X113.078 Y136.356 E.13153
G1 X112.943 Y136.299 E.00459
G1 X112.889 Y136.167 E.00447
G1 X112.889 Y125.792 E.3253
G1 X113.006 Y125.618 E.00657
G1 X118.103 Y123.506 E.17299
G1 X120.215 Y118.408 E.17302
G1 X120.373 Y118.293 E.00613
M73 P3 R32
G1 X129.603 Y118.292 E.2894
G1 X129.748 Y118.36 E.00502
G1 X129.777 Y118.409 E.00179
G1 X131.889 Y123.506 E.17299
G1 X136.991 Y125.618 E.17313
G1 X137.107 Y125.792 E.00656
G1 X137.107 Y136.167 E.3253
G1 X137.062 Y136.278 E.00376
M73 P4 R32
M204 S1000
;WIPE_START
G1 F8640
G1 X137.02 Y136.313 E-.01262
G1 X136.918 Y136.356 E-.02556
G1 X133.618 Y136.356 E-.76182
;WIPE_END
G1 Z.6 F720
G1 X156.577 Y118.102 F10800
G1 Z.2 F720
G1 E.8 F2100
M204 S800
;TYPE:Perimeter
G1 F1200
G1 X156.714 Y118.34 E.00861
G1 X156.732 Y118.481 E.00446
G1 X156.732 Y122.531 E.12698
G1 X157.739 Y123.653 E.04727
G1 X157.844 Y123.822 E.00624
G1 X157.884 Y124.031 E.00667
G1 X157.884 Y137.321 E.4167
G1 X157.804 Y137.611 E.00943
G1 X157.609 Y137.807 E.00867
G1 X157.318 Y137.887 E.00946
