; generated by PrusaSlicer 2.5.0+linux-x64-GTK3 on 2022-09-09 at 20:31:44 UTC

; 

; external perimeters extrusion width = 0.45mm
; perimeters extrusion width = 0.45mm
; infill extrusion width = 0.45mm
; solid infill extrusion width = 0.45mm
; top infill extrusion width = 0.40mm
; first layer extrusion width = 0.42mm

M73 P0 R12
M201 X9000 Y9000 Z500 E10000 ; sets maximum accelerations, mm/sec^2
M203 X500 Y500 Z12 E120 ; sets maximum feedrates, mm / sec
M204 P2000 R1500 T2000 ; sets acceleration (P, T) and retract acceleration (R), mm/sec^2
M205 X10.00 Y10.00 Z0.20 E4.50 ; sets the jerk limits, mm/sec
M205 S0 T0 ; sets the minimum extruding and travel feed rate, mm/sec
M107
;TYPE:Custom
M862.3 P "MK2.5" ; printer model check
M862.1 P0.4 ; nozzle diameter check
M115 U3.11.0 ; tell printer latest fw version
G90 ; use absolute coordinates
M83 ; extruder relative mode
M104 S215 ; set extruder temp
M140 S60 ; set bed temp
M190 S60 ; wait for bed temp
M109 S215 ; wait for extruder temp
G28 W ; home all without mesh bed level
G80 ; mesh bed leveling

G1 Z0.2 F720
G1 Y-3 F1000 ; go outside print area
G92 E0
G1 X60 E9 F1000 ; intro line
G1 X100 E12.5 F1000 ; intro line

G92 E0
G21 ; set units to millimeters
G90 ; use absolute coordinates
M83 ; use relative distances for extrusion
M900 K0.05 ; Filament gcode LA 1.5
M900 K30 ; Filament gcode LA 1.0
M107
;LAYER_CHANGE
;Z:0.2
;HEIGHT:0.2
;BEFORE_LAYER_CHANGE
G92 E0.0
;0.2


G1 E-.8 F2100
G1 Z.4 F720
;AFTER_LAYER_CHANGE
;0.2
;CURRENT_Z: 0.2
G1 X109.938 Y90.882 F10800
G1 Z.2 F720
G1 E.8 F2100
M204 S800
;TYPE:Skirt/Brim
;WIDTH:0.42
G1 F1200
G1 X111.004 Y89.868 E.04612
G1 X112.299 Y89.545 E.04186
G1 X137.701 Y89.545 E.79646
G1 X139.118 Y89.938 E.04612
M73 P1 R12
G1 X140.132 Y91.004 E.04612
G1 X140.455 Y92.299 E.04186
G1 X140.455 Y117.701 E.79646
G1 X140.062 Y119.118 E.04612
G1 X138.996 Y120.132 E.04612
G1 X137.701 Y120.455 E.04186
G1 X112.299 Y120.455 E.79646
G1 X110.882 Y120.062 E.04612
G1 X109.868 Y118.996 E.04612
G1 X109.545 Y117.701 E.04186
G1 X109.545 Y92.299 E.79646
G1 X109.922 Y90.939 E.04424
M204 S1000
G1 X110.296 Y91.051 F10800
M204 S800
G1 F1200
G1 X110.314 Y90.992 E.00195
G1 X111.359 Y90.116 E.04278
G1 X112.299 Y89.922 E.03008
G1 X137.701 Y89.922 E.79646
G1 X139.008 Y90.314 E.04278
G1 X139.884 Y91.359 E.04278
G1 X140.078 Y92.299 E.03008
G1 X140.078 Y117.701 E.79646
G1 X139.687 Y119.008 E.04278
M73 P2 R12
G1 X138.641 Y119.884 E.04278
G1 X137.701 Y120.078 E.03008
G1 X112.299 Y120.078 E.79646
G1 X110.992 Y119.686 E.04278
G1 X110.116 Y118.641 E.04278
G1 X109.922 Y117.701 E.03008
G1 X109.922 Y92.299 E.79646
G1 X110.278 Y91.109 E.03895
M204 S1000
; printing object I - AxoBlock Frame.stl id:0 copy 0
;WIPE_START
G1 F8640
G1 X110.314 Y90.992 E-.0282
G1 X111.359 Y90.116 E-.31505
G1 X112.299 Y89.922 E-.22155
G1 X113.144 Y89.922 E-.1952
;WIPE_END
G1 E-.04 F2100
G1 Z.6 F720
G1 X113.484 Y93.484 F10800
G1 Z.2 F720
G1 E.8 F2100
M204 S800
;TYPE:Perimeter
;WIDTH:0.419999
G1 F1200
G1 X136.516 Y93.474 E.72215
G1 X136.513 Y116.513 E.72236
G1 X113.48 Y116.51 E.72218
G1 X113.484 Y93.544 E.72008
M204 S1000
G1 X113.107 Y93.107 F10800
M204 S800
;TYPE:External perimeter
M73 P3 R12
G1 F1200
G1 X136.893 Y93.097 E.7458
G1 X136.89 Y116.89 E.74602
G1 X113.103 Y116.887 E.74582
G1 X113.107 Y93.167 E.74372
M204 S1000
G1 X113.493 Y93.21 F10800
;WIPE_START
G1 F8640
G1 X116.398 Y93.157 E-.76
;WIPE_END
G1 E-.04 F2100
G1 Z.6 F720
G1 X132.459 Y97.976 F10800
G1 Z.2 F720
G1 E.8 F2100
M204 S800
;TYPE:Perimeter
G1 F1200
G1 X132.483 Y98.062 E.00282
G1 X132.483 Y111.917 E.43442
G1 X132.403 Y112.208 E.00944
G1 X132.208 Y112.403 E.00866
G1 X131.917 Y112.483 E.00944
G1 X118.072 Y112.483 E.4341
G1 X117.782 Y112.403 E.00944
G1 X117.587 Y112.208 E.00866
G1 X117.507 Y111.917 E.00944
G1 X117.507 Y98.072 E.4341
G1 X117.587 Y97.782 E.00944
M73 P4 R12
G1 X117.782 Y97.587 E.00865
G1 X118.072 Y97.507 E.00943
G1 X131.917 Y97.497 E.43411
G1 X132.208 Y97.577 E.00948
G1 X132.403 Y97.773 E.00866
G1 X132.443 Y97.918 E.00471
M204 S1000
G1 X132.106 Y98.062 F10800
M204 S800
;TYPE:External perimeter
G1 F1200
G1 X132.106 Y111.917 E.43442
G1 X132.051 Y112.051 E.00452
G1 X131.917 Y112.106 E.00453
G1 X118.072 Y112.106 E.4341
G1 X117.939 Y112.051 E.00452
G1 X117.884 Y111.917 E.00453
G1 X117.884 Y98.072 E.4341
G1 X117.911 Y97.976 E.00315
G1 X118.04 Y97.887 E.00492
G1 X118.072 Y97.884 E.00102
G1 X131.917 Y97.874 E.4341
G1 X132.051 Y97.929 E.00454
G1 X132.083 Y98.007 E.00263
M204 S1000
G1 X132.492 Y98.166 F10800
;WIPE_START
G1 F8640
G1 X132.088 Y101.298 E-.76
;WIPE_END
G1 E-.04 F2100
G1 Z.6 F720
G1 X136.403 Y94.356 F10800
G1 Z.2 F720
G1 E.8 F2100
M204 S800
;TYPE:Solid infill
;WIDTH:0.423046
G1 F1200
G1 X135.804 Y93.757 E.02676
G1 X135.267 Y93.757 E.01698
G1 X136.233 Y94.724 E.04319
G1 X136.233 Y95.261 E.01699
G1 X134.729 Y93.758 E.06721
G1 X134.192 Y93.758 E.01698
G1 X136.233 Y95.799 E.09123
G1 X136.233 Y96.336 E.01699
G1 X133.655 Y93.758 E.11524
G1 X133.117 Y93.758 E.01698
G1 X136.233 Y96.874 E.13926
G1 X136.233 Y97.411 E.01699
G1 X132.58 Y93.758 E.16328
G1 X132.043 Y93.759 E.01698
G1 X136.233 Y97.949 E.18729
G1 X136.233 Y98.486 E.01699
G1 X131.505 Y93.759 E.21131
G1 X130.968 Y93.759 E.01698
G1 X136.232 Y99.024 E.23533
G1 X136.232 Y99.561 E.01699
G1 X130.431 Y93.759 E.25934
G1 X129.893 Y93.76 E.01698
G1 X136.232 Y100.099 E.28336
G1 X136.232 Y100.636 E.01699
M73 P5 R12
G1 X129.356 Y93.76 E.30738
G1 X128.818 Y93.76 E.01698
G1 X136.232 Y101.174 E.33139
G1 X136.232 Y101.711 E.01699
G1 X132.766 Y98.245 E.15494
G1 X132.766 Y98.056 E.00598
G1 X132.735 Y97.833 E.0071
G1 X132.647 Y97.628 E.00705
G1 X132.519 Y97.463 E.0066
G1 X132.354 Y97.334 E.00664
G1 X132.148 Y97.245 E.0071
G1 X131.923 Y97.214 E.00716
G1 X131.735 Y97.214 E.00596
G1 X128.281 Y93.76 E.15438
G1 X127.744 Y93.761 E.01698
G1 X131.198 Y97.214 E.15439
G1 X130.66 Y97.215 E.01698
G1 X127.206 Y93.761 E.15439
G1 X126.669 Y93.761 E.01698
G1 X130.123 Y97.215 E.1544
G1 X129.586 Y97.216 E.01698
G1 X126.132 Y93.761 E.15441
G1 X125.594 Y93.761 E.01698
G1 X129.049 Y97.216 E.15442
G1 X128.512 Y97.216 E.01698
G1 X125.057 Y93.762 E.15442
G1 X124.52 Y93.762 E.01698
G1 X127.974 Y97.217 E.15443
G1 X127.437 Y97.217 E.01698
G1 X123.982 Y93.762 E.15444
G1 X123.445 Y93.762 E.01698
G1 X126.9 Y97.218 E.15445
G1 X126.363 Y97.218 E.01698
G1 X122.908 Y93.763 E.15445
G1 X122.37 Y93.763 E.01698
G1 X125.826 Y97.218 E.15446
G1 X125.289 Y97.219 E.01698
G1 X121.833 Y93.763 E.15447
G1 X121.296 Y93.763 E.01698
G1 X124.751 Y97.219 E.15448
G1 X124.214 Y97.219 E.01698
G1 X120.758 Y93.763 E.15448
G1 X120.221 Y93.764 E.01698
G1 X123.677 Y97.22 E.15449
G1 X123.14 Y97.22 E.01698
G1 X119.683 Y93.764 E.1545
G1 X119.146 Y93.764 E.01698
G1 X122.603 Y97.221 E.15451
G1 X122.065 Y97.221 E.01698
G1 X118.609 Y93.764 E.15452
G1 X118.071 Y93.765 E.01698
G1 X121.528 Y97.221 E.15452
G1 X120.991 Y97.222 E.01698
G1 X117.534 Y93.765 E.15453
G1 X116.997 Y93.765 E.01698
M73 P5 R11
G1 X120.454 Y97.222 E.15454
M73 P6 R11
G1 X119.917 Y97.223 E.01698
G1 X116.459 Y93.765 E.15455
G1 X115.922 Y93.765 E.01698
G1 X119.38 Y97.223 E.15455
G1 X118.842 Y97.223 E.01698
G1 X115.385 Y93.766 E.15456
G1 X114.847 Y93.766 E.01698
G1 X118.305 Y97.224 E.15457
G1 X118.065 Y97.224 E.00758
G1 X117.812 Y97.268 E.00813
G1 X114.31 Y93.766 E.15653
G1 X113.773 Y93.766 E.01698
G1 X117.475 Y97.469 E.16552
G1 X117.343 Y97.637 E.00675
G1 X117.272 Y97.803 E.00572
G1 X113.767 Y94.298 E.15668
G1 X113.766 Y94.835 E.01699
G1 X117.224 Y98.293 E.15455
G1 X117.224 Y98.831 E.01699
G1 X113.766 Y95.373 E.15456
G1 X113.766 Y95.91 E.01699
G1 X117.224 Y99.368 E.15456
G1 X117.224 Y99.906 E.01699
G1 X113.766 Y96.448 E.15456
G1 X113.766 Y96.985 E.01699
G1 X117.224 Y100.443 E.15457
G1 X117.224 Y100.981 E.01699
G1 X113.766 Y97.523 E.15457
G1 X113.766 Y98.06 E.01699
G1 X117.224 Y101.518 E.15457
G1 X117.224 Y102.056 E.01699
G1 X113.766 Y98.598 E.15458
G1 X113.766 Y99.135 E.01699
G1 X117.224 Y102.594 E.15458
G1 X117.224 Y103.131 E.01699
G1 X113.766 Y99.673 E.15459
G1 X113.766 Y100.21 E.01699
G1 X117.224 Y103.669 E.15459
G1 X117.224 Y104.206 E.01699
G1 X113.766 Y100.748 E.15459
G1 X113.765 Y101.285 E.01699
G1 X117.224 Y104.744 E.1546
G1 X117.224 Y105.281 E.01699
G1 X113.765 Y101.823 E.1546
G1 X113.765 Y102.36 E.01699
G1 X117.224 Y105.819 E.1546
G1 X117.224 Y106.357 E.01699
G1 X113.765 Y102.898 E.15461
G1 X113.765 Y103.435 E.01699
G1 X117.224 Y106.894 E.15461
G1 X117.224 Y107.432 E.01699
G1 X113.765 Y103.973 E.15461
G1 X113.765 Y104.51 E.01699
G1 X117.224 Y107.969 E.15462
G1 X117.224 Y108.507 E.01699
G1 X113.765 Y105.048 E.15462
G1 X113.765 Y105.585 E.01699
M73 P7 R11
G1 X117.224 Y109.045 E.15463
G1 X117.224 Y109.582 E.01699
G1 X113.765 Y106.123 E.15463
G1 X113.765 Y106.66 E.01699
G1 X117.224 Y110.12 E.15463
G1 X117.224 Y110.657 E.01699
G1 X113.765 Y107.198 E.15464
G1 X113.764 Y107.735 E.01699
G1 X117.394 Y111.365 E.16223
M204 S1000
;WIPE_START
G1 F8640
G1 X115.066 Y109.037 E-.76
;WIPE_END
G1 E-.04 F2100
G1 Z.6 F720
G1 X132.596 Y98.613 F10800
G1 Z.2 F720
G1 E.8 F2100
M204 S800
G1 F1200
G1 X136.232 Y102.249 E.16253
G1 X136.232 Y102.786 E.01699
G1 X132.766 Y99.32 E.15494
G1 X132.766 Y99.858 E.01699
G1 X136.232 Y103.324 E.15494
G1 X136.232 Y103.861 E.01699
G1 X132.766 Y100.395 E.15493
G1 X132.766 Y100.933 E.01699
G1 X136.232 Y104.399 E.15493
G1 X136.232 Y104.936 E.01699
G1 X132.766 Y101.47 E.15493
G1 X132.766 Y102.008 E.01699
G1 X136.232 Y105.474 E.15492
G1 X136.232 Y106.011 E.01699
G1 X132.766 Y102.546 E.15492
G1 X132.766 Y103.083 E.01699
G1 X136.232 Y106.549 E.15492
G1 X136.232 Y107.086 E.01699
G1 X132.766 Y103.621 E.15491
G1 X132.766 Y104.158 E.01699
G1 X136.231 Y107.624 E.15491
G1 X136.231 Y108.162 E.01699
G1 X132.766 Y104.696 E.15491
G1 X132.766 Y105.234 E.01699
G1 X136.231 Y108.699 E.15491
G1 X136.231 Y109.237 E.01699
G1 X132.766 Y105.771 E.1549
G1 X132.766 Y106.309 E.01699
G1 X136.231 Y109.774 E.1549
G1 X136.231 Y110.312 E.01699
G1 X132.766 Y106.846 E.1549
G1 X132.766 Y107.384 E.01699
G1 X136.231 Y110.849 E.15489
G1 X136.231 Y111.387 E.01699
G1 X132.766 Y107.921 E.15489
G1 X132.766 Y108.459 E.01699
G1 X136.231 Y111.924 E.15489
G1 X136.231 Y112.462 E.01699
G1 X132.766 Y108.997 E.15489
G1 X132.766 Y109.534 E.01699
M73 P8 R11
G1 X136.231 Y112.999 E.15488
G1 X136.231 Y113.537 E.01699
G1 X132.766 Y110.072 E.15488
G1 X132.766 Y110.609 E.01699
G1 X136.231 Y114.074 E.15488
G1 X136.231 Y114.612 E.01699
G1 X132.766 Y111.147 E.15487
G1 X132.766 Y111.685 E.01699
G1 X136.231 Y115.149 E.15487
G1 X136.23 Y115.687 E.01699
G1 X132.722 Y112.178 E.15684
G1 X132.647 Y112.353 E.00601
G1 X132.521 Y112.514 E.00648
G1 X136.23 Y116.23 E.16596
G1 X135.699 Y116.23 E.01681
G1 X132.187 Y112.718 E.15698
G1 X131.924 Y112.766 E.00844
G1 X131.697 Y112.766 E.00718
G1 X135.161 Y116.23 E.15484
G1 X134.623 Y116.23 E.01699
G1 X131.159 Y112.766 E.15484
G1 X130.622 Y112.766 E.01699
G1 X134.086 Y116.23 E.15483
G1 X133.548 Y116.23 E.01699
G1 X130.084 Y112.766 E.15483
G1 X129.547 Y112.766 E.01699
G1 X133.01 Y116.23 E.15483
G1 X132.473 Y116.229 E.01699
G1 X129.009 Y112.766 E.15482
G1 X128.471 Y112.766 E.01699
G1 X131.935 Y116.229 E.15482
G1 X131.397 Y116.229 E.01699
G1 X127.934 Y112.766 E.15482
G1 X127.396 Y112.766 E.01699
G1 X130.86 Y116.229 E.15482
G1 X130.322 Y116.229 E.01699
G1 X126.859 Y112.766 E.15481
G1 X126.321 Y112.766 E.01699
G1 X129.784 Y116.229 E.15481
G1 X129.247 Y116.229 E.01699
G1 X125.783 Y112.766 E.15481
G1 X125.246 Y112.766 E.01699
G1 X128.709 Y116.229 E.1548
G1 X128.171 Y116.229 E.01699
G1 X124.708 Y112.766 E.1548
G1 X124.171 Y112.766 E.01699
G1 X127.634 Y116.229 E.1548
G1 X127.096 Y116.229 E.01699
G1 X123.633 Y112.766 E.15479
G1 X123.096 Y112.766 E.01699
G1 X126.558 Y116.229 E.15479
G1 X126.021 Y116.229 E.01699
G1 X122.558 Y112.766 E.15479
G1 X122.02 Y112.766 E.01699
G1 X125.483 Y116.229 E.15478
G1 X124.946 Y116.228 E.01699
G1 X121.483 Y112.766 E.15478
M73 P9 R11
G1 X120.945 Y112.766 E.01699
G1 X124.408 Y116.228 E.15478
G1 X123.87 Y116.228 E.01699
G1 X120.408 Y112.766 E.15477
G1 X119.87 Y112.766 E.01699
G1 X123.333 Y116.228 E.15477
G1 X122.795 Y116.228 E.01699
G1 X119.333 Y112.766 E.15477
G1 X118.795 Y112.766 E.01699
G1 X122.257 Y116.228 E.15476
G1 X121.72 Y116.228 E.01699
G1 X118.257 Y112.766 E.15476
G1 X118.066 Y112.766 E.00605
G1 X117.843 Y112.735 E.00712
G1 X117.637 Y112.647 E.00707
G1 X117.472 Y112.518 E.00661
G1 X117.343 Y112.353 E.00662
G1 X117.255 Y112.147 E.00707
G1 X117.224 Y111.924 E.00713
G1 X117.224 Y111.732 E.00605
G1 X113.764 Y108.273 E.15464
G1 X113.764 Y108.81 E.01699
G1 X121.182 Y116.228 E.33157
G1 X120.644 Y116.228 E.01699
G1 X113.764 Y109.348 E.30754
G1 X113.764 Y109.885 E.01699
G1 X120.107 Y116.228 E.28351
G1 X119.569 Y116.228 E.01699
G1 X113.764 Y110.423 E.25948
G1 X113.764 Y110.96 E.01699
G1 X119.031 Y116.228 E.23545
G1 X118.494 Y116.228 E.01699
G1 X113.764 Y111.498 E.21142
G1 X113.764 Y112.035 E.01699
G1 X117.956 Y116.228 E.18739
G1 X117.418 Y116.227 E.01699
G1 X113.764 Y112.573 E.16336
G1 X113.764 Y113.11 E.01699
G1 X116.881 Y116.227 E.13933
G1 X116.343 Y116.227 E.01699
G1 X113.764 Y113.648 E.11531
G1 X113.763 Y114.185 E.01699
G1 X115.805 Y116.227 E.09128
G1 X115.268 Y116.227 E.01699
G1 X113.763 Y114.723 E.06725
G1 X113.763 Y115.26 E.01699
G1 X114.73 Y116.227 E.04322
G1 X114.192 Y116.227 E.01699
G1 X113.594 Y115.628 E.02677
M204 S1000
; stop printing object I - AxoBlock Frame.stl id:0 copy 0
M106 S84.15
;LAYER_CHANGE
;Z:0.4
;HEIGHT:0.2
;BEFORE_LAYER_CHANGE
G92 E0.0
;0.4


;WIPE_START
G1 F8640
G1 X114.192 Y116.227 E-.19558
G1 X114.73 Y116.227 E-.12415
G1 X113.763 Y115.26 E-.31572
G1 X113.763 Y114.723 E-.12411
G1 X113.765 Y114.724 E-.00045
;WIPE_END
G1 E-.04 F2100
G1 Z.6 F720
;AFTER_LAYER_CHANGE
;0.4
;CURRENT_Z: 0.4
M104 S210 ; set temperature
G1 X109.545 Y114.724 F10800
G1 Z.4 F720
G1 E.8 F2100
;TYPE:Skirt/Brim
;WIDTH:0.42
G1 F3000
G1 X109.545 Y92.299 E.70312
G1 X109.938 Y90.882 E.04612
G1 X111.004 Y89.868 E.04612
G1 X112.299 Y89.545 E.04186
G1 X137.701 Y89.545 E.79646
M73 P10 R11
G1 X139.118 Y89.938 E.04612
G1 X140.132 Y91.004 E.04612
G1 X140.455 Y92.299 E.04186
G1 X140.455 Y117.701 E.79646
G1 X140.062 Y119.118 E.04612
G1 X138.996 Y120.132 E.04612
G1 X137.701 Y120.455 E.04186
G1 X112.299 Y120.455 E.79646
G1 X110.882 Y120.062 E.04612
G1 X109.868 Y118.996 E.04612
G1 X109.545 Y117.701 E.04186
G1 X109.545 Y114.784 E.09146
G1 X109.922 Y114.784 F10800
G1 F3000
G1 X109.922 Y92.299 E.70501
G1 X110.314 Y90.992 E.04278
G1 X111.359 Y90.116 E.04278
G1 X112.299 Y89.922 E.03008
G1 X137.701 Y89.922 E.79646
G1 X139.008 Y90.314 E.04278
G1 X139.884 Y91.359 E.04278
G1 X140.078 Y92.299 E.03008
G1 X140.078 Y117.701 E.79646
G1 X139.687 Y119.008 E.04278
G1 X138.641 Y119.884 E.04278
G1 X137.701 Y120.078 E.03008
G1 X112.299 Y120.078 E.79646
G1 X110.992 Y119.686 E.04278
G1 X110.116 Y118.641 E.04278
G1 X109.922 Y117.701 E.03008
G1 X109.922 Y114.844 E.08957
; printing object I - AxoBlock Frame.stl id:0 copy 0
;WIPE_START
G1 F8640
G1 X109.922 Y111.553 E-.76
;WIPE_END
G1 E-.04 F2100
G1 Z.8 F720
G1 X113.119 Y93.119 F10800
G1 Z.4 F720
G1 E.8 F2100
M204 S800
;TYPE:Perimeter
;WIDTH:0.449999
G1 F3000
G1 X136.871 Y93.119 E.80398
G1 X136.871 Y116.871 E.80398
G1 X113.119 Y116.871 E.80398
G1 X113.119 Y93.179 E.80195
M204 S1000
G1 X112.712 Y92.712 F10800
M204 S800
;TYPE:External perimeter
G1 F2400
G1 X137.278 Y92.712 E.83154
G1 X137.278 Y117.278 E.83154
M73 P11 R11
G1 X112.712 Y117.278 E.83154
G1 X112.712 Y92.772 E.82951
M204 S1000
G1 X113.098 Y92.815 F10800
;WIPE_START
G1 F8640
G1 X116.003 Y92.764 E-.76
;WIPE_END
G1 E-.04 F2100
G1 Z.8 F720
G1 X132.302 Y98.169 F10800
G1 Z.4 F720
G1 E.8 F2100
M204 S800
;TYPE:Perimeter
G1 F3000
G1 X132.328 Y98.262 E.00328
G1 X132.328 Y111.717 E.45544
G1 X132.242 Y112.031 E.011
G1 X132.031 Y112.242 E.01009
G1 X131.717 Y112.328 E.011
G1 X118.272 Y112.328 E.4551
G1 X117.959 Y112.242 E.011
G1 X117.748 Y112.031 E.01009
G1 X117.662 Y111.717 E.011
G1 X117.662 Y98.272 E.4551
G1 X117.748 Y97.959 E.011
G1 X117.959 Y97.748 E.01008
G1 X118.272 Y97.662 E.01099
G1 X131.717 Y97.652 E.45511
G1 X132.031 Y97.739 E.01103
G1 X132.242 Y97.95 E.01009
G1 X132.286 Y98.111 E.00566
M204 S1000
