; generated by PrusaSlicer 2.8.0 on 2024-09-21 at 14:29:34 UTC

; 

; external perimeters extrusion width = 0.60mm
; perimeters extrusion width = 0.43mm
; infill extrusion width = 0.45mm
; solid infill extrusion width = 0.70mm
; top infill extrusion width = 0.45mm
; first layer extrusion width = 0.42mm

M73 P0 R6
M201 X9000 Y9000 Z500 E10000 ; sets maximum accelerations, mm/sec^2
M203 X500 Y500 Z12 E120 ; sets maximum feedrates, mm / sec
M204 S2000 T1500 ; sets acceleration (S) and retract acceleration (R), mm/sec^2
M205 X10.00 Y10.00 Z0.20 E4.50 ; sets the jerk limits, mm/sec
M205 S0 T0 ; sets the minimum extruding and travel feed rate, mm/sec

; printing object I - AxoBlock Frame.stl id:0 copy 0
; stop printing object I - AxoBlock Frame.stl id:0 copy 0

;TYPE:Custom
M862.3 P "MK2.5" ; printer model check
M862.1 P0.4 ; nozzle diameter check
M115 U3.11.0 ; tell printer latest fw version
G90 ; use absolute coordinates
M83 ; extruder relative mode
M104 S215 ; set extruder temp
M140 S60 ; set bed temp
M190 S60 ; wait for bed temp
M109 S215 ; wait for extruder temp
G28 W ; home all without mesh bed level
G80 ; mesh bed leveling

G1 Z0.2 F720
G1 Y-3 F1000 ; go outside print area
G92 E0
G1 X60 E9 F1000 ; intro line
G1 X100 E12.5 F1000 ; intro line

G92 E0
G21 ; set units to millimeters
G90 ; use absolute coordinates
M83 ; use relative distances for extrusion
M900 K0.05 ; Filament gcode LA 1.5
M900 K30 ; Filament gcode LA 1.0
M107
;LAYER_CHANGE
;Z:0.2
;HEIGHT:0.2
G1 E-.8 F2100
M73 P1 R6
G1 Z.6 F720
G1 X110.126 Y90.936 F10800
G1 Z.2 F720
G1 E.8 F2100
M204 S800
;TYPE:Skirt/Brim
;WIDTH:0.42
G1 F1200
G1 X111.182 Y89.989 E.04447
G1 X112.299 Y89.733 E.03593
G1 X137.701 Y89.733 E.79646
G1 X139.064 Y90.126 E.04448
M73 P2 R6
G1 X140.011 Y91.182 E.04447
G1 X140.267 Y92.299 E.03593
G1 X140.267 Y117.701 E.79646
G1 X139.874 Y119.064 E.04448
G1 X138.818 Y120.011 E.04447
G1 X137.701 Y120.267 E.03593
G1 X112.299 Y120.267 E.79646
G1 X110.936 Y119.874 E.04448
G1 X109.989 Y118.818 E.04447
G1 X109.733 Y117.701 E.03593
G1 X109.733 Y92.299 E.79646
G1 X110.109 Y90.993 E.04261
M73 P3 R6
M204 S1000
G1 X110.109 Y90.993 F10800
G1 X110.483 Y91.11
M204 S800
G1 F1200
G1 X110.501 Y91.051 E.00193
G1 X111.534 Y90.248 E.04102
G1 X112.299 Y90.11 E.02437
G1 X137.701 Y90.11 E.79646
G1 X138.949 Y90.501 E.04101
G1 X139.752 Y91.534 E.04102
G1 X139.89 Y92.299 E.02437
G1 X139.89 Y117.701 E.79646
G1 X139.499 Y118.949 E.04101
G1 X138.466 Y119.752 E.04102
G1 X137.701 Y119.89 E.02437
G1 X112.299 Y119.89 E.79646
G1 X111.051 Y119.499 E.04101
M73 P4 R6
G1 X110.248 Y118.466 E.04102
G1 X110.11 Y117.701 E.02437
G1 X110.11 Y92.299 E.79646
G1 X110.465 Y91.168 E.03717
M204 S1000
;WIPE_START
G1 F8640
G1 X110.483 Y91.11 E-.01402
G1 X110.501 Y91.051 E-.01424
G1 X111.534 Y90.248 E-.30211
G1 X112.299 Y90.11 E-.17949
G1 X113.556 Y90.11 E-.29014
;WIPE_END
G1 Z.6 F720
; printing object I - AxoBlock Frame.stl id:0 copy 0
G1 X132.305 Y97.674 F10800
G1 Z.2 F720
G1 E.8 F2100
M204 S800
;TYPE:Perimeter
;WIDTH:0.419999
G1 F1200
G1 X132.403 Y97.773 E.00437
G1 X132.483 Y98.062 E.0094
G1 X132.483 Y111.917 E.43441
G1 X132.403 Y112.208 E.00946
G1 X132.208 Y112.403 E.00865
G1 X131.917 Y112.483 E.00946
G1 X118.072 Y112.483 E.4341
G1 X117.782 Y112.403 E.00943
G1 X117.587 Y112.208 E.00865
G1 X117.507 Y111.917 E.00946
G1 X117.507 Y98.072 E.4341
G1 X117.587 Y97.782 E.00943
M73 P5 R6
G1 X117.782 Y97.587 E.00865
G1 X118.072 Y97.507 E.00943
G1 X131.917 Y97.497 E.4341
G1 X132.208 Y97.577 E.00946
G1 X132.263 Y97.632 E.00244
M204 S1000
G1 X132.263 Y97.632 F10800
G1 X132.018 Y97.916
M204 S800
;TYPE:External perimeter
G1 F1200
G1 X132.051 Y97.929 E.00111
G1 X132.106 Y98.062 E.00451
G1 X132.106 Y111.917 E.43441
G1 X132.051 Y112.051 E.00454
G1 X131.917 Y112.106 E.00454
G1 X118.072 Y112.106 E.4341
G1 X117.939 Y112.051 E.00451
G1 X117.884 Y111.917 E.00454
G1 X117.884 Y98.072 E.4341
G1 X117.939 Y97.939 E.00451
G1 X118.072 Y97.884 E.00451
G1 X131.917 Y97.874 E.4341
G1 X131.963 Y97.893 E.00156
M73 P6 R6
M204 S1000
;WIPE_START
G1 F8640
G1 X132.018 Y97.916 E-.01377
G1 X132.051 Y97.929 E-.00819
G1 X132.106 Y98.062 E-.03323
G1 X132.106 Y101.288 E-.74481
;WIPE_END
G1 Z.6 F720
G1 X136.513 Y116.513 F10800
G1 Z.2 F720
G1 E.8 F2100
M204 S800
;TYPE:Perimeter
G1 F1200
G1 X113.48 Y116.51 E.72218
G1 X113.484 Y93.484 E.72196
G1 X136.516 Y93.474 E.72215
G1 X136.516 Y95.931 E.07704
G1 X136.513 Y116.453 E.64345
M204 S1000
G1 X136.513 Y116.453 F10800
M73 P7 R6
G1 X136.89 Y116.89
M204 S800
;TYPE:External perimeter
G1 F1200
G1 X113.103 Y116.887 E.74582
G1 X113.107 Y93.107 E.7456
G1 X136.893 Y93.097 E.74579
G1 X136.893 Y95.931 E.08886
M73 P8 R6
G1 X136.89 Y116.83 E.65527
M204 S1000
;WIPE_START
G1 F8640
G1 X136.89 Y116.89 E-.01385
G1 X133.485 Y116.89 E-.78615
;WIPE_END
G1 Z.6 F720
G1 X135.817 Y114.969 F10800
G1 Z.2 F720
G1 E.8 F2100
M204 S800
;TYPE:Internal infill
;WIDTH:0.42
G1 F1200
G1 X134.681 Y116.231 E.05324
G1 X131.147 Y116.23 E.11081
G1 X130.898 Y114.345 E.05962
M204 S1000
;WIPE_START
G1 F8640
G1 X131.147 Y116.23 E-.43903
G1 X132.71 Y116.23 E-.36097
;WIPE_END
G1 Z.6 F720
G1 X136.232 Y114.774 F10800
G1 Z.2 F720
G1 E.8 F2100
M204 S800
G1 F1200
G1 X136.232 Y112.274 E.07839
G1 X135.982 Y112.274 E.00784
G1 X136.033 Y110.595 E.05267
G1 X134.215 Y108.748 E.08126
G1 X134.559 Y104.974 E.11882
M204 S1000
;WIPE_START
G1 F8640
G1 X134.244 Y108.425 E-.8
;WIPE_END
G1 Z.6 F720
G1 X135.74 Y106.5 F10800
G1 Z.2 F720
G1 E.8 F2100
M204 S800
G1 F1200
G1 X133.749 Y106.705 E.06276
G1 X134.173 Y108.565 E.05982
M204 S1000
;WIPE_START
G1 F8640
G1 X133.749 Y106.705 E-.4405
G1 X135.298 Y106.546 E-.3595
;WIPE_END
G1 Z.6 F720
G1 X133.44 Y100.875 F10800
G1 Z.2 F720
M73 P9 R6
G1 E.8 F2100
M204 S800
G1 F1200
G1 X136.233 Y100.875 E.08757
G1 X136.234 Y93.756 E.22321
G1 X132.34 Y93.757 E.12209
G1 X132.34 Y95.249 E.04678
G1 X134.462 Y96.799 E.08239
G1 X134.922 Y94.472 E.07437
M204 S1000
;WIPE_START
G1 F8640
G1 X134.462 Y96.799 E-.54771
G1 X133.58 Y96.154 E-.25229
;WIPE_END
G1 Z.6 F720
G1 X132.153 Y95.249 F10800
G1 Z.2 F720
G1 E.8 F2100
M204 S800
G1 F1200
G1 X129.69 Y95.25 E.07723
M204 S1000
;WIPE_START
G1 F8640
G1 X132.153 Y95.249 E-.56871
;WIPE_END
G1 E-.23129 F2100
G1 Z.6 F720
G1 X129.881 Y97.216 F10800
G1 Z.2 F720
G1 E.8 F2100
M204 S800
G1 F1200
G1 X127.381 Y97.218 E.07839
G1 X127.381 Y96.757 E.01445
G1 X127.148 Y94.845 E.06039
M204 S1000
;WIPE_START
G1 F8640
G1 X127.381 Y96.757 E-.44475
G1 X127.381 Y97.218 E-.10645
G1 X128.458 Y97.217 E-.2488
;WIPE_END
G1 Z.6 F720
G1 X121.925 Y96.41 F10800
G1 Z.2 F720
G1 E.8 F2100
M204 S800
G1 F1200
G1 X122.545 Y93.932 E.08009
M204 S1000
;WIPE_START
G1 F8640
G1 X121.925 Y96.41 E-.58981
;WIPE_END
G1 E-.21019 F2100
G1 Z.6 F720
G1 X124.571 Y95.401 F10800
G1 Z.2 F720
G1 E.8 F2100
M204 S800
G1 F1200
G1 X122.604 Y93.762 E.08028
G1 X116.126 Y93.764 E.20311
G1 X114.989 Y95.031 E.05338
M204 S1000
;WIPE_START
G1 F8640
G1 X116.126 Y93.764 E-.39308
G1 X117.888 Y93.763 E-.40692
;WIPE_END
G1 Z.6 F720
G1 X117.29 Y96.13 F10800
G1 Z.2 F720
G1 E.8 F2100
M204 S800
G1 F1200
G1 X118.675 Y96.441 E.04451
G1 X118.676 Y97.225 E.02458
M73 P10 R6
G1 X117.842 Y97.256 E.02617
G1 X117.638 Y97.344 E.00697
G1 X117.344 Y97.637 E.01301
G1 X117.225 Y98.066 E.01396
G1 X117.225 Y99.483 E.04443
G1 X115.692 Y99.483 E.04807
G1 X115.148 Y97.845 E.05412
M204 S1000
;WIPE_START
G1 F8640
G1 X115.692 Y99.483 E-.39853
G1 X117.225 Y99.483 E-.35397
G1 X117.225 Y99.277 E-.0475
;WIPE_END
G1 Z.6 F720
G1 X114.315 Y103.5 F10800
G1 Z.2 F720
G1 E.8 F2100
M204 S800
G1 F1200
G1 X117.225 Y103.5 E.09124
G1 X117.225 Y106 E.07839
M204 S1000
;WIPE_START
G1 F8640
G1 X117.225 Y103.5 E-.57726
G1 X116.26 Y103.5 E-.22274
;WIPE_END
G1 Z.6 F720
G1 X114.52 Y108.825 F10800
G1 Z.2 F720
G1 E.8 F2100
M204 S800
G1 F1200
G1 X115.369 Y107.413 E.05166
M204 S1000
;WIPE_START
G1 F8640
G1 X114.52 Y108.825 E-.38043
;WIPE_END
G1 E-.41957 F2100
G1 Z.6 F720
G1 X116.747 Y108.852 F10800
G1 Z.2 F720
G1 E.8 F2100
M204 S800
G1 F1200
G1 X115.465 Y107.253 E.06426
G1 X115.09 Y111.375 E.12978
G1 X113.763 Y111.374 E.04161
G1 X113.762 Y113.874 E.07839
M204 S1000
;WIPE_START
G1 F8640
G1 X113.763 Y111.374 E-.57726
G1 X114.728 Y111.374 E-.22274
;WIPE_END
G1 Z.6 F720
G1 X115.739 Y114.531 F10800
G1 Z.2 F720
G1 E.8 F2100
M204 S800
G1 F1200
G1 X117.339 Y113.251 E.06424
G1 X115.234 Y111.495 E.08595
M204 S1000
;WIPE_START
G1 F8640
G1 X117.339 Y113.251 E-.63297
G1 X116.774 Y113.703 E-.16703
;WIPE_END
G1 Z.6 F720
G1 X117.475 Y113.38 F10800
G1 Z.2 F720
G1 E.8 F2100
M204 S800
G1 F1200
G1 X119.245 Y115.07 E.07673
G1 X118.04 Y115.745 E.04331
M204 S1000
;WIPE_START
G1 F8640
G1 X119.245 Y115.07 E-.31892
G1 X117.738 Y113.632 E-.48108
;WIPE_END
G1 Z.6 F720
G1 X120.669 Y116.229 F10800
G1 Z.2 F720
G1 E.8 F2100
M204 S800
G1 F1200
G1 X123.169 Y116.229 E.07839
G1 X124.914 Y116.072 E.05493
M73 P11 R6
G1 X126.747 Y114.684 E.07209
G1 X124.839 Y112.875 E.08244
G1 X124.839 Y112.765 E.00345
G1 X127.339 Y112.765 E.07839
M204 S1000
;WIPE_START
G1 F8640
G1 X124.839 Y112.765 E-.57726
G1 X124.839 Y112.875 E-.0254
G1 X125.459 Y113.463 E-.19734
;WIPE_END
G1 Z.6 F720
G1 X124.651 Y112.875 F10800
G1 Z.2 F720
G1 E.8 F2100
M204 S800
G1 F1200
G1 X122.565 Y112.875 E.06541
M204 S1000
M106 S84.15
;LAYER_CHANGE
;Z:0.55
;HEIGHT:0.35
;BEFORE_LAYER_CHANGE
G92 E0.0
;0.55


;WIPE_START
G1 F8640
G1 X124.651 Y112.875 E-.48166
;WIPE_END
G1 E-.31834 F2100
G1 Z.55 F720
;AFTER_LAYER_CHANGE
;0.55
;CURRENT_Z: 0.55
M104 S210 ; set temperature
; stop printing object I - AxoBlock Frame.stl id:0 copy 0
G1 Z.95
G1 X124.651 Y120.267 F10800
G1 Z.55 F720
G1 E.8 F2100
;TYPE:Skirt/Brim
G1 F3000
G1 X112.299 Y120.267 E.6199
G1 X110.936 Y119.874 E.07119
G1 X109.989 Y118.818 E.07119
G1 X109.733 Y117.701 E.05751
G1 X109.733 Y92.299 E1.27482
G1 X110.126 Y90.936 E.07119
G1 X111.182 Y89.989 E.07119
G1 X112.299 Y89.733 E.05751
G1 X137.701 Y89.733 E1.27482
G1 X139.064 Y90.126 E.07119
G1 X140.011 Y91.182 E.07119
G1 X140.267 Y92.299 E.05751
G1 X140.267 Y117.701 E1.27482
G1 X139.874 Y119.064 E.07119
G1 X138.818 Y120.011 E.07119
G1 X137.701 Y120.267 E.05751
G1 X124.711 Y120.267 E.65192
G1 X124.711 Y120.267 F10800
G1 X124.711 Y119.89
G1 F3000
G1 X112.299 Y119.89 E.62291
G1 X111.051 Y119.499 E.06563
M73 P12 R6
G1 X110.248 Y118.466 E.06566
G1 X110.11 Y117.701 E.03901
G1 X110.11 Y92.299 E1.27482
G1 X110.501 Y91.051 E.06563
G1 X111.534 Y90.248 E.06566
G1 X112.299 Y90.11 E.03901
G1 X137.701 Y90.11 E1.27482
G1 X138.949 Y90.501 E.06563
G1 X139.752 Y91.534 E.06566
G1 X139.89 Y92.299 E.03901
G1 X139.89 Y117.701 E1.27482
G1 X139.499 Y118.949 E.06563
G1 X138.466 Y119.752 E.06566
G1 X137.701 Y119.89 E.03901
G1 X124.771 Y119.89 E.6489
;WIPE_START
G1 F8640
G1 X124.711 Y119.89 E-.01385
G1 X121.306 Y119.89 E-.78615
;WIPE_END
G1 Z.95 F720
; printing object I - AxoBlock Frame.stl id:0 copy 0
G1 X132.225 Y97.747 F10800
G1 Z.55 F720
G1 E.8 F2100
M204 S800
;TYPE:Perimeter
;WIDTH:0.43
G1 F3000
G1 X132.231 Y97.751 E.00037
G1 X132.41 Y98.056 E.01826
G1 X132.436 Y98.246 E.0099
G1 X132.436 Y111.734 E.69653
G1 X132.41 Y111.924 E.0099
G1 X132.23 Y112.23 E.01833
G1 X131.924 Y112.41 E.01833
G1 X131.734 Y112.436 E.0099
G1 X118.256 Y112.436 E.69602
G1 X118.066 Y112.41 E.0099
G1 X117.76 Y112.23 E.01833
G1 X117.58 Y111.924 E.01833
G1 X117.554 Y111.734 E.0099
G1 X117.554 Y98.256 E.69602
G1 X117.58 Y98.066 E.0099
G1 X117.76 Y97.76 E.01833
G1 X118.066 Y97.58 E.01833
G1 X118.256 Y97.554 E.0099
G1 X131.734 Y97.544 E.69602
G1 X131.924 Y97.57 E.0099
G1 X132.173 Y97.716 E.01491
M204 S1000
G1 X132.173 Y97.716 F10800
G1 X131.911 Y98.057
M204 S800
;TYPE:External perimeter
;WIDTH:0.6
G1 F2400
G1 X131.919 Y98.061 E.00068
G1 X131.996 Y98.246 E.01531
G1 X131.996 Y111.734 E1.03019
G1 X131.919 Y111.919 E.01531
M73 P13 R6
G1 X131.734 Y111.996 E.01531
G1 X118.256 Y111.996 E1.02943
G1 X118.071 Y111.919 E.01531
G1 X117.994 Y111.734 E.01531
G1 X117.994 Y98.256 E1.02943
G1 X118.071 Y98.071 E.01531
G1 X118.256 Y97.994 E.01531
G1 X131.734 Y97.984 E1.02943
G1 X131.855 Y98.034 E.01
M204 S1000
;WIPE_START
G1 F8640
G1 X131.911 Y98.057 E-.01398
G1 X131.919 Y98.061 E-.00207
G1 X131.996 Y98.246 E-.04627
G1 X131.996 Y101.441 E-.73768
;WIPE_END
G1 Z.95 F720
G1 X136.838 Y116.836 F10800
G1 Z.55 F720
G1 E.8 F2100
M204 S800
;TYPE:Perimeter
;WIDTH:0.43
G1 F3000
G1 X113.152 Y116.838 E1.22317
G1 X113.152 Y93.152 E1.22317
G1 X136.838 Y93.152 E1.22317
M73 P13 R5
G1 X136.838 Y95.848 E.13922
G1 X136.838 Y116.776 E1.08074
M204 S1000
G1 X136.838 Y116.776 F10800
G1 X137.278 Y117.276
M204 S800
;TYPE:External perimeter
;WIDTH:0.6
G1 F2400
G1 X112.712 Y117.278 E1.87631
G1 X112.712 Y92.712 E1.87631
M73 P14 R5
G1 X137.278 Y92.712 E1.87631
G1 X137.278 Y95.848 E.23952
G1 X137.278 Y117.216 E1.63205
M204 S1000
;WIPE_START
G1 F8640
G1 X137.278 Y117.276 E-.01385
G1 X133.873 Y117.276 E-.78615
;WIPE_END
G1 Z.95 F720
G1 X136.09 Y114.75 F10800
G1 Z.55 F720
G1 E.8 F2100
M204 S2000
;TYPE:Internal infill
;WIDTH:0.45
G1 F3600
G1 X134.215 Y116.25 E.13099
G1 X134.215 Y116.56 E.01691
G1 X133.62 Y116.56 E.03246
G1 X134.141 Y115.935 E.04439
G1 X131.977 Y115.936 E.11805
G1 X131.874 Y116.06 E.00879
G1 X131.184 Y116.06 E.03764
G1 X130.84 Y114 E.11393
M204 S1000
;WIPE_START
G1 F8640
G1 X131.184 Y116.06 E-.48225
G1 X131.874 Y116.06 E-.15932
G1 X131.977 Y115.936 E-.03722
G1 X132.502 Y115.936 E-.12121
;WIPE_END
G1 Z.95 F720
G1 X136.562 Y113.274 F10800
G1 Z.55 F720
G1 E.8 F2100
M204 S2000
G1 F3600
G1 X136.562 Y113.03 E.01331
G1 X135.937 Y113.78 E.05326
G1 X135.937 Y112.5 E.06983
G1 X135.715 Y112.5 E.01211
G1 X135.937 Y111.169 E.07361
G1 X135.937 Y109.5 E.09105
G1 X136.06 Y109.26 E.01471
G1 X136.06 Y109.108 E.00829
G1 X135.937 Y109.256 E.0105
G1 X135.937 Y107.694 E.08521
G1 X136.06 Y107.546 E.0105
G1 X136.06 Y106.5 E.05706
G1 X133.465 Y106.5 E.14156
G1 X134.215 Y108.75 E.12938
G1 X133.337 Y108.75 E.0479
G1 X133.337 Y111.783 E.16545
G1 X133.284 Y112.168 E.0212
G1 X133.117 Y112.556 E.02304
G1 X132.872 Y112.871 E.02177
G1 X132.557 Y113.116 E.02177
G1 X132.168 Y113.284 E.02311
G1 X131.783 Y113.337 E.0212
G1 X125.395 Y113.337 E.34847
G1 X127.09 Y114.75 E.12038
G1 X125.453 Y116.06 E.11437
M73 P15 R5
G1 X122.953 Y116.06 E.13638
M204 S1000
;WIPE_START
G1 F8640
G1 X125.453 Y116.06 E-.57726
G1 X126.206 Y115.457 E-.22274
;WIPE_END
G1 Z.95 F720
G1 X117.715 Y115.875 F10800
G1 Z.55 F720
G1 E.8 F2100
M204 S2000
G1 F3600
G1 X119.59 Y115.125 E.11016
G1 X117.484 Y113.37 E.14955
M204 S1000
;WIPE_START
G1 F8640
G1 X119.59 Y115.125 E-.633
G1 X118.919 Y115.394 E-.167
;WIPE_END
G1 Z.95 F720
G1 X116.653 Y111.234 F10800
G1 Z.55 F720
G1 E.8 F2100
M204 S2000
G1 F3600
G1 X116.653 Y108.734 E.13638
G1 X115.582 Y107.396 E.09349
M204 S1000
;WIPE_START
G1 F8640
G1 X116.653 Y108.734 E-.39573
G1 X116.653 Y110.485 E-.40427
;WIPE_END
G1 Z.95 F720
G1 X114.34 Y109.125 F10800
G1 Z.55 F720
G1 E.8 F2100
M204 S2000
G1 F3600
G1 X115.465 Y107.25 E.11928
G1 X115.107 Y111.188 E.21571
M204 S1000
;WIPE_START
G1 F8640
G1 X115.421 Y107.738 E-.8
;WIPE_END
G1 Z.95 F720
G1 X113.94 Y108.875 F10800
G1 Z.55 F720
G1 E.8 F2100
M204 S2000
G1 F3600
G1 X113.94 Y111.375 E.13638
G1 X115.09 Y111.375 E.06273
G1 X117.34 Y113.25 E.15977
G1 X115.465 Y114.75 E.13099
M204 S1000
;WIPE_START
G1 F8640
G1 X117.34 Y113.25 E-.55444
G1 X116.523 Y112.569 E-.24556
;WIPE_END
G1 Z.95 F720
G1 X117.278 Y116.437 F10800
G1 Z.55 F720
G1 E.8 F2100
M204 S2000
;TYPE:Solid infill
;WIDTH:0.700039
G1 F3600
G1 X117.594 Y116.437 E.02874
G1 X117.677 Y116.457 E.00776
;WIDTH:0.658941
G1 X117.76 Y116.478 E.00727
;WIDTH:0.617843
G1 X117.842 Y116.498 E.00667
;WIDTH:0.576745
G1 X131.962 Y116.498 E1.03068
;WIDTH:0.617105
G1 X132.045 Y116.477 E.00675
;WIDTH:0.658573
G1 X132.128 Y116.456 E.00727
;WIDTH:0.700041
G1 X132.212 Y116.436 E.00785
G1 X133.073 Y116.435 E.0783
M204 S1000
;WIPE_START
G1 F8640
G1 X132.212 Y116.436 E-.19881
G1 X132.128 Y116.456 E-.01994
G1 X132.045 Y116.477 E-.01977
G1 X131.962 Y116.498 E-.01977
G1 X129.616 Y116.498 E-.54171
;WIPE_END
G1 Z.95 F720
G1 X134.232 Y108.563 F10800
G1 Z.55 F720
G1 E.8 F2100
M204 S2000
;TYPE:Internal infill
;WIDTH:0.45
G1 F3600
G1 X134.59 Y104.625 E.21571
M204 S1000
;WIPE_START
G1 F8640
G1 X134.277 Y108.076 E-.8
;WIPE_END
G1 Z.95 F720
