; generated by PrusaSlicer 2.5.0+linux-x64-GTK3 on 2022-09-09 at 21:35:52 UTC

; 

; external perimeters extrusion width = 0.60mm
; perimeters extrusion width = 0.43mm
; infill extrusion width = 0.45mm
; solid infill extrusion width = 0.70mm
; top infill extrusion width = 0.45mm
; first layer extrusion width = 0.42mm

M73 P0 R6
M201 X9000 Y9000 Z500 E10000 ; sets maximum accelerations, mm/sec^2
M203 X500 Y500 Z12 E120 ; sets maximum feedrates, mm / sec
M204 P2000 R1500 T2000 ; sets acceleration (P, T) and retract acceleration (R), mm/sec^2
M205 X10.00 Y10.00 Z0.20 E4.50 ; sets the jerk limits, mm/sec
M205 S0 T0 ; sets the minimum extruding and travel feed rate, mm/sec
M107
;TYPE:Custom
M862.3 P "MK2.5" ; printer model check
M862.1 P0.4 ; nozzle diameter check
M115 U3.11.0 ; tell printer latest fw version
G90 ; use absolute coordinates
M83 ; extruder relative mode
M104 S215 ; set extruder temp
M140 S60 ; set bed temp
M190 S60 ; wait for bed temp
M109 S215 ; wait for extruder temp
G28 W ; home all without mesh bed level
G80 ; mesh bed leveling

G1 Z0.2 F720
G1 Y-3 F1000 ; go outside print area
G92 E0
G1 X60 E9 F1000 ; intro line
G1 X100 E12.5 F1000 ; intro line

G92 E0
G21 ; set units to millimeters
G90 ; use absolute coordinates
M83 ; use relative distances for extrusion
M900 K0.05 ; Filament gcode LA 1.5
M900 K30 ; Filament gcode LA 1.0
M107
;LAYER_CHANGE
;Z:0.2
;HEIGHT:0.2
;BEFORE_LAYER_CHANGE
G92 E0.0
;0.2


G1 E-.8 F2100
M73 P1 R6
G1 Z.4 F720
;AFTER_LAYER_CHANGE
;0.2
;CURRENT_Z: 0.2
G1 X109.938 Y90.882 F10800
G1 Z.2 F720
G1 E.8 F2100
M204 S800
;TYPE:Skirt/Brim
;WIDTH:0.42
G1 F1200
G1 X111.004 Y89.868 E.04612
G1 X112.299 Y89.545 E.04186
G1 X137.701 Y89.545 E.79646
G1 X139.118 Y89.938 E.04612
M73 P2 R6
G1 X140.132 Y91.004 E.04612
G1 X140.455 Y92.299 E.04186
G1 X140.455 Y117.701 E.79646
G1 X140.062 Y119.118 E.04612
G1 X138.996 Y120.132 E.04612
G1 X137.701 Y120.455 E.04186
G1 X112.299 Y120.455 E.79646
G1 X110.882 Y120.062 E.04612
G1 X109.868 Y118.996 E.04612
G1 X109.545 Y117.701 E.04186
G1 X109.545 Y92.299 E.79646
G1 X109.922 Y90.939 E.04424
M204 S1000
M73 P3 R6
G1 X110.296 Y91.051 F10800
M204 S800
G1 F1200
G1 X110.314 Y90.992 E.00195
G1 X111.359 Y90.116 E.04278
G1 X112.299 Y89.922 E.03008
G1 X137.701 Y89.922 E.79646
G1 X139.008 Y90.314 E.04278
G1 X139.884 Y91.359 E.04278
G1 X140.078 Y92.299 E.03008
G1 X140.078 Y117.701 E.79646
G1 X139.687 Y119.008 E.04278
G1 X138.641 Y119.884 E.04278
G1 X137.701 Y120.078 E.03008
G1 X112.299 Y120.078 E.79646
G1 X110.992 Y119.686 E.04278
M73 P4 R6
G1 X110.116 Y118.641 E.04278
G1 X109.922 Y117.701 E.03008
G1 X109.922 Y92.299 E.79646
G1 X110.278 Y91.109 E.03895
M204 S1000
; printing object I - AxoBlock Frame.stl id:0 copy 0
;WIPE_START
G1 F8640
G1 X110.314 Y90.992 E-.0282
G1 X111.359 Y90.116 E-.31505
G1 X112.299 Y89.922 E-.22155
G1 X113.144 Y89.922 E-.1952
;WIPE_END
G1 E-.04 F2100
G1 Z.6 F720
G1 X113.484 Y93.484 F10800
G1 Z.2 F720
G1 E.8 F2100
M204 S800
;TYPE:Perimeter
;WIDTH:0.419999
G1 F1200
G1 X136.516 Y93.474 E.72215
G1 X136.513 Y116.513 E.72236
G1 X113.48 Y116.51 E.72218
M73 P5 R6
G1 X113.484 Y93.544 E.72008
M204 S1000
G1 X113.107 Y93.107 F10800
M204 S800
;TYPE:External perimeter
G1 F1200
G1 X136.893 Y93.097 E.7458
G1 X136.89 Y116.89 E.74602
G1 X113.103 Y116.887 E.74582
M73 P6 R6
G1 X113.107 Y93.167 E.74372
M204 S1000
G1 X113.493 Y93.21 F10800
;WIPE_START
G1 F8640
G1 X116.398 Y93.157 E-.76
;WIPE_END
G1 E-.04 F2100
G1 Z.6 F720
G1 X117.685 Y112.305 F10800
G1 Z.2 F720
G1 E.8 F2100
M204 S800
;TYPE:Perimeter
G1 F1200
G1 X117.587 Y112.208 E.00433
G1 X117.507 Y111.917 E.00944
G1 X117.507 Y98.072 E.4341
G1 X117.587 Y97.782 E.00944
M73 P7 R6
G1 X117.782 Y97.587 E.00865
G1 X118.072 Y97.507 E.00943
G1 X131.917 Y97.497 E.43411
G1 X132.208 Y97.577 E.00948
G1 X132.403 Y97.773 E.00866
G1 X132.483 Y98.062 E.00941
G1 X132.483 Y111.917 E.43442
G1 X132.403 Y112.208 E.00944
G1 X132.208 Y112.403 E.00866
G1 X131.917 Y112.483 E.00944
G1 X118.072 Y112.483 E.4341
G1 X117.782 Y112.403 E.00944
G1 X117.727 Y112.348 E.00245
M204 S1000
G1 X117.939 Y112.051 F10800
M204 S800
;TYPE:External perimeter
G1 F1200
G1 X117.884 Y111.917 E.00453
G1 X117.884 Y98.072 E.4341
G1 X117.939 Y97.939 E.00453
G1 X118.072 Y97.884 E.00452
G1 X131.917 Y97.874 E.4341
G1 X132.051 Y97.929 E.00454
M73 P8 R6
G1 X132.106 Y98.062 E.00451
G1 X132.106 Y111.917 E.43442
G1 X132.051 Y112.051 E.00452
G1 X131.917 Y112.106 E.00453
G1 X118.072 Y112.106 E.4341
G1 X117.995 Y112.074 E.00264
M204 S1000
G1 X117.8 Y112.088 F10800
;WIPE_START
G1 F8640
G1 X117.884 Y111.917 E-.04422
G1 X117.884 Y108.818 E-.71578
;WIPE_END
G1 E-.04 F2100
G1 Z.6 F720
G1 X118.84 Y112.9 F10800
G1 Z.2 F720
G1 E.8 F2100
M204 S800
;TYPE:Internal infill
;WIDTH:0.42
G1 F1200
G1 X118.84 Y112.765 E.00424
G1 X121.84 Y112.765 E.09406
G1 X121.84 Y113.25 E.01522
G1 X123.821 Y114.901 E.08085
M204 S1000
;WIPE_START
G1 F8640
G1 X121.84 Y113.25 E-.59541
G1 X121.84 Y112.765 E-.11211
G1 X121.613 Y112.765 E-.05247
;WIPE_END
G1 E-.04 F2100
G1 Z.6 F720
G1 X121.778 Y113.427 F10800
G1 Z.2 F720
G1 E.8 F2100
M204 S800
G1 F1200
G1 X120.875 Y115.974 E.08473
G1 X118.628 Y116.229 E.0709
G1 X114.945 Y116.228 E.11547
G1 X114.945 Y115.137 E.03421
G1 X114.773 Y113.22 E.06034
M204 S1000
;WIPE_START
G1 F8640
G1 X114.945 Y115.137 E-.44438
G1 X114.945 Y116.228 E-.25197
G1 X115.221 Y116.228 E-.06366
;WIPE_END
G1 E-.04 F2100
G1 Z.6 F720
G1 X116.321 Y111.151 F10800
G1 Z.2 F720
G1 E.8 F2100
M204 S800
G1 F1200
G1 X114.68 Y109.414 E.07494
G1 X115.785 Y105.93 E.11462
M204 S1000
G1 X115.705 Y105.88 F10800
M204 S800
G1 F1200
G1 X114.311 Y107.195 E.0601
G1 X116.638 Y108.252 E.08013
M204 S1000
;WIPE_START
G1 F8640
G1 X114.311 Y107.195 E-.59009
G1 X114.846 Y106.69 E-.16991
;WIPE_END
G1 E-.04 F2100
G1 Z.6 F720
M73 P9 R6
G1 X117.225 Y103.251 F10800
G1 Z.2 F720
G1 E.8 F2100
M204 S800
G1 F1200
G1 X117.225 Y105.751 E.07839
G1 X115.842 Y105.751 E.04338
G1 X115.148 Y101.595 E.1321
M204 S1000
;WIPE_START
G1 F8640
G1 X115.69 Y104.842 E-.76
;WIPE_END
G1 E-.04 F2100
G1 Z.6 F720
G1 X116.696 Y99.526 F10800
G1 Z.2 F720
G1 E.8 F2100
M204 S800
G1 F1200
G1 X115.055 Y97.789 E.07494
G1 X116.215 Y94.126 E.12048
G1 X116.215 Y93.764 E.01135
G1 X124.1 Y93.761 E.24722
G1 X126.222 Y95.863 E.09365
G1 X130.839 Y95.251 E.14602
G1 X132.122 Y96.852 E.06431
G1 X133.842 Y95.249 E.07371
G1 X135.758 Y94.611 E.06333
M204 S1000
;WIPE_START
G1 F8640
G1 X133.842 Y95.249 E-.46639
G1 X132.912 Y96.116 E-.29361
;WIPE_END
G1 E-.04 F2100
G1 Z.6 F720
G1 X133.986 Y95.369 F10800
G1 Z.2 F720
G1 E.8 F2100
M204 S800
G1 F1200
G1 X135.821 Y96.901 E.07495
M204 S1000
;WIPE_START
G1 F8640
G1 X133.986 Y95.369 E-.55198
;WIPE_END
G1 E-.24802 F2100
G1 Z.6 F720
G1 X134.273 Y98.97 F10800
G1 Z.2 F720
G1 E.8 F2100
M204 S800
G1 F1200
G1 X134.935 Y102.941 E.12621
M204 S1000
G1 X135.04 Y103.298 F10800
M204 S800
G1 F1200
G1 X135.952 Y105.428 E.07267
M204 S1000
G1 X136.233 Y105.626 F10800
M204 S800
G1 F1200
G1 X136.233 Y103.126 E.07839
G1 X134.966 Y103.126 E.03974
G1 X133.364 Y104.406 E.06431
M204 S1000
G1 X132.765 Y104.704 F10800
M204 S800
G1 F1200
G1 X132.765 Y107.204 E.07839
G1 X133.346 Y107.204 E.01823
M73 P10 R6
G1 X135.446 Y108.526 E.07781
M204 S1000
;WIPE_START
G1 F8640
G1 X133.346 Y107.204 E-.57301
G1 X132.765 Y107.204 E-.13425
G1 X132.765 Y106.976 E-.05274
;WIPE_END
G1 E-.04 F2100
G1 Z.6 F720
G1 X135.758 Y110.889 F10800
G1 Z.2 F720
G1 E.8 F2100
M204 S800
G1 F1200
G1 X134.061 Y110.522 E.05445
G1 X134.42 Y112.784 E.07182
G1 X134.728 Y115.072 E.07238
G1 X131.241 Y114.737 E.10986
G1 X129.392 Y112.765 E.08476
G1 X131.924 Y112.765 E.07938
G1 X132.147 Y112.734 E.00707
G1 X132.352 Y112.645 E.00701
G1 X132.517 Y112.517 E.00655
G1 X132.644 Y112.355 E.00645
G1 X132.88 Y112.5 E.00869
M204 S1000
;WIPE_START
G1 F8640
G1 X132.644 Y112.355 E-.06401
G1 X132.517 Y112.517 E-.04748
G1 X132.352 Y112.645 E-.04826
G1 X132.147 Y112.734 E-.05161
G1 X131.924 Y112.765 E-.05205
G1 X129.773 Y112.765 E-.49658
;WIPE_END
G1 E-.04 F2100
G1 Z.6 F720
G1 X131.11 Y114.872 F10800
G1 Z.2 F720
G1 E.8 F2100
M204 S800
G1 F1200
G1 X129.989 Y116.031 E.05058
M204 S1000
;WIPE_START
G1 F8640
G1 X131.11 Y114.872 E-.37249
;WIPE_END
G1 E-.42751 F2100
G1 Z.6 F720
G1 X130.683 Y95.355 F10800
G1 Z.2 F720
G1 E.8 F2100
M204 S800
G1 F1200
G1 X129.09 Y96.423 E.06013
G1 X128.648 Y94.845 E.05138
M204 S1000
;WIPE_START
G1 F8640
G1 X129.09 Y96.423 E-.37839
G1 X130.463 Y95.503 E-.3816
;WIPE_END
G1 E-.04 F2100
G1 Z.6 F720
G1 X124.027 Y93.927 F10800
G1 Z.2 F720
G1 E.8 F2100
M204 S800
G1 F1200
G1 X123.148 Y96.457 E.08399
G1 X121.436 Y96.433 E.05371
M204 S1000
;WIPE_START
G1 F8640
G1 X123.148 Y96.457 E-.39555
G1 X123.666 Y94.966 E-.36445
;WIPE_END
G1 E-.04 F2100
G1 Z.6 F720
G1 X118.465 Y94.1 F10800
G1 Z.2 F720
G1 E.8 F2100
M204 S800
G1 F1200
G1 X118.464 Y95.812 E.05367
M204 S1000
;WIPE_START
G1 F8640
G1 X118.465 Y94.1 E-.39522
;WIPE_END
G1 E-.40478 F2100
G1 Z.6 F720
G1 X117.213 Y97.253 F10800
G1 Z.2 F720
G1 E.8 F2100
M204 S800
G1 F1200
G1 X118.464 Y95.999 E.05553
G1 X116.359 Y94.246 E.08587
M204 S1000
M73 P11 R6
G1 X116.069 Y94.243 F10800
M204 S800
G1 F1200
G1 X114.614 Y95.406 E.05841
M204 S1000
; stop printing object I - AxoBlock Frame.stl id:0 copy 0
M106 S84.15
;LAYER_CHANGE
;Z:0.55
;HEIGHT:0.35
;BEFORE_LAYER_CHANGE
G92 E0.0
;0.55


;WIPE_START
G1 F8640
G1 X116.069 Y94.243 E-.43017
;WIPE_END
G1 E-.36983 F2100
G1 Z.6 F720
;AFTER_LAYER_CHANGE
;0.55
;CURRENT_Z: 0.55
M104 S210 ; set temperature
G1 X116.069 Y89.545 F10800
G1 Z.55 F720
G1 E.8 F2100
;TYPE:Skirt/Brim
G1 F3000
G1 X137.701 Y89.545 E1.08562
G1 X139.118 Y89.938 E.07381
G1 X140.132 Y91.004 E.07381
G1 X140.455 Y92.299 E.067
G1 X140.455 Y117.701 E1.27482
G1 X140.062 Y119.118 E.07381
G1 X138.996 Y120.132 E.07381
G1 X137.701 Y120.455 E.067
G1 X112.299 Y120.455 E1.27482
G1 X110.882 Y120.062 E.07381
G1 X109.868 Y118.996 E.07381
G1 X109.545 Y117.701 E.067
G1 X109.545 Y92.299 E1.27482
G1 X109.938 Y90.882 E.07381
G1 X111.004 Y89.868 E.07381
G1 X112.299 Y89.545 E.067
G1 X116.009 Y89.545 E.18619
G1 X116.009 Y89.922 F10800
G1 F3000
G1 X137.701 Y89.922 E1.08863
G1 X139.008 Y90.314 E.06848
G1 X139.884 Y91.359 E.06848
G1 X140.078 Y92.299 E.04815
G1 X140.078 Y117.701 E1.27482
G1 X139.687 Y119.008 E.06848
M73 P12 R6
G1 X138.641 Y119.884 E.06848
G1 X137.701 Y120.078 E.04815
G1 X112.299 Y120.078 E1.27482
G1 X110.992 Y119.686 E.06848
G1 X110.116 Y118.641 E.06848
G1 X109.922 Y117.701 E.04815
G1 X109.922 Y92.299 E1.27482
G1 X110.314 Y90.992 E.06848
G1 X111.359 Y90.116 E.06848
G1 X112.299 Y89.922 E.04815
G1 X115.949 Y89.922 E.18318
; printing object I - AxoBlock Frame.stl id:0 copy 0
;WIPE_START
G1 F8640
G1 X119.24 Y89.922 E-.76
;WIPE_END
G1 E-.04 F2100
G1 Z.95 F720
G1 X136.838 Y116.836 F10800
G1 Z.55 F720
G1 E.8 F2100
M204 S800
;TYPE:Perimeter
;WIDTH:0.43
G1 F3000
G1 X113.152 Y116.838 E1.2232
G1 X113.152 Y93.152 E1.2232
G1 X136.838 Y93.152 E1.2232
G1 X136.838 Y116.776 E1.22
M204 S1000
G1 X137.278 Y117.276 F10800
M204 S800
;TYPE:External perimeter
;WIDTH:0.6
G1 F2400
M73 P13 R6
G1 X112.712 Y117.278 E1.87634
G1 X112.712 Y92.712 E1.87634
G1 X137.278 Y92.712 E1.87634
G1 X137.278 Y117.216 E1.87161
M204 S1000
G1 X136.892 Y117.173 F10800
;WIPE_START
G1 F8640
G1 X133.987 Y117.224 E-.76
;WIPE_END
G1 E-.04 F2100
G1 Z.95 F720
G1 X117.785 Y112.245 F10800
G1 Z.55 F720
G1 E.8 F2100
M204 S800
;TYPE:Perimeter
;WIDTH:0.43
G1 F3000
G1 X117.76 Y112.23 E.00151
G1 X117.58 Y111.924 E.01833
G1 X117.554 Y111.734 E.00992
G1 X117.554 Y98.256 E.69598
G1 X117.58 Y98.066 E.00992
G1 X117.76 Y97.76 E.01833
G1 X118.066 Y97.58 E.01831
G1 X118.256 Y97.554 E.00991
G1 X131.734 Y97.544 E.696
G1 X131.924 Y97.57 E.00993
G1 X132.231 Y97.751 E.0184
G1 X132.41 Y98.056 E.01829
G1 X132.436 Y98.246 E.00989
G1 X132.436 Y111.734 E.6965
G1 X132.41 Y111.924 E.00992
G1 X132.23 Y112.23 E.01832
G1 X131.924 Y112.41 E.01834
G1 X131.734 Y112.436 E.00993
G1 X118.256 Y112.436 E.69598
G1 X118.066 Y112.41 E.00992
M73 P14 R5
G1 X117.837 Y112.275 E.01372
M204 S1000
G1 X118.071 Y111.919 F10800
M204 S800
;TYPE:External perimeter
;WIDTH:0.6
G1 F2400
G1 X117.994 Y111.734 E.01534
G1 X117.994 Y98.256 E1.02936
G1 X118.071 Y98.071 E.01534
G1 X118.256 Y97.994 E.01533
G1 X131.734 Y97.984 E1.02938
G1 X131.919 Y98.061 E.01538
G1 X131.996 Y98.246 E.0153
G1 X131.996 Y111.734 E1.03014
G1 X131.919 Y111.919 E.01534
G1 X131.734 Y111.996 E.01535
G1 X118.256 Y111.996 E1.02937
G1 X118.126 Y111.942 E.01076
M204 S1000
G1 X117.877 Y111.971 F10800
;WIPE_START
G1 F8640
G1 X117.994 Y111.734 E-.05702
G1 X117.994 Y108.689 E-.70298
;WIPE_END
G1 E-.04 F2100
G1 Z.95 F720
G1 X118.84 Y113.25 F10800
G1 Z.55 F720
G1 E.8 F2100
M204 S2000
;TYPE:Internal infill
;WIDTH:0.45
G1 F3600
G1 X118.84 Y112.712 E.02935
G1 X118.25 Y112.712 E.03223
G1 X117.991 Y112.676 E.01423
G1 X117.754 Y112.574 E.01408
G1 X117.564 Y112.426 E.01316
G1 X117.416 Y112.236 E.01316
G1 X117.313 Y111.999 E.01408
G1 X117.278 Y111.74 E.01423
G1 X117.278 Y105.75 E.32678
G1 X115.84 Y105.75 E.07842
G1 X113.965 Y107.25 E.13099
G1 X116.965 Y108.375 E.17478
M204 S1000
;WIPE_START
G1 F8640
G1 X113.965 Y107.25 E-.73981
G1 X114.034 Y107.195 E-.02019
;WIPE_END
G1 E-.04 F2100
G1 Z.95 F720
G1 X126.34 Y112.875 F10800
G1 Z.55 F720
G1 E.8 F2100
M204 S2000
G1 F3600
G1 X126.34 Y112.712 E.00889
G1 X129.34 Y112.712 E.16365
G1 X129.34 Y112.875 E.00889
G1 X131.59 Y114.75 E.15977
G1 X129.715 Y116.25 E.13099
M204 S1000
;WIPE_START
G1 F8640
G1 X131.59 Y114.75 E-.55444
G1 X130.906 Y114.18 E-.20556
;WIPE_END
G1 E-.04 F2100
G1 Z.95 F720
G1 X132.291 Y113.036 F10800
G1 Z.55 F720
G1 E.8 F2100
M204 S2000
;TYPE:Solid infill
;WIDTH:0.824978
G1 F3429.18
G1 X133.122 Y112.205 E.12823
M204 S1000
;WIPE_START
G1 F8640
G1 X132.291 Y113.036 E-.27135
;WIPE_END
G1 E-.52865 F2100
G1 Z.95 F720
G1 X128.467 Y97.27 F10800
G1 Z.55 F720
G1 E.8 F2100
M204 S2000
;TYPE:Internal infill
;WIDTH:0.45
G1 F3600
G1 X125.967 Y97.272 E.13638
G1 X125.965 Y95.625 E.08985
G1 X130.84 Y95.25 E.26672
G1 X128.965 Y96.75 E.13099
G1 X128.59 Y94.5 E.12443
M204 S1000
;WIPE_START
M73 P15 R5
G1 F8640
G1 X128.965 Y96.75 E-.5267
G1 X129.754 Y96.119 E-.2333
;WIPE_END
G1 E-.04 F2100
G1 Z.95 F720
G1 X130.957 Y95.396 F10800
G1 Z.55 F720
G1 E.8 F2100
M204 S2000
G1 F3600
G1 X132.34 Y97.125 E.12076
M204 S1000
;WIPE_START
G1 F8640
G1 X130.957 Y95.396 E-.51116
;WIPE_END
G1 E-.28884 F2100
G1 Z.95 F720
G1 X134.018 Y95.191 F10800
G1 Z.55 F720
G1 E.8 F2100
M204 S2000
G1 F3600
G1 X136.09 Y94.5 E.11915
M204 S1000
;WIPE_START
G1 F8640
G1 X134.018 Y95.191 E-.50435
;WIPE_END
G1 E-.29565 F2100
G1 Z.95 F720
G1 X136.34 Y93.428 F10800
G1 Z.55 F720
G1 E.8 F2100
M204 S2000
G1 F3600
G1 X133.84 Y93.428 E.13638
G1 X133.84 Y95.25 E.0994
G1 X136.09 Y97.125 E.15977
M204 S1000
;WIPE_START
G1 F8640
G1 X133.84 Y95.25 E-.67628
G1 X133.84 Y94.887 E-.08372
;WIPE_END
G1 E-.04 F2100
G1 Z.95 F720
G1 X134.215 Y98.625 F10800
G1 Z.55 F720
G1 E.8 F2100
M204 S2000
G1 F3600
G1 X134.965 Y103.125 E.24887
G1 X136.562 Y103.125 E.0871
G1 X136.562 Y100.625 E.13638
M204 S1000
;WIPE_START
G1 F8640
G1 X136.562 Y103.125 E-.57726
G1 X135.771 Y103.125 E-.18274
;WIPE_END
G1 E-.04 F2100
G1 Z.95 F720
G1 X136.09 Y105.75 F10800
G1 Z.55 F720
G1 E.8 F2100
M204 S2000
G1 F3600
G1 X135.039 Y103.297 E.14557
M204 S1000
G1 X134.819 Y103.242 F10800
M204 S2000
G1 F3600
G1 X133.09 Y104.625 E.12076
M204 S1000
G1 X132.712 Y104.375 F10800
M204 S2000
G1 F3600
G1 X132.712 Y106.875 E.13638
G1 X133.465 Y106.875 E.04109
G1 X135.715 Y108.75 E.15977
M204 S1000
;WIPE_START
G1 F8640
G1 X133.465 Y106.875 E-.67628
G1 X133.103 Y106.875 E-.08372
;WIPE_END
G1 E-.04 F2100
G1 Z.95 F720
G1 X136.09 Y111 F10800
G1 Z.55 F720
G1 E.8 F2100
M204 S2000
G1 F3600
G1 X133.84 Y110.25 E.12938
G1 X134.59 Y114.75 E.24887
G1 X134.59 Y116.56 E.09876
G1 X126.715 Y116.561 E.4296
G1 X126.715 Y116.25 E.01696
M204 S1000
;WIPE_START
G1 F8640
G1 X126.715 Y116.561 E-.0718
G1 X129.696 Y116.561 E-.6882
;WIPE_END
G1 E-.04 F2100
G1 Z.95 F720
G1 X124.09 Y115.125 F10800
G1 Z.55 F720
G1 E.8 F2100
M204 S2000
G1 F3600
G1 X121.984 Y113.37 E.14955
M204 S1000
;WIPE_START
G1 F8640
G1 X124.09 Y115.125 E-.633
;WIPE_END
G1 E-.167 F2100
G1 Z.95 F720
G1 X124.09 Y112.875 F10800
G1 Z.55 F720
G1 E.8 F2100
M204 S2000
M73 P16 R5
