; generated by PrusaSlicer 2.6.0-alpha6+linux-x64-GTK3 on 2023-05-08 at 03:33:34 UTC

; 

; external perimeters extrusion width = 0.60mm
; perimeters extrusion width = 0.43mm
; infill extrusion width = 0.45mm
; solid infill extrusion width = 0.70mm
; top infill extrusion width = 0.45mm
; first layer extrusion width = 0.42mm

M73 P0 R6
M201 X9000 Y9000 Z500 E10000 ; sets maximum accelerations, mm/sec^2
M203 X500 Y500 Z12 E120 ; sets maximum feedrates, mm / sec
M204 S2000 T1500 ; sets acceleration (S) and retract acceleration (R), mm/sec^2
M205 X10.00 Y10.00 Z0.20 E4.50 ; sets the jerk limits, mm/sec
M205 S0 T0 ; sets the minimum extruding and travel feed rate, mm/sec
;TYPE:Custom
M862.3 P "MK2.5" ; printer model check
M862.1 P0.4 ; nozzle diameter check
M115 U3.11.0 ; tell printer latest fw version
G90 ; use absolute coordinates
M83 ; extruder relative mode
M104 S215 ; set extruder temp
M140 S60 ; set bed temp
M190 S60 ; wait for bed temp
M109 S215 ; wait for extruder temp
G28 W ; home all without mesh bed level
G80 ; mesh bed leveling

G1 Z0.2 F720
G1 Y-3 F1000 ; go outside print area
G92 E0
G1 X60 E9 F1000 ; intro line
G1 X100 E12.5 F1000 ; intro line

G92 E0
G21 ; set units to millimeters
G90 ; use absolute coordinates
M83 ; use relative distances for extrusion
M900 K0.05 ; Filament gcode LA 1.5
M900 K30 ; Filament gcode LA 1.0
M107
;LAYER_CHANGE
;Z:0.2
;HEIGHT:0.2
;BEFORE_LAYER_CHANGE
G92 E0.0
;0.2


G1 E-.8 F2100
M73 P1 R6
G1 Z.4 F720
;AFTER_LAYER_CHANGE
;0.2
;CURRENT_Z: 0.2
G1 X109.938 Y90.882 F10800
G1 Z.2 F720
G1 E.8 F2100
M204 S800
;TYPE:Skirt/Brim
;WIDTH:0.42
G1 F1200
G1 X111.004 Y89.868 E.04613
G1 X112.299 Y89.545 E.04185
G1 X137.701 Y89.545 E.79646
G1 X139.118 Y89.938 E.04611
M73 P2 R6
G1 X140.132 Y91.004 E.04613
G1 X140.455 Y92.299 E.04185
G1 X140.455 Y117.701 E.79646
G1 X140.062 Y119.118 E.04611
G1 X138.996 Y120.132 E.04613
G1 X137.701 Y120.455 E.04185
G1 X112.299 Y120.455 E.79646
G1 X110.882 Y120.062 E.04611
G1 X109.868 Y118.996 E.04613
G1 X109.545 Y117.701 E.04185
G1 X109.545 Y92.299 E.79646
G1 X109.922 Y90.939 E.04425
M204 S1000
M73 P3 R6
G1 X110.296 Y91.051 F10800
M204 S800
G1 F1200
G1 X110.314 Y90.992 E.00193
G1 X111.359 Y90.116 E.04275
G1 X112.299 Y89.922 E.03009
G1 X137.701 Y89.922 E.79646
G1 X139.008 Y90.314 E.04278
G1 X139.884 Y91.359 E.04275
G1 X140.078 Y92.299 E.03009
G1 X140.078 Y117.701 E.79646
G1 X139.687 Y119.008 E.04277
G1 X138.641 Y119.884 E.04278
G1 X137.701 Y120.078 E.03009
G1 X112.299 Y120.078 E.79646
G1 X110.992 Y119.686 E.04278
M73 P4 R6
G1 X110.116 Y118.641 E.04275
G1 X109.922 Y117.701 E.03009
G1 X109.922 Y92.299 E.79646
G1 X110.278 Y91.109 E.03895
M204 S1000
; printing object I - AxoBlock Frame.stl id:0 copy 0
;WIPE_START
G1 F8640
G1 X110.314 Y90.992 E-.02827
G1 X111.359 Y90.116 E-.31486
G1 X112.299 Y89.922 E-.22162
G1 X113.318 Y89.922 E-.23525
;WIPE_END
G1 Z.6 F720
G1 X113.484 Y93.484 F10800
G1 Z.2 F720
G1 E.8 F2100
M204 S800
;TYPE:Perimeter
;WIDTH:0.419999
G1 F1200
G1 X136.516 Y93.474 E.72215
G1 X136.513 Y116.513 E.72237
G1 X113.48 Y116.51 E.72218
M73 P5 R6
G1 X113.484 Y93.544 E.72008
M204 S1000
G1 X113.107 Y93.107 F10800
M204 S800
;TYPE:External perimeter
G1 F1200
G1 X136.893 Y93.097 E.74579
G1 X136.89 Y116.89 E.74601
G1 X113.103 Y116.887 E.74582
M73 P6 R6
G1 X113.107 Y93.167 E.74372
M204 S1000
G1 X113.493 Y93.21 F10800
;WIPE_START
G1 F8640
G1 X116.572 Y93.157 E-.8
;WIPE_END
G1 Z.6 F720
G1 X117.685 Y112.305 F10800
G1 Z.2 F720
G1 E.8 F2100
M204 S800
;TYPE:Perimeter
G1 F1200
G1 X117.587 Y112.208 E.00432
G1 X117.507 Y111.917 E.00946
G1 X117.507 Y98.072 E.4341
G1 X117.587 Y97.782 E.00943
M73 P7 R6
G1 X117.782 Y97.587 E.00865
G1 X118.072 Y97.507 E.00943
G1 X131.917 Y97.497 E.4341
G1 X132.208 Y97.577 E.00946
G1 X132.403 Y97.773 E.00867
G1 X132.483 Y98.062 E.0094
G1 X132.483 Y111.917 E.43441
G1 X132.403 Y112.208 E.00946
G1 X132.208 Y112.403 E.00865
G1 X131.917 Y112.483 E.00946
G1 X118.072 Y112.483 E.4341
G1 X117.782 Y112.403 E.00943
G1 X117.727 Y112.348 E.00244
M204 S1000
G1 X117.939 Y112.051 F10800
M204 S800
;TYPE:External perimeter
G1 F1200
G1 X117.884 Y111.917 E.00454
G1 X117.884 Y98.072 E.4341
G1 X117.939 Y97.939 E.00451
G1 X118.072 Y97.884 E.00451
G1 X131.917 Y97.874 E.4341
G1 X132.051 Y97.929 E.00454
M73 P8 R6
G1 X132.106 Y98.062 E.00451
G1 X132.106 Y111.917 E.43441
G1 X132.051 Y112.051 E.00454
G1 X131.917 Y112.106 E.00454
G1 X118.072 Y112.106 E.4341
G1 X117.995 Y112.074 E.00261
M204 S1000
G1 X117.8 Y112.088 F10800
;WIPE_START
G1 F8640
G1 X117.884 Y111.917 E-.0444
G1 X117.884 Y108.645 E-.7556
;WIPE_END
G1 Z.6 F720
G1 X119.352 Y114.417 F10800
G1 Z.2 F720
G1 E.8 F2100
M204 S800
;TYPE:Internal infill
;WIDTH:0.42
G1 F1200
G1 X120.067 Y113.844 E.02873
M204 S1000
;WIPE_START
G1 F8640
G1 X119.352 Y114.417 E-.21157
;WIPE_END
G1 E-.58843 F2100
G1 Z.6 F720
G1 X118.726 Y114.886 F10800
G1 Z.2 F720
G1 E.8 F2100
M204 S800
G1 F1200
G1 X118.531 Y115.906 E.03256
M204 S1000
;WIPE_START
G1 F8640
G1 X118.726 Y114.886 E-.23979
;WIPE_END
G1 E-.56021 F2100
G1 Z.6 F720
G1 X117.052 Y115.14 F10800
G1 Z.2 F720
G1 E.8 F2100
M204 S800
G1 F1200
G1 X117.017 Y115.035 E.00347
M204 S1000
;WIPE_START
G1 F8640
G1 X117.052 Y115.14 E-.02556
;WIPE_END
G1 E-.77444 F2100
G1 Z.6 F720
G1 X114.544 Y116.228 F10800
G1 Z.2 F720
G1 E.8 F2100
M204 S800
G1 F1200
G1 X117.044 Y116.229 E.07839
G1 X117.141 Y115.555 E.02135
G1 X117.111 Y115.318 E.00749
G1 X119.206 Y114.535 E.07013
G1 X120.454 Y115.643 E.05233
M204 S1000
;WIPE_START
G1 F8640
G1 X119.206 Y114.535 E-.38535
G1 X117.524 Y115.164 E-.41465
;WIPE_END
G1 Z.6 F720
G1 X125.965 Y113.275 F10800
G1 Z.2 F720
G1 E.8 F2100
M204 S800
G1 F1200
G1 X123.828 Y113.54 E.06752
M204 S1000
;WIPE_START
G1 F8640
G1 X125.965 Y113.275 E-.49722
;WIPE_END
G1 E-.30278 F2100
G1 Z.6 F720
G1 X124.327 Y115.928 F10800
G1 Z.2 F720
M73 P9 R6
G1 E.8 F2100
M204 S800
G1 F1200
G1 X123.642 Y113.563 E.0772
G1 X123.642 Y112.765 E.02502
G1 X130.541 Y112.765 E.21631
G1 X130.541 Y113.801 E.03248
G1 X128.498 Y115.294 E.07934
M204 S1000
;WIPE_START
G1 F8640
G1 X130.541 Y113.801 E-.58428
G1 X130.541 Y112.867 E-.21572
;WIPE_END
G1 Z.6 F720
G1 X130.667 Y113.939 F10800
G1 Z.2 F720
G1 E.8 F2100
M204 S800
G1 F1200
G1 X130.823 Y114.111 E.00728
G1 X132.039 Y115.288 E.05306
G1 X132.155 Y115.581 E.00988
M204 S1000
;WIPE_START
G1 F8640
G1 X132.039 Y115.288 E-.07276
G1 X130.823 Y114.111 E-.39076
G1 X130.667 Y113.939 E-.05362
;WIPE_END
G1 E-.28286 F2100
G1 Z.6 F720
G1 X136.232 Y114.305 F10800
G1 Z.2 F720
G1 E.8 F2100
M204 S800
G1 F1200
G1 X136.232 Y111.805 E.07839
G1 X135.791 Y111.521 E.01645
G1 X135.476 Y111.531 E.00988
G1 X135.156 Y109.798 E.05526
G1 X133.79 Y110.12 E.044
M204 S1000
;WIPE_START
G1 F8640
G1 X135.156 Y109.798 E-.32406
G1 X135.476 Y111.531 E-.40692
G1 X135.775 Y111.522 E-.06902
;WIPE_END
G1 Z.6 F720
G1 X134.363 Y101.743 F10800
G1 Z.2 F720
G1 E.8 F2100
M204 S800
G1 F1200
G1 X135.817 Y102.906 E.05838
M204 S1000
;WIPE_START
G1 F8640
G1 X134.363 Y101.743 E-.42992
;WIPE_END
G1 E-.37008 F2100
G1 Z.6 F720
G1 X133.797 Y104.736 F10800
G1 Z.2 F720
G1 E.8 F2100
M204 S800
G1 F1200
G1 X135.461 Y105.135 E.05365
G1 X134.216 Y101.626 E.11674
G1 X135.145 Y98.14 E.11312
M204 S1000
G1 X135.344 Y97.995 F10800
M204 S800
G1 F1200
G1 X135.193 Y97.959 E.00487
G1 X133.708 Y99.498 E.06706
M204 S1000
;WIPE_START
G1 F8640
G1 X135.193 Y97.959 E-.49382
G1 X135.344 Y97.995 E-.03584
;WIPE_END
G1 E-.27034 F2100
G1 Z.6 F720
G1 X135.999 Y99.787 F10800
G1 Z.2 F720
G1 E.8 F2100
M204 S800
G1 F1200
G1 X135.527 Y98.037 E.05683
G1 X135.63 Y97.866 E.00626
G1 X136.153 Y96.277 E.05245
G1 X136.234 Y96.277 E.00254
G1 X136.234 Y93.777 E.07839
M204 S1000
;WIPE_START
G1 F8640
M73 P10 R6
G1 X136.234 Y96.277 E-.57726
G1 X136.153 Y96.277 E-.0187
G1 X135.877 Y97.116 E-.20404
;WIPE_END
G1 Z.6 F720
G1 X126.614 Y95.406 F10800
G1 Z.2 F720
G1 E.8 F2100
M204 S800
G1 F1200
G1 X128.069 Y94.242 E.05842
M204 S1000
;WIPE_START
G1 F8640
G1 X126.614 Y95.406 E-.43024
;WIPE_END
G1 E-.36976 F2100
G1 Z.6 F720
G1 X131.107 Y94.458 F10800
G1 Z.2 F720
G1 E.8 F2100
M204 S800
G1 F1200
G1 X130.863 Y95.213 E.02488
M204 S1000
G1 X130.816 Y95.395 F10800
M204 S800
G1 F1200
G1 X129.413 Y96.408 E.05426
G1 X128.215 Y94.125 E.08084
G1 X128.215 Y93.759 E.01148
G1 X123.59 Y93.761 E.14501
G1 X123.59 Y94.49 E.02286
G1 X123.398 Y96.405 E.06034
M204 S1000
;WIPE_START
G1 F8640
G1 X123.59 Y94.49 E-.4444
G1 X123.59 Y93.761 E-.16833
G1 X124.401 Y93.761 E-.18727
;WIPE_END
G1 Z.6 F720
G1 X119.77 Y96.075 F10800
G1 Z.2 F720
G1 E.8 F2100
M204 S800
G1 F1200
G1 X120.409 Y94.67 E.04839
G1 X118.226 Y94.471 E.06873
M204 S1000
G1 X118.284 Y94.049 F10800
M204 S800
G1 F1200
G1 X118.017 Y94.496 E.01633
G1 X114.509 Y95.535 E.11471
G1 X114.863 Y97.051 E.04881
G1 X115.762 Y98.701 E.05892
G1 X116.005 Y99.023 E.01265
G1 X116.63 Y100.152 E.04046
G1 X117.225 Y100.152 E.01866
G1 X117.225 Y108 E.24607
G1 X116.59 Y108 E.01991
G1 X116.663 Y110.073 E.06504
G1 X115.858 Y110.646 E.03098
G1 X115.767 Y111.277 E.01999
G1 X114.737 Y112.398 E.04773
M204 S1000
;WIPE_START
G1 F8640
G1 X115.767 Y111.277 E-.35151
G1 X115.858 Y110.646 E-.14721
G1 X116.663 Y110.073 E-.22816
G1 X116.652 Y109.757 E-.07312
;WIPE_END
G1 Z.6 F720
G1 X115.675 Y110.608 F10800
G1 Z.2 F720
G1 E.8 F2100
M204 S800
G1 F1200
G1 X114.308 Y110.322 E.04379
M204 S1000
;WIPE_START
G1 F8640
G1 X115.675 Y110.608 E-.32248
;WIPE_END
G1 E-.47752 F2100
G1 Z.6 F720
G1 X116.908 Y106.095 F10800
G1 Z.2 F720
M73 P11 R6
G1 E.8 F2100
M204 S800
G1 F1200
G1 X116.621 Y107.815 E.05468
M204 S1000
G1 X116.412 Y107.94 F10800
M204 S800
G1 F1200
G1 X114.672 Y107.361 E.0575
M204 S1000
;WIPE_START
G1 F8640
G1 X116.412 Y107.94 E-.42343
;WIPE_END
G1 E-.37657 F2100
G1 Z.6 F720
G1 X113.764 Y106.573 F10800
G1 Z.2 F720
G1 E.8 F2100
M204 S800
G1 F1200
G1 X113.764 Y104.073 E.07839
G1 X114.788 Y104.074 E.03211
G1 X114.914 Y102.288 E.05614
G1 X116.633 Y102.639 E.05501
M204 S1000
;WIPE_START
G1 F8640
G1 X114.914 Y102.288 E-.40511
G1 X114.794 Y103.994 E-.39489
;WIPE_END
G1 Z.6 F720
G1 X115.574 Y98.691 F10800
G1 Z.2 F720
G1 E.8 F2100
M204 S800
G1 F1200
G1 X114.69 Y98.644 E.02776
M204 S1000
; stop printing object I - AxoBlock Frame.stl id:0 copy 0
M106 S84.15
;LAYER_CHANGE
;Z:0.55
;HEIGHT:0.35
;BEFORE_LAYER_CHANGE
G92 E0.0
;0.55


;WIPE_START
G1 F8640
G1 X115.574 Y98.691 E-.20441
;WIPE_END
G1 E-.59559 F2100
G1 Z.6 F720
;AFTER_LAYER_CHANGE
;0.55
;CURRENT_Z: 0.55
M104 S210 ; set temperature
G1 X109.545 Y98.691 F10800
G1 Z.55 F720
G1 E.8 F2100
;TYPE:Skirt/Brim
G1 F3000
G1 X109.545 Y92.299 E.32079
G1 X109.938 Y90.882 E.0738
G1 X111.004 Y89.868 E.07384
G1 X112.299 Y89.545 E.06698
G1 X137.701 Y89.545 E1.27482
G1 X139.118 Y89.938 E.0738
G1 X140.132 Y91.004 E.07384
G1 X140.455 Y92.299 E.06698
G1 X140.455 Y117.701 E1.27482
G1 X140.062 Y119.118 E.0738
G1 X138.996 Y120.132 E.07384
G1 X137.701 Y120.455 E.06698
G1 X112.299 Y120.455 E1.27482
G1 X110.882 Y120.062 E.0738
G1 X109.868 Y118.996 E.07384
G1 X109.545 Y117.701 E.06698
G1 X109.545 Y98.751 E.95102
G1 X109.922 Y98.751 F10800
M73 P12 R6
G1 F3000
G1 X109.922 Y92.299 E.3238
G1 X110.314 Y90.992 E.06848
G1 X111.359 Y90.116 E.06843
G1 X112.299 Y89.922 E.04817
G1 X137.701 Y89.922 E1.27482
G1 X139.008 Y90.314 E.06848
G1 X139.884 Y91.359 E.06843
G1 X140.078 Y92.299 E.04817
G1 X140.078 Y117.701 E1.27482
G1 X139.687 Y119.008 E.06847
G1 X138.641 Y119.884 E.06847
G1 X137.701 Y120.078 E.04817
G1 X112.299 Y120.078 E1.27482
G1 X110.992 Y119.686 E.06848
G1 X110.116 Y118.641 E.06843
G1 X109.922 Y117.701 E.04817
G1 X109.922 Y98.811 E.94801
; printing object I - AxoBlock Frame.stl id:0 copy 0
;WIPE_START
G1 F8640
G1 X109.922 Y95.346 E-.8
;WIPE_END
G1 Z.95 F720
G1 X136.838 Y116.836 F10800
G1 Z.55 F720
G1 E.8 F2100
M204 S800
;TYPE:Perimeter
;WIDTH:0.43
G1 F3000
G1 X113.152 Y116.838 E1.22317
G1 X113.152 Y93.152 E1.22317
G1 X136.838 Y93.152 E1.22317
M73 P13 R6
G1 X136.838 Y116.776 E1.21997
M204 S1000
G1 X137.278 Y117.276 F10800
M204 S800
;TYPE:External perimeter
;WIDTH:0.6
G1 F2400
G1 X112.712 Y117.278 E1.87631
G1 X112.712 Y92.712 E1.87631
G1 X137.278 Y92.712 E1.87631
G1 X137.278 Y117.216 E1.87157
M204 S1000
M73 P13 R5
G1 X136.892 Y117.173 F10800
;WIPE_START
G1 F8640
G1 X133.813 Y117.225 E-.8
;WIPE_END
G1 Z.95 F720
G1 X117.785 Y112.245 F10800
G1 Z.55 F720
M73 P14 R5
G1 E.8 F2100
M204 S800
;TYPE:Perimeter
;WIDTH:0.43
G1 F3000
G1 X117.76 Y112.23 E.00151
G1 X117.58 Y111.924 E.01833
G1 X117.554 Y111.734 E.0099
G1 X117.554 Y98.256 E.69602
G1 X117.58 Y98.066 E.0099
G1 X117.76 Y97.76 E.01833
G1 X118.066 Y97.58 E.01833
G1 X118.256 Y97.554 E.0099
G1 X131.734 Y97.544 E.69602
G1 X131.924 Y97.57 E.0099
G1 X132.231 Y97.751 E.0184
G1 X132.41 Y98.056 E.01826
G1 X132.436 Y98.246 E.0099
G1 X132.436 Y111.734 E.69653
G1 X132.41 Y111.924 E.0099
G1 X132.23 Y112.23 E.01833
G1 X131.924 Y112.41 E.01833
G1 X131.734 Y112.436 E.0099
G1 X118.256 Y112.436 E.69602
G1 X118.066 Y112.41 E.0099
G1 X117.837 Y112.275 E.01373
M204 S1000
G1 X118.071 Y111.919 F10800
M204 S800
;TYPE:External perimeter
;WIDTH:0.6
G1 F2400
G1 X117.994 Y111.734 E.01531
G1 X117.994 Y98.256 E1.02943
G1 X118.071 Y98.071 E.01531
G1 X118.256 Y97.994 E.01531
G1 X131.734 Y97.984 E1.02943
G1 X131.919 Y98.061 E.01531
G1 X131.996 Y98.246 E.01531
G1 X131.996 Y111.734 E1.03019
G1 X131.919 Y111.919 E.01531
G1 X131.734 Y111.996 E.01531
G1 X118.256 Y111.996 E1.02943
G1 X118.126 Y111.942 E.01075
M204 S1000
G1 X117.877 Y111.971 F10800
;WIPE_START
G1 F8640
G1 X117.994 Y111.734 E-.05688
G1 X117.994 Y108.516 E-.74312
;WIPE_END
G1 Z.95 F720
G1 X115.64 Y111.414 F10800
G1 Z.55 F720
G1 E.8 F2100
M204 S2000
;TYPE:Internal infill
;WIDTH:0.45
G1 F3600
G1 X114.501 Y112.656 E.09193
M204 S1000
;WIPE_START
G1 F8640
G1 X115.64 Y111.414 E-.38912
;WIPE_END
G1 E-.41088 F2100
G1 Z.95 F720
G1 X115.675 Y110.608 F10800
G1 Z.55 F720
G1 E.8 F2100
M204 S2000
G1 F3600
G1 X113.965 Y110.25 E.09531
M204 S1000
;WIPE_START
G1 F8640
G1 X115.675 Y110.608 E-.4034
;WIPE_END
G1 E-.3966 F2100
G1 Z.95 F720
G1 X116.965 Y105.75 F10800
G1 Z.55 F720
G1 E.8 F2100
M204 S2000
G1 F3600
G1 X116.621 Y107.815 E.1142
M204 S1000
G1 X116.412 Y107.941 F10800
M204 S2000
M73 P15 R5
G1 F3600
G1 X114.34 Y107.25 E.11915
M204 S1000
;WIPE_START
G1 F8640
G1 X116.412 Y107.941 E-.50433
;WIPE_END
G1 E-.29567 F2100
G1 Z.95 F720
G1 X113.428 Y106.75 F10800
G1 Z.55 F720
G1 E.8 F2100
M204 S2000
G1 F3600
G1 X113.428 Y104.25 E.13638
G1 X115.09 Y104.25 E.09066
G1 X114.715 Y102 E.12443
G1 X116.965 Y102.75 E.12938
M204 S1000
;WIPE_START
G1 F8640
G1 X114.715 Y102 E-.54763
G1 X114.895 Y103.078 E-.25237
;WIPE_END
G1 Z.95 F720
G1 X118.465 Y93.75 F10800
G1 Z.55 F720
G1 E.8 F2100
M204 S2000
G1 F3600
G1 X118.136 Y94.293 E.03463
M204 S1000
;WIPE_START
G1 F8640
G1 X118.465 Y93.75 E-.1466
;WIPE_END
G1 E-.6534 F2100
G1 Z.95 F720
G1 X119.59 Y96.375 F10800
G1 Z.55 F720
G1 E.8 F2100
M204 S2000
G1 F3600
G1 X120.715 Y94.5 E.11928
G1 X118.039 Y94.453 E.146
G1 X118.028 Y94.529 E.00419
G1 X114.192 Y95.385 E.21441
G1 X114.529 Y96.947 E.08717
G1 X115.653 Y98.548 E.10671
M204 S1000
;WIPE_START
G1 F8640
G1 X114.529 Y96.947 E-.45168
G1 X114.211 Y95.472 E-.34832
;WIPE_END
G1 Z.95 F720
G1 X114.34 Y98.625 F10800
G1 Z.55 F720
G1 E.8 F2100
M204 S2000
G1 F3600
G1 X115.761 Y98.702 E.07763
G1 X115.874 Y99.348 E.03578
G1 X116.59 Y100.5 E.07399
G1 X117.278 Y99.595 E.06202
G1 X117.278 Y108 E.4585
G1 X116.59 Y108 E.03753
G1 X116.965 Y110.25 E.12443
G1 X115.859 Y110.647 E.0641
G1 X115.767 Y111.276 E.03468
G1 X116.845 Y115.171 E.22046
G1 X117.111 Y115.318 E.01658
G1 X117.184 Y115.903 E.03216
M204 S1000
G1 X117.287 Y115.252 F10800
M204 S2000
G1 F3600
G1 X118.761 Y114.7 E.08586
G1 X118.465 Y116.25 E.08608
M204 S1000
;WIPE_START
G1 F8640
G1 X118.761 Y114.7 E-.36437
G1 X117.287 Y115.252 E-.36343
;WIPE_END
G1 E-.0722 F2100
G1 Z.95 F720
G1 X120.715 Y115.875 F10800
G1 Z.55 F720
G1 E.8 F2100
M204 S2000
G1 F3600
G1 X119.205 Y114.534 E.11017
G1 X118.937 Y114.635 E.01562
M204 S1000
G1 X119.352 Y114.417 F10800
M204 S2000
G1 F3600
G1 X120.34 Y113.625 E.06908
M204 S1000
;WIPE_START
G1 F8640
G1 X119.352 Y114.417 E-.29238
;WIPE_END
G1 E-.50762 F2100
G1 Z.95 F720
G1 X124.465 Y116.25 F10800
G1 Z.55 F720
G1 E.8 F2100
M204 S2000
G1 F3600
G1 X123.34 Y113.625 E.15579
