; generated by PrusaSlicer 2.6.0-alpha6+linux-x64-GTK3 on 2023-05-08 at 03:33:34 UTC

; 

; external perimeters extrusion width = 0.60mm
; perimeters extrusion width = 0.43mm
; infill extrusion width = 0.45mm
; solid infill extrusion width = 0.70mm
; top infill extrusion width = 0.45mm
; first layer extrusion width = 0.42mm

M73 P0 R9
M201 X9000 Y9000 Z500 E10000 ; sets maximum accelerations, mm/sec^2
M203 X500 Y500 Z12 E120 ; sets maximum feedrates, mm / sec
M204 S2000 T1500 ; sets acceleration (S) and retract acceleration (R), mm/sec^2
M205 X10.00 Y10.00 Z0.20 E4.50 ; sets the jerk limits, mm/sec
M205 S0 T0 ; sets the minimum extruding and travel feed rate, mm/sec
;TYPE:Custom
M862.3 P "MK2.5" ; printer model check
M862.1 P0.4 ; nozzle diameter check
M115 U3.11.0 ; tell printer latest fw version
G90 ; use absolute coordinates
M83 ; extruder relative mode
M104 S215 ; set extruder temp
M140 S60 ; set bed temp
M190 S60 ; wait for bed temp
M109 S215 ; wait for extruder temp
G28 W ; home all without mesh bed level
G80 ; mesh bed leveling

G1 Z0.2 F720
G1 Y-3 F1000 ; go outside print area
G92 E0
G1 X60 E9 F1000 ; intro line
G1 X100 E12.5 F1000 ; intro line

G92 E0
G21 ; set units to millimeters
G90 ; use absolute coordinates
M83 ; use relative distances for extrusion
M900 K0.05 ; Filament gcode LA 1.5
M900 K30 ; Filament gcode LA 1.0
M107
;LAYER_CHANGE
;Z:0.2
;HEIGHT:0.2
;BEFORE_LAYER_CHANGE
G92 E0.0
;0.2


G1 E-.8 F2100
M73 P1 R9
G1 Z.4 F720
;AFTER_LAYER_CHANGE
;0.2
;CURRENT_Z: 0.2
G1 X97.616 Y90.993 F10800
G1 Z.2 F720
G1 E.8 F2100
M204 S800
;TYPE:Skirt/Brim
;WIDTH:0.42
G1 F1200
G1 X98.661 Y90.117 E.04275
G1 X99.601 Y89.923 E.03009
G1 X150.399 Y89.923 E1.59274
G1 X151.706 Y90.315 E.04278
G1 X152.582 Y91.36 E.04275
G1 X152.776 Y92.3 E.03009
G1 X152.776 Y117.7 E.7964
G1 X152.385 Y119.007 E.04277
G1 X151.339 Y119.883 E.04278
G1 X150.399 Y120.077 E.03009
G1 X99.601 Y120.077 E1.59274
G1 X98.294 Y119.685 E.04278
M73 P2 R9
G1 X97.418 Y118.64 E.04275
G1 X97.224 Y117.7 E.03009
G1 X97.224 Y92.3 E.7964
G1 X97.598 Y91.05 E.04091
M204 S1000
; printing object S - AxoBlock Frame.stl id:0 copy 0
;WIPE_START
G1 F8640
G1 X98.661 Y90.117 E-.32658
G1 X99.601 Y89.923 E-.22162
G1 X100.692 Y89.923 E-.2518
;WIPE_END
G1 Z.6 F720
G1 X100.951 Y93.679 F10800
G1 Z.2 F720
G1 E.8 F2100
M204 S800
;TYPE:Perimeter
;WIDTH:0.419999
G1 F1200
G1 X149.049 Y93.679 E1.50808
G1 X149.049 Y116.321 E.70992
M73 P3 R9
G1 X100.951 Y116.321 E1.50808
G1 X100.951 Y93.739 E.70804
M204 S1000
G1 X100.574 Y93.302 F10800
M204 S800
;TYPE:External perimeter
G1 F1200
G1 X149.426 Y93.302 E1.53172
G1 X149.426 Y116.698 E.73356
M73 P4 R9
G1 X100.574 Y116.698 E1.53172
G1 X100.574 Y93.362 E.73168
M204 S1000
G1 X100.969 Y93.361 F10800
;WIPE_START
M73 P5 R9
G1 F8640
G1 X104.039 Y93.358 E-.8
;WIPE_END
G1 Z.6 F720
G1 X104.836 Y112.006 F10800
G1 Z.2 F720
G1 E.8 F2100
M204 S800
;TYPE:Perimeter
G1 F1200
G1 X104.812 Y111.919 E.00283
G1 X104.812 Y98.077 E.43401
G1 X104.891 Y97.789 E.00936
G1 X105.085 Y97.593 E.00865
G1 X105.378 Y97.511 E.00954
G1 X118.67 Y97.515 E.41676
G1 X118.879 Y97.555 E.00667
G1 X119.048 Y97.66 E.00624
G1 X120.17 Y98.667 E.04727
G1 X124.22 Y98.667 E.12698
G1 X124.481 Y98.73 E.00842
G1 X124.627 Y98.84 E.00573
;WIDTH:0.445388
G1 X124.799 Y99.233 E.01436
G1 X124.799 Y110.765 E.38592
G1 X124.627 Y111.158 E.01436
;WIDTH:0.419999
G1 X124.362 Y111.313 E.00963
G1 X124.22 Y111.331 E.00449
G1 X120.171 Y111.331 E.12695
G1 X119.048 Y112.34 E.04734
G1 X118.768 Y112.477 E.00977
G1 X118.67 Y112.485 E.00308
G1 X105.378 Y112.485 E.41676
G1 X105.085 Y112.404 E.00953
G1 X104.891 Y112.208 E.00865
G1 X104.851 Y112.064 E.00469
M204 S1000
G1 X105.189 Y111.919 F10800
M204 S800
;TYPE:External perimeter
G1 F1200
G1 X105.189 Y98.077 E.43401
G1 X105.243 Y97.944 E.0045
G1 X105.378 Y97.888 E.00458
G1 X118.67 Y97.892 E.41676
G1 X118.796 Y97.94 E.00423
M73 P6 R9
G1 X120.026 Y99.044 E.05182
G1 X124.22 Y99.044 E.1315
G1 X124.356 Y99.102 E.00464
G1 X124.409 Y99.233 E.00443
G1 X124.409 Y110.765 E.36158
G1 X124.356 Y110.896 E.00443
G1 X124.22 Y110.954 E.00464
G1 X120.026 Y110.954 E.1315
G1 X118.796 Y112.06 E.05186
G1 X118.67 Y112.108 E.00423
G1 X105.378 Y112.108 E.41676
G1 X105.243 Y112.052 E.00458
G1 X105.212 Y111.975 E.0026
M204 S1000
G1 X104.803 Y111.816 F10800
;WIPE_START
G1 F8640
G1 X105.206 Y108.51 E-.8
;WIPE_END
G1 Z.6 F720
G1 X125.252 Y110.882 F10800
G1 Z.2 F720
G1 E.8 F2100
M204 S800
;TYPE:Perimeter
;WIDTH:0.445388
G1 F1200
G1 X125.201 Y110.765 E.00427
G1 X125.201 Y99.233 E.38592
G1 X125.373 Y98.84 E.01436
;WIDTH:0.419999
G1 X125.638 Y98.685 E.00963
G1 X125.78 Y98.667 E.00449
G1 X129.83 Y98.667 E.12698
G1 X130.952 Y97.66 E.04727
G1 X131.232 Y97.523 E.00977
G1 X131.33 Y97.515 E.00308
G1 X144.622 Y97.511 E.41676
G1 X144.915 Y97.593 E.00954
G1 X145.109 Y97.789 E.00865
G1 X145.188 Y98.077 E.00936
G1 X145.188 Y111.919 E.43401
G1 X145.109 Y112.208 E.00939
G1 X144.915 Y112.404 E.00865
G1 X144.622 Y112.485 E.00953
G1 X131.33 Y112.485 E.41676
G1 X131.121 Y112.445 E.00667
M73 P7 R9
G1 X130.952 Y112.34 E.00624
G1 X129.829 Y111.331 E.04734
G1 X125.78 Y111.331 E.12695
G1 X125.519 Y111.268 E.00842
G1 X125.373 Y111.158 E.00573
;WIDTH:0.445388
G1 X125.276 Y110.937 E.00808
M204 S1000
G1 X125.591 Y110.765 F10800
M204 S800
;TYPE:External perimeter
;WIDTH:0.419999
G1 F1200
G1 X125.591 Y99.233 E.36158
G1 X125.693 Y99.065 E.00616
G1 X125.78 Y99.044 E.00281
G1 X129.974 Y99.044 E.1315
G1 X131.204 Y97.94 E.05182
M73 P7 R8
G1 X131.33 Y97.892 E.00423
G1 X144.622 Y97.888 E.41676
G1 X144.757 Y97.944 E.00458
G1 X144.811 Y98.077 E.0045
G1 X144.811 Y111.919 E.43401
G1 X144.757 Y112.052 E.0045
G1 X144.622 Y112.108 E.00458
G1 X131.33 Y112.108 E.41676
G1 X131.204 Y112.06 E.00423
G1 X129.974 Y110.954 E.05186
G1 X125.78 Y110.954 E.1315
G1 X125.644 Y110.896 E.00464
G1 X125.613 Y110.821 E.00254
M204 S1000
G1 X125.205 Y110.662 F10800
;WIPE_START
G1 F8640
G1 X125.606 Y107.356 E-.8
;WIPE_END
G1 Z.6 F720
G1 X123.769 Y115.692 F10800
G1 Z.2 F720
G1 E.8 F2100
M204 S800
;TYPE:Internal infill
;WIDTH:0.42
G1 F1200
G1 X123.769 Y116.04 E.01091
G1 X119.204 Y116.04 E.14313
G1 X118.413 Y114.237 E.06173
G1 X117.526 Y114.268 E.02783
M204 S1000
;WIPE_START
G1 F8640
G1 X118.413 Y114.237 E-.20494
G1 X119.204 Y116.04 E-.45462
G1 X119.812 Y116.04 E-.14044
;WIPE_END
G1 Z.6 F720
G1 X111.542 Y114.375 F10800
G1 Z.2 F720
G1 E.8 F2100
M204 S800
G1 F1200
G1 X113.945 Y114.128 E.07574
G1 X113.944 Y112.76 E.04289
G1 X106.781 Y112.766 E.22459
G1 X106.782 Y113.751 E.03088
G1 X106.706 Y113.943 E.00647
G1 X105.153 Y114.913 E.05741
G1 X106.023 Y115.686 E.03649
M204 S1000
;WIPE_START
M73 P8 R8
G1 F8640
G1 X105.153 Y114.913 E-.26872
G1 X106.706 Y113.943 E-.42279
G1 X106.782 Y113.751 E-.04768
G1 X106.782 Y113.488 E-.06081
;WIPE_END
G1 Z.6 F720
G1 X106.954 Y113.827 F10800
G1 Z.2 F720
G1 E.8 F2100
M204 S800
G1 F1200
G1 X107.872 Y114.233 E.03147
M204 S1000
;WIPE_START
G1 F8640
G1 X106.954 Y113.827 E-.23177
;WIPE_END
G1 E-.56823 F2100
G1 Z.6 F720
G1 X101.575 Y111.977 F10800
G1 Z.2 F720
G1 E.8 F2100
M204 S800
G1 F1200
G1 X101.733 Y111.34 E.02058
M204 S1000
;WIPE_START
G1 F8640
G1 X101.575 Y111.977 E-.15154
;WIPE_END
G1 E-.64846 F2100
G1 Z.6 F720
G1 X101.233 Y109.659 F10800
G1 Z.2 F720
G1 E.8 F2100
M204 S800
G1 F1200
G1 X101.233 Y112.159 E.07839
G1 X101.529 Y112.159 E.00928
G1 X101.718 Y112.215 E.00618
G1 X103.619 Y110.96 E.07142
G1 X104.039 Y109.099 E.05982
M204 S1000
;WIPE_START
G1 F8640
G1 X103.619 Y110.96 E-.44052
G1 X102.32 Y111.818 E-.35948
;WIPE_END
G1 Z.6 F720
G1 X104.01 Y105.03 F10800
G1 Z.2 F720
G1 E.8 F2100
M204 S800
G1 F1200
G1 X103.723 Y103.31 E.05468
M204 S1000
G1 X103.618 Y103.297 F10800
M204 S800
G1 F1200
G1 X102.23 Y106.527 E.11023
G1 X101.855 Y104.277 E.07152
G1 X101.5 Y102.72 E.05007
M204 S1000
;WIPE_START
G1 F8640
G1 X101.855 Y104.277 E-.36874
G1 X102.162 Y106.119 E-.43126
;WIPE_END
G1 Z.6 F720
G1 X104.53 Y100.625 F10800
G1 Z.2 F720
G1 E.8 F2100
M204 S800
G1 F1200
G1 X104.53 Y103.125 E.07839
G1 X103.692 Y103.125 E.02627
G1 X103.776 Y101.069 E.06452
G1 X102.393 Y99.662 E.06186
G1 X102.848 Y98.511 E.03881
G1 X101.878 Y97.745 E.03875
G1 X101.684 Y97.551 E.0086
G1 X101.667 Y97.502 E.00163
M204 S1000
;WIPE_START
G1 F8640
G1 X101.684 Y97.551 E-.01198
G1 X101.878 Y97.745 E-.06335
G1 X102.848 Y98.511 E-.28539
G1 X102.393 Y99.662 E-.28578
G1 X102.859 Y100.136 E-.1535
;WIPE_END
G1 Z.6 F720
G1 X108.218 Y95.23 F10800
G1 Z.2 F720
G1 E.8 F2100
M204 S800
G1 F1200
G1 X106.662 Y94.885 E.04997
G1 X106.589 Y94.28 E.01911
G1 X106.589 Y93.96 E.01003
G1 X111.567 Y93.96 E.15608
G1 X111.567 Y94.9 E.02947
M204 S1000
;WIPE_START
G1 F8640
G1 X111.567 Y93.96 E-.21705
G1 X109.042 Y93.96 E-.58295
;WIPE_END
G1 Z.6 F720
G1 X114.25 Y94.47 F10800
G1 Z.2 F720
G1 E.8 F2100
M204 S800
G1 F1200
G1 X114.669 Y96.04 E.05095
G1 X116.422 Y94.526 E.07263
G1 X118.514 Y96.144 E.08292
G1 X119.354 Y94.608 E.05489
G1 X119.206 Y94.042 E.01834
G1 X119.223 Y93.96 E.00263
G1 X121.723 Y93.96 E.07839
M204 S1000
;WIPE_START
G1 F8640
G1 X119.223 Y93.96 E-.57726
G1 X119.206 Y94.042 E-.01934
G1 X119.354 Y94.608 E-.13509
G1 X119.212 Y94.868 E-.06831
;WIPE_END
G1 Z.6 F720
G1 X122.75 Y98.014 F10800
G1 Z.2 F720
G1 E.8 F2100
M204 S800
G1 F1200
G1 X122.75 Y98.385 E.01163
G1 X120.278 Y98.385 E.07751
G1 X120.257 Y98.366 E.00089
M204 S1000
;WIPE_START
M73 P9 R8
G1 F8640
G1 X120.278 Y98.385 E-.00654
G1 X122.75 Y98.385 E-.57079
G1 X122.75 Y98.014 E-.08566
;WIPE_END
G1 E-.13701 F2100
G1 Z.6 F720
G1 X129.215 Y96.225 F10800
G1 Z.2 F720
G1 E.8 F2100
M204 S800
G1 F1200
G1 X130.287 Y95.136 E.04791
M204 S1000
G1 X130.363 Y94.824 F10800
M204 S800
G1 F1200
G1 X130.237 Y94.419 E.0133
M204 S1000
;WIPE_START
G1 F8640
G1 X130.363 Y94.824 E-.09794
;WIPE_END
G1 E-.70206 F2100
G1 Z.6 F720
G1 X135.51 Y94.47 F10800
G1 Z.2 F720
G1 E.8 F2100
M204 S800
G1 F1200
G1 X135.022 Y96.069 E.05242
G1 X132.799 Y94.819 E.07996
G1 X131.429 Y95.667 E.05052
M204 S1000
;WIPE_START
G1 F8640
G1 X132.799 Y94.819 E-.37203
G1 X134.415 Y95.727 E-.42797
;WIPE_END
G1 Z.6 F720
G1 X132.288 Y96.539 F10800
G1 Z.2 F720
G1 E.8 F2100
M204 S800
G1 F1200
G1 X131.27 Y95.766 E.04008
G1 X130.419 Y95.003 E.03584
G1 X130.527 Y94.475 E.0169
G1 X130.719 Y94.09 E.01349
G1 X130.719 Y93.96 E.00408
G1 X138.028 Y93.96 E.22917
G1 X138.028 Y94.082 E.00383
G1 X138.804 Y96.428 E.07748
M204 S1000
;WIPE_START
G1 F8640
G1 X138.028 Y94.082 E-.57056
G1 X138.028 Y93.96 E-.02817
G1 X137.156 Y93.96 E-.20127
;WIPE_END
G1 Z.6 F720
G1 X141.804 Y96.428 F10800
G1 Z.2 F720
G1 E.8 F2100
M204 S800
G1 F1200
G1 X141.063 Y94.374 E.06846
G1 X143.958 Y94.446 E.0908
G1 X144.823 Y95.666 E.04689
G1 X148.001 Y97.093 E.10923
G1 X148.055 Y97.101 E.00171
G1 X147.931 Y97.499 E.01307
G1 X146.401 Y98.82 E.06338
G1 X147.314 Y99.992 E.04658
G1 X145.974 Y101.458 E.06227
G1 X146.059 Y103.311 E.05816
M204 S1000
;WIPE_START
G1 F8640
G1 X145.974 Y101.458 E-.42831
G1 X147.06 Y100.27 E-.37169
;WIPE_END
G1 Z.6 F720
G1 X148.371 Y102.513 F10800
G1 Z.2 F720
G1 E.8 F2100
M204 S800
G1 F1200
G1 X146.068 Y103.499 E.07855
G1 X146.412 Y105.565 E.06567
M204 S1000
;WIPE_START
G1 F8640
G1 X146.068 Y103.499 E-.48361
G1 X147.328 Y102.96 E-.31639
;WIPE_END
G1 Z.6 F720
G1 X148.36 Y105.111 F10800
G1 Z.2 F720
G1 E.8 F2100
M204 S800
G1 F1200
G1 X146.443 Y105.75 E.06336
G1 X148.423 Y107.401 E.08083
G1 X146.981 Y109.435 E.07818
G1 X147.79 Y110.969 E.05438
G1 X148.767 Y110.969 E.03063
G1 X148.767 Y113.469 E.07839
M204 S1000
;WIPE_START
G1 F8640
G1 X148.767 Y110.969 E-.57726
G1 X147.802 Y110.969 E-.22274
;WIPE_END
G1 Z.6 F720
G1 X147.69 Y111.121 F10800
G1 Z.2 F720
G1 E.8 F2100
M204 S800
G1 F1200
G1 X145.918 Y114.83 E.12888
G1 X145.691 Y114.946 E.00799
M73 P10 R8
G1 X145.275 Y115.562 E.02331
G1 X144.818 Y115.39 E.01531
G1 X143.845 Y115.151 E.03141
G1 X143.429 Y114.171 E.03338
G1 X141.748 Y113.925 E.05327
G1 X141.25 Y115.53 E.05269
M204 S1000
;WIPE_START
G1 F8640
G1 X141.748 Y113.925 E-.38803
G1 X143.429 Y114.171 E-.39228
G1 X143.462 Y114.249 E-.01969
;WIPE_END
G1 Z.6 F720
G1 X135.536 Y113.81 F10800
G1 Z.2 F720
G1 E.8 F2100
M204 S800
G1 F1200
G1 X135.25 Y115.53 E.05467
M204 S1000
;WIPE_START
G1 F8640
G1 X135.536 Y113.81 E-.40261
;WIPE_END
G1 E-.39739 F2100
G1 Z.6 F720
G1 X138.25 Y115.53 F10800
G1 Z.2 F720
G1 E.8 F2100
M204 S800
G1 F1200
G1 X138.452 Y113.615 E.06038
G1 X138.452 Y112.767 E.02659
G1 X135.566 Y112.767 E.09049
G1 X135.566 Y113.625 E.0269
G1 X132.879 Y113.784 E.0844
G1 X132.592 Y113.58 E.01104
G1 X132.316 Y113.758 E.0103
G1 X130.582 Y115.559 E.07839
G1 X131.846 Y115.825 E.0405
M204 S1000
;WIPE_START
G1 F8640
G1 X130.582 Y115.559 E-.29825
G1 X132.089 Y113.994 E-.50175
;WIPE_END
G1 Z.6 F720
G1 X148.396 Y97.755 F10800
G1 Z.2 F720
G1 E.8 F2100
M204 S800
G1 F1200
G1 X148.142 Y97.267 E.01725
M204 S1000
; stop printing object S - AxoBlock Frame.stl id:0 copy 0
M106 S84.15
;LAYER_CHANGE
;Z:0.55
;HEIGHT:0.35
;BEFORE_LAYER_CHANGE
G92 E0.0
;0.55


;WIPE_START
G1 F8640
G1 X148.396 Y97.755 E-.12703
;WIPE_END
G1 E-.67297 F2100
G1 Z.6 F720
;AFTER_LAYER_CHANGE
;0.55
;CURRENT_Z: 0.55
M104 S210 ; set temperature
G1 X152.776 Y97.755 F10800
G1 Z.55 F720
G1 E.8 F2100
;TYPE:Skirt/Brim
G1 F3000
G1 X152.776 Y117.7 E1.00096
G1 X152.385 Y119.007 E.06847
G1 X151.339 Y119.883 E.06847
G1 X150.399 Y120.077 E.04817
G1 X99.601 Y120.077 E2.54934
G1 X98.294 Y119.685 E.06848
G1 X97.418 Y118.64 E.06843
G1 X97.224 Y117.7 E.04817
G1 X97.224 Y92.3 E1.27472
G1 X97.616 Y90.993 E.06848
G1 X98.661 Y90.117 E.06843
G1 X99.601 Y89.923 E.04817
G1 X150.399 Y89.923 E2.54934
G1 X151.706 Y90.315 E.06848
M73 P11 R8
G1 X152.582 Y91.36 E.06843
G1 X152.776 Y92.3 E.04817
G1 X152.776 Y97.695 E.27075
; printing object S - AxoBlock Frame.stl id:0 copy 0
;WIPE_START
G1 F8640
G1 X152.776 Y101.16 E-.8
;WIPE_END
G1 Z.95 F720
G1 X100.629 Y116.643 F10800
G1 Z.55 F720
G1 E.8 F2100
M204 S800
;TYPE:Perimeter
;WIDTH:0.43
G1 F3000
G1 X100.629 Y93.357 E1.20251
G1 X149.371 Y93.357 E2.51709
G1 X149.371 Y116.643 E1.20251
G1 X100.689 Y116.643 E2.51399
M204 S1000
G1 X100.189 Y117.083 F10800
M204 S800
;TYPE:External perimeter
;WIDTH:0.6
G1 F2400
G1 X100.189 Y92.917 E1.84576
G1 X149.811 Y92.917 E3.79004
G1 X149.811 Y117.083 E1.84576
M73 P12 R8
G1 X100.249 Y117.083 E3.78546
M204 S1000
G1 X100.334 Y116.711 F10800
;WIPE_START
G1 F8640
G1 X100.24 Y113.618 E-.8
;WIPE_END
G1 Z.95 F720
G1 X105.088 Y112.245 F10800
G1 Z.55 F720
G1 E.8 F2100
M204 S800
;TYPE:Perimeter
;WIDTH:0.43
G1 F3000
G1 X105.062 Y112.23 E.00155
G1 X104.885 Y111.924 E.01826
G1 X104.859 Y111.736 E.0098
G1 X104.859 Y98.26 E.69591
G1 X104.957 Y97.903 E.01912
G1 X105.198 Y97.659 E.01771
G1 X105.44 Y97.569 E.01333
G1 X105.562 Y97.558 E.00633
G1 X118.6 Y97.562 E.6733
G1 X118.936 Y97.648 E.01791
G1 X120.152 Y98.714 E.08351
G1 X124.037 Y98.714 E.20063
G1 X124.29 Y98.762 E.0133
G1 X124.569 Y98.959 E.01764
;WIDTH:0.471837
G1 X124.675 Y99.188 E.01457
;WIDTH:0.513674
G1 X124.781 Y99.416 E.01605
G1 X124.781 Y110.582 E.71258
;WIDTH:0.517354
G1 X124.78 Y110.647 E.00418
G1 X124.674 Y110.843 E.01434
;WIDTH:0.473677
G1 X124.569 Y111.039 E.0129
;WIDTH:0.43
G1 X124.29 Y111.236 E.01764
G1 X124.037 Y111.284 E.0133
G1 X120.153 Y111.284 E.20057
G1 X119.069 Y112.258 E.07526
G1 X118.776 Y112.415 E.01717
G1 X118.599 Y112.438 E.00922
G1 X105.561 Y112.438 E.6733
G1 X105.37 Y112.411 E.00996
G1 X105.14 Y112.275 E.0138
M204 S1000
G1 X105.375 Y111.92 F10800
M204 S800
;TYPE:External perimeter
;WIDTH:0.6
G1 F2400
G1 X105.299 Y111.736 E.01521
G1 X105.299 Y98.26 E1.02927
G1 X105.375 Y98.076 E.01521
G1 X105.562 Y97.998 E.01548
G1 X118.599 Y98.002 E.99574
G1 X118.775 Y98.069 E.01438
G1 X119.984 Y99.154 E.12407
G1 X124.037 Y99.154 E.30956
G1 X124.169 Y99.19 E.01045
G1 X124.236 Y99.245 E.00662
G1 X124.299 Y99.416 E.01392
G1 X124.299 Y110.582 E.85284
G1 X124.236 Y110.753 E.01392
G1 X124.082 Y110.84 E.01351
G1 X124.037 Y110.844 E.00345
G1 X119.984 Y110.844 E.30956
G1 X118.775 Y111.931 E.12418
G1 X118.599 Y111.998 E.01438
G1 X105.561 Y111.998 E.99582
G1 X105.43 Y111.943 E.01085
M204 S1000
M73 P13 R8
G1 X105.182 Y111.971 F10800
;WIPE_START
G1 F8640
G1 X105.299 Y111.736 E-.05656
G1 X105.299 Y108.516 E-.74344
;WIPE_END
G1 Z.95 F720
G1 X125.399 Y110.979 F10800
G1 Z.55 F720
G1 E.8 F2100
