; generated by PrusaSlicer 2.5.0+linux-x64-GTK3 on 2022-09-09 at 20:31:42 UTC

; 

; external perimeters extrusion width = 0.45mm
; perimeters extrusion width = 0.45mm
; infill extrusion width = 0.45mm
; solid infill extrusion width = 0.45mm
; top infill extrusion width = 0.40mm
; first layer extrusion width = 0.42mm

M73 P0 R19
M201 X9000 Y9000 Z500 E10000 ; sets maximum accelerations, mm/sec^2
M203 X500 Y500 Z12 E120 ; sets maximum feedrates, mm / sec
M204 P2000 R1500 T2000 ; sets acceleration (P, T) and retract acceleration (R), mm/sec^2
M205 X10.00 Y10.00 Z0.20 E4.50 ; sets the jerk limits, mm/sec
M205 S0 T0 ; sets the minimum extruding and travel feed rate, mm/sec
M107
;TYPE:Custom
M862.3 P "MK2.5" ; printer model check
M862.1 P0.4 ; nozzle diameter check
M115 U3.11.0 ; tell printer latest fw version
G90 ; use absolute coordinates
M83 ; extruder relative mode
M104 S215 ; set extruder temp
M140 S60 ; set bed temp
M190 S60 ; wait for bed temp
M109 S215 ; wait for extruder temp
G28 W ; home all without mesh bed level
G80 ; mesh bed leveling

G1 Z0.2 F720
G1 Y-3 F1000 ; go outside print area
G92 E0
G1 X60 E9 F1000 ; intro line
G1 X100 E12.5 F1000 ; intro line

G92 E0
G21 ; set units to millimeters
G90 ; use absolute coordinates
M83 ; use relative distances for extrusion
M900 K0.05 ; Filament gcode LA 1.5
M900 K30 ; Filament gcode LA 1.0
M107
;LAYER_CHANGE
;Z:0.2
;HEIGHT:0.2
;BEFORE_LAYER_CHANGE
G92 E0.0
;0.2


G1 E-.8 F2100
G1 Z.4 F720
;AFTER_LAYER_CHANGE
;0.2
;CURRENT_Z: 0.2
G1 X97.778 Y91.185 F10800
G1 Z.2 F720
G1 E.8 F2100
M204 S800
;TYPE:Skirt/Brim
;WIDTH:0.42
G1 F1200
G1 X98.824 Y90.308 E.04278
G1 X99.764 Y90.115 E.03008
G1 X150.236 Y90.115 E1.58254
G1 X151.543 Y90.506 E.04278
G1 X152.42 Y91.552 E.04278
G1 X152.613 Y92.492 E.03008
G1 X152.613 Y117.508 E.78438
G1 X152.222 Y118.815 E.04278
G1 X151.176 Y119.692 E.04278
G1 X150.237 Y119.885 E.03008
G1 X99.764 Y119.885 E1.58254
G1 X98.457 Y119.494 E.04278
M73 P1 R19
G1 X97.58 Y118.448 E.04278
G1 X97.387 Y117.509 E.03005
G1 X97.387 Y92.492 E.78441
G1 X97.761 Y91.242 E.0409
M204 S1000
; printing object S - AxoBlock Frame.stl id:0 copy 0
;WIPE_START
G1 F8640
G1 X98.824 Y90.308 E-.32671
G1 X99.764 Y90.115 E-.22152
G1 X100.681 Y90.115 E-.21177
;WIPE_END
G1 E-.04 F2100
G1 Z.6 F720
G1 X100.951 Y93.679 F10800
G1 Z.2 F720
G1 E.8 F2100
M204 S800
;TYPE:Perimeter
;WIDTH:0.419999
G1 F1200
G1 X149.049 Y93.679 E1.50809
G1 X149.049 Y116.321 E.70994
G1 X100.951 Y116.321 E1.50809
G1 X100.951 Y93.739 E.70806
M204 S1000
G1 X100.574 Y93.302 F10800
M204 S800
;TYPE:External perimeter
G1 F1200
G1 X149.426 Y93.302 E1.53173
G1 X149.426 Y116.698 E.73359
M73 P2 R19
G1 X100.574 Y116.698 E1.53173
G1 X100.574 Y93.362 E.7317
M204 S1000
G1 X100.969 Y93.361 F10800
;WIPE_START
G1 F8640
G1 X103.865 Y93.358 E-.76
;WIPE_END
G1 E-.04 F2100
G1 Z.6 F720
G1 X105.29 Y112.461 F10800
G1 Z.2 F720
G1 E.8 F2100
M204 S800
;TYPE:Perimeter
G1 F1200
G1 X105.085 Y112.404 E.00667
G1 X104.891 Y112.208 E.00866
G1 X104.812 Y111.919 E.00937
G1 X104.812 Y98.077 E.43403
G1 X104.891 Y97.789 E.00935
G1 X105.085 Y97.593 E.00866
G1 X105.378 Y97.511 E.00953
G1 X118.67 Y97.515 E.41677
G1 X118.879 Y97.555 E.00667
G1 X119.048 Y97.66 E.00623
G1 X120.17 Y98.667 E.0473
G1 X124.22 Y98.667 E.12699
G1 X124.481 Y98.73 E.0084
G1 X124.627 Y98.84 E.00574
;WIDTH:0.445388
G1 X124.799 Y99.233 E.01434
G1 X124.799 Y110.765 E.38595
G1 X124.627 Y111.158 E.01435
;WIDTH:0.419999
G1 X124.362 Y111.313 E.00962
G1 X124.22 Y111.331 E.00448
G1 X120.171 Y111.331 E.12698
G1 X119.048 Y112.34 E.04733
G1 X118.768 Y112.477 E.00978
G1 X118.67 Y112.485 E.00308
G1 X105.348 Y112.477 E.4177
M204 S1000
G1 X105.378 Y112.108 F10800
M204 S800
;TYPE:External perimeter
G1 F1200
G1 X105.243 Y112.052 E.00456
G1 X105.189 Y111.919 E.00449
G1 X105.189 Y98.077 E.43403
G1 X105.243 Y97.944 E.00449
G1 X105.378 Y97.888 E.00456
G1 X118.67 Y97.892 E.41677
G1 X118.796 Y97.94 E.00423
M73 P3 R18
G1 X120.026 Y99.044 E.05182
G1 X124.22 Y99.044 E.13151
G1 X124.356 Y99.102 E.00462
G1 X124.409 Y99.233 E.00443
G1 X124.409 Y110.765 E.36161
G1 X124.356 Y110.896 E.00443
G1 X124.22 Y110.954 E.00462
G1 X120.026 Y110.954 E.13151
G1 X118.796 Y112.06 E.05186
G1 X118.67 Y112.108 E.00423
G1 X105.438 Y112.108 E.41489
M204 S1000
G1 X105.275 Y112.211 F10800
;WIPE_START
G1 F8640
G1 X105.243 Y112.052 E-.04665
G1 X105.189 Y111.919 E-.03308
G1 X105.189 Y108.973 E-.68027
;WIPE_END
G1 E-.04 F2100
G1 Z.6 F720
G1 X144.71 Y97.535 F10800
G1 Z.2 F720
G1 E.8 F2100
M204 S800
;TYPE:Perimeter
G1 F1200
G1 X144.915 Y97.593 E.00668
G1 X145.109 Y97.789 E.00866
G1 X145.188 Y98.077 E.00935
G1 X145.188 Y111.919 E.43403
G1 X145.109 Y112.208 E.00937
G1 X144.915 Y112.404 E.00866
G1 X144.622 Y112.485 E.00952
G1 X131.33 Y112.485 E.41677
G1 X131.121 Y112.445 E.00668
G1 X130.952 Y112.34 E.00623
G1 X129.829 Y111.331 E.04733
G1 X125.78 Y111.331 E.12698
G1 X125.519 Y111.268 E.00839
G1 X125.373 Y111.158 E.00574
;WIDTH:0.445388
G1 X125.201 Y110.765 E.01435
G1 X125.201 Y99.233 E.38595
G1 X125.373 Y98.84 E.01434
;WIDTH:0.419999
G1 X125.638 Y98.685 E.00963
G1 X125.78 Y98.667 E.00448
G1 X129.83 Y98.667 E.12699
G1 X130.952 Y97.66 E.0473
G1 X131.232 Y97.523 E.00976
G1 X131.33 Y97.515 E.00307
G1 X144.652 Y97.519 E.4177
M204 S1000
G1 X144.622 Y97.888 F10800
M204 S800
;TYPE:External perimeter
G1 F1200
G1 X144.757 Y97.944 E.00456
G1 X144.811 Y98.077 E.00449
G1 X144.811 Y111.919 E.43403
G1 X144.757 Y112.052 E.00449
G1 X144.622 Y112.108 E.00456
G1 X131.33 Y112.108 E.41677
G1 X131.204 Y112.06 E.00423
G1 X129.974 Y110.954 E.05186
G1 X125.78 Y110.954 E.13151
G1 X125.644 Y110.896 E.00462
G1 X125.591 Y110.765 E.00443
G1 X125.591 Y99.233 E.36161
G1 X125.693 Y99.065 E.00614
G1 X125.78 Y99.044 E.0028
G1 X129.974 Y99.044 E.13151
G1 X131.204 Y97.94 E.05182
G1 X131.33 Y97.892 E.00423
G1 X144.562 Y97.888 E.41489
M204 S1000
G1 X144.725 Y97.785 F10800
;WIPE_START
G1 F8640
G1 X144.757 Y97.944 E-.04669
G1 X144.811 Y98.077 E-.03304
G1 X144.811 Y101.023 E-.68027
;WIPE_END
G1 E-.04 F2100
G1 Z.6 F720
G1 X148.936 Y94.56 F10800
G1 Z.2 F720
G1 E.8 F2100
M204 S800
;TYPE:Solid infill
;WIDTH:0.422727
G1 F1200
G1 X148.338 Y93.962 E.02672
G1 X147.801 Y93.962 E.01696
G1 X148.766 Y94.927 E.04314
G1 X148.766 Y95.464 E.01696
G1 X147.263 Y93.962 E.06712
G1 X146.726 Y93.962 E.01696
G1 X148.766 Y96.002 E.09111
G1 X148.766 Y96.539 E.01696
G1 X146.189 Y93.962 E.1151
G1 X145.652 Y93.962 E.01696
G1 X148.766 Y97.076 E.13909
G1 X148.766 Y97.613 E.01696
G1 X145.115 Y93.962 E.16308
G1 X144.578 Y93.962 E.01696
G1 X148.766 Y98.15 E.18707
G1 X148.766 Y98.687 E.01696
G1 X144.041 Y93.962 E.21106
G1 X143.504 Y93.962 E.01696
G1 X148.766 Y99.224 E.23505
G1 X148.766 Y99.761 E.01696
M73 P4 R18
G1 X142.966 Y93.962 E.25904
G1 X142.429 Y93.962 E.01696
G1 X148.766 Y100.299 E.28303
G1 X148.766 Y100.836 E.01696
G1 X141.892 Y93.962 E.30702
G1 X141.355 Y93.962 E.01696
G1 X144.622 Y97.228 E.14589
G1 X144.854 Y97.26 E.00742
G1 X145.061 Y97.35 E.00713
G1 X145.227 Y97.48 E.00666
G1 X145.354 Y97.645 E.00656
G1 X145.441 Y97.849 E.007
G1 X145.471 Y98.077 E.00728
G1 X148.766 Y101.373 E.14719
G1 X148.766 Y101.91 E.01696
G1 X145.471 Y98.614 E.14719
G1 X145.471 Y99.152 E.01696
G1 X148.766 Y102.447 E.14719
G1 X148.766 Y102.984 E.01696
G1 X145.471 Y99.689 E.14719
G1 X145.471 Y100.226 E.01696
G1 X148.766 Y103.521 E.14719
G1 X148.766 Y104.059 E.01696
G1 X145.471 Y100.763 E.14719
G1 X145.471 Y101.3 E.01696
G1 X148.766 Y104.596 E.14719
G1 X148.766 Y105.133 E.01696
G1 X145.471 Y101.837 E.14719
G1 X145.471 Y102.374 E.01696
G1 X148.766 Y105.67 E.14719
G1 X148.766 Y106.207 E.01696
G1 X145.471 Y102.912 E.14719
G1 X145.471 Y103.449 E.01696
G1 X148.766 Y106.744 E.14719
G1 X148.766 Y107.281 E.01696
G1 X145.471 Y103.986 E.14719
G1 X145.471 Y104.523 E.01696
G1 X148.766 Y107.818 E.14719
G1 X148.766 Y108.356 E.01696
G1 X145.471 Y105.06 E.14719
G1 X145.471 Y105.597 E.01696
G1 X148.766 Y108.893 E.14719
G1 X148.766 Y109.43 E.01696
G1 X145.471 Y106.134 E.14719
G1 X145.471 Y106.671 E.01696
G1 X148.766 Y109.967 E.14719
G1 X148.766 Y110.504 E.01696
G1 X145.471 Y107.209 E.14719
G1 X145.471 Y107.746 E.01696
G1 X148.766 Y111.041 E.14719
G1 X148.766 Y111.578 E.01696
G1 X145.471 Y108.283 E.14719
G1 X145.471 Y108.82 E.01696
G1 X148.766 Y112.115 E.14719
G1 X148.766 Y112.653 E.01696
G1 X145.471 Y109.357 E.14719
G1 X145.471 Y109.894 E.01696
G1 X148.766 Y113.19 E.14719
G1 X148.766 Y113.727 E.01696
G1 X145.471 Y110.431 E.14719
G1 X145.471 Y110.968 E.01696
G1 X148.766 Y114.264 E.14719
G1 X148.766 Y114.801 E.01696
G1 X145.471 Y111.506 E.14719
G1 X145.457 Y112.029 E.01652
G1 X148.766 Y115.338 E.14781
G1 X148.766 Y115.875 E.01696
G1 X145.305 Y112.414 E.15458
G1 X145.226 Y112.516 E.00407
G1 X145.019 Y112.665 E.00806
G1 X148.392 Y116.038 E.15067
G1 X147.855 Y116.038 E.01696
G1 X144.585 Y112.768 E.14607
G1 X144.048 Y112.768 E.01696
G1 X147.318 Y116.038 E.14607
G1 X146.781 Y116.038 E.01696
G1 X143.51 Y112.768 E.14607
G1 X142.973 Y112.768 E.01696
G1 X146.244 Y116.038 E.14607
G1 X145.707 Y116.038 E.01696
G1 X142.436 Y112.768 E.14607
G1 X141.899 Y112.768 E.01696
G1 X145.17 Y116.038 E.14607
G1 X144.633 Y116.038 E.01696
G1 X141.362 Y112.768 E.14607
G1 X140.825 Y112.768 E.01696
G1 X144.095 Y116.038 E.14607
G1 X143.558 Y116.038 E.01696
M73 P5 R18
G1 X140.288 Y112.768 E.14607
G1 X139.751 Y112.768 E.01696
G1 X143.021 Y116.038 E.14607
G1 X142.484 Y116.038 E.01696
G1 X139.213 Y112.768 E.14607
G1 X138.676 Y112.768 E.01696
G1 X141.947 Y116.038 E.14607
G1 X141.41 Y116.038 E.01696
G1 X138.139 Y112.768 E.14607
G1 X137.602 Y112.768 E.01696
G1 X140.873 Y116.038 E.14607
G1 X140.335 Y116.038 E.01696
G1 X137.065 Y112.768 E.14607
G1 X136.528 Y112.768 E.01696
G1 X139.798 Y116.038 E.14607
G1 X139.261 Y116.038 E.01696
G1 X135.991 Y112.768 E.14607
G1 X135.454 Y112.768 E.01696
G1 X138.724 Y116.038 E.14607
G1 X138.187 Y116.038 E.01696
G1 X134.916 Y112.768 E.14607
G1 X134.379 Y112.768 E.01696
G1 X137.65 Y116.038 E.14607
G1 X137.113 Y116.038 E.01696
G1 X133.842 Y112.768 E.14607
G1 X133.305 Y112.768 E.01696
G1 X136.576 Y116.038 E.14607
G1 X136.038 Y116.038 E.01696
G1 X132.768 Y112.768 E.14607
G1 X132.231 Y112.768 E.01696
G1 X135.501 Y116.038 E.14607
G1 X134.964 Y116.038 E.01696
G1 X131.694 Y112.768 E.14607
G1 X131.321 Y112.768 E.01176
G1 X131.117 Y112.729 E.00655
G1 X134.427 Y116.038 E.14782
G1 X133.89 Y116.038 E.01696
G1 X129.465 Y111.614 E.19761
G1 X128.928 Y111.614 E.01696
G1 X133.353 Y116.038 E.19761
G1 X132.816 Y116.038 E.01696
G1 X128.391 Y111.614 E.19761
G1 X127.854 Y111.614 E.01696
G1 X132.279 Y116.038 E.19761
G1 X131.741 Y116.038 E.01696
G1 X127.317 Y111.614 E.19761
G1 X126.78 Y111.614 E.01696
G1 X131.204 Y116.038 E.19761
G1 X130.667 Y116.038 E.01696
G1 X126.243 Y111.614 E.19761
G1 X125.696 Y111.604 E.01728
G1 X130.13 Y116.038 E.19806
G1 X129.593 Y116.038 E.01696
G1 X124.861 Y111.306 E.21136
G1 X124.837 Y111.352 E.00164
G1 X124.612 Y111.52 E.00886
G1 X124.556 Y111.539 E.00186
G1 X129.056 Y116.038 E.20098
G1 X128.519 Y116.038 E.01696
G1 X124.083 Y111.603 E.19809
G1 X123.548 Y111.605 E.01692
G1 X127.982 Y116.038 E.19802
G1 X127.444 Y116.038 E.01696
G1 X123.012 Y111.606 E.19795
G1 X122.477 Y111.608 E.01692
G1 X126.907 Y116.038 E.19789
G1 X126.37 Y116.038 E.01696
G1 X121.941 Y111.609 E.19782
G1 X121.405 Y111.611 E.01692
G1 X125.833 Y116.038 E.19776
G1 X125.296 Y116.038 E.01696
G1 X120.87 Y111.612 E.19769
G1 X120.334 Y111.614 E.01692
G1 X124.759 Y116.038 E.19762
G1 X124.222 Y116.038 E.01696
G1 X120.025 Y111.842 E.18742
G1 X119.742 Y112.096 E.01201
G1 X123.685 Y116.038 E.17607
G1 X123.147 Y116.038 E.01696
M73 P6 R18
G1 X119.459 Y112.351 E.16471
G1 X119.167 Y112.595 E.01204
G1 X122.61 Y116.038 E.15377
G1 X122.073 Y116.038 E.01696
G1 X118.791 Y112.757 E.14658
G1 X118.255 Y112.757 E.01695
G1 X121.536 Y116.038 E.14656
G1 X120.999 Y116.038 E.01696
G1 X117.718 Y112.757 E.14654
G1 X117.181 Y112.758 E.01695
G1 X120.462 Y116.038 E.14652
G1 X119.925 Y116.038 E.01696
G1 X116.644 Y112.758 E.1465
G1 X116.108 Y112.759 E.01695
G1 X119.387 Y116.038 E.14648
G1 X118.85 Y116.038 E.01696
G1 X115.571 Y112.759 E.14646
G1 X115.034 Y112.76 E.01695
G1 X118.313 Y116.038 E.14644
G1 X117.776 Y116.038 E.01696
G1 X114.498 Y112.76 E.14642
G1 X113.961 Y112.761 E.01695
G1 X117.239 Y116.038 E.1464
G1 X116.702 Y116.038 E.01696
G1 X113.424 Y112.761 E.14638
G1 X112.888 Y112.762 E.01695
G1 X116.165 Y116.038 E.14636
G1 X115.628 Y116.038 E.01696
G1 X112.351 Y112.762 E.14634
G1 X111.814 Y112.762 E.01695
G1 X115.09 Y116.038 E.14632
G1 X114.553 Y116.038 E.01696
G1 X111.278 Y112.763 E.1463
G1 X110.741 Y112.763 E.01695
G1 X114.016 Y116.038 E.14627
G1 X113.479 Y116.038 E.01696
G1 X110.204 Y112.764 E.14625
G1 X109.668 Y112.764 E.01695
G1 X112.942 Y116.038 E.14623
G1 X112.405 Y116.038 E.01696
G1 X109.131 Y112.765 E.14621
G1 X108.594 Y112.765 E.01695
G1 X111.868 Y116.038 E.14619
G1 X111.331 Y116.038 E.01696
G1 X108.058 Y112.766 E.14617
G1 X107.521 Y112.766 E.01695
G1 X110.793 Y116.038 E.14615
G1 X110.256 Y116.038 E.01696
G1 X106.984 Y112.767 E.14613
G1 X106.448 Y112.767 E.01695
G1 X109.719 Y116.038 E.14611
G1 X109.182 Y116.038 E.01696
G1 X105.741 Y112.598 E.15366
M204 S1000
;WIPE_START
G1 F8640
G1 X108.069 Y114.925 E-.76
;WIPE_END
G1 E-.04 F2100
G1 Z.6 F720
G1 X144.255 Y97.398 F10800
G1 Z.2 F720
G1 E.8 F2100
M204 S800
G1 F1200
G1 X140.818 Y93.962 E.15349
G1 X140.281 Y93.962 E.01696
G1 X143.549 Y97.229 E.14595
G1 X143.012 Y97.23 E.01694
G1 X139.744 Y93.962 E.14598
G1 X139.207 Y93.962 E.01696
G1 X142.476 Y97.231 E.146
G1 X141.939 Y97.231 E.01694
G1 X138.669 Y93.962 E.14603
G1 X138.132 Y93.962 E.01696
G1 X141.403 Y97.232 E.14606
G1 X140.866 Y97.232 E.01694
G1 X137.595 Y93.962 E.14609
G1 X137.058 Y93.962 E.01696
G1 X140.33 Y97.233 E.14611
G1 X139.793 Y97.234 E.01694
G1 X136.521 Y93.962 E.14614
G1 X135.984 Y93.962 E.01696
G1 X139.257 Y97.234 E.14617
G1 X138.72 Y97.235 E.01694
G1 X135.447 Y93.962 E.1462
G1 X134.91 Y93.962 E.01696
G1 X138.183 Y97.235 E.14622
G1 X137.647 Y97.236 E.01694
G1 X134.372 Y93.962 E.14625
G1 X133.835 Y93.962 E.01696
G1 X137.11 Y97.237 E.14628
G1 X136.574 Y97.237 E.01694
M73 P7 R18
G1 X133.298 Y93.962 E.14631
G1 X132.761 Y93.962 E.01696
G1 X136.037 Y97.238 E.14633
G1 X135.501 Y97.239 E.01694
G1 X132.224 Y93.962 E.14636
G1 X131.687 Y93.962 E.01696
G1 X134.964 Y97.239 E.14639
G1 X134.428 Y97.24 E.01694
G1 X131.15 Y93.962 E.14642
G1 X130.612 Y93.962 E.01696
G1 X133.891 Y97.24 E.14644
G1 X133.355 Y97.241 E.01694
G1 X130.075 Y93.962 E.14647
G1 X129.538 Y93.962 E.01696
G1 X132.818 Y97.242 E.1465
G1 X132.282 Y97.242 E.01694
G1 X129.001 Y93.962 E.14652
G1 X128.464 Y93.962 E.01696
G1 X131.745 Y97.243 E.14655
G1 X131.209 Y97.243 E.01694
G1 X127.927 Y93.962 E.14658
G1 X127.39 Y93.962 E.01696
G1 X130.833 Y97.405 E.15377
G1 X130.54 Y97.649 E.01204
G1 X126.853 Y93.962 E.16471
G1 X126.315 Y93.962 E.01696
G1 X130.257 Y97.903 E.17605
G1 X129.974 Y98.157 E.01201
G1 X125.778 Y93.962 E.1874
G1 X125.241 Y93.962 E.01696
G1 X129.664 Y98.384 E.19753
G1 X129.128 Y98.386 E.01692
G1 X124.704 Y93.962 E.1976
G1 X124.167 Y93.962 E.01696
G1 X128.593 Y98.387 E.19767
G1 X128.057 Y98.389 E.01692
G1 X123.63 Y93.962 E.19773
G1 X123.093 Y93.962 E.01696
G1 X127.521 Y98.39 E.1978
G1 X126.986 Y98.392 E.01692
G1 X122.556 Y93.962 E.19787
G1 X122.018 Y93.962 E.01696
G1 X126.45 Y98.393 E.19793
G1 X125.915 Y98.395 E.01692
G1 X121.481 Y93.962 E.198
G1 X120.944 Y93.962 E.01696
G1 X125.443 Y98.46 E.20091
G1 X125.388 Y98.478 E.00181
G1 X125.161 Y98.648 E.00895
G1 X125.14 Y98.694 E.00162
G1 X120.407 Y93.962 E.21138
G1 X119.87 Y93.962 E.01696
G1 X124.302 Y98.394 E.19795
G1 X123.755 Y98.384 E.01727
G1 X119.333 Y93.962 E.19752
G1 X118.796 Y93.962 E.01696
G1 X123.218 Y98.384 E.19752
G1 X122.681 Y98.384 E.01696
G1 X118.259 Y93.962 E.19752
G1 X117.721 Y93.962 E.01696
G1 X122.144 Y98.384 E.19752
G1 X121.607 Y98.384 E.01696
G1 X117.184 Y93.962 E.19752
G1 X116.647 Y93.962 E.01696
G1 X121.07 Y98.384 E.19752
G1 X120.533 Y98.384 E.01696
G1 X116.11 Y93.962 E.19752
G1 X115.573 Y93.962 E.01696
G1 X118.883 Y97.271 E.14781
G1 X118.679 Y97.232 E.00655
G1 X118.307 Y97.232 E.01176
G1 X115.036 Y93.962 E.14608
G1 X114.499 Y93.962 E.01696
G1 X117.77 Y97.233 E.14609
