; generated by PrusaSlicer 2.5.0+linux-x64-GTK3 on 2022-09-09 at 21:35:51 UTC

; 

; external perimeters extrusion width = 0.60mm
; perimeters extrusion width = 0.43mm
; infill extrusion width = 0.45mm
; solid infill extrusion width = 0.70mm
; top infill extrusion width = 0.45mm
; first layer extrusion width = 0.42mm

M73 P0 R10
M201 X9000 Y9000 Z500 E10000 ; sets maximum accelerations, mm/sec^2
M203 X500 Y500 Z12 E120 ; sets maximum feedrates, mm / sec
M204 P2000 R1500 T2000 ; sets acceleration (P, T) and retract acceleration (R), mm/sec^2
M205 X10.00 Y10.00 Z0.20 E4.50 ; sets the jerk limits, mm/sec
M205 S0 T0 ; sets the minimum extruding and travel feed rate, mm/sec
M107
;TYPE:Custom
M862.3 P "MK2.5" ; printer model check
M862.1 P0.4 ; nozzle diameter check
M115 U3.11.0 ; tell printer latest fw version
G90 ; use absolute coordinates
M83 ; extruder relative mode
M104 S215 ; set extruder temp
M140 S60 ; set bed temp
M190 S60 ; wait for bed temp
M109 S215 ; wait for extruder temp
G28 W ; home all without mesh bed level
G80 ; mesh bed leveling

G1 Z0.2 F720
G1 Y-3 F1000 ; go outside print area
G92 E0
G1 X60 E9 F1000 ; intro line
G1 X100 E12.5 F1000 ; intro line

G92 E0
G21 ; set units to millimeters
G90 ; use absolute coordinates
M83 ; use relative distances for extrusion
M900 K0.05 ; Filament gcode LA 1.5
M900 K30 ; Filament gcode LA 1.0
M107
;LAYER_CHANGE
;Z:0.2
;HEIGHT:0.2
;BEFORE_LAYER_CHANGE
G92 E0.0
;0.2


G1 E-.8 F2100
G1 Z.4 F720
;AFTER_LAYER_CHANGE
;0.2
;CURRENT_Z: 0.2
G1 X97.616 Y90.993 F10800
M73 P1 R10
G1 Z.2 F720
G1 E.8 F2100
M204 S800
;TYPE:Skirt/Brim
;WIDTH:0.42
G1 F1200
G1 X98.661 Y90.117 E.04278
G1 X99.601 Y89.923 E.03008
G1 X150.399 Y89.923 E1.59274
G1 X151.706 Y90.315 E.04278
G1 X152.582 Y91.36 E.04278
G1 X152.776 Y92.3 E.03008
G1 X152.776 Y117.7 E.7964
G1 X152.384 Y119.007 E.04278
G1 X151.339 Y119.883 E.04278
G1 X150.399 Y120.077 E.03008
G1 X99.601 Y120.077 E1.59274
G1 X98.294 Y119.685 E.04278
M73 P2 R10
G1 X97.418 Y118.64 E.04278
G1 X97.224 Y117.7 E.03008
G1 X97.224 Y92.3 E.7964
G1 X97.598 Y91.05 E.0409
M204 S1000
; printing object S - AxoBlock Frame.stl id:0 copy 0
;WIPE_START
G1 F8640
G1 X98.661 Y90.117 E-.32671
G1 X99.601 Y89.923 E-.22155
G1 X100.518 Y89.923 E-.21174
;WIPE_END
G1 E-.04 F2100
G1 Z.6 F720
G1 X100.951 Y93.679 F10800
G1 Z.2 F720
G1 E.8 F2100
M204 S800
;TYPE:Perimeter
;WIDTH:0.419999
G1 F1200
G1 X149.049 Y93.679 E1.50809
G1 X149.049 Y116.321 E.70994
G1 X100.951 Y116.321 E1.50809
M73 P3 R10
G1 X100.951 Y93.739 E.70806
M204 S1000
G1 X100.574 Y93.302 F10800
M204 S800
;TYPE:External perimeter
G1 F1200
G1 X149.426 Y93.302 E1.53173
G1 X149.426 Y116.698 E.73359
M73 P4 R10
G1 X100.574 Y116.698 E1.53173
G1 X100.574 Y93.362 E.7317
M204 S1000
M73 P4 R9
G1 X100.969 Y93.361 F10800
;WIPE_START
G1 F8640
G1 X103.865 Y93.358 E-.76
;WIPE_END
G1 E-.04 F2100
G1 Z.6 F720
G1 X104.836 Y112.006 F10800
G1 Z.2 F720
G1 E.8 F2100
M204 S800
;TYPE:Perimeter
G1 F1200
G1 X104.812 Y111.919 E.0028
G1 X104.812 Y98.077 E.43403
G1 X104.891 Y97.789 E.00935
G1 X105.085 Y97.593 E.00866
M73 P5 R9
G1 X105.378 Y97.511 E.00953
G1 X118.67 Y97.515 E.41677
G1 X118.879 Y97.555 E.00667
G1 X119.048 Y97.66 E.00623
G1 X120.17 Y98.667 E.0473
G1 X124.22 Y98.667 E.12699
G1 X124.481 Y98.73 E.0084
G1 X124.627 Y98.84 E.00574
;WIDTH:0.445388
G1 X124.799 Y99.233 E.01434
G1 X124.799 Y110.765 E.38595
G1 X124.627 Y111.158 E.01435
;WIDTH:0.419999
G1 X124.362 Y111.313 E.00962
G1 X124.22 Y111.331 E.00448
G1 X120.171 Y111.331 E.12698
G1 X119.048 Y112.34 E.04733
G1 X118.768 Y112.477 E.00978
G1 X118.67 Y112.485 E.00308
G1 X105.378 Y112.485 E.41677
G1 X105.085 Y112.404 E.00952
G1 X104.891 Y112.208 E.00866
G1 X104.851 Y112.064 E.00468
M204 S1000
G1 X105.189 Y111.919 F10800
M204 S800
;TYPE:External perimeter
G1 F1200
G1 X105.189 Y98.077 E.43403
G1 X105.243 Y97.944 E.00449
G1 X105.378 Y97.888 E.00456
G1 X118.67 Y97.892 E.41677
G1 X118.796 Y97.94 E.00423
G1 X120.026 Y99.044 E.05182
G1 X124.22 Y99.044 E.13151
G1 X124.356 Y99.102 E.00462
G1 X124.409 Y99.233 E.00443
G1 X124.409 Y110.765 E.36161
G1 X124.356 Y110.896 E.00443
G1 X124.22 Y110.954 E.00462
G1 X120.026 Y110.954 E.13151
G1 X118.796 Y112.06 E.05186
G1 X118.67 Y112.108 E.00423
G1 X105.378 Y112.108 E.41677
G1 X105.243 Y112.052 E.00456
G1 X105.212 Y111.975 E.00261
M204 S1000
G1 X104.803 Y111.816 F10800
;WIPE_START
G1 F8640
G1 X105.206 Y108.684 E-.76
;WIPE_END
G1 E-.04 F2100
G1 Z.6 F720
G1 X125.252 Y110.882 F10800
G1 Z.2 F720
M73 P6 R9
G1 E.8 F2100
M204 S800
;TYPE:Perimeter
;WIDTH:0.445388
G1 F1200
G1 X125.201 Y110.765 E.00424
G1 X125.201 Y99.233 E.38595
G1 X125.373 Y98.84 E.01434
;WIDTH:0.419999
G1 X125.638 Y98.685 E.00963
G1 X125.78 Y98.667 E.00448
G1 X129.83 Y98.667 E.12699
G1 X130.952 Y97.66 E.0473
G1 X131.232 Y97.523 E.00976
G1 X131.33 Y97.515 E.00307
G1 X144.622 Y97.511 E.41677
G1 X144.915 Y97.593 E.00953
G1 X145.109 Y97.789 E.00866
G1 X145.188 Y98.077 E.00935
G1 X145.188 Y111.919 E.43403
G1 X145.109 Y112.208 E.00937
G1 X144.915 Y112.404 E.00866
G1 X144.622 Y112.485 E.00952
G1 X131.33 Y112.485 E.41677
G1 X131.121 Y112.445 E.00668
G1 X130.952 Y112.34 E.00623
G1 X129.829 Y111.331 E.04733
G1 X125.78 Y111.331 E.12698
G1 X125.519 Y111.268 E.00839
G1 X125.373 Y111.158 E.00574
;WIDTH:0.445388
G1 X125.276 Y110.937 E.00809
M204 S1000
G1 X125.591 Y110.765 F10800
M204 S800
;TYPE:External perimeter
;WIDTH:0.419999
G1 F1200
G1 X125.591 Y99.233 E.36161
G1 X125.693 Y99.065 E.00614
G1 X125.78 Y99.044 E.0028
G1 X129.974 Y99.044 E.13151
G1 X131.204 Y97.94 E.05182
G1 X131.33 Y97.892 E.00423
G1 X144.622 Y97.888 E.41677
G1 X144.757 Y97.944 E.00456
G1 X144.811 Y98.077 E.00449
G1 X144.811 Y111.919 E.43403
G1 X144.757 Y112.052 E.00449
G1 X144.622 Y112.108 E.00456
G1 X131.33 Y112.108 E.41677
G1 X131.204 Y112.06 E.00423
M73 P7 R9
G1 X129.974 Y110.954 E.05186
G1 X125.78 Y110.954 E.13151
G1 X125.644 Y110.896 E.00462
G1 X125.613 Y110.821 E.00255
M204 S1000
G1 X125.205 Y110.662 F10800
;WIPE_START
G1 F8640
G1 X125.607 Y107.53 E-.76
;WIPE_END
G1 E-.04 F2100
G1 Z.6 F720
G1 X128.417 Y113.25 F10800
G1 Z.2 F720
G1 E.8 F2100
M204 S800
;TYPE:Internal infill
;WIDTH:0.42
G1 F1200
G1 X130.843 Y112.982 E.07651
G1 X130.997 Y112.696 E.01017
G1 X131.321 Y112.767 E.01041
G1 X134.067 Y112.767 E.0861
G1 X134.067 Y112.9 E.00418
M204 S1000
;WIPE_START
G1 F8640
G1 X134.067 Y112.767 E-.03076
G1 X131.321 Y112.767 E-.63408
G1 X130.997 Y112.696 E-.07665
G1 X130.959 Y112.767 E-.01851
;WIPE_END
G1 E-.04 F2100
G1 Z.6 F720
G1 X143.277 Y113.53 F10800
G1 Z.2 F720
G1 E.8 F2100
M204 S800
G1 F1200
G1 X144.079 Y114.598 E.04187
M204 S1000
;WIPE_START
G1 F8640
G1 X143.277 Y113.53 E-.30836
;WIPE_END
G1 E-.49164 F2100
G1 Z.6 F720
G1 X130.384 Y97.5 F10800
G1 Z.2 F720
G1 E.8 F2100
M204 S800
G1 F1200
G1 X129.839 Y97.526 E.01708
M204 S1000
;WIPE_START
G1 F8640
G1 X130.384 Y97.5 E-.12578
;WIPE_END
G1 E-.67422 F2100
G1 Z.6 F720
G1 X104.01 Y108.405 F10800
G1 Z.2 F720
G1 E.8 F2100
M204 S800
G1 F1200
G1 X103.722 Y106.687 E.05462
M204 S1000
G1 X103.545 Y106.619 F10800
M204 S800
G1 F1200
G1 X102.091 Y107.781 E.05837
M204 S1000
;WIPE_START
G1 F8640
G1 X103.545 Y106.619 E-.42982
;WIPE_END
G1 E-.37018 F2100
G1 Z.6 F720
G1 X102.149 Y101.736 F10800
G1 Z.2 F720
G1 E.8 F2100
M204 S800
G1 F1200
G1 X103.724 Y102.442 E.05411
G1 X101.442 Y104.625 E.09899
G1 X101.233 Y104.625 E.00658
G1 X101.233 Y102.125 E.07839
M204 S1000
;WIPE_START
G1 F8640
G1 X101.233 Y104.625 E-.57726
G1 X101.442 Y104.625 E-.04845
G1 X101.863 Y104.223 E-.1343
;WIPE_END
G1 E-.04 F2100
G1 Z.6 F720
G1 X101.586 Y104.745 F10800
G1 Z.2 F720
G1 E.8 F2100
M204 S800
G1 F1200
G1 X103.691 Y106.502 E.08597
G1 X102.532 Y110.164 E.12044
G1 X104.173 Y111.901 E.07494
M204 S1000
;WIPE_START
G1 F8640
G1 X102.532 Y110.164 E-.55185
G1 X102.804 Y109.305 E-.20815
;WIPE_END
G1 E-.04 F2100
G1 Z.6 F720
G1 X102.625 Y113.97 F10800
G1 Z.2 F720
G1 E.8 F2100
M204 S800
G1 F1200
G1 X102.86 Y115.882 E.06039
G1 X102.86 Y116.04 E.00494
G1 X105.36 Y116.04 E.07839
M204 S1000
;WIPE_START
G1 F8640
G1 X102.86 Y116.04 E-.57726
G1 X102.86 Y115.882 E-.03642
G1 X102.782 Y115.253 E-.14633
;WIPE_END
G1 E-.04 F2100
G1 Z.6 F720
G1 X107.974 Y115.602 F10800
G1 Z.2 F720
G1 E.8 F2100
M204 S800
G1 F1200
G1 X107.023 Y113.884 E.06156
G1 X107.022 Y112.765 E.03508
G1 X109.522 Y112.763 E.07839
M204 S1000
;WIPE_START
G1 F8640
G1 X107.022 Y112.765 E-.57726
G1 X107.022 Y113.557 E-.18274
;WIPE_END
G1 E-.04 F2100
M73 P8 R9
G1 Z.6 F720
G1 X110.974 Y115.602 F10800
G1 Z.2 F720
G1 E.8 F2100
M204 S800
G1 F1200
G1 X110.023 Y114.115 E.05533
G1 X112.536 Y113.687 E.07994
G1 X115.268 Y113.596 E.08569
G1 X115.017 Y115.88 E.07204
G1 X115.017 Y116.04 E.00499
G1 X112.517 Y116.04 E.07839
M204 S1000
;WIPE_START
G1 F8640
G1 X115.017 Y116.04 E-.57726
G1 X115.017 Y115.88 E-.03678
G1 X115.086 Y115.252 E-.14597
;WIPE_END
G1 E-.04 F2100
G1 Z.6 F720
G1 X117.917 Y113.625 F10800
G1 Z.2 F720
G1 E.8 F2100
M204 S800
G1 F1200
G1 X120.379 Y113.625 E.0772
M204 S1000
;WIPE_START
G1 F8640
G1 X117.917 Y113.625 E-.56849
;WIPE_END
G1 E-.23151 F2100
G1 Z.6 F720
G1 X119.79 Y112.052 F10800
G1 Z.2 F720
G1 E.8 F2100
M204 S800
G1 F1200
G1 X120.279 Y111.613 E.02063
G1 X122.121 Y111.608 E.05776
G1 X122.122 Y111.932 E.01018
G1 X120.567 Y113.625 E.07208
G1 X120.25 Y115.53 E.06054
M204 S1000
;WIPE_START
G1 F8640
G1 X120.567 Y113.625 E-.44581
G1 X121.487 Y112.623 E-.31419
;WIPE_END
G1 E-.04 F2100
G1 Z.6 F720
G1 X122.817 Y115.85 F10800
G1 Z.2 F720
G1 E.8 F2100
M204 S800
G1 F1200
G1 X122.817 Y116.04 E.00594
G1 X126.942 Y116.04 E.12934
G1 X126.942 Y115.85 E.00594
M204 S1000
;WIPE_START
G1 F8640
G1 X126.942 Y116.04 E-.04377
G1 X123.84 Y116.04 E-.71623
;WIPE_END
G1 E-.04 F2100
G1 Z.6 F720
G1 X129.542 Y115.875 F10800
G1 Z.2 F720
G1 E.8 F2100
M204 S800
G1 F1200
G1 X131.182 Y116.04 E.05168
G1 X136.317 Y116.04 E.161
G1 X136.317 Y115.475 E.0177
M204 S1000
;WIPE_START
G1 F8640
G1 X136.317 Y116.04 E-.13036
G1 X133.59 Y116.04 E-.62964
;WIPE_END
G1 E-.04 F2100
G1 Z.6 F720
G1 X138.942 Y113.65 F10800
G1 Z.2 F720
G1 E.8 F2100
M204 S800
G1 F1200
G1 X138.942 Y112.767 E.02769
G1 X141.442 Y112.767 E.07839
M204 S1000
;WIPE_START
G1 F8640
G1 X138.942 Y112.767 E-.57726
G1 X138.942 Y113.558 E-.18274
;WIPE_END
G1 E-.04 F2100
G1 Z.6 F720
G1 X141.542 Y114.75 F10800
G1 Z.2 F720
G1 E.8 F2100
M204 S800
G1 F1200
G1 X144.191 Y114.748 E.08305
G1 X145.028 Y112.66 E.07054
G1 X145.226 Y112.516 E.00768
G1 X145.352 Y112.351 E.00651
G1 X145.439 Y112.147 E.00695
G1 X145.47 Y111.926 E.00701
G1 X145.47 Y111.557 E.01157
G1 X145.693 Y111.001 E.01878
G1 X145.47 Y111.001 E.00698
G1 X145.47 Y108.501 E.07839
M204 S1000
;WIPE_START
G1 F8640
G1 X145.47 Y111.001 E-.57726
G1 X145.693 Y111.001 E-.05142
G1 X145.481 Y111.529 E-.13132
;WIPE_END
G1 E-.04 F2100
G1 Z.6 F720
G1 X146.399 Y108.111 F10800
G1 Z.2 F720
G1 E.8 F2100
M204 S800
G1 F1200
G1 X148.138 Y108.69 E.05746
M204 S1000
;WIPE_START
G1 F8640
G1 X146.399 Y108.111 E-.42315
;WIPE_END
G1 E-.37685 F2100
G1 Z.6 F720
G1 X147.673 Y112.651 F10800
G1 Z.2 F720
G1 E.8 F2100
M204 S800
G1 F1200
G1 X145.837 Y111.121 E.07496
M204 S1000
G1 X145.835 Y110.879 F10800
M204 S800
G1 F1200
G1 X148.316 Y108.749 E.10252
G1 X148.635 Y106.845 E.06053
G1 X146.515 Y104.824 E.09184
M73 P9 R9
G1 X146.644 Y103.036 E.0562
G1 X148.36 Y103.389 E.05493
M204 S1000
;WIPE_START
G1 F8640
G1 X146.644 Y103.036 E-.40451
G1 X146.533 Y104.571 E-.35549
;WIPE_END
G1 E-.04 F2100
G1 Z.6 F720
G1 X148.048 Y101.026 F10800
G1 Z.2 F720
G1 E.8 F2100
M204 S800
G1 F1200
G1 X145.948 Y99.704 E.07781
G1 X145.47 Y99.704 E.015
G1 X145.47 Y98.07 E.05123
G1 X145.44 Y97.849 E.007
G1 X145.353 Y97.645 E.00694
G1 X145.226 Y97.481 E.0065
G1 X145.061 Y97.351 E.0066
G1 X144.854 Y97.261 E.00707
G1 X144.629 Y97.229 E.00713
G1 X138.371 Y97.236 E.1962
G1 X138.37 Y95.914 E.04147
G1 X141.824 Y95.863 E.10832
G1 X146.442 Y95.251 E.14606
G1 X148.36 Y94.611 E.0634
M204 S1000
;WIPE_START
G1 F8640
G1 X146.442 Y95.251 E-.4669
G1 X145.184 Y95.417 E-.2931
;WIPE_END
G1 E-.04 F2100
G1 Z.6 F720
G1 X148.423 Y96.901 F10800
G1 Z.2 F720
G1 E.8 F2100
M204 S800
G1 F1200
G1 X146.586 Y95.371 E.07497
M204 S1000
G1 X146.286 Y95.355 F10800
M204 S800
G1 F1200
G1 X144.692 Y96.423 E.06016
G1 X144.25 Y94.845 E.05138
M204 S1000
;WIPE_START
G1 F8640
G1 X144.692 Y96.423 E-.37839
G1 X146.065 Y95.503 E-.3816
;WIPE_END
G1 E-.04 F2100
G1 Z.6 F720
G1 X138.182 Y95.917 F10800
G1 Z.2 F720
G1 E.8 F2100
M204 S800
G1 F1200
G1 X135.506 Y95.97 E.08393
G1 X132.674 Y95.958 E.0888
G1 X130.464 Y95.193 E.07333
G1 X129.652 Y97.535 E.07774
G1 X127.513 Y95.7 E.08839
G1 X127.386 Y94.468 E.03881
M204 S1000
;WIPE_START
G1 F8640
G1 X127.513 Y95.7 E-.28582
G1 X129.071 Y97.037 E-.47418
;WIPE_END
G1 E-.04 F2100
G1 Z.6 F720
G1 X127.347 Y95.786 F10800
G1 Z.2 F720
G1 E.8 F2100
M204 S800
G1 F1200
G1 X124.674 Y97.181 E.09451
M204 S1000
;WIPE_START
G1 F8640
G1 X127.347 Y95.786 E-.69602
;WIPE_END
G1 E-.10398 F2100
G1 Z.6 F720
G1 X124.516 Y93.96 F10800
G1 Z.2 F720
G1 E.8 F2100
M204 S800
G1 F1200
G1 X122.016 Y93.96 E.07839
G1 X120.917 Y94.125 E.03484
G1 X119.923 Y96.151 E.07075
G1 X117.943 Y94.501 E.08083
G1 X117.625 Y96.405 E.06053
M204 S1000
;WIPE_START
G1 F8640
G1 X117.943 Y94.501 E-.44576
G1 X118.988 Y95.372 E-.31424
;WIPE_END
G1 E-.04 F2100
G1 Z.6 F720
G1 X106.643 Y94.471 F10800
G1 Z.2 F720
G1 E.8 F2100
M204 S800
G1 F1200
G1 X106.395 Y96.756 E.07204
G1 X106.395 Y97.24 E.01519
G1 X108.895 Y97.239 E.07839
M204 S1000
;WIPE_START
G1 F8640
G1 X106.395 Y97.24 E-.57726
G1 X106.395 Y96.756 E-.11185
G1 X106.428 Y96.45 E-.07089
;WIPE_END
G1 E-.04 F2100
G1 Z.6 F720
G1 X111.625 Y96.405 F10800
G1 Z.2 F720
M73 P10 R9
G1 E.8 F2100
M204 S800
G1 F1200
G1 X111.911 Y94.686 E.05464
M204 S1000
;WIPE_START
G1 F8640
G1 X111.625 Y96.405 E-.40237
;WIPE_END
G1 E-.39763 F2100
G1 Z.6 F720
G1 X109.292 Y94.5 F10800
G1 Z.2 F720
G1 E.8 F2100
M204 S800
G1 F1200
G1 X114.754 Y94.5 E.17124
M204 S1000
;WIPE_START
G1 F8640
G1 X111.462 Y94.5 E-.76
;WIPE_END
G1 E-.04 F2100
G1 Z.6 F720
G1 X114.625 Y96.405 F10800
G1 Z.2 F720
G1 E.8 F2100
M204 S800
G1 F1200
G1 X114.941 Y94.5 E.06054
G1 X114.941 Y93.96 E.01692
G1 X103.981 Y93.96 E.34364
G1 X103.981 Y94.536 E.01804
G1 X102.587 Y98.276 E.12514
G1 X102.212 Y96.026 E.07152
G1 X101.875 Y94.47 E.0499
M204 S1000
; stop printing object S - AxoBlock Frame.stl id:0 copy 0
M106 S84.15
;LAYER_CHANGE
;Z:0.55
;HEIGHT:0.35
;BEFORE_LAYER_CHANGE
G92 E0.0
;0.55


;WIPE_START
G1 F8640
G1 X102.212 Y96.026 E-.36748
G1 X102.492 Y97.702 E-.39252
;WIPE_END
G1 E-.04 F2100
G1 Z.6 F720
;AFTER_LAYER_CHANGE
;0.55
;CURRENT_Z: 0.55
M104 S210 ; set temperature
G1 X97.224 Y97.702 F10800
G1 Z.55 F720
G1 E.8 F2100
;TYPE:Skirt/Brim
G1 F3000
G1 X97.224 Y92.3 E.27112
G1 X97.616 Y90.993 E.06848
G1 X98.661 Y90.117 E.06848
G1 X99.601 Y89.923 E.04815
G1 X150.399 Y89.923 E2.54934
G1 X151.706 Y90.315 E.06848
G1 X152.582 Y91.36 E.06848
G1 X152.776 Y92.3 E.04815
G1 X152.776 Y117.7 E1.27472
G1 X152.384 Y119.007 E.06848
G1 X151.339 Y119.883 E.06848
G1 X150.399 Y120.077 E.04815
G1 X99.601 Y120.077 E2.54934
G1 X98.294 Y119.685 E.06848
G1 X97.418 Y118.64 E.06848
G1 X97.224 Y117.7 E.04815
G1 X97.224 Y97.762 E1.00059
; printing object S - AxoBlock Frame.stl id:0 copy 0
;WIPE_START
G1 F8640
M73 P11 R9
G1 X97.224 Y94.471 E-.76
;WIPE_END
G1 E-.04 F2100
G1 Z.95 F720
G1 X100.629 Y116.643 F10800
G1 Z.55 F720
G1 E.8 F2100
M204 S800
;TYPE:Perimeter
;WIDTH:0.43
G1 F3000
G1 X100.629 Y93.357 E1.20256
G1 X149.371 Y93.357 E2.51712
G1 X149.371 Y116.643 E1.20256
G1 X100.689 Y116.643 E2.51403
M204 S1000
G1 X100.189 Y117.083 F10800
M204 S800
;TYPE:External perimeter
;WIDTH:0.6
G1 F2400
G1 X100.189 Y92.917 E1.84581
G1 X149.811 Y92.917 E3.79008
G1 X149.811 Y117.083 E1.84581
G1 X100.249 Y117.083 E3.7855
M204 S1000
G1 X100.334 Y116.711 F10800
;WIPE_START
M73 P12 R9
G1 F8640
G1 X100.241 Y113.792 E-.76
;WIPE_END
G1 E-.04 F2100
G1 Z.95 F720
G1 X105.088 Y112.245 F10800
G1 Z.55 F720
G1 E.8 F2100
M204 S800
;TYPE:Perimeter
;WIDTH:0.43
G1 F3000
G1 X105.062 Y112.23 E.00157
G1 X104.885 Y111.924 E.01822
G1 X104.859 Y111.736 E.00985
G1 X104.859 Y98.26 E.69587
G1 X104.957 Y97.903 E.01915
G1 X105.198 Y97.659 E.01771
G1 X105.44 Y97.569 E.01333
G1 X105.562 Y97.558 E.0063
G1 X118.6 Y97.562 E.67329
