; generated by PrusaSlicer 2.8.0 on 2024-09-21 at 14:29:23 UTC

; 

; external perimeters extrusion width = 0.60mm
; perimeters extrusion width = 0.43mm
; infill extrusion width = 0.45mm
; solid infill extrusion width = 0.70mm
; top infill extrusion width = 0.45mm
; first layer extrusion width = 0.42mm

M73 P0 R9
M201 X9000 Y9000 Z500 E10000 ; sets maximum accelerations, mm/sec^2
M203 X500 Y500 Z12 E120 ; sets maximum feedrates, mm / sec
M204 S2000 T1500 ; sets acceleration (S) and retract acceleration (R), mm/sec^2
M205 X10.00 Y10.00 Z0.20 E4.50 ; sets the jerk limits, mm/sec
M205 S0 T0 ; sets the minimum extruding and travel feed rate, mm/sec

; printing object S - AxoBlock Frame.stl id:0 copy 0
; stop printing object S - AxoBlock Frame.stl id:0 copy 0

;TYPE:Custom
M862.3 P "MK2.5" ; printer model check
M862.1 P0.4 ; nozzle diameter check
M115 U3.11.0 ; tell printer latest fw version
G90 ; use absolute coordinates
M83 ; extruder relative mode
M104 S215 ; set extruder temp
M140 S60 ; set bed temp
M190 S60 ; wait for bed temp
M109 S215 ; wait for extruder temp
G28 W ; home all without mesh bed level
G80 ; mesh bed leveling

G1 Z0.2 F720
G1 Y-3 F1000 ; go outside print area
G92 E0
G1 X60 E9 F1000 ; intro line
G1 X100 E12.5 F1000 ; intro line

G92 E0
G21 ; set units to millimeters
G90 ; use absolute coordinates
M83 ; use relative distances for extrusion
M900 K0.05 ; Filament gcode LA 1.5
M900 K30 ; Filament gcode LA 1.0
M107
;LAYER_CHANGE
;Z:0.2
;HEIGHT:0.2
G1 E-.8 F2100
M73 P1 R9
G1 Z.6 F720
G1 X97.803 Y91.052 F10800
G1 Z.2 F720
G1 E.8 F2100
M204 S800
;TYPE:Skirt/Brim
;WIDTH:0.42
G1 F1200
G1 X98.836 Y90.249 E.04102
G1 X99.601 Y90.111 E.02437
G1 X150.399 Y90.111 E1.59274
G1 X151.647 Y90.502 E.04101
G1 X152.45 Y91.535 E.04102
G1 X152.588 Y92.3 E.02437
G1 X152.588 Y117.7 E.7964
G1 X152.197 Y118.948 E.04101
G1 X151.164 Y119.751 E.04102
G1 X150.399 Y119.889 E.02437
G1 X99.601 Y119.889 E1.59274
G1 X98.353 Y119.498 E.04101
M73 P2 R9
G1 X97.55 Y118.465 E.04102
G1 X97.412 Y117.7 E.02437
G1 X97.412 Y92.3 E.7964
G1 X97.785 Y91.109 E.03913
M204 S1000
;WIPE_START
G1 F8640
G1 X97.803 Y91.052 E-.0138
G1 X98.836 Y90.249 E-.30211
G1 X99.601 Y90.111 E-.17949
G1 X100.92 Y90.111 E-.3046
;WIPE_END
G1 Z.6 F720
; printing object S - AxoBlock Frame.stl id:0 copy 0
G1 X125.363 Y111.136 F10800
G1 Z.2 F720
G1 E.8 F2100
M204 S800
;TYPE:Perimeter
;WIDTH:0.445388
G1 F1200
G1 X125.201 Y110.765 E.01355
G1 X125.201 Y99.233 E.38592
G1 X125.373 Y98.84 E.01436
;WIDTH:0.419999
G1 X125.595 Y98.698 E.00826
G1 X125.78 Y98.667 E.00588
G1 X129.83 Y98.667 E.12698
G1 X130.952 Y97.66 E.04727
G1 X131.232 Y97.523 E.00977
G1 X131.33 Y97.515 E.00308
G1 X144.622 Y97.511 E.41676
G1 X144.915 Y97.593 E.00954
G1 X145.109 Y97.789 E.00865
G1 X145.188 Y98.077 E.00936
G1 X145.188 Y111.919 E.43401
G1 X145.109 Y112.208 E.00939
M73 P3 R9
G1 X144.915 Y112.404 E.00865
G1 X144.622 Y112.485 E.00953
G1 X131.33 Y112.485 E.41676
G1 X131.121 Y112.445 E.00667
G1 X130.952 Y112.34 E.00624
G1 X129.829 Y111.331 E.04734
G1 X125.78 Y111.331 E.12695
G1 X125.519 Y111.268 E.00842
G1 X125.401 Y111.18 E.00462
M204 S1000
G1 X125.401 Y111.18 F10800
G1 X125.678 Y110.911
M204 S800
;TYPE:External perimeter
G1 F1200
G1 X125.644 Y110.896 E.00117
G1 X125.591 Y110.765 E.00443
G1 X125.591 Y99.233 E.36158
G1 X125.693 Y99.065 E.00616
G1 X125.718 Y99.054 E.00086
G1 X129.974 Y99.044 E.13344
G1 X131.204 Y97.94 E.05182
G1 X131.33 Y97.892 E.00423
G1 X144.622 Y97.888 E.41676
G1 X144.757 Y97.944 E.00458
G1 X144.811 Y98.077 E.0045
G1 X144.811 Y111.919 E.43401
G1 X144.757 Y112.052 E.0045
G1 X144.622 Y112.108 E.00458
G1 X131.33 Y112.108 E.41676
G1 X131.204 Y112.06 E.00423
G1 X129.974 Y110.954 E.05186
G1 X125.78 Y110.954 E.1315
G1 X125.734 Y110.934 E.00157
M204 S1000
;WIPE_START
G1 F8640
G1 X125.678 Y110.911 E-.01398
G1 X125.644 Y110.896 E-.00858
G1 X125.591 Y110.765 E-.03263
G1 X125.591 Y107.539 E-.74481
;WIPE_END
G1 Z.6 F720
G1 X124.599 Y111.175 F10800
G1 Z.2 F720
G1 E.8 F2100
M204 S800
;TYPE:Perimeter
G1 F1200
G1 X124.362 Y111.313 E.0086
G1 X124.22 Y111.331 E.00449
G1 X120.171 Y111.331 E.12695
G1 X119.048 Y112.34 E.04734
G1 X118.768 Y112.477 E.00977
G1 X118.67 Y112.485 E.00308
G1 X105.378 Y112.485 E.41676
G1 X105.085 Y112.404 E.00953
M73 P4 R9
G1 X104.891 Y112.208 E.00865
G1 X104.812 Y111.919 E.00939
G1 X104.812 Y98.077 E.43401
G1 X104.891 Y97.789 E.00936
G1 X105.085 Y97.593 E.00865
G1 X105.378 Y97.511 E.00954
G1 X118.67 Y97.515 E.41676
G1 X118.879 Y97.555 E.00667
G1 X119.047 Y97.66 E.00621
G1 X120.17 Y98.667 E.04729
G1 X124.22 Y98.667 E.12698
G1 X124.481 Y98.73 E.00842
G1 X124.627 Y98.84 E.00573
;WIDTH:0.445388
G1 X124.799 Y99.233 E.01436
G1 X124.799 Y110.765 E.38592
G1 X124.638 Y111.133 E.01344
M204 S1000
G1 X124.638 Y111.133 F10800
G1 X124.322 Y110.911
M204 S800
;TYPE:External perimeter
;WIDTH:0.419999
G1 F1200
G1 X124.22 Y110.954 E.00347
G1 X120.026 Y110.954 E.1315
G1 X118.796 Y112.06 E.05186
G1 X118.67 Y112.108 E.00423
G1 X105.378 Y112.108 E.41676
G1 X105.243 Y112.052 E.00458
G1 X105.189 Y111.919 E.0045
G1 X105.189 Y98.077 E.43401
G1 X105.243 Y97.944 E.0045
G1 X105.378 Y97.888 E.00458
G1 X118.67 Y97.892 E.41676
G1 X118.796 Y97.94 E.00423
G1 X120.026 Y99.044 E.05182
G1 X124.22 Y99.044 E.1315
G1 X124.356 Y99.102 E.00464
G1 X124.409 Y99.233 E.00443
G1 X124.409 Y110.765 E.36158
G1 X124.365 Y110.875 E.00371
M204 S1000
;WIPE_START
G1 F8640
G1 X124.322 Y110.911 E-.01295
G1 X124.22 Y110.954 E-.02556
G1 X120.922 Y110.954 E-.76149
;WIPE_END
G1 Z.6 F720
G1 X149.049 Y93.679 F10800
G1 Z.2 F720
M73 P5 R9
G1 E.8 F2100
M204 S800
;TYPE:Perimeter
G1 F1200
G1 X149.049 Y96.029 E.07368
G1 X149.049 Y116.321 E.63624
G1 X100.951 Y116.321 E1.50808
G1 X100.951 Y93.679 E.70992
G1 X148.989 Y93.679 E1.5062
M204 S1000
G1 X148.989 Y93.679 F10800
M73 P6 R9
G1 X149.426 Y93.302
M204 S800
;TYPE:External perimeter
G1 F1200
G1 X149.426 Y96.029 E.0855
G1 X149.426 Y116.698 E.64806
G1 X100.574 Y116.698 E1.53172
G1 X100.574 Y93.302 E.73356
G1 X149.366 Y93.302 E1.52984
M73 P7 R9
M204 S1000
;WIPE_START
G1 F8640
G1 X149.426 Y93.302 E-.01385
G1 X149.426 Y96.029 E-.62967
G1 X149.426 Y96.707 E-.15648
;WIPE_END
G1 Z.6 F720
G1 X145.507 Y94.201 F10800
G1 Z.2 F720
G1 E.8 F2100
M204 S800
;TYPE:Internal infill
;WIDTH:0.42
G1 F1200
G1 X147.247 Y96.235 E.08393
G1 X145.966 Y97.656 E.05999
M204 S1000
;WIPE_START
G1 F8640
G1 X147.247 Y96.235 E-.44176
G1 X146.238 Y95.056 E-.35824
;WIPE_END
G1 Z.6 F720
G1 X144.094 Y95.793 F10800
G1 Z.2 F720
G1 E.8 F2100
M204 S800
G1 F1200
G1 X142.981 Y96.553 E.04226
M204 S1000
;WIPE_START
G1 F8640
G1 X144.094 Y95.793 E-.31119
;WIPE_END
G1 E-.48881 F2100
G1 Z.6 F720
G1 X138.724 Y96.477 F10800
G1 Z.2 F720
G1 E.8 F2100
M204 S800
G1 F1200
G1 X137.748 Y95.045 E.05434
G1 X140.712 Y95.098 E.09295
G1 X144.248 Y95.687 E.1124
G1 X145.277 Y94.212 E.05639
M204 S1000
G1 X145.277 Y94.212 F10800
G1 X144.542 Y94.105
M204 S800
G1 F1200
G1 X145.385 Y94.058 E.02647
G1 X145.385 Y93.96 E.00307
G1 X134.442 Y93.96 E.34311
G1 X134.442 Y94.875 E.02869
G1 X135.724 Y96.477 E.06433
M204 S1000
;WIPE_START
G1 F8640
G1 X134.442 Y94.875 E-.47377
G1 X134.442 Y93.96 E-.21128
G1 X134.94 Y93.96 E-.11495
;WIPE_END
G1 Z.6 F720
G1 X134.259 Y94.836 F10800
G1 Z.2 F720
G1 E.8 F2100
M204 S800
G1 F1200
G1 X132.369 Y94.427 E.06063
G1 X131.828 Y96.041 E.05337
M73 P8 R9
G1 X130.279 Y94.297 E.07314
M204 S1000
;WIPE_START
G1 F8640
G1 X131.828 Y96.041 E-.5386
G1 X132.188 Y94.968 E-.2614
;WIPE_END
G1 Z.6 F720
G1 X131.995 Y96.126 F10800
G1 Z.2 F720
G1 E.8 F2100
M204 S800
G1 F1200
G1 X132.24 Y96.251 E.00862
M204 S1000
;WIPE_START
G1 F8640
G1 X131.995 Y96.126 E-.06351
;WIPE_END
G1 E-.73649 F2100
G1 Z.6 F720
G1 X118.667 Y94.513 F10800
G1 Z.2 F720
G1 E.8 F2100
M204 S800
G1 F1200
G1 X118.804 Y94.519 E.0043
M204 S1000
;WIPE_START
G1 F8640
G1 X118.667 Y94.513 E-.03166
;WIPE_END
G1 E-.76834 F2100
G1 Z.6 F720
G1 X122.304 Y95.702 F10800
G1 Z.2 F720
G1 E.8 F2100
M204 S800
G1 F1200
G1 X122.055 Y93.96 E.05517
G1 X118.991 Y93.96 E.09607
G1 X118.991 Y94.526 E.01775
G1 X116.005 Y95.281 E.09657
G1 X113.417 Y95.625 E.08186
M204 S1000
;WIPE_START
G1 F8640
G1 X116.005 Y95.281 E-.60283
G1 X116.833 Y95.072 E-.19717
;WIPE_END
G1 Z.6 F720
G1 X109.152 Y94.405 F10800
G1 Z.2 F720
G1 E.8 F2100
M204 S800
G1 F1200
G1 X109.778 Y95.428 E.0376
G1 X105.141 Y94.259 E.14994
G1 X104.919 Y94.744 E.01672
M204 S1000
;WIPE_START
G1 F8640
G1 X105.141 Y94.259 E-.12316
G1 X107.983 Y94.975 E-.67684
;WIPE_END
G1 Z.6 F720
G1 X104.296 Y97.994 F10800
G1 Z.2 F720
G1 E.8 F2100
M204 S800
G1 F1200
G1 X102.841 Y99.156 E.05838
M204 S1000
;WIPE_START
G1 F8640
G1 X104.296 Y97.994 E-.42995
;WIPE_END
G1 E-.37005 F2100
G1 Z.6 F720
G1 X101.233 Y98.157 F10800
G1 Z.2 F720
G1 E.8 F2100
M204 S800
G1 F1200
G1 X101.233 Y95.657 E.07839
G1 X102.125 Y95.657 E.02797
G1 X104.841 Y94.914 E.08829
G1 X106.723 Y95.688 E.0638
G1 X106.257 Y96.272 E.02343
M204 S1000
;WIPE_START
G1 F8640
G1 X106.723 Y95.688 E-.17252
G1 X104.841 Y94.914 E-.46987
G1 X104.183 Y95.094 E-.15761
;WIPE_END
G1 Z.6 F720
G1 X106.736 Y97.24 F10800
G1 Z.2 F720
G1 E.8 F2100
M204 S800
G1 F1200
G1 X105.23 Y97.241 E.04722
G1 X104.941 Y97.349 E.00967
G1 X104.774 Y97.481 E.00667
G1 X104.555 Y97.892 E.0146
G1 X104.442 Y97.877 E.00357
G1 X102.943 Y101.626 E.1266
G1 X101.661 Y103.227 E.06431
G1 X102.371 Y106.04 E.09097
G1 X103.937 Y109.175 E.10988
M204 S1000
;WIPE_START
G1 F8640
G1 X102.389 Y106.075 E-.8
;WIPE_END
G1 Z.6 F720
G1 X101.875 Y109.095 F10800
G1 Z.2 F720
G1 E.8 F2100
M204 S800
G1 F1200
G1 X102.436 Y110.749 E.05476
G1 X102.811 Y112.999 E.07152
G1 X104.8 Y115.15 E.09186
G1 X106.202 Y114.957 E.04437
M73 P9 R9
M204 S1000
;WIPE_START
G1 F8640
G1 X104.8 Y115.15 E-.32678
G1 X103.409 Y113.645 E-.47322
;WIPE_END
G1 Z.6 F720
G1 X105.54 Y112.914 F10800
G1 Z.2 F720
G1 E.8 F2100
M204 S800
G1 F1200
G1 X108.23 Y113.344 E.08541
G1 X106.53 Y114.809 E.07036
M204 S1000
G1 X106.53 Y114.809 F10800
G1 X106.392 Y114.929
M204 S800
G1 F1200
G1 X106.387 Y116.04 E.03483
G1 X114.018 Y116.04 E.23926
G1 X114.018 Y115.412 E.01969
G1 X115.422 Y113.584 E.07227
G1 X117.625 Y114.72 E.07772
G1 X118.002 Y114.555 E.0129
G1 X118.484 Y114.686 E.01566
G1 X119.636 Y115.703 E.04818
G1 X119.738 Y115.688 E.00323
G1 X122.193 Y112.912 E.11619
M204 S1000
;WIPE_START
G1 F8640
G1 X119.898 Y115.507 E-.8
;WIPE_END
G1 Z.6 F720
G1 X127.199 Y114.628 F10800
G1 Z.2 F720
G1 E.8 F2100
M204 S800
G1 F1200
G1 X129.148 Y114.73 E.06119
G1 X130.043 Y115.06 E.02991
M204 S1000
;WIPE_START
G1 F8640
G1 X129.148 Y114.73 E-.22026
G1 X127.199 Y114.628 E-.45065
;WIPE_END
G1 E-.12909 F2100
G1 Z.6 F720
G1 X131.971 Y114.103 F10800
G1 Z.2 F720
G1 E.8 F2100
M204 S800
G1 F1200
G1 X131.501 Y113.873 E.01641
G1 X130.219 Y115.125 E.05618
G1 X130.426 Y115.689 E.01884
M73 P9 R8
G1 X130.426 Y116.04 E.01101
G1 X132.926 Y116.04 E.07839
M204 S1000
;WIPE_START
G1 F8640
G1 X130.426 Y116.04 E-.57726
G1 X130.426 Y115.689 E-.08105
G1 X130.219 Y115.125 E-.13872
G1 X130.228 Y115.116 E-.00297
;WIPE_END
G1 Z.6 F720
G1 X135.192 Y114.025 F10800
G1 Z.2 F720
G1 E.8 F2100
M204 S800
G1 F1200
G1 X135.192 Y112.767 E.03944
G1 X143.067 Y112.767 E.24692
G1 X143.067 Y113.999 E.03863
G1 X140.411 Y113.935 E.0833
G1 X138.369 Y115.198 E.07528
G1 X137.875 Y113.595 E.05259
M204 S1000
;WIPE_START
G1 F8640
G1 X138.369 Y115.198 E-.38731
G1 X139.889 Y114.258 E-.41269
;WIPE_END
G1 Z.6 F720
G1 X141.786 Y115.602 F10800
G1 Z.2 F720
G1 E.8 F2100
M204 S800
G1 F1200
G1 X142.95 Y114.146 E.05845
M204 S1000
G1 X142.95 Y114.146 F10800
G1 X143.215 Y114.114
M204 S800
G1 F1200
G1 X144.688 Y115.262 E.05855
G1 X144.915 Y115.027 E.01024
G1 X146.817 Y112.125 E.10879
G1 X147.804 Y114.428 E.07856
M204 S1000
;WIPE_START
G1 F8640
G1 X146.817 Y112.125 E-.57855
G1 X146.291 Y112.927 E-.22145
;WIPE_END
G1 Z.6 F720
G1 X146.834 Y111.939 F10800
G1 Z.2 F720
G1 E.8 F2100
M204 S800
G1 F1200
G1 X147.192 Y108.003 E.12392
G1 X145.911 Y109.602 E.06424
M204 S1000
;WIPE_START
G1 F8640
G1 X147.192 Y108.003 E-.47308
G1 X147.064 Y109.413 E-.32692
M73 P10 R8
;WIPE_END
G1 Z.6 F720
G1 X147.309 Y108.149 F10800
G1 Z.2 F720
G1 E.8 F2100
M204 S800
G1 F1200
G1 X148.474 Y109.602 E.05839
M204 S1000
;WIPE_START
G1 F8640
G1 X147.309 Y108.149 E-.43003
;WIPE_END
G1 E-.36997 F2100
G1 Z.6 F720
G1 X148.767 Y106.75 F10800
G1 Z.2 F720
G1 E.8 F2100
M204 S800
G1 F1200
G1 X148.767 Y104.25 E.07839
G1 X146.042 Y104.25 E.08544
G1 X147.041 Y100.185 E.13125
G1 X148.474 Y98.898 E.06039
M204 S1000
;WIPE_START
G1 F8640
G1 X147.041 Y100.185 E-.44474
G1 X146.674 Y101.679 E-.35526
;WIPE_END
G1 Z.6 F720
G1 X114.067 Y112.759 F10800
G1 Z.2 F720
G1 E.8 F2100
M204 S800
G1 F1200
G1 X111.567 Y112.762 E.07839
G1 X111.567 Y112.9 E.00433
M204 S1000
;WIPE_START
G1 F8640
G1 X111.567 Y112.762 E-.03186
G1 X114.067 Y112.759 E-.57726
;WIPE_END
G1 E-.19088 F2100
G1 Z.6 F720
G1 X103.911 Y103.562 F10800
G1 Z.2 F720
G1 E.8 F2100
M204 S800
G1 F1200
G1 X103.026 Y101.793 E.06202
M204 S1000
M106 S84.15
;LAYER_CHANGE
;Z:0.55
;HEIGHT:0.35
;BEFORE_LAYER_CHANGE
G92 E0.0
;0.55


;WIPE_START
G1 F8640
G1 X103.911 Y103.562 E-.45673
;WIPE_END
G1 E-.34327 F2100
G1 Z.55 F720
;AFTER_LAYER_CHANGE
;0.55
;CURRENT_Z: 0.55
M104 S210 ; set temperature
; stop printing object S - AxoBlock Frame.stl id:0 copy 0
G1 Z.95
G1 X97.412 Y103.562 F10800
G1 Z.55 F720
G1 E.8 F2100
;TYPE:Skirt/Brim
G1 F3000
G1 X97.412 Y92.3 E.56519
G1 X97.803 Y91.052 E.06563
G1 X98.836 Y90.249 E.06566
G1 X99.601 Y90.111 E.03901
G1 X150.399 Y90.111 E2.54934
G1 X151.647 Y90.502 E.06563
G1 X152.45 Y91.535 E.06566
G1 X152.588 Y92.3 E.03901
G1 X152.588 Y117.7 E1.27472
G1 X152.197 Y118.948 E.06563
G1 X151.164 Y119.751 E.06566
G1 X150.399 Y119.889 E.03901
G1 X99.601 Y119.889 E2.54934
G1 X98.353 Y119.498 E.06563
M73 P11 R8
G1 X97.55 Y118.465 E.06566
G1 X97.412 Y117.7 E.03901
G1 X97.412 Y103.622 E.70652
;WIPE_START
G1 F8640
G1 X97.412 Y103.562 E-.01385
G1 X97.412 Y100.157 E-.78615
;WIPE_END
G1 Z.95 F720
; printing object S - AxoBlock Frame.stl id:0 copy 0
G1 X125.476 Y111.071 F10800
G1 Z.55 F720
G1 E.8 F2100
M204 S800
;TYPE:Perimeter
;WIDTH:0.43
G1 F3000
G1 X125.431 Y111.039 E.00285
;WIDTH:0.473676
G1 X125.326 Y110.843 E.0129
;WIDTH:0.517353
G1 X125.22 Y110.647 E.01434
G1 X125.219 Y110.582 E.00418
;WIDTH:0.513674
G1 X125.219 Y99.416 E.71258
G1 X125.325 Y99.188 E.01605
;WIDTH:0.471837
G1 X125.431 Y98.959 E.01457
;WIDTH:0.43
G1 X125.709 Y98.762 E.0176
G1 X125.963 Y98.714 E.01335
G1 X129.848 Y98.714 E.20063
G1 X130.932 Y97.742 E.07519
G1 X131.224 Y97.585 E.01712
G1 X131.4 Y97.562 E.00917
G1 X144.439 Y97.558 E.67335
G1 X144.63 Y97.585 E.00996
G1 X144.938 Y97.767 E.01847
G1 X145.115 Y98.072 E.01821
G1 X145.141 Y98.26 E.0098
G1 X145.141 Y111.736 E.69591
G1 X145.115 Y111.924 E.0098
G1 X144.938 Y112.23 E.01826
G1 X144.63 Y112.411 E.01845
G1 X144.439 Y112.438 E.00996
G1 X131.401 Y112.438 E.6733
G1 X131.064 Y112.352 E.01796
G1 X129.847 Y111.284 E.08362
G1 X125.963 Y111.284 E.20057
G1 X125.71 Y111.236 E.0133
G1 X125.525 Y111.106 E.01168
M204 S1000
G1 X125.525 Y111.106 F10800
G1 X125.781 Y110.766
M204 S800
;TYPE:External perimeter
;WIDTH:0.6
G1 F2400
G1 X125.764 Y110.753 E.00163
G1 X125.701 Y110.582 E.01392
G1 X125.701 Y99.416 E.85284
G1 X125.764 Y99.245 E.01392
G1 X125.869 Y99.172 E.00977
G1 X125.963 Y99.154 E.00731
G1 X130.016 Y99.154 E.30956
G1 X131.225 Y98.069 E.12407
G1 X131.4 Y98.002 E.01431
G1 X144.439 Y97.998 E.9959
G1 X144.625 Y98.076 E.0154
G1 X144.701 Y98.26 E.01521
G1 X144.701 Y111.736 E1.02927
G1 X144.625 Y111.92 E.01521
G1 X144.439 Y111.998 E.0154
G1 X131.401 Y111.998 E.99582
G1 X131.225 Y111.931 E.01438
G1 X130.016 Y110.844 E.12418
G1 X125.963 Y110.844 E.30956
G1 X125.832 Y110.808 E.01038
G1 X125.827 Y110.805 E.00045
M204 S1000
;WIPE_START
G1 F8640
G1 X125.781 Y110.766 E-.01393
G1 X125.764 Y110.753 E-.00494
G1 X125.701 Y110.582 E-.04208
G1 X125.701 Y107.381 E-.73905
;WIPE_END
G1 Z.95 F720
G1 X124.524 Y111.071 F10800
G1 Z.55 F720
G1 E.8 F2100
M204 S800
;TYPE:Perimeter
;WIDTH:0.43
G1 F3000
G1 X124.29 Y111.236 E.01479
G1 X124.037 Y111.284 E.0133
G1 X120.153 Y111.284 E.20057
G1 X119.069 Y112.258 E.07526
G1 X118.776 Y112.415 E.01717
G1 X118.599 Y112.438 E.00922
G1 X105.561 Y112.438 E.6733
G1 X105.37 Y112.411 E.00996
