; generated by PrusaSlicer 2.5.0+linux-x64-GTK3 on 2022-09-09 at 20:31:54 UTC

; 

; external perimeters extrusion width = 0.45mm
; perimeters extrusion width = 0.45mm
; infill extrusion width = 0.45mm
; solid infill extrusion width = 0.45mm
; top infill extrusion width = 0.40mm
; first layer extrusion width = 0.42mm

M73 P0 R97
M201 X9000 Y9000 Z500 E10000 ; sets maximum accelerations, mm/sec^2
M203 X500 Y500 Z12 E120 ; sets maximum feedrates, mm / sec
M204 P2000 R1500 T2000 ; sets acceleration (P, T) and retract acceleration (R), mm/sec^2
M205 X10.00 Y10.00 Z0.20 E4.50 ; sets the jerk limits, mm/sec
M205 S0 T0 ; sets the minimum extruding and travel feed rate, mm/sec
M107
;TYPE:Custom
M862.3 P "MK2.5" ; printer model check
M862.1 P0.4 ; nozzle diameter check
M115 U3.11.0 ; tell printer latest fw version
G90 ; use absolute coordinates
M83 ; extruder relative mode
M104 S215 ; set extruder temp
M140 S60 ; set bed temp
M190 S60 ; wait for bed temp
M109 S215 ; wait for extruder temp
G28 W ; home all without mesh bed level
G80 ; mesh bed leveling

G1 Z0.2 F720
G1 Y-3 F1000 ; go outside print area
G92 E0
G1 X60 E9 F1000 ; intro line
G1 X100 E12.5 F1000 ; intro line

G92 E0
G21 ; set units to millimeters
G90 ; use absolute coordinates
M83 ; use relative distances for extrusion
M900 K0.05 ; Filament gcode LA 1.5
M900 K30 ; Filament gcode LA 1.0
M107
;LAYER_CHANGE
;Z:0.2
;HEIGHT:0.2
;BEFORE_LAYER_CHANGE
G92 E0.0
;0.2


G1 E-.8 F2100
G1 Z.4 F720
;AFTER_LAYER_CHANGE
;0.2
;CURRENT_Z: 0.2
G1 X72.124 Y53.079 F10800
G1 Z.2 F720
G1 E.8 F2100
M204 S800
;TYPE:Skirt/Brim
;WIDTH:0.42
G1 F1200
G1 X73.086 Y52.111 E.04278
G1 X74.22 Y51.823 E.0367
G1 X175.754 Y51.849 E3.18353
G1 X177.061 Y52.241 E.04278
G1 X177.937 Y53.287 E.04278
G1 X178.131 Y54.225 E.03003
G1 X178.157 Y155.759 E3.18355
G1 X177.765 Y157.066 E.04278
G1 X176.719 Y157.943 E.04278
G1 X175.78 Y158.136 E.03008
G1 X74.22 Y158.136 E3.18432
G1 X72.913 Y157.745 E.04278
M73 P0 R96
G1 X72.037 Y156.699 E.04278
G1 X71.843 Y155.761 E.03003
G1 X71.803 Y54.865 E3.16352
G1 X71.815 Y54.207 E.02064
G1 X72.108 Y53.137 E.0348
M204 S1000
; printing object U - AxoBlock Frame insert.stl id:0 copy 0
;WIPE_START
G1 F8640
G1 X73.086 Y52.111 E-.32718
G1 X74.22 Y51.823 E-.27026
G1 X74.924 Y51.823 E-.16257
;WIPE_END
G1 E-.04 F2100
G1 Z.6 F720
G1 X75.395 Y55.375 F10800
G1 Z.2 F720
G1 E.8 F2100
M204 S800
;TYPE:Perimeter
;WIDTH:0.419999
G1 F1200
G1 X163.076 Y55.416 E2.74916
G1 X163.238 Y55.375 E.00523
G1 X174.6 Y55.379 E.35626
G1 X174.605 Y154.585 E3.1105
G1 X163.533 Y154.585 E.34714
G1 X163.076 Y154.544 E.0144
G1 X156.834 Y154.574 E.19571
G1 X75.43 Y154.55 E2.55237
G1 X75.395 Y55.435 E3.10766
M204 S1000
G1 X75.018 Y54.998 F10800
M204 S800
;TYPE:External perimeter
G1 F1200
G1 X163.076 Y55.039 E2.76099
G1 X163.182 Y54.998 E.00357
G1 X174.977 Y55.003 E.36982
G1 X174.982 Y154.962 E3.13414
G1 X163.182 Y154.962 E.36997
G1 X163.076 Y154.921 E.00357
M73 P1 R96
G1 X156.836 Y154.951 E.19565
G1 X75.053 Y154.927 E2.56424
G1 X75.018 Y55.058 E3.13131
M204 S1000
G1 X75.401 Y55.114 F10800
;WIPE_START
G1 F8640
G1 X78.31 Y55.057 E-.76
;WIPE_END
G1 E-.04 F2100
G1 Z.6 F720
G1 X79.745 Y59.45 F10800
G1 Z.2 F720
G1 E.8 F2100
M204 S800
;TYPE:Perimeter
G1 F1200
G1 X79.973 Y59.387 E.00741
G1 X93.287 Y59.387 E.41745
G1 X93.565 Y59.46 E.00902
G1 X94.77 Y60.566 E.05126
G1 X98.826 Y60.566 E.12718
G1 X99.078 Y60.625 E.00812
G1 X99.225 Y60.731 E.00568
;WIDTH:0.440069
G1 X99.401 Y61.131 E.01446
G1 X99.401 Y71.498 E.34235
G1 X99.186 Y71.934 E.01607
;WIDTH:0.419999
G1 X98.295 Y72.329 E.03056
G1 X94.086 Y74.066 E.14275
G1 X92.041 Y79.021 E.16808
G1 X91.955 Y79.166 E.00528
;WIDTH:0.440061
G1 X91.519 Y79.381 E.01607
G1 X81.152 Y79.381 E.34235
G1 X80.751 Y79.205 E.01446
;WIDTH:0.419999
G1 X80.603 Y78.942 E.00945
G1 X80.586 Y78.805 E.00432
G1 X80.586 Y74.749 E.12717
G1 X79.56 Y73.653 E.04709
G1 X79.427 Y73.413 E.00861
G1 X79.407 Y73.266 E.00463
G1 X79.407 Y59.953 E.41744
G1 X79.487 Y59.662 E.00944
G1 X79.687 Y59.466 E.00879
M204 S1000
G1 X79.784 Y59.953 F10800
M204 S800
;TYPE:External perimeter
G1 F1200
G1 X79.84 Y59.819 E.00452
G1 X79.973 Y59.764 E.00452
G1 X93.287 Y59.764 E.41744
G1 X93.415 Y59.815 E.00434
G1 X94.621 Y60.943 E.05176
G1 X98.826 Y60.943 E.13184
G1 X98.959 Y60.998 E.00451
G1 X99.014 Y61.131 E.00453
G1 X99.014 Y71.498 E.32505
G1 X98.946 Y71.644 E.00504
G1 X93.798 Y73.777 E.17473
G1 X91.693 Y78.877 E.17299
G1 X91.519 Y78.994 E.00657
G1 X81.152 Y78.994 E.32505
G1 X81.018 Y78.939 E.00454
G1 X80.963 Y78.805 E.00451
G1 X80.963 Y74.601 E.13184
G1 X79.835 Y73.395 E.05176
G1 X79.784 Y73.266 E.00434
G1 X79.784 Y60.013 E.41556
M204 S1000
G1 X79.682 Y59.851 F10800
;WIPE_START
G1 F8640
G1 X79.84 Y59.819 E-.04642
G1 X79.973 Y59.764 E-.03332
G1 X82.919 Y59.764 E-.68026
;WIPE_END
G1 E-.04 F2100
G1 Z.6 F720
G1 X80.995 Y104.73 F10800
G1 Z.2 F720
G1 E.8 F2100
M204 S800
;TYPE:Perimeter
;WIDTH:0.440063
G1 F1200
G1 X80.712 Y104.606 E.01022
;WIDTH:0.419999
G1 X80.562 Y104.343 E.00949
G1 X80.545 Y104.205 E.00435
G1 X80.545 Y100.142 E.12742
G1 X79.553 Y99.043 E.0464
G1 X79.416 Y98.762 E.00981
G1 X79.407 Y98.664 E.00308
G1 X79.407 Y85.893 E.40043
G1 X79.481 Y85.615 E.00903
G1 X80.586 Y84.41 E.05126
G1 X80.586 Y80.354 E.12717
G1 X80.645 Y80.102 E.00812
G1 X80.751 Y79.955 E.00567
;WIDTH:0.440061
G1 X81.152 Y79.778 E.01446
G1 X91.519 Y79.778 E.34235
G1 X91.955 Y79.994 E.01607
;WIDTH:0.419999
G1 X92.348 Y80.881 E.03043
G1 X94.086 Y85.093 E.14288
G1 X98.051 Y86.732 E.1345
G1 X98.931 Y87.144 E.03047
G1 X98.915 Y86.208 E.02934
G1 X98.913 Y79.479 E.21101
G1 X98.956 Y79.261 E.00696
G1 X99.08 Y79.077 E.00695
G1 X99.263 Y78.956 E.00689
G1 X99.599 Y78.913 E.01062
G1 X107.162 Y78.928 E.23712
G1 X106.752 Y78.031 E.03093
G1 X105.114 Y74.066 E.1345
G1 X100.158 Y72.021 E.16808
G1 X100.014 Y71.934 E.00528
;WIDTH:0.440069
G1 X99.799 Y71.498 E.01607
G1 X99.799 Y61.131 E.34235
G1 X99.975 Y60.731 E.01446
;WIDTH:0.419999
G1 X100.238 Y60.582 E.00945
G1 X100.374 Y60.566 E.00432
G1 X104.43 Y60.566 E.12717
G1 X105.527 Y59.54 E.04709
G1 X105.767 Y59.406 E.00861
G1 X105.913 Y59.387 E.00463
G1 X118.687 Y59.387 E.4005
G1 X118.965 Y59.46 E.00902
G1 X120.17 Y60.566 E.05126
G1 X124.226 Y60.566 E.12718
G1 X124.478 Y60.625 E.00813
G1 X124.625 Y60.731 E.00568
;WIDTH:0.440057
G1 X124.801 Y61.131 E.01444
G1 X124.801 Y71.498 E.34234
G1 X124.586 Y71.934 E.01607
;WIDTH:0.419999
M73 P1 R95
G1 X123.694 Y72.33 E.03058
G1 X119.486 Y74.066 E.14273
G1 X117.848 Y78.031 E.1345
G1 X117.44 Y78.924 E.03079
G1 X132.56 Y78.924 E.47406
G1 X132.152 Y78.031 E.03078
G1 X130.514 Y74.066 E.1345
G1 X125.558 Y72.021 E.16808
G1 X125.414 Y71.934 E.00528
;WIDTH:0.440057
G1 X125.199 Y71.498 E.01607
G1 X125.199 Y61.131 E.34234
G1 X125.375 Y60.731 E.01444
;WIDTH:0.419999
G1 X125.637 Y60.582 E.00946
G1 X125.774 Y60.566 E.00433
G1 X129.83 Y60.566 E.12717
G1 X130.927 Y59.54 E.04709
G1 X131.167 Y59.406 E.00861
G1 X131.313 Y59.387 E.00463
G1 X144.087 Y59.387 E.4005
G1 X144.365 Y59.46 E.00902
G1 X145.57 Y60.566 E.05126
G1 X149.626 Y60.566 E.12718
G1 X149.879 Y60.625 E.00814
G1 X150.026 Y60.731 E.00568
;WIDTH:0.440045
G1 X150.201 Y61.131 E.01442
G1 X150.201 Y71.498 E.34233
G1 X149.986 Y71.934 E.01607
;WIDTH:0.419999
G1 X149.095 Y72.329 E.03056
G1 X144.886 Y74.066 E.14275
G1 X143.248 Y78.031 E.1345
G1 X142.838 Y78.928 E.03093
G1 X150.521 Y78.913 E.2409
G1 X150.737 Y78.956 E.0069
G1 X150.92 Y79.077 E.00688
G1 X151.044 Y79.263 E.00701
G1 X151.087 Y79.579 E.00999
G1 X151.085 Y86.646 E.22158
G1 X151.069 Y87.144 E.01564
G1 X151.949 Y86.732 E.03047
G1 X155.914 Y85.093 E.1345
G1 X157.959 Y80.138 E.16808
G1 X158.045 Y79.994 E.00528
;WIDTH:0.440061
G1 X158.481 Y79.778 E.01607
G1 X168.849 Y79.778 E.34235
G1 X169.249 Y79.955 E.01447
;WIDTH:0.419999
G1 X169.397 Y80.217 E.00945
G1 X169.414 Y80.354 E.00431
G1 X169.414 Y84.41 E.12717
G1 X170.44 Y85.507 E.04709
G1 X170.573 Y85.747 E.00861
G1 X170.593 Y85.893 E.00463
G1 X170.593 Y98.666 E.4005
G1 X170.519 Y98.945 E.00903
G1 X169.414 Y100.149 E.05126
G1 X169.414 Y104.205 E.12717
G1 X169.355 Y104.457 E.00811
G1 X169.249 Y104.604 E.00567
;WIDTH:0.440063
G1 X168.849 Y104.781 E.01447
G1 X158.481 Y104.781 E.34235
G1 X158.045 Y104.566 E.01607
;WIDTH:0.419999
G1 X157.652 Y103.678 E.03043
G1 X155.914 Y99.466 E.14288
G1 X151.949 Y97.827 E.1345
G1 X151.072 Y97.417 E.03036
G1 X151.087 Y98.551 E.03557
G1 X151.087 Y110.957 E.389
G1 X151.072 Y112.543 E.04971
G1 X151.925 Y112.143 E.02954
G1 X155.914 Y110.493 E.13532
G1 X157.959 Y105.538 E.16808
G1 X158.045 Y105.394 E.00528
;WIDTH:0.440062
G1 X158.481 Y105.178 E.01607
G1 X168.849 Y105.178 E.34235
G1 X169.249 Y105.355 E.01447
;WIDTH:0.419999
G1 X169.397 Y105.617 E.00945
G1 X169.414 Y105.754 E.00431
G1 X169.414 Y109.81 E.12717
G1 X170.44 Y110.907 E.04709
G1 X170.573 Y111.147 E.00861
G1 X170.593 Y111.293 E.00463
G1 X170.593 Y124.066 E.4005
G1 X170.519 Y124.345 E.00903
G1 X169.414 Y125.549 E.05126
G1 X169.414 Y129.605 E.12717
G1 X169.355 Y129.857 E.00811
G1 X169.25 Y130.004 E.00567
;WIDTH:0.440062
G1 X168.849 Y130.181 E.01447
G1 X158.481 Y130.181 E.34235
G1 X158.045 Y129.966 E.01607
;WIDTH:0.419999
G1 X157.652 Y129.078 E.03043
G1 X155.914 Y124.866 E.14288
G1 X151.949 Y123.227 E.1345
G1 X151.068 Y122.815 E.03052
G1 X151.085 Y123.336 E.01636
G1 X151.087 Y130.521 E.22529
G1 X151.044 Y130.737 E.0069
G1 X150.923 Y130.92 E.00688
G1 X150.737 Y131.044 E.00701
G1 X150.401 Y131.087 E.01062
G1 X143.354 Y131.084 E.22096
G1 X142.832 Y131.064 E.01638
G1 X143.247 Y131.929 E.03006
G1 X144.886 Y135.893 E.13451
G1 X149.842 Y137.938 E.16808
G1 X149.986 Y138.025 E.00528
;WIDTH:0.440045
G1 X150.201 Y138.461 E.01607
G1 X150.201 Y148.828 E.34233
G1 X150.025 Y149.229 E.01445
;WIDTH:0.419999
G1 X149.763 Y149.377 E.00945
G1 X149.626 Y149.394 E.00432
G1 X145.57 Y149.394 E.12717
G1 X144.473 Y150.42 E.04709
G1 X144.233 Y150.553 E.00861
G1 X144.087 Y150.572 E.00463
G1 X131.313 Y150.572 E.4005
G1 X131.035 Y150.499 E.00902
G1 X129.83 Y149.394 E.05126
G1 X125.774 Y149.394 E.12718
G1 X125.522 Y149.334 E.00813
G1 X125.375 Y149.229 E.00568
;WIDTH:0.440057
G1 X125.199 Y148.828 E.01444
G1 X125.199 Y138.461 E.34234
G1 X125.414 Y138.025 E.01607
;WIDTH:0.419999
G1 X126.298 Y137.633 E.0303
G1 X130.514 Y135.893 E.14301
G1 X132.153 Y131.929 E.13451
G1 X132.566 Y131.068 E.02993
G1 X131.449 Y131.087 E.03502
G1 X119.042 Y131.087 E.38902
G1 X117.434 Y131.068 E.05041
G1 X117.834 Y131.9 E.02894
G1 X119.486 Y135.893 E.1355
G1 X124.442 Y137.938 E.16808
G1 X124.586 Y138.025 E.00528
;WIDTH:0.440057
G1 X124.801 Y138.461 E.01607
G1 X124.801 Y148.828 E.34234
G1 X124.625 Y149.229 E.01444
;WIDTH:0.419999
G1 X124.363 Y149.377 E.00946
G1 X124.226 Y149.394 E.00433
G1 X120.17 Y149.394 E.12717
G1 X119.073 Y150.42 E.04709
G1 X118.833 Y150.553 E.00861
G1 X118.687 Y150.572 E.00463
G1 X105.913 Y150.572 E.4005
G1 X105.635 Y150.499 E.00902
G1 X104.43 Y149.394 E.05126
G1 X100.374 Y149.394 E.12718
G1 X100.121 Y149.334 E.00814
G1 X99.974 Y149.228 E.00568
;WIDTH:0.440069
G1 X99.799 Y148.828 E.01443
G1 X99.799 Y138.461 E.34235
G1 X100.014 Y138.025 E.01607
;WIDTH:0.419999
G1 X100.898 Y137.633 E.0303
G1 X105.114 Y135.893 E.14301
G1 X106.753 Y131.929 E.13451
G1 X107.168 Y131.064 E.03006
G1 X106.668 Y131.084 E.0157
G1 X99.479 Y131.087 E.2254
G1 X99.261 Y131.044 E.00696
G1 X99.077 Y130.92 E.00695
G1 X98.956 Y130.737 E.00689
G1 X98.913 Y130.381 E.01125
G1 X98.915 Y123.354 E.22031
G1 X98.932 Y122.815 E.01693
G1 X98.051 Y123.227 E.03052
G1 X94.086 Y124.866 E.1345
G1 X92.041 Y129.821 E.16808
G1 X91.955 Y129.966 E.00528
;WIDTH:0.440062
G1 X91.519 Y130.181 E.01607
G1 X81.111 Y130.181 E.34369
G1 X80.712 Y130.007 E.01438
;WIDTH:0.419999
G1 X80.562 Y129.743 E.00949
G1 X80.545 Y129.605 E.00436
G1 X80.545 Y125.542 E.12742
G1 X79.553 Y124.443 E.0464
G1 X79.416 Y124.162 E.00981
G1 X79.407 Y124.064 E.00308
G1 X79.407 Y111.295 E.40036
G1 X79.448 Y111.085 E.0067
G1 X79.553 Y110.916 E.00625
G1 X80.545 Y109.818 E.04641
G1 X80.545 Y105.754 E.12742
G1 X80.605 Y105.5 E.00818
G1 X80.712 Y105.353 E.00569
;WIDTH:0.440063
G1 X81.111 Y105.178 E.01439
G1 X91.519 Y105.178 E.34369
G1 X91.955 Y105.394 E.01607
;WIDTH:0.419999
G1 X92.348 Y106.281 E.03043
G1 X94.086 Y110.493 E.14288
G1 X98.051 Y112.132 E.1345
G1 X98.928 Y112.543 E.03036
G1 X98.913 Y111.449 E.03429
G1 X98.913 Y99.043 E.38898
G1 X98.928 Y97.417 E.051
G1 X98.075 Y97.816 E.02954
G1 X94.086 Y99.466 E.13532
G1 X92.041 Y104.421 E.16808
G1 X91.955 Y104.566 E.00528
;WIDTH:0.440063
G1 X91.519 Y104.781 E.01607
G1 X81.111 Y104.781 E.34369
G1 X81.05 Y104.755 E.00219
M204 S1000
G1 X81.111 Y104.394 F10800
M204 S800
;TYPE:External perimeter
;WIDTH:0.419999
G1 F1200
G1 X80.978 Y104.339 E.00451
G1 X80.922 Y104.205 E.00454
G1 X80.922 Y99.996 E.13197
G1 X79.833 Y98.79 E.05095
G1 X79.784 Y98.664 E.00425
G1 X79.784 Y85.893 E.40043
G1 X79.835 Y85.764 E.00434
G1 X80.963 Y84.559 E.05176
G1 X80.963 Y80.354 E.13184
G1 X81.018 Y80.221 E.00451
G1 X81.152 Y80.165 E.00454
G1 X91.519 Y80.165 E.32505
G1 X91.693 Y80.282 E.00657
G1 X93.798 Y85.382 E.17299
G1 X97.907 Y87.081 E.13941
G1 X98.855 Y87.525 E.03283
G1 X98.96 Y87.696 E.00628
G1 X98.957 Y96.903 E.2887
G1 X98.855 Y97.034 E.00521
G1 X97.915 Y97.475 E.03256
G1 X93.798 Y99.177 E.13969
G1 X91.693 Y104.277 E.17299
G1 X91.519 Y104.394 E.00657
G1 X81.171 Y104.394 E.32445
M204 S1000
G1 X81.01 Y104.496 F10800
;WIPE_START
G1 F8640
G1 X80.978 Y104.339 E-.04634
G1 X80.922 Y104.205 E-.0334
G1 X80.922 Y101.259 E-.68025
;WIPE_END
G1 E-.04 F2100
G1 Z.6 F720
G1 X150.521 Y130.71 F10800
G1 Z.2 F720
G1 E.8 F2100
M204 S800
G1 F1200
G1 X143.354 Y130.707 E.22472
G1 X141.859 Y130.649 E.04693
G1 X133.438 Y130.649 E.26402
G1 X132.657 Y130.686 E.02452
G1 X131.449 Y130.71 E.03788
G1 X119.045 Y130.71 E.38892
G1 X117.556 Y130.696 E.04668
M73 P2 R95
G1 X116.557 Y130.649 E.03137
G1 X108.137 Y130.649 E.26399
G1 X106.653 Y130.707 E.04658
G1 X99.479 Y130.71 E.22494
G1 X99.345 Y130.654 E.00455
G1 X99.29 Y130.521 E.00451
G1 X99.292 Y123.354 E.22471
G1 X99.341 Y121.86 E.04688
G1 X99.341 Y113.437 E.26409
G1 X99.29 Y111.449 E.06236
G1 X99.29 Y99.046 E.3889
G1 X99.3 Y97.557 E.04667
G1 X99.341 Y96.558 E.03134
G1 X99.341 Y88.137 E.26406
G1 X99.292 Y86.652 E.04659
G1 X99.29 Y79.479 E.2249
G1 X99.346 Y79.345 E.00455
G1 X99.479 Y79.29 E.00451
G1 X106.645 Y79.292 E.22471
G1 X108.139 Y79.331 E.04683
G1 X116.563 Y79.331 E.26415
G1 X118.551 Y79.29 E.06234
G1 X132.442 Y79.297 E.43553
G1 X133.44 Y79.331 E.03132
G1 X141.864 Y79.331 E.26412
G1 X143.35 Y79.292 E.0466
G1 X150.521 Y79.29 E.22486
G1 X150.654 Y79.345 E.00451
G1 X150.71 Y79.479 E.00455
G1 X150.708 Y86.646 E.22471
G1 X150.659 Y88.14 E.04688
G1 X150.659 Y96.562 E.26408
G1 X150.71 Y98.551 E.06237
G1 X150.71 Y110.955 E.38891
G1 X150.699 Y112.443 E.04667
G1 X150.659 Y113.441 E.03132
G1 X150.659 Y121.863 E.26407
G1 X150.708 Y123.348 E.04659
G1 X150.71 Y130.521 E.2249
G1 X150.655 Y130.654 E.00451
G1 X150.577 Y130.687 E.00267
M204 S1000
G1 X150.418 Y131.096 F10800
;WIPE_START
G1 F8640
G1 X147.285 Y130.696 E-.76
;WIPE_END
G1 E-.04 F2100
G1 Z.6 F720
G1 X100.186 Y61.131 F10800
G1 Z.2 F720
G1 E.8 F2100
M204 S800
G1 F1200
G1 X100.29 Y60.962 E.00622
G1 X100.374 Y60.943 E.00271
G1 X104.579 Y60.943 E.13184
G1 X105.785 Y59.815 E.05176
G1 X105.913 Y59.764 E.00434
G1 X118.687 Y59.764 E.4005
G1 X118.815 Y59.815 E.00434
G1 X120.021 Y60.943 E.05176
G1 X124.226 Y60.943 E.13184
G1 X124.359 Y60.998 E.00452
G1 X124.414 Y61.131 E.00453
G1 X124.414 Y71.498 E.32505
G1 X124.346 Y71.644 E.00504
G1 X119.198 Y73.777 E.17473
G1 X117.499 Y77.887 E.13941
G1 X117.062 Y78.843 E.03298
G1 X116.891 Y78.951 E.00634
G1 X107.704 Y78.951 E.28804
G1 X107.538 Y78.843 E.00621
G1 X107.103 Y77.893 E.03276
G1 X105.402 Y73.777 E.13963
G1 X100.302 Y71.673 E.17299
G1 X100.186 Y71.515 E.00614
G1 X100.186 Y61.191 E.32369
M204 S1000
G1 X100.061 Y60.977 F10800
;WIPE_START
G1 F8640
G1 X100.29 Y60.962 E-.05807
G1 X100.374 Y60.943 E-.01995
G1 X103.328 Y60.943 E-.68199
;WIPE_END
G1 E-.04 F2100
G1 Z.6 F720
G1 X149.746 Y71.644 F10800
G1 Z.2 F720
G1 E.8 F2100
M204 S800
G1 F1200
G1 X144.598 Y73.777 E.17473
G1 X142.899 Y77.887 E.13941
G1 X142.462 Y78.843 E.03298
G1 X142.291 Y78.951 E.00634
G1 X133.103 Y78.951 E.28808
