; generated by PrusaSlicer 2.6.0-alpha6+linux-x64-GTK3 on 2023-05-08 at 03:33:44 UTC

; 

; external perimeters extrusion width = 0.60mm
; perimeters extrusion width = 0.43mm
; infill extrusion width = 0.45mm
; solid infill extrusion width = 0.70mm
; top infill extrusion width = 0.45mm
; first layer extrusion width = 0.42mm

M73 P0 R57
M201 X9000 Y9000 Z500 E10000 ; sets maximum accelerations, mm/sec^2
M203 X500 Y500 Z12 E120 ; sets maximum feedrates, mm / sec
M204 S2000 T1500 ; sets acceleration (S) and retract acceleration (R), mm/sec^2
M205 X10.00 Y10.00 Z0.20 E4.50 ; sets the jerk limits, mm/sec
M205 S0 T0 ; sets the minimum extruding and travel feed rate, mm/sec
;TYPE:Custom
M862.3 P "MK2.5" ; printer model check
M862.1 P0.4 ; nozzle diameter check
M115 U3.11.0 ; tell printer latest fw version
G90 ; use absolute coordinates
M83 ; extruder relative mode
M104 S215 ; set extruder temp
M140 S60 ; set bed temp
M190 S60 ; wait for bed temp
M109 S215 ; wait for extruder temp
G28 W ; home all without mesh bed level
G80 ; mesh bed leveling

G1 Z0.2 F720
G1 Y-3 F1000 ; go outside print area
G92 E0
G1 X60 E9 F1000 ; intro line
G1 X100 E12.5 F1000 ; intro line

G92 E0
G21 ; set units to millimeters
G90 ; use absolute coordinates
M83 ; use relative distances for extrusion
M900 K0.05 ; Filament gcode LA 1.5
M900 K30 ; Filament gcode LA 1.0
M107
;LAYER_CHANGE
;Z:0.2
;HEIGHT:0.2
;BEFORE_LAYER_CHANGE
G92 E0.0
;0.2


G1 E-.8 F2100
G1 Z.4 F720
;AFTER_LAYER_CHANGE
;0.2
;CURRENT_Z: 0.2
G1 X72.215 Y52.893 F10800
G1 Z.2 F720
G1 E.8 F2100
M204 S800
;TYPE:Skirt/Brim
;WIDTH:0.42
G1 F1200
G1 X73.26 Y52.017 E.04275
G1 X74.2 Y51.823 E.03009
G1 X175.797 Y51.823 E3.1855
G1 X177.104 Y52.215 E.04278
G1 X177.98 Y53.26 E.04275
G1 X178.174 Y54.2 E.03009
G1 X178.174 Y155.797 E3.1855
G1 X177.783 Y157.104 E.04277
G1 X176.737 Y157.98 E.04278
G1 X175.797 Y158.174 E.03009
G1 X74.2 Y158.174 E3.1855
G1 X72.893 Y157.782 E.04278
G1 X72.016 Y156.736 E.0428
G1 X71.823 Y155.797 E.03006
G1 X71.823 Y54.2 E3.1855
G1 X72.197 Y52.95 E.04091
M204 S1000
; printing object U - AxoBlock Frame.stl id:0 copy 0
;WIPE_START
G1 F8640
G1 X73.26 Y52.017 E-.32658
G1 X74.2 Y51.823 E-.22162
G1 X75.291 Y51.823 E-.2518
;WIPE_END
G1 Z.6 F720
G1 X174.505 Y154.505 F10800
G1 Z.2 F720
G1 E.8 F2100
M204 S800
;TYPE:Perimeter
;WIDTH:0.419999
G1 F1200
G1 X75.495 Y154.505 E3.10438
G1 X75.495 Y55.495 E3.10438
G1 X174.505 Y55.495 E3.10438
M73 P1 R56
G1 X174.505 Y154.445 E3.1025
M204 S1000
G1 X174.882 Y154.882 F10800
M204 S800
;TYPE:External perimeter
G1 F1200
G1 X75.118 Y154.882 E3.12802
G1 X75.118 Y55.118 E3.12802
G1 X174.882 Y55.118 E3.12802
G1 X174.882 Y154.822 E3.12614
M204 S1000
G1 X174.496 Y154.779 F10800
;WIPE_START
G1 F8640
G1 X171.417 Y154.824 E-.8
;WIPE_END
G1 Z.6 F720
G1 X79.591 Y150.408 F10800
G1 Z.2 F720
M73 P2 R56
G1 E.8 F2100
M204 S800
;TYPE:Perimeter
G1 F1200
G1 X79.493 Y150.311 E.00432
G1 X79.413 Y150.02 E.00946
G1 X79.413 Y136.727 E.41679
G1 X79.453 Y136.518 E.00667
G1 X79.558 Y136.349 E.00624
G1 X80.563 Y135.23 E.04716
G1 X80.563 Y131.181 E.12695
G1 X80.625 Y130.923 E.00832
G1 X80.733 Y130.776 E.00572
;WIDTH:0.444379
G1 X81.129 Y130.603 E.01443
G1 X91.504 Y130.603 E.34633
G1 X91.938 Y130.818 E.01617
;WIDTH:0.419999
G1 X92.027 Y130.964 E.00536
G1 X94.078 Y135.917 E.16809
G1 X99.036 Y137.969 E.16824
G1 X99.18 Y138.056 E.00528
;WIDTH:0.444381
G1 X99.397 Y138.492 E.01626
G1 X99.397 Y148.867 E.34633
G1 X99.223 Y149.263 E.01444
;WIDTH:0.419999
G1 X98.959 Y149.416 E.00957
G1 X98.819 Y149.433 E.00442
G1 X94.766 Y149.433 E.12708
G1 X93.648 Y150.442 E.04722
G1 X93.367 Y150.579 E.0098
G1 X93.269 Y150.587 E.00308
G1 X79.978 Y150.586 E.41673
G1 X79.688 Y150.506 E.00943
G1 X79.633 Y150.451 E.00244
M204 S1000
G1 X79.845 Y150.154 F10800
M204 S800
;TYPE:External perimeter
G1 F1200
G1 X79.79 Y150.02 E.00454
G1 X79.79 Y136.727 E.41679
G1 X79.838 Y136.601 E.00423
G1 X80.94 Y135.375 E.05169
G1 X80.94 Y131.181 E.1315
G1 X80.997 Y131.046 E.00459
G1 X81.129 Y130.992 E.00447
G1 X91.504 Y130.992 E.3253
G1 X91.678 Y131.108 E.00656
G1 X93.79 Y136.206 E.17302
G1 X98.892 Y138.318 E.17313
G1 X99.008 Y138.492 E.00656
G1 X99.008 Y148.867 E.3253
G1 X98.954 Y148.999 E.00447
G1 X98.819 Y149.056 E.00459
G1 X94.622 Y149.056 E.13159
G1 X93.395 Y150.161 E.05177
G1 X93.269 Y150.21 E.00424
G1 X79.979 Y150.209 E.4167
G1 X79.901 Y150.177 E.00264
M204 S1000
G1 X79.706 Y150.191 F10800
;WIPE_START
G1 F8640
G1 X79.79 Y150.02 E-.0444
G1 X79.79 Y146.748 E-.7556
;WIPE_END
G1 Z.6 F720
G1 X124.742 Y148.984 F10800
G1 Z.2 F720
G1 E.8 F2100
M204 S800
;TYPE:Perimeter
;WIDTH:0.445388
G1 F1200
G1 X124.62 Y149.263 E.01019
;WIDTH:0.419999
G1 X124.355 Y149.415 E.00958
G1 X124.215 Y149.433 E.00443
G1 X120.164 Y149.433 E.12702
G1 X119.046 Y150.442 E.04722
G1 X118.765 Y150.579 E.0098
G1 X118.667 Y150.587 E.00308
G1 X105.925 Y150.587 E.39952
G1 X105.716 Y150.547 E.00667
G1 X105.547 Y150.442 E.00624
G1 X104.426 Y149.433 E.04729
G1 X100.377 Y149.433 E.12695
G1 X100.12 Y149.371 E.00829
G1 X99.973 Y149.263 E.00572
;WIDTH:0.444381
G1 X99.799 Y148.867 E.01444
G1 X99.799 Y138.492 E.34633
G1 X100.016 Y138.056 E.01626
;WIDTH:0.419999
G1 X100.161 Y137.969 E.0053
G1 X105.114 Y135.918 E.16809
G1 X107.165 Y130.964 E.16811
G1 X107.252 Y130.82 E.00528
;WIDTH:0.444379
G1 X107.688 Y130.603 E.01626
G1 X116.902 Y130.603 E.30758
G1 X117.338 Y130.82 E.01626
;WIDTH:0.419999
G1 X117.425 Y130.964 E.00528
G1 X119.476 Y135.918 E.16811
G1 X124.432 Y137.969 E.16817
G1 X124.576 Y138.056 E.00528
;WIDTH:0.445388
G1 X124.794 Y138.492 E.01631
G1 X124.794 Y148.867 E.3472
G1 X124.767 Y148.929 E.00226
M204 S1000
G1 X124.404 Y148.867 F10800
M204 S800
;TYPE:External perimeter
;WIDTH:0.419999
G1 F1200
G1 X124.35 Y148.999 E.00447
G1 X124.215 Y149.056 E.00459
G1 X120.02 Y149.056 E.13153
G1 X118.793 Y150.161 E.05177
G1 X118.667 Y150.21 E.00424
G1 X105.925 Y150.21 E.39952
G1 X105.799 Y150.162 E.00423
G1 X104.571 Y149.056 E.05182
G1 X100.377 Y149.056 E.1315
G1 X100.242 Y148.999 E.00459
G1 X100.188 Y148.867 E.00447
G1 X100.188 Y138.492 E.3253
G1 X100.305 Y138.318 E.00657
G1 X105.402 Y136.206 E.17299
G1 X107.514 Y131.108 E.17302
G1 X107.672 Y130.993 E.00613
G1 X116.902 Y130.992 E.2894
G1 X117.047 Y131.06 E.00502
G1 X117.076 Y131.109 E.00179
G1 X119.188 Y136.206 E.17299
G1 X124.288 Y138.318 E.17308
G1 X124.404 Y138.492 E.00656
G1 X124.404 Y148.807 E.32342
M204 S1000
G1 X124.505 Y148.967 F10800
;WIPE_START
G1 F8640
G1 X124.35 Y148.999 E-.04605
G1 X124.215 Y149.056 E-.03384
G1 X121.096 Y149.056 E-.72011
;WIPE_END
G1 Z.6 F720
G1 X150.146 Y148.98 F10800
G1 Z.2 F720
G1 E.8 F2100
M204 S800
;TYPE:Perimeter
;WIDTH:0.443389
G1 F1200
G1 X150.023 Y149.26 E.01018
;WIDTH:0.419999
G1 X149.759 Y149.412 E.00955
G1 X149.619 Y149.429 E.00442
G1 X145.568 Y149.429 E.12702
G1 X144.445 Y150.438 E.04734
G1 X144.165 Y150.575 E.00977
G1 X144.067 Y150.583 E.00308
G1 X131.323 Y150.587 E.39958
G1 X131.113 Y150.547 E.0067
G1 X130.944 Y150.442 E.00624
G1 X129.826 Y149.433 E.04722
G1 X125.775 Y149.433 E.12702
G1 X125.517 Y149.371 E.00832
G1 X125.37 Y149.263 E.00572
;WIDTH:0.445388
G1 X125.196 Y148.867 E.01448
G1 X125.196 Y138.492 E.3472
G1 X125.414 Y138.056 E.01631
;WIDTH:0.419999
G1 X125.558 Y137.969 E.00528
G1 X130.512 Y135.918 E.16811
G1 X132.565 Y130.958 E.16831
G1 X132.652 Y130.814 E.00528
;WIDTH:0.443382
G1 X133.088 Y130.597 E.01622
G1 X142.304 Y130.597 E.30688
G1 X142.739 Y130.814 E.01619
;WIDTH:0.419999
G1 X142.826 Y130.958 E.00528
G1 X144.88 Y135.914 E.16821
G1 X149.836 Y137.968 E.16821
G1 X149.981 Y138.055 E.0053
;WIDTH:0.443389
G1 X150.197 Y138.49 E.01617
G1 X150.197 Y148.863 E.34541
G1 X150.17 Y148.925 E.00225
M204 S1000
G1 X149.808 Y148.863 F10800
M204 S800
;TYPE:External perimeter
;WIDTH:0.419999
G1 F1200
G1 X149.754 Y148.996 E.0045
G1 X149.619 Y149.052 E.00458
G1 X145.423 Y149.052 E.13156
G1 X144.193 Y150.158 E.05186
G1 X144.067 Y150.206 E.00423
G1 X131.323 Y150.21 E.39958
G1 X131.197 Y150.161 E.00424
G1 X129.97 Y149.056 E.05177
G1 X125.775 Y149.056 E.13153
G1 X125.64 Y148.999 E.00459
G1 X125.586 Y148.867 E.00447
G1 X125.586 Y138.492 E.3253
G1 X125.703 Y138.318 E.00657
G1 X130.8 Y136.206 E.17299
G1 X132.914 Y131.102 E.17322
G1 X133.071 Y130.987 E.0061
G1 X142.304 Y130.986 E.28949
G1 X142.478 Y131.102 E.00656
G1 X144.592 Y136.202 E.1731
G1 X149.692 Y138.316 E.1731
G1 X149.808 Y138.49 E.00656
G1 X149.808 Y148.803 E.32336
M204 S1000
G1 X149.91 Y148.964 F10800
;WIPE_START
G1 F8640
G1 X149.754 Y148.996 E-.04628
G1 X149.619 Y149.052 E-.03375
G1 X146.501 Y149.052 E-.71997
;WIPE_END
G1 Z.6 F720
G1 X170.563 Y150.108 F10800
G1 Z.2 F720
G1 E.8 F2100
M204 S800
;TYPE:Perimeter
G1 F1200
G1 X170.507 Y150.311 E.0066
G1 X170.312 Y150.506 E.00865
G1 X170.021 Y150.587 E.00947
G1 X156.727 Y150.583 E.41682
G1 X156.518 Y150.543 E.00667
M73 P2 R55
G1 X156.349 Y150.438 E.00624
G1 X155.226 Y149.429 E.04734
G1 X151.175 Y149.429 E.12702
G1 X150.918 Y149.368 E.00828
G1 X150.771 Y149.26 E.00572
;WIDTH:0.443389
G1 X150.597 Y148.863 E.01443
G1 X150.597 Y138.488 E.34548
G1 X150.812 Y138.054 E.01613
;WIDTH:0.419999
G1 X150.958 Y137.965 E.00536
G1 X155.914 Y135.914 E.16817
G1 X157.964 Y130.961 E.16807
G1 X158.051 Y130.817 E.00528
;WIDTH:0.445381
G1 X158.488 Y130.6 E.01633
G1 X168.863 Y130.6 E.3472
G1 X169.259 Y130.774 E.01447
;WIDTH:0.419999
G1 X169.412 Y131.039 E.00959
G1 X169.429 Y131.179 E.00442
G1 X169.429 Y135.23 E.12702
G1 X170.438 Y136.351 E.04729
G1 X170.543 Y136.52 E.00624
G1 X170.583 Y136.729 E.00667
G1 X170.579 Y150.05 E.41767
M204 S1000
G1 X170.21 Y150.021 F10800
M204 S800
;TYPE:External perimeter
G1 F1200
G1 X170.155 Y150.154 E.00451
G1 X170.021 Y150.209 E.00454
G1 X156.727 Y150.206 E.41682
G1 X156.601 Y150.158 E.00423
G1 X155.371 Y149.052 E.05186
G1 X151.175 Y149.052 E.13156
G1 X151.04 Y148.996 E.00458
G1 X150.986 Y148.863 E.0045
G1 X150.986 Y138.488 E.3253
G1 X151.054 Y138.343 E.00502
G1 X156.202 Y136.202 E.17481
G1 X158.312 Y131.106 E.17294
G1 X158.488 Y130.99 E.00661
G1 X168.863 Y130.99 E.3253
G1 X169.031 Y131.093 E.00618
G1 X169.052 Y131.179 E.00278
G1 X169.052 Y135.375 E.13156
G1 X170.158 Y136.603 E.05182
G1 X170.206 Y136.729 E.00423
G1 X170.21 Y149.961 E.41488
M204 S1000
G1 X170.312 Y150.123 F10800
;WIPE_START
G1 F8640
G1 X170.155 Y150.154 E-.04634
G1 X170.021 Y150.209 E-.03345
G1 X166.902 Y150.208 E-.72021
;WIPE_END
G1 Z.6 F720
G1 X168.983 Y105.251 F10800
G1 Z.2 F720
G1 E.8 F2100
M204 S800
;TYPE:Perimeter
;WIDTH:0.44438
G1 F1200
G1 X169.26 Y105.373 E.0101
;WIDTH:0.419999
G1 X169.412 Y105.637 E.00955
G1 X169.429 Y105.777 E.00442
G1 X169.429 Y109.83 E.12708
G1 X170.438 Y110.951 E.04729
G1 X170.543 Y111.12 E.00624
G1 X170.583 Y111.329 E.00667
G1 X170.583 Y124.069 E.39945
G1 X170.543 Y124.278 E.00667
M73 P3 R55
G1 X170.438 Y124.447 E.00624
G1 X169.429 Y125.568 E.04729
G1 X169.429 Y129.619 E.12702
G1 X169.367 Y129.877 E.00832
G1 X169.259 Y130.024 E.00572
;WIDTH:0.445381
G1 X168.863 Y130.198 E.01447
G1 X158.487 Y130.198 E.34723
G1 X158.052 Y129.98 E.01628
;WIDTH:0.419999
G1 X157.963 Y129.831 E.00544
G1 X155.914 Y124.88 E.168
G1 X150.957 Y122.828 E.16821
G1 X150.812 Y122.74 E.00532
;WIDTH:0.443389
G1 X150.597 Y122.304 E.01619
G1 X150.597 Y113.088 E.30688
G1 X150.814 Y112.652 E.01622
;WIDTH:0.419999
G1 X150.958 Y112.565 E.00528
G1 X155.914 Y110.514 E.16817
G1 X157.965 Y105.56 E.16811
G1 X158.052 Y105.416 E.00528
;WIDTH:0.44438
G1 X158.488 Y105.199 E.01626
G1 X168.863 Y105.199 E.34633
G1 X168.928 Y105.227 E.00236
M204 S1000
G1 X168.863 Y105.588 F10800
M204 S800
;TYPE:External perimeter
;WIDTH:0.419999
G1 F1200
G1 X169.031 Y105.691 E.00618
G1 X169.052 Y105.777 E.00278
G1 X169.052 Y109.975 E.13163
G1 X170.158 Y111.203 E.05182
G1 X170.206 Y111.329 E.00423
G1 X170.206 Y124.069 E.39945
G1 X170.158 Y124.195 E.00423
G1 X169.052 Y125.423 E.05182
G1 X169.052 Y129.619 E.13156
G1 X168.995 Y129.754 E.00459
G1 X168.863 Y129.808 E.00447
G1 X158.488 Y129.808 E.3253
G1 X158.314 Y129.692 E.00656
G1 X156.202 Y124.592 E.17308
G1 X151.102 Y122.48 E.17308
G1 X150.987 Y122.322 E.00613
G1 X150.986 Y113.088 E.28953
G1 X151.102 Y112.914 E.00656
G1 X156.202 Y110.802 E.17308
G1 X158.314 Y105.704 E.17302
G1 X158.472 Y105.589 E.00613
G1 X168.803 Y105.588 E.32392
M204 S1000
G1 X169.016 Y105.463 F10800
;WIPE_START
G1 F8640
G1 X169.031 Y105.691 E-.05777
G1 X169.052 Y105.777 E-.02044
G1 X169.052 Y108.903 E-.72179
;WIPE_END
G1 Z.6 F720
G1 X169.41 Y104.3 F10800
G1 Z.2 F720
G1 E.8 F2100
M204 S800
;TYPE:Perimeter
G1 F1200
G1 X169.367 Y104.476 E.00568
G1 X169.26 Y104.623 E.0057
;WIDTH:0.44438
G1 X168.863 Y104.797 E.01447
G1 X158.488 Y104.797 E.34633
G1 X158.052 Y104.58 E.01626
;WIDTH:0.419999
G1 X157.965 Y104.436 E.00528
G1 X155.914 Y99.48 E.16817
G1 X150.961 Y97.428 E.1681
G1 X150.816 Y97.34 E.00532
;WIDTH:0.445388
G1 X150.6 Y96.904 E.01628
G1 X150.6 Y87.686 E.30848
G1 X150.818 Y87.25 E.01631
;WIDTH:0.419999
G1 X150.962 Y87.163 E.00528
G1 X155.916 Y85.112 E.16811
G1 X157.968 Y80.159 E.1681
G1 X158.055 Y80.015 E.00528
;WIDTH:0.444381
G1 X158.492 Y79.799 E.01627
G1 X168.863 Y79.799 E.3462
G1 X169.26 Y79.973 E.01447
;WIDTH:0.419999
G1 X169.412 Y80.237 E.00955
G1 X169.429 Y80.377 E.00442
G1 X169.429 Y84.43 E.12708
G1 X170.438 Y85.551 E.04729
G1 X170.543 Y85.72 E.00624
G1 X170.583 Y85.929 E.00667
G1 X170.583 Y98.669 E.39945
G1 X170.543 Y98.878 E.00667
G1 X170.438 Y99.047 E.00624
G1 X169.429 Y100.17 E.04734
G1 X169.424 Y104.242 E.12767
M204 S1000
G1 X169.052 Y104.219 F10800
M204 S800
;TYPE:External perimeter
G1 F1200
G1 X168.995 Y104.354 E.00459
G1 X168.863 Y104.408 E.00447
G1 X158.488 Y104.408 E.3253
G1 X158.343 Y104.34 E.00502
G1 X158.314 Y104.292 E.00176
G1 X156.202 Y99.192 E.17308
G1 X151.106 Y97.08 E.17296
G1 X150.991 Y96.922 E.00613
G1 X150.99 Y87.686 E.28959
G1 X151.107 Y87.512 E.00657
G1 X156.204 Y85.4 E.17299
G1 X158.316 Y80.304 E.17296
G1 X158.492 Y80.188 E.00661
G1 X168.863 Y80.188 E.32517
G1 X169.031 Y80.291 E.00618
G1 X169.052 Y80.377 E.00278
G1 X169.052 Y84.575 E.13163
G1 X170.158 Y85.803 E.05182
G1 X170.206 Y85.929 E.00423
G1 X170.206 Y98.669 E.39945
G1 X170.158 Y98.795 E.00423
G1 X169.052 Y100.025 E.05186
G1 X169.052 Y104.159 E.12962
M204 S1000
G1 X169.148 Y104.33 F10800
;WIPE_START
G1 F8640
G1 X168.995 Y104.354 E-.04691
G1 X168.863 Y104.408 E-.03293
G1 X165.744 Y104.408 E-.72016
;WIPE_END
G1 Z.6 F720
G1 X150.134 Y97.033 F10800
G1 Z.2 F720
G1 E.8 F2100
M204 S800
;TYPE:Perimeter
;WIDTH:0.445388
G1 F1200
G1 X149.981 Y97.339 E.01145
;WIDTH:0.419999
G1 X149.831 Y97.429 E.00548
G1 X144.88 Y99.48 E.16803
G1 X142.826 Y104.436 E.16821
G1 X142.739 Y104.58 E.00528
;WIDTH:0.44338
G1 X142.304 Y104.797 E.01619
G1 X133.086 Y104.797 E.30694
G1 X132.651 Y104.581 E.01617
;WIDTH:0.419999
G1 X132.563 Y104.436 E.00532
G1 X130.512 Y99.484 E.16806
G1 X125.557 Y97.432 E.16816
G1 X125.413 Y97.345 E.00528
;WIDTH:0.443389
G1 X125.197 Y96.908 E.01623
G1 X125.197 Y87.69 E.30695
;WIDTH:0.44339
G1 X125.412 Y87.255 E.01616
;WIDTH:0.419999
G1 X125.558 Y87.167 E.00534
G1 X130.514 Y85.116 E.16817
G1 X132.567 Y80.156 E.16831
G1 X132.655 Y80.012 E.00529
;WIDTH:0.444381
G1 X133.09 Y79.795 E.01623
G1 X142.306 Y79.795 E.30764
G1 X142.742 Y80.012 E.01626
;WIDTH:0.419999
G1 X142.829 Y80.156 E.00528
G1 X144.88 Y85.112 E.16817
G1 X149.836 Y87.163 E.16817
G1 X149.98 Y87.25 E.00528
;WIDTH:0.445388
G1 X150.198 Y87.686 E.01631
G1 X150.198 Y96.905 E.30852
G1 X150.161 Y96.979 E.00277
M204 S1000
G1 X149.808 Y96.904 F10800
M204 S800
;TYPE:External perimeter
;WIDTH:0.419999
G1 F1200
G1 X149.74 Y97.049 E.00502
G1 X149.687 Y97.08 E.00193
G1 X144.592 Y99.192 E.17293
G1 X142.478 Y104.292 E.1731
G1 X142.304 Y104.408 E.00656
G1 X133.086 Y104.408 E.28902
G1 X132.941 Y104.34 E.00502
G1 X132.912 Y104.292 E.00176
G1 X130.8 Y99.196 E.17296
G1 X125.702 Y97.084 E.17302
G1 X125.587 Y96.926 E.00613
G1 X125.586 Y87.69 E.28959
G1 X125.702 Y87.516 E.00656
G1 X130.802 Y85.404 E.17308
G1 X132.916 Y80.3 E.17322
G1 X133.073 Y80.185 E.0061
G1 X142.306 Y80.184 E.28949
G1 X142.48 Y80.3 E.00656
G1 X144.592 Y85.4 E.17308
G1 X149.692 Y87.512 E.17308
G1 X149.808 Y87.686 E.00656
G1 X149.808 Y96.844 E.28714
M204 S1000
G1 X149.918 Y97.021 F10800
;WIPE_START
G1 F8640
G1 X149.74 Y97.049 E-.04987
