; generated by PrusaSlicer 2.8.0 on 2024-09-21 at 14:29:22 UTC

; 

; external perimeters extrusion width = 0.60mm
; perimeters extrusion width = 0.43mm
; infill extrusion width = 0.45mm
; solid infill extrusion width = 0.70mm
; top infill extrusion width = 0.45mm
; first layer extrusion width = 0.42mm

M73 P0 R58
M201 X9000 Y9000 Z500 E10000 ; sets maximum accelerations, mm/sec^2
M203 X500 Y500 Z12 E120 ; sets maximum feedrates, mm / sec
M204 S2000 T1500 ; sets acceleration (S) and retract acceleration (R), mm/sec^2
M205 X10.00 Y10.00 Z0.20 E4.50 ; sets the jerk limits, mm/sec
M205 S0 T0 ; sets the minimum extruding and travel feed rate, mm/sec

; printing object U - AxoBlock Frame.stl id:0 copy 0
; stop printing object U - AxoBlock Frame.stl id:0 copy 0

;TYPE:Custom
M862.3 P "MK2.5" ; printer model check
M862.1 P0.4 ; nozzle diameter check
M115 U3.11.0 ; tell printer latest fw version
G90 ; use absolute coordinates
M83 ; extruder relative mode
M104 S215 ; set extruder temp
M140 S60 ; set bed temp
M190 S60 ; wait for bed temp
M109 S215 ; wait for extruder temp
G28 W ; home all without mesh bed level
G80 ; mesh bed leveling

G1 Z0.2 F720
G1 Y-3 F1000 ; go outside print area
G92 E0
G1 X60 E9 F1000 ; intro line
G1 X100 E12.5 F1000 ; intro line

G92 E0
G21 ; set units to millimeters
G90 ; use absolute coordinates
M83 ; use relative distances for extrusion
M900 K0.05 ; Filament gcode LA 1.5
M900 K30 ; Filament gcode LA 1.0
M107
;LAYER_CHANGE
;Z:0.2
;HEIGHT:0.2
G1 E-.8 F2100
G1 Z.6 F720
G1 X72.402 Y52.952 F10800
G1 Z.2 F720
G1 E.8 F2100
M204 S800
;TYPE:Skirt/Brim
;WIDTH:0.42
G1 F1200
G1 X73.435 Y52.149 E.04102
G1 X74.2 Y52.011 E.02437
G1 X175.797 Y52.011 E3.1855
G1 X177.045 Y52.402 E.04101
G1 X177.848 Y53.435 E.04102
G1 X177.986 Y54.2 E.02437
G1 X177.986 Y155.797 E3.1855
G1 X177.595 Y157.045 E.04101
G1 X176.562 Y157.848 E.04102
G1 X175.797 Y157.986 E.02437
G1 X74.2 Y157.986 E3.1855
G1 X72.952 Y157.595 E.04101
G1 X72.149 Y156.561 E.04105
M73 P0 R57
G1 X72.011 Y155.797 E.02434
G1 X72.011 Y54.2 E3.1855
G1 X72.384 Y53.009 E.03913
M204 S1000
;WIPE_START
G1 F8640
G1 X72.402 Y52.952 E-.0138
G1 X73.435 Y52.149 E-.30211
G1 X74.2 Y52.011 E-.17949
G1 X75.519 Y52.011 E-.3046
;WIPE_END
G1 Z.6 F720
; printing object U - AxoBlock Frame.stl id:0 copy 0
G1 X99.198 Y149.278 F10800
G1 Z.2 F720
G1 E.8 F2100
M204 S800
;TYPE:Perimeter
;WIDTH:0.419999
G1 F1200
G1 X98.959 Y149.416 E.00865
G1 X98.819 Y149.433 E.00442
G1 X94.766 Y149.433 E.12708
G1 X93.648 Y150.442 E.04722
G1 X93.367 Y150.579 E.0098
G1 X93.269 Y150.587 E.00308
G1 X79.978 Y150.586 E.41673
G1 X79.688 Y150.506 E.00943
G1 X79.493 Y150.311 E.00865
G1 X79.413 Y150.02 E.00946
G1 X79.413 Y136.727 E.41679
G1 X79.453 Y136.518 E.00667
G1 X79.558 Y136.349 E.00624
G1 X80.563 Y135.23 E.04716
G1 X80.563 Y131.181 E.12695
G1 X80.625 Y130.923 E.00832
G1 X80.733 Y130.776 E.00572
;WIDTH:0.444379
G1 X81.129 Y130.603 E.01443
G1 X91.504 Y130.603 E.34633
G1 X91.938 Y130.818 E.01617
;WIDTH:0.419999
G1 X92.027 Y130.964 E.00536
G1 X94.078 Y135.917 E.16809
G1 X99.036 Y137.969 E.16824
G1 X99.18 Y138.056 E.00528
;WIDTH:0.444381
G1 X99.397 Y138.492 E.01626
G1 X99.397 Y148.867 E.34633
G1 X99.236 Y149.235 E.01341
M204 S1000
G1 X99.236 Y149.235 F10800
G1 X98.921 Y149.014
M204 S800
;TYPE:External perimeter
;WIDTH:0.419999
G1 F1200
G1 X98.819 Y149.056 E.00346
G1 X94.622 Y149.056 E.13159
G1 X93.395 Y150.161 E.05177
G1 X93.269 Y150.21 E.00424
G1 X79.979 Y150.209 E.4167
G1 X79.845 Y150.154 E.00454
G1 X79.79 Y150.02 E.00454
G1 X79.79 Y136.727 E.41679
G1 X79.838 Y136.601 E.00423
G1 X80.94 Y135.375 E.05169
G1 X80.94 Y131.181 E.1315
G1 X80.997 Y131.046 E.00459
G1 X81.129 Y130.992 E.00447
G1 X91.504 Y130.992 E.3253
G1 X91.678 Y131.108 E.00656
M73 P1 R57
G1 X93.79 Y136.206 E.17302
G1 X98.892 Y138.318 E.17313
G1 X99.008 Y138.492 E.00656
G1 X99.008 Y148.867 E.3253
G1 X98.963 Y148.978 E.00376
M204 S1000
;WIPE_START
G1 F8640
G1 X98.921 Y149.014 E-.01277
G1 X98.819 Y149.056 E-.02547
G1 X95.52 Y149.056 E-.76176
;WIPE_END
G1 Z.6 F720
G1 X149.998 Y149.274 F10800
G1 Z.2 F720
G1 E.8 F2100
M204 S800
;TYPE:Perimeter
G1 F1200
G1 X149.759 Y149.412 E.00865
G1 X149.619 Y149.429 E.00442
G1 X145.568 Y149.429 E.12702
G1 X144.445 Y150.438 E.04734
G1 X144.165 Y150.575 E.00977
G1 X144.067 Y150.583 E.00308
G1 X131.323 Y150.587 E.39958
G1 X131.113 Y150.547 E.0067
G1 X130.944 Y150.442 E.00624
G1 X129.826 Y149.433 E.04722
G1 X125.775 Y149.433 E.12702
G1 X125.517 Y149.371 E.00832
G1 X125.37 Y149.263 E.00572
;WIDTH:0.445388
G1 X125.196 Y148.867 E.01448
G1 X125.196 Y138.492 E.3472
G1 X125.414 Y138.056 E.01631
;WIDTH:0.419999
G1 X125.558 Y137.969 E.00528
G1 X130.512 Y135.918 E.16811
G1 X131.655 Y133.157 E.09369
G1 X132.565 Y130.958 E.07462
G1 X132.652 Y130.814 E.00528
;WIDTH:0.443382
G1 X133.088 Y130.597 E.01622
G1 X142.304 Y130.597 E.30688
G1 X142.739 Y130.814 E.01619
;WIDTH:0.419999
G1 X142.826 Y130.958 E.00528
G1 X144.88 Y135.914 E.16821
G1 X149.836 Y137.968 E.16821
G1 X149.981 Y138.055 E.0053
;WIDTH:0.443389
G1 X150.197 Y138.49 E.01617
G1 X150.197 Y148.863 E.34541
G1 X150.035 Y149.231 E.01339
M204 S1000
G1 X150.035 Y149.231 F10800
G1 X149.72 Y149.01
M204 S800
;TYPE:External perimeter
;WIDTH:0.419999
G1 F1200
G1 X149.619 Y149.052 E.00343
G1 X145.423 Y149.052 E.13156
G1 X144.193 Y150.158 E.05186
G1 X144.067 Y150.206 E.00423
G1 X131.323 Y150.21 E.39958
G1 X131.197 Y150.161 E.00424
G1 X129.97 Y149.056 E.05177
G1 X125.775 Y149.056 E.13153
G1 X125.64 Y148.999 E.00459
G1 X125.586 Y148.867 E.00447
G1 X125.586 Y138.492 E.3253
G1 X125.703 Y138.318 E.00657
G1 X130.8 Y136.206 E.17299
G1 X132.003 Y133.302 E.09856
G1 X132.914 Y131.102 E.07466
G1 X133.071 Y130.987 E.0061
G1 X142.304 Y130.986 E.28949
G1 X142.478 Y131.102 E.00656
G1 X144.592 Y136.202 E.1731
G1 X149.692 Y138.316 E.1731
G1 X149.808 Y138.49 E.00656
G1 X149.808 Y148.863 E.32524
G1 X149.763 Y148.974 E.00376
M204 S1000
;WIPE_START
G1 F8640
G1 X149.72 Y149.01 E-.01295
G1 X149.619 Y149.052 E-.02526
G1 X146.32 Y149.052 E-.76179
;WIPE_END
G1 Z.6 F720
G1 X169.234 Y130.035 F10800
G1 Z.2 F720
G1 E.8 F2100
M204 S800
;TYPE:Perimeter
;WIDTH:0.445381
G1 F1200
G1 X168.863 Y130.198 E.01356
G1 X158.487 Y130.198 E.34723
G1 X158.052 Y129.98 E.01628
;WIDTH:0.419999
G1 X157.963 Y129.831 E.00544
G1 X155.914 Y124.88 E.168
G1 X150.957 Y122.828 E.16821
G1 X150.812 Y122.74 E.00532
;WIDTH:0.443389
G1 X150.597 Y122.304 E.01619
G1 X150.597 Y113.088 E.30688
G1 X150.814 Y112.652 E.01622
;WIDTH:0.419999
G1 X150.958 Y112.565 E.00528
G1 X155.914 Y110.514 E.16817
G1 X157.965 Y105.56 E.16811
G1 X158.052 Y105.416 E.00528
;WIDTH:0.44438
G1 X158.488 Y105.199 E.01626
G1 X168.863 Y105.199 E.34633
G1 X169.26 Y105.373 E.01447
;WIDTH:0.419999
G1 X169.412 Y105.637 E.00955
G1 X169.429 Y105.777 E.00442
G1 X169.429 Y109.83 E.12708
G1 X170.438 Y110.951 E.04729
G1 X170.543 Y111.12 E.00624
G1 X170.583 Y111.329 E.00667
G1 X170.583 Y124.069 E.39945
G1 X170.543 Y124.278 E.00667
G1 X170.438 Y124.447 E.00624
G1 X169.429 Y125.568 E.04729
G1 X169.429 Y129.619 E.12702
G1 X169.367 Y129.877 E.00832
G1 X169.278 Y129.998 E.00471
M204 S1000
G1 X169.278 Y129.998 F10800
G1 X169.01 Y129.721
M204 S800
;TYPE:External perimeter
G1 F1200
G1 X168.995 Y129.754 E.00114
G1 X168.863 Y129.808 E.00447
G1 X158.488 Y129.808 E.3253
G1 X158.314 Y129.692 E.00656
G1 X156.202 Y124.592 E.17308
G1 X151.102 Y122.48 E.17308
G1 X150.987 Y122.322 E.00613
G1 X150.986 Y113.088 E.28953
G1 X151.102 Y112.914 E.00656
G1 X156.202 Y110.802 E.17308
G1 X158.314 Y105.704 E.17302
G1 X158.472 Y105.589 E.00613
G1 X168.863 Y105.588 E.3258
G1 X169.031 Y105.691 E.00618
G1 X169.046 Y105.73 E.00131
G1 X169.052 Y109.975 E.1331
G1 X170.158 Y111.203 E.05182
G1 X170.206 Y111.329 E.00423
G1 X170.206 Y124.069 E.39945
G1 X170.158 Y124.195 E.00423
G1 X169.052 Y125.423 E.05182
G1 X169.052 Y129.619 E.13156
G1 X169.033 Y129.665 E.00156
M204 S1000
;WIPE_START
G1 F8640
G1 X169.01 Y129.721 E-.01398
G1 X168.995 Y129.754 E-.00837
G1 X168.863 Y129.808 E-.03293
G1 X165.638 Y129.808 E-.74472
;WIPE_END
G1 Z.6 F720
G1 X169.234 Y104.635 F10800
G1 Z.2 F720
G1 E.8 F2100
M204 S800
;TYPE:Perimeter
;WIDTH:0.44438
G1 F1200
G1 X168.863 Y104.797 E.01351
G1 X158.488 Y104.797 E.34633
G1 X158.052 Y104.58 E.01626
;WIDTH:0.419999
G1 X157.965 Y104.436 E.00528
G1 X155.914 Y99.48 E.16817
G1 X150.961 Y97.428 E.1681
G1 X150.816 Y97.34 E.00532
;WIDTH:0.448365
G1 X150.601 Y96.956 E.01484
G1 X150.6 Y96.904 E.00175
;WIDTH:0.445388
G1 X150.6 Y87.686 E.30848
G1 X150.818 Y87.25 E.01631
;WIDTH:0.419999
G1 X150.962 Y87.163 E.00528
G1 X155.916 Y85.112 E.16811
G1 X157.968 Y80.159 E.1681
G1 X158.055 Y80.015 E.00528
;WIDTH:0.444381
G1 X158.492 Y79.799 E.01627
G1 X168.863 Y79.799 E.3462
G1 X169.26 Y79.973 E.01447
;WIDTH:0.419999
G1 X169.412 Y80.237 E.00955
G1 X169.429 Y80.377 E.00442
G1 X169.429 Y84.43 E.12708
G1 X170.438 Y85.551 E.04729
G1 X170.543 Y85.72 E.00624
G1 X170.583 Y85.929 E.00667
G1 X170.583 Y98.669 E.39945
G1 X170.543 Y98.878 E.00667
G1 X170.438 Y99.047 E.00624
G1 X169.429 Y100.17 E.04734
G1 X169.429 Y104.219 E.12695
G1 X169.367 Y104.476 E.00829
G1 X169.278 Y104.598 E.00473
M204 S1000
G1 X169.278 Y104.598 F10800
G1 X169.01 Y104.321
M204 S800
;TYPE:External perimeter
G1 F1200
G1 X168.995 Y104.354 E.00114
G1 X168.863 Y104.408 E.00447
G1 X158.488 Y104.408 E.3253
G1 X158.343 Y104.34 E.00502
G1 X158.314 Y104.292 E.00176
G1 X156.202 Y99.192 E.17308
G1 X151.106 Y97.08 E.17296
G1 X150.991 Y96.922 E.00613
G1 X150.99 Y87.686 E.28959
G1 X151.107 Y87.512 E.00657
G1 X156.204 Y85.4 E.17299
G1 X158.316 Y80.304 E.17296
G1 X158.492 Y80.188 E.00661
G1 X168.863 Y80.188 E.32517
G1 X169.031 Y80.291 E.00618
G1 X169.052 Y80.377 E.00278
G1 X169.052 Y84.575 E.13163
G1 X170.158 Y85.803 E.05182
G1 X170.206 Y85.929 E.00423
G1 X170.206 Y98.669 E.39945
G1 X170.158 Y98.795 E.00423
G1 X169.052 Y100.025 E.05186
G1 X169.052 Y104.219 E.1315
G1 X169.033 Y104.265 E.00156
M204 S1000
;WIPE_START
G1 F8640
G1 X169.01 Y104.321 E-.01398
G1 X168.995 Y104.354 E-.00837
G1 X168.863 Y104.408 E-.03293
G1 X165.638 Y104.408 E-.74472
;WIPE_END
G1 Z.6 F720
G1 X150.054 Y97.193 F10800
G1 Z.2 F720
G1 E.8 F2100
M204 S800
;TYPE:Perimeter
;WIDTH:0.445388
G1 F1200
G1 X149.981 Y97.339 E.00546
;WIDTH:0.419999
G1 X149.831 Y97.429 E.00548
G1 X144.88 Y99.48 E.16803
G1 X142.826 Y104.436 E.16821
G1 X142.739 Y104.58 E.00528
;WIDTH:0.44338
G1 X142.304 Y104.797 E.01619
G1 X133.086 Y104.797 E.30694
G1 X132.651 Y104.581 E.01617
;WIDTH:0.419999
G1 X132.563 Y104.436 E.00532
G1 X130.512 Y99.484 E.16806
G1 X125.557 Y97.432 E.16816
G1 X125.413 Y97.345 E.00528
;WIDTH:0.443389
G1 X125.197 Y96.908 E.01623
G1 X125.197 Y87.69 E.30695
G1 X125.412 Y87.255 E.01616
;WIDTH:0.419999
G1 X125.558 Y87.167 E.00534
G1 X130.514 Y85.116 E.16817
G1 X132.567 Y80.156 E.16831
G1 X132.655 Y80.012 E.00529
;WIDTH:0.444381
G1 X133.09 Y79.795 E.01623
G1 X142.306 Y79.795 E.30764
G1 X142.742 Y80.012 E.01626
;WIDTH:0.419999
G1 X142.829 Y80.156 E.00528
G1 X144.88 Y85.112 E.16817
G1 X149.836 Y87.163 E.16817
G1 X149.98 Y87.25 E.00528
;WIDTH:0.445388
G1 X150.198 Y87.686 E.01631
G1 X150.198 Y96.905 E.30852
G1 X150.081 Y97.139 E.00876
M204 S1000
G1 X150.081 Y97.139 F10800
G1 X149.765 Y96.996
M204 S800
;TYPE:External perimeter
;WIDTH:0.419999
G1 F1200
G1 X149.74 Y97.049 E.00184
G1 X149.687 Y97.08 E.00193
G1 X144.592 Y99.192 E.17293
G1 X142.478 Y104.292 E.1731
G1 X142.304 Y104.408 E.00656
G1 X133.086 Y104.408 E.28902
G1 X132.941 Y104.34 E.00502
G1 X132.912 Y104.292 E.00176
G1 X130.8 Y99.196 E.17296
G1 X125.702 Y97.084 E.17302
G1 X125.587 Y96.926 E.00613
G1 X125.586 Y87.69 E.28959
G1 X125.702 Y87.516 E.00656
G1 X130.802 Y85.404 E.17308
G1 X132.916 Y80.3 E.17322
G1 X133.073 Y80.185 E.0061
G1 X142.306 Y80.184 E.28949
G1 X142.48 Y80.3 E.00656
G1 X144.592 Y85.4 E.17308
G1 X149.692 Y87.512 E.17308
M73 P2 R57
G1 X149.808 Y87.686 E.00656
G1 X149.808 Y96.904 E.28902
G1 X149.79 Y96.942 E.00132
M204 S1000
;WIPE_START
G1 F8640
G1 X149.765 Y96.996 E-.01374
G1 X149.74 Y97.049 E-.01353
G1 X149.687 Y97.08 E-.01418
G1 X146.652 Y98.338 E-.75855
;WIPE_END
G1 Z.6 F720
G1 X79.591 Y59.59 F10800
G1 Z.2 F720
G1 E.8 F2100
M204 S800
;TYPE:Perimeter
G1 F1200
G1 X79.688 Y59.493 E.0043
G1 X79.979 Y59.412 E.00947
G1 X93.269 Y59.413 E.4167
G1 X93.478 Y59.453 E.00667
G1 X93.647 Y59.558 E.00624
G1 X94.77 Y60.567 E.04734
G1 X98.819 Y60.567 E.12695
G1 X99.076 Y60.629 E.00829
G1 X99.223 Y60.737 E.00572
;WIDTH:0.444381
G1 X99.397 Y61.133 E.01444
G1 X99.397 Y71.506 E.34627
G1 X99.181 Y71.941 E.01621
;WIDTH:0.419999
G1 X99.036 Y72.029 E.00532
G1 X94.082 Y74.082 E.16814
G1 X92.028 Y79.036 E.16815
G1 X91.941 Y79.181 E.0053
;WIDTH:0.444381
G1 X91.506 Y79.397 E.01621
G1 X81.133 Y79.397 E.34627
G1 X80.737 Y79.223 E.01444
;WIDTH:0.419999
G1 X80.597 Y79.002 E.0082
G1 X80.567 Y78.819 E.00581
G1 X80.567 Y74.77 E.12695
G1 X79.558 Y73.647 E.04734
G1 X79.421 Y73.367 E.00977
G1 X79.413 Y73.269 E.00308
G1 X79.413 Y59.978 E.41673
G1 X79.493 Y59.688 E.00943
G1 X79.548 Y59.632 E.00246
M204 S1000
G1 X79.548 Y59.632 F10800
G1 X79.878 Y59.831
M204 S800
;TYPE:External perimeter
G1 F1200
G1 X79.979 Y59.789 E.00343
G1 X93.269 Y59.79 E.4167
G1 X93.395 Y59.838 E.00423
G1 X94.625 Y60.944 E.05186
G1 X98.819 Y60.944 E.1315
G1 X98.954 Y61.001 E.00459
G1 X99.008 Y61.133 E.00447
G1 X99.008 Y71.506 E.32524
G1 X98.94 Y71.651 E.00502
G1 X98.891 Y71.68 E.00179
G1 X93.794 Y73.794 E.17301
G1 X91.68 Y78.892 E.17304
G1 X91.506 Y79.008 E.00656
G1 X81.133 Y79.008 E.32524
G1 X81.001 Y78.954 E.00447
G1 X80.954 Y78.88 E.00275
G1 X80.944 Y74.625 E.13341
G1 X79.838 Y73.395 E.05186
G1 X79.79 Y73.269 E.00423
G1 X79.79 Y59.978 E.41673
G1 X79.836 Y59.868 E.00374
M204 S1000
;WIPE_START
G1 F8640
G1 X79.878 Y59.831 E-.01292
G1 X79.979 Y59.789 E-.02526
G1 X83.278 Y59.789 E-.76182
;WIPE_END
G1 Z.6 F720
G1 X125.396 Y60.722 F10800
G1 Z.2 F720
G1 E.8 F2100
M204 S800
;TYPE:Perimeter
G1 F1200
G1 X125.635 Y60.584 E.00865
G1 X125.775 Y60.567 E.00442
G1 X129.826 Y60.567 E.12702
G1 X130.949 Y59.558 E.04734
G1 X131.229 Y59.421 E.00977
G1 X131.327 Y59.413 E.00308
G1 X144.067 Y59.413 E.39945
G1 X144.276 Y59.453 E.00667
G1 X144.445 Y59.558 E.00624
G1 X145.568 Y60.567 E.04734
G1 X149.619 Y60.567 E.12702
G1 X149.877 Y60.629 E.00832
G1 X150.024 Y60.737 E.00572
;WIDTH:0.445388
G1 X150.198 Y61.133 E.01448
G1 X150.198 Y71.502 E.347
G1 X149.98 Y71.938 E.01631
;WIDTH:0.419999
G1 X149.836 Y72.025 E.00528
G1 X144.88 Y74.076 E.16817
G1 X142.829 Y79.032 E.16817
G1 X142.742 Y79.176 E.00528
;WIDTH:0.444381
G1 X142.306 Y79.393 E.01626
G1 X133.09 Y79.393 E.30764
G1 X132.652 Y79.179 E.01627
;WIDTH:0.419999
G1 X132.563 Y79.032 E.00539
G1 X130.514 Y74.082 E.16797
G1 X125.558 Y72.028 E.16821
M73 P2 R56
G1 X125.414 Y71.941 E.00528
;WIDTH:0.443389
G1 X125.197 Y71.506 E.01619
G1 X125.197 Y61.133 E.34541
G1 X125.358 Y60.765 E.01338
M204 S1000
G1 X125.358 Y60.765 F10800
G1 X125.649 Y61.029
M204 S800
;TYPE:External perimeter
;WIDTH:0.419999
G1 F1200
G1 X125.689 Y60.965 E.00237
G1 X125.775 Y60.944 E.00278
G1 X129.971 Y60.944 E.13156
G1 X131.201 Y59.838 E.05186
G1 X131.327 Y59.79 E.00423
G1 X144.067 Y59.79 E.39945
G1 X144.193 Y59.838 E.00423
G1 X145.423 Y60.944 E.05186
G1 X149.619 Y60.944 E.13156
G1 X149.754 Y61.001 E.00459
G1 X149.808 Y61.133 E.00447
G1 X149.808 Y71.502 E.32511
G1 X149.74 Y71.647 E.00502
G1 X144.592 Y73.788 E.17481
G1 X142.48 Y78.888 E.17308
G1 X142.306 Y79.004 E.00656
G1 X133.09 Y79.004 E.28896
G1 X132.941 Y78.937 E.00512
G1 X132.912 Y78.888 E.00179
G1 X130.802 Y73.794 E.17288
G1 X125.702 Y71.68 E.1731
G1 X125.587 Y71.522 E.00613
G1 X125.586 Y61.133 E.32574
G1 X125.618 Y61.08 E.00194
M204 S1000
;WIPE_START
G1 F8640
G1 X125.649 Y61.029 E-.01378
G1 X125.689 Y60.965 E-.01743
G1 X125.775 Y60.944 E-.02044
G1 X129.016 Y60.944 E-.74835
;WIPE_END
G1 Z.6 F720
G1 X124.65 Y122.597 F10800
G1 Z.2 F720
G1 E.8 F2100
M204 S800
;TYPE:Perimeter
;WIDTH:0.445388
G1 F1200
G1 X124.577 Y122.743 E.00546
;WIDTH:0.419999
G1 X124.427 Y122.833 E.00548
G1 X119.476 Y124.884 E.16803
G1 X117.425 Y129.84 E.16817
G1 X117.338 Y129.984 E.00528
;WIDTH:0.444379
G1 X116.902 Y130.201 E.01626
G1 X107.688 Y130.201 E.30758
G1 X107.252 Y129.984 E.01626
;WIDTH:0.419999
