; generated by PrusaSlicer 2.8.0 on 2024-09-21 at 14:29:28 UTC

; 

; external perimeters extrusion width = 0.60mm
; perimeters extrusion width = 0.43mm
; infill extrusion width = 0.45mm
; solid infill extrusion width = 0.70mm
; top infill extrusion width = 0.45mm
; first layer extrusion width = 0.42mm

M73 P0 R48
M201 X9000 Y9000 Z500 E10000 ; sets maximum accelerations, mm/sec^2
M203 X500 Y500 Z12 E120 ; sets maximum feedrates, mm / sec
M204 S2000 T1500 ; sets acceleration (S) and retract acceleration (R), mm/sec^2
M205 X10.00 Y10.00 Z0.20 E4.50 ; sets the jerk limits, mm/sec
M205 S0 T0 ; sets the minimum extruding and travel feed rate, mm/sec

; printing object U - AxoBlock Frame insert.stl id:0 copy 0
; stop printing object U - AxoBlock Frame insert.stl id:0 copy 0

;TYPE:Custom
M862.3 P "MK2.5" ; printer model check
M862.1 P0.4 ; nozzle diameter check
M115 U3.11.0 ; tell printer latest fw version
G90 ; use absolute coordinates
M83 ; extruder relative mode
M104 S215 ; set extruder temp
M140 S60 ; set bed temp
M190 S60 ; wait for bed temp
M109 S215 ; wait for extruder temp
G28 W ; home all without mesh bed level
G80 ; mesh bed leveling

G1 Z0.2 F720
G1 Y-3 F1000 ; go outside print area
G92 E0
G1 X60 E9 F1000 ; intro line
G1 X100 E12.5 F1000 ; intro line

G92 E0
G21 ; set units to millimeters
G90 ; use absolute coordinates
M83 ; use relative distances for extrusion
M900 K0.05 ; Filament gcode LA 1.5
M900 K30 ; Filament gcode LA 1.0
M107
;LAYER_CHANGE
;Z:0.2
;HEIGHT:0.2
G1 E-.8 F2100
G1 Z.6 F720
G1 X72.463 Y52.896 F10800
G1 Z.2 F720
G1 E.8 F2100
M204 S800
;TYPE:Skirt/Brim
;WIDTH:0.42
G1 F1200
G1 X73.521 Y52.126 E.04103
G1 X74.22 Y52.011 E.02221
G1 X175.78 Y52.011 E3.18434
G1 X177.028 Y52.402 E.04101
G1 X177.83 Y53.435 E.041
G1 X177.968 Y54.2 E.02437
G1 X177.968 Y155.759 E3.18431
G1 X177.577 Y157.008 E.04104
M73 P0 R47
G1 X176.544 Y157.81 E.041
G1 X175.782 Y157.948 E.02428
G1 X74.216 Y157.948 E3.18453
G1 X72.968 Y157.554 E.04103
G1 X72.168 Y156.52 E.04099
G1 X72.032 Y155.76 E.02421
G1 X72.001 Y55.16 E3.15424
G1 X72.033 Y54.131 E.03228
G1 X72.443 Y52.952 E.03914
M204 S1000
;WIPE_START
G1 F8640
G1 X72.463 Y52.896 E-.01373
G1 X73.521 Y52.126 E-.30214
G1 X74.22 Y52.011 E-.16357
G1 X75.608 Y52.011 E-.32056
;WIPE_END
G1 Z.6 F720
; printing object U - AxoBlock Frame insert.stl id:0 copy 0
G1 X125.628 Y148.929 F10800
G1 Z.2 F720
G1 E.8 F2100
M204 S800
;TYPE:External perimeter
;WIDTH:0.42
G1 F1200
G1 X125.586 Y148.828 E.00343
G1 X125.586 Y138.461 E.32505
G1 X125.702 Y138.287 E.00656
M73 P1 R47
G1 X130.802 Y136.182 E.17299
G1 X132.502 Y132.073 E.13943
G1 X132.953 Y131.133 E.03269
G1 X133.123 Y131.03 E.00623
G1 X142.284 Y131.031 E.28724
G1 X142.447 Y131.133 E.00603
G1 X142.894 Y132.063 E.03235
G1 X144.598 Y136.182 E.13976
G1 X149.698 Y138.287 E.17299
G1 X149.814 Y138.461 E.00656
G1 X149.814 Y148.828 E.32505
G1 X149.759 Y148.962 E.00454
G1 X149.626 Y149.017 E.00451
G1 X145.421 Y149.017 E.13184
G1 X144.215 Y150.144 E.05175
G1 X144.087 Y150.195 E.00432
G1 X131.313 Y150.195 E.40052
G1 X131.185 Y150.144 E.00432
G1 X129.979 Y149.017 E.05175
G1 X125.774 Y149.017 E.13184
G1 X125.664 Y148.971 E.00374
M204 S1000
;WIPE_START
G1 F8640
G1 X125.628 Y148.929 E-.01277
G1 X125.586 Y148.828 E-.02526
G1 X125.586 Y145.528 E-.76197
;WIPE_END
G1 Z.6 F720
G1 X170.415 Y150.395 F10800
G1 Z.2 F720
G1 E.8 F2100
M204 S800
;TYPE:Perimeter
;WIDTH:0.419999
G1 F1200
G1 X170.317 Y150.492 E.00432
G1 X170.027 Y150.572 E.00943
G1 X156.713 Y150.572 E.41745
G1 X156.435 Y150.499 E.00901
G1 X155.23 Y149.394 E.05126
G1 X151.174 Y149.394 E.12717
G1 X150.922 Y149.334 E.00812
G1 X150.775 Y149.229 E.00566
;WIDTH:0.440045
G1 X150.599 Y148.828 E.01446
G1 X150.599 Y138.461 E.34233
G1 X150.814 Y138.025 E.01605
;WIDTH:0.419999
G1 X151.698 Y137.633 E.03032
G1 X155.914 Y135.893 E.14301
G1 X157.959 Y130.938 E.16807
G1 X158.045 Y130.794 E.00526
;WIDTH:0.443019
G1 X158.431 Y130.579 E.0147
G1 X158.481 Y130.578 E.00166
;WIDTH:0.440062
G1 X168.849 Y130.578 E.34238
G1 X169.25 Y130.755 E.01447
;WIDTH:0.419999
G1 X169.397 Y131.017 E.00942
G1 X169.414 Y131.154 E.00433
G1 X169.414 Y135.21 E.12717
G1 X170.44 Y136.307 E.04709
G1 X170.573 Y136.547 E.0086
G1 X170.593 Y136.693 E.00462
G1 X170.593 Y150.007 E.41745
G1 X170.513 Y150.297 E.00943
G1 X170.457 Y150.352 E.00246
M204 S1000
G1 X170.457 Y150.352 F10800
G1 X170.174 Y150.108
M204 S800
;TYPE:External perimeter
G1 F1200
G1 X170.16 Y150.14 E.0011
G1 X170.027 Y150.195 E.00451
G1 X156.713 Y150.195 E.41745
G1 X156.585 Y150.144 E.00432
G1 X155.379 Y149.017 E.05175
G1 X151.174 Y149.017 E.13184
G1 X151.041 Y148.962 E.00451
G1 X150.986 Y148.828 E.00454
G1 X150.986 Y138.461 E.32505
G1 X151.102 Y138.287 E.00656
G1 X156.202 Y136.182 E.17299
G1 X158.307 Y131.082 E.17299
G1 X158.465 Y130.966 E.00615
G1 X168.849 Y130.965 E.32558
G1 X169.017 Y131.07 E.00621
G1 X169.037 Y131.154 E.00271
G1 X169.037 Y135.359 E.13184
G1 X170.165 Y136.564 E.05175
G1 X170.216 Y136.693 E.00435
G1 X170.216 Y150.007 E.41745
G1 X170.197 Y150.052 E.00153
M204 S1000
;WIPE_START
G1 F8640
G1 X170.174 Y150.108 E-.01398
G1 X170.16 Y150.14 E-.00807
G1 X170.027 Y150.195 E-.03323
G1 X166.802 Y150.195 E-.74472
;WIPE_END
G1 Z.6 F720
G1 X168.949 Y129.752 F10800
G1 Z.2 F720
G1 E.8 F2100
M204 S800
G1 F1200
G1 X168.849 Y129.794 E.0034
G1 X158.481 Y129.794 E.32508
G1 X158.336 Y129.725 E.00503
G1 X156.202 Y124.577 E.17473
G1 X152.093 Y122.879 E.1394
G1 X151.145 Y122.434 E.03284
G1 X151.04 Y122.264 E.00626
G1 X151.04 Y113.088 E.28771
G1 X151.145 Y112.925 E.00608
G1 X152.085 Y112.484 E.03256
G1 X156.202 Y110.782 E.13968
G1 X158.307 Y105.682 E.17299
G1 X158.481 Y105.565 E.00657
G1 X168.849 Y105.565 E.32508
G1 X169.017 Y105.67 E.00621
G1 X169.037 Y105.754 E.00271
G1 X169.037 Y109.959 E.13184
G1 X170.165 Y111.164 E.05175
G1 X170.216 Y111.293 E.00435
G1 X170.216 Y124.066 E.40049
G1 X170.165 Y124.195 E.00435
G1 X169.037 Y125.401 E.05178
G1 X169.037 Y129.605 E.13181
G1 X168.992 Y129.716 E.00376
M204 S1000
;WIPE_START
G1 F8640
G1 X168.949 Y129.752 E-.01295
G1 X168.849 Y129.794 E-.02504
G1 X165.549 Y129.794 E-.76201
;WIPE_END
G1 Z.6 F720
G1 X168.949 Y104.352 F10800
G1 Z.2 F720
G1 E.8 F2100
M204 S800
G1 F1200
G1 X168.849 Y104.394 E.0034
G1 X158.481 Y104.394 E.32508
G1 X158.307 Y104.277 E.00657
G1 X156.202 Y99.177 E.17299
G1 X152.093 Y97.479 E.1394
G1 X151.145 Y97.034 E.03284
G1 X151.04 Y96.864 E.00626
G1 X151.04 Y87.69 E.28764
G1 X151.145 Y87.525 E.00613
G1 X152.085 Y87.084 E.03256
G1 X156.202 Y85.382 E.13968
G1 X158.307 Y80.282 E.17299
G1 X158.465 Y80.166 E.00615
G1 X168.849 Y80.165 E.32558
G1 X169.017 Y80.27 E.00621
G1 X169.037 Y80.354 E.00271
G1 X169.037 Y84.559 E.13184
G1 X170.165 Y85.764 E.05175
G1 X170.216 Y85.893 E.00435
G1 X170.216 Y98.666 E.40049
G1 X170.165 Y98.795 E.00435
G1 X169.037 Y100.001 E.05178
G1 X169.037 Y104.205 E.13181
G1 X168.992 Y104.316 E.00376
M204 S1000
;WIPE_START
G1 F8640
G1 X168.949 Y104.352 E-.01295
G1 X168.849 Y104.394 E-.02504
G1 X165.549 Y104.394 E-.76201
;WIPE_END
G1 Z.6 F720
G1 X169.218 Y79.218 F10800
G1 Z.2 F720
G1 E.8 F2100
M204 S800
;TYPE:Perimeter
;WIDTH:0.440061
G1 F1200
G1 X168.849 Y79.381 E.01332
G1 X158.481 Y79.381 E.34238
G1 X158.045 Y79.166 E.01605
;WIDTH:0.419999
G1 X157.652 Y78.278 E.03045
G1 X155.914 Y74.066 E.14287
G1 X154.608 Y73.527 E.0443
G1 X150.958 Y72.021 E.1238
G1 X150.814 Y71.934 E.00528
;WIDTH:0.440045
G1 X150.599 Y71.498 E.01605
G1 X150.599 Y61.131 E.34233
G1 X150.774 Y60.731 E.01442
;WIDTH:0.419999
G1 X151.037 Y60.582 E.00948
G1 X151.174 Y60.566 E.00432
G1 X155.23 Y60.566 E.12717
G1 X156.327 Y59.54 E.04709
G1 X156.567 Y59.406 E.00862
G1 X156.713 Y59.387 E.00462
G1 X170.027 Y59.387 E.41745
G1 X170.317 Y59.467 E.00943
G1 X170.512 Y59.662 E.00865
G1 X170.593 Y59.953 E.00947
G1 X170.593 Y73.266 E.41742
G1 X170.519 Y73.545 E.00905
G1 X169.414 Y74.749 E.05124
G1 X169.414 Y78.805 E.12717
G1 X169.355 Y79.057 E.00811
G1 X169.264 Y79.184 E.0049
M204 S1000
G1 X169.264 Y79.184 F10800
G1 X168.949 Y78.952
M204 S800
;TYPE:External perimeter
G1 F1200
G1 X168.849 Y78.994 E.0034
G1 X158.481 Y78.994 E.32508
G1 X158.336 Y78.925 E.00503
G1 X156.202 Y73.777 E.17473
G1 X154.752 Y73.179 E.04918
G1 X151.102 Y71.673 E.1238
G1 X150.986 Y71.515 E.00615
G1 X150.986 Y61.131 E.32558
G1 X151.09 Y60.963 E.0062
G1 X151.174 Y60.943 E.00271
G1 X155.379 Y60.943 E.13184
G1 X156.585 Y59.815 E.05178
G1 X156.713 Y59.764 E.00432
G1 X170.027 Y59.764 E.41745
G1 X170.16 Y59.819 E.00451
G1 X170.216 Y59.953 E.00455
G1 X170.216 Y73.266 E.41742
G1 X170.165 Y73.395 E.00435
G1 X169.037 Y74.601 E.05178
G1 X169.037 Y78.805 E.13181
G1 X168.992 Y78.916 E.00376
M204 S1000
;WIPE_START
G1 F8640
G1 X168.949 Y78.952 E-.01295
G1 X168.849 Y78.994 E-.02504
G1 X165.549 Y78.994 E-.76201
;WIPE_END
G1 Z.6 F720
G1 X149.727 Y60.984 F10800
G1 Z.2 F720
M73 P2 R47
G1 E.8 F2100
M204 S800
G1 F1200
G1 X149.759 Y60.998 E.0011
G1 X149.814 Y61.131 E.00451
G1 X149.814 Y71.498 E.32505
G1 X149.746 Y71.644 E.00505
G1 X145.797 Y73.283 E.13406
G1 X144.598 Y73.777 E.04066
G1 X142.899 Y77.887 E.13944
G1 X142.462 Y78.843 E.03296
G1 X142.291 Y78.951 E.00634
G1 X133.103 Y78.951 E.28808
G1 X132.938 Y78.843 E.00618
G1 X132.503 Y77.893 E.03276
G1 X130.802 Y73.777 E.13964
G1 X125.702 Y71.673 E.17298
G1 X125.586 Y71.515 E.00615
G1 X125.586 Y61.131 E.32558
G1 X125.69 Y60.962 E.00622
G1 X125.774 Y60.943 E.0027
G1 X129.979 Y60.943 E.13184
G1 X131.185 Y59.815 E.05178
G1 X131.313 Y59.764 E.00432
G1 X144.087 Y59.764 E.40052
G1 X144.215 Y59.815 E.00432
G1 X145.421 Y60.943 E.05178
G1 X149.626 Y60.943 E.13184
G1 X149.671 Y60.961 E.00152
M204 S1000
;WIPE_START
G1 F8640
G1 X149.727 Y60.984 E-.01398
G1 X149.759 Y60.998 E-.00807
G1 X149.814 Y61.131 E-.03323
G1 X149.814 Y64.356 E-.74472
;WIPE_END
G1 Z.6 F720
G1 X124.372 Y61.03 F10800
G1 Z.2 F720
G1 E.8 F2100
M204 S800
G1 F1200
G1 X124.414 Y61.131 E.00343
G1 X124.414 Y71.498 E.32505
G1 X124.346 Y71.644 E.00505
G1 X119.198 Y73.777 E.17472
G1 X117.499 Y77.887 E.13944
G1 X117.062 Y78.843 E.03296
G1 X116.891 Y78.951 E.00634
G1 X107.704 Y78.951 E.28805
G1 X107.538 Y78.843 E.00621
G1 X107.103 Y77.893 E.03276
G1 X105.402 Y73.777 E.13964
G1 X100.302 Y71.673 E.17298
G1 X100.186 Y71.498 E.00658
G1 X100.186 Y61.131 E.32505
G1 X100.29 Y60.962 E.00622
G1 X100.374 Y60.943 E.0027
G1 X104.579 Y60.943 E.13184
G1 X105.785 Y59.815 E.05178
G1 X105.913 Y59.764 E.00432
G1 X118.687 Y59.764 E.40052
G1 X118.815 Y59.815 E.00432
G1 X120.021 Y60.943 E.05178
G1 X124.226 Y60.943 E.13184
G1 X124.336 Y60.988 E.00373
M204 S1000
;WIPE_START
G1 F8640
G1 X124.372 Y61.03 E-.01277
G1 X124.414 Y61.131 E-.02526
G1 X124.414 Y64.431 E-.76197
;WIPE_END
G1 Z.6 F720
G1 X80.964 Y104.306 F10800
G1 Z.2 F720
G1 E.8 F2100
M204 S800
G1 F1200
G1 X80.922 Y104.205 E.00343
G1 X80.922 Y99.996 E.13197
G1 X79.833 Y98.79 E.05095
G1 X79.784 Y98.664 E.00424
G1 X79.784 Y85.893 E.40043
G1 X79.835 Y85.764 E.00435
G1 X80.963 Y84.559 E.05175
G1 X80.963 Y80.354 E.13184
G1 X81.018 Y80.221 E.00451
G1 X81.152 Y80.165 E.00455
G1 X91.519 Y80.165 E.32505
G1 X91.693 Y80.282 E.00657
G1 X93.798 Y85.382 E.17299
G1 X97.907 Y87.081 E.13941
G1 X98.855 Y87.525 E.03282
G1 X98.96 Y87.696 E.00629
G1 X98.957 Y96.903 E.28868
G1 X98.855 Y97.034 E.00521
G1 X97.915 Y97.475 E.03256
G1 X93.798 Y99.177 E.13968
G1 X91.693 Y104.277 E.17299
G1 X91.519 Y104.394 E.00657
G1 X81.111 Y104.394 E.32633
G1 X81.001 Y104.348 E.00374
M204 S1000
;WIPE_START
G1 F8640
G1 X80.964 Y104.306 E-.01292
G1 X80.922 Y104.205 E-.02526
G1 X80.922 Y100.906 E-.76182
;WIPE_END
G1 Z.6 F720
G1 X79.593 Y59.541 F10800
G1 Z.2 F720
G1 E.8 F2100
M204 S800
;TYPE:Perimeter
G1 F1200
G1 X79.82 Y59.408 E.00825
G1 X79.973 Y59.387 E.00484
G1 X93.287 Y59.387 E.41745
G1 X93.565 Y59.46 E.00901
G1 X94.77 Y60.566 E.05128
G1 X98.826 Y60.566 E.12717
G1 X99.078 Y60.625 E.00811
G1 X99.225 Y60.731 E.00568
;WIDTH:0.440069
G1 X99.401 Y61.131 E.01443
G1 X99.401 Y71.498 E.34235
G1 X99.186 Y71.934 E.01605
;WIDTH:0.419999
G1 X98.295 Y72.329 E.03056
G1 X94.086 Y74.066 E.14277
G1 X92.041 Y79.021 E.16807
G1 X91.955 Y79.166 E.00529
;WIDTH:0.440061
G1 X91.519 Y79.381 E.01605
G1 X81.152 Y79.381 E.34234
G1 X80.751 Y79.205 E.01446
;WIDTH:0.419999
G1 X80.603 Y78.942 E.00946
G1 X80.586 Y78.805 E.00433
G1 X80.586 Y74.749 E.12717
G1 X79.56 Y73.653 E.04707
G1 X79.427 Y73.413 E.0086
G1 X79.407 Y73.266 E.00465
G1 X79.407 Y59.953 E.41742
G1 X79.487 Y59.662 E.00946
G1 X79.55 Y59.582 E.00319
M204 S1000
G1 X79.55 Y59.582 F10800
G1 X79.872 Y59.806
M204 S800
;TYPE:External perimeter
G1 F1200
G1 X79.973 Y59.764 E.00343
G1 X93.287 Y59.764 E.41745
G1 X93.415 Y59.815 E.00432
M73 P2 R46
G1 X94.621 Y60.943 E.05178
G1 X98.826 Y60.943 E.13184
G1 X98.959 Y60.998 E.00451
G1 X99.014 Y61.131 E.00451
G1 X99.014 Y71.498 E.32505
G1 X98.946 Y71.644 E.00505
G1 X93.798 Y73.777 E.17472
G1 X91.693 Y78.877 E.17299
G1 X91.519 Y78.994 E.00657
G1 X81.152 Y78.994 E.32505
G1 X81.018 Y78.939 E.00454
G1 X80.963 Y78.805 E.00454
G1 X80.963 Y74.601 E.13181
G1 X79.835 Y73.395 E.05178
G1 X79.784 Y73.266 E.00435
G1 X79.784 Y59.953 E.41742
G1 X79.83 Y59.842 E.00377
M204 S1000
;WIPE_START
G1 F8640
G1 X79.872 Y59.806 E-.01277
G1 X79.973 Y59.764 E-.02526
G1 X83.273 Y59.764 E-.76197
;WIPE_END
G1 Z.6 F720
G1 X80.964 Y129.706 F10800
G1 Z.2 F720
G1 E.8 F2100
M204 S800
G1 F1200
G1 X80.922 Y129.605 E.00343
G1 X80.922 Y125.396 E.13197
G1 X79.833 Y124.19 E.05095
G1 X79.784 Y124.064 E.00424
G1 X79.784 Y111.295 E.40036
G1 X79.833 Y111.169 E.00424
G1 X80.922 Y109.963 E.05095
G1 X80.922 Y105.754 E.13197
G1 X80.978 Y105.62 E.00455
G1 X81.111 Y105.565 E.00451
G1 X91.519 Y105.565 E.32633
G1 X91.693 Y105.682 E.00657
G1 X93.798 Y110.782 E.17299
G1 X97.907 Y112.481 E.13941
G1 X98.855 Y112.925 E.03282
G1 X98.96 Y113.096 E.00629
G1 X98.958 Y122.302 E.28865
G1 X98.855 Y122.434 E.00525
G1 X98.3 Y122.695 E.01923
G1 X97.907 Y122.879 E.01361
G1 X93.798 Y124.577 E.1394
G1 X91.693 Y129.677 E.17299
G1 X91.519 Y129.794 E.00657
G1 X81.111 Y129.794 E.32633
G1 X81.001 Y129.749 E.00373
M204 S1000
;WIPE_START
G1 F8640
G1 X80.964 Y129.706 E-.0131
G1 X80.922 Y129.605 E-.02526
G1 X80.922 Y126.307 E-.76164
;WIPE_END
G1 Z.6 F720
G1 X91.519 Y79.778 F10800
G1 Z.2 F720
G1 E.8 F2100
M204 S800
;TYPE:Perimeter
;WIDTH:0.440061
G1 F1200
G1 X91.955 Y79.994 E.01607
;WIDTH:0.419999
G1 X92.348 Y80.881 E.03042
G1 X94.086 Y85.093 E.14287
G1 X98.051 Y86.732 E.13452
G1 X98.931 Y87.144 E.03047
G1 X98.915 Y86.208 E.02935
G1 X98.913 Y79.479 E.21098
G1 X98.956 Y79.261 E.00697
G1 X99.08 Y79.077 E.00696
G1 X99.263 Y78.956 E.00688
G1 X99.599 Y78.913 E.01062
G1 X107.162 Y78.928 E.23713
G1 X106.752 Y78.031 E.03092
G1 X105.114 Y74.066 E.13451
G1 X100.158 Y72.021 E.1681
G1 X100.014 Y71.934 E.00528
;WIDTH:0.440069
G1 X99.799 Y71.498 E.01605
G1 X99.799 Y61.131 E.34235
G1 X99.975 Y60.731 E.01443
M73 P3 R46
;WIDTH:0.419999
G1 X100.238 Y60.582 E.00948
G1 X100.374 Y60.566 E.00429
G1 X104.43 Y60.566 E.12717
G1 X105.527 Y59.54 E.04709
G1 X105.767 Y59.406 E.00862
G1 X105.913 Y59.387 E.00462
G1 X118.687 Y59.387 E.40052
G1 X118.965 Y59.46 E.00901
G1 X120.17 Y60.566 E.05128
G1 X124.226 Y60.566 E.12717
G1 X124.478 Y60.625 E.00811
G1 X124.625 Y60.731 E.00568
;WIDTH:0.440056
G1 X124.801 Y61.131 E.01443
G1 X124.801 Y71.498 E.34234
G1 X124.586 Y71.934 E.01605
;WIDTH:0.419999
G1 X123.694 Y72.33 E.0306
G1 X119.486 Y74.066 E.14273
G1 X117.848 Y78.031 E.13451
G1 X117.44 Y78.924 E.03078
G1 X132.56 Y78.924 E.47408
G1 X132.152 Y78.031 E.03078
G1 X130.514 Y74.066 E.13451
G1 X125.558 Y72.021 E.1681
G1 X125.414 Y71.934 E.00528
;WIDTH:0.440056
G1 X125.199 Y71.498 E.01605
G1 X125.199 Y61.131 E.34234
G1 X125.375 Y60.731 E.01443
;WIDTH:0.419999
G1 X125.637 Y60.582 E.00945
G1 X125.774 Y60.566 E.00432
G1 X129.83 Y60.566 E.12717
G1 X130.927 Y59.54 E.04709
G1 X131.167 Y59.406 E.00862
G1 X131.313 Y59.387 E.00462
G1 X144.087 Y59.387 E.40052
G1 X144.365 Y59.46 E.00901
G1 X145.57 Y60.566 E.05128
G1 X149.626 Y60.566 E.12717
G1 X149.879 Y60.625 E.00815
G1 X150.026 Y60.731 E.00568
;WIDTH:0.440045
G1 X150.201 Y61.131 E.01442
G1 X150.201 Y71.498 E.34233
G1 X149.986 Y71.934 E.01605
;WIDTH:0.419999
G1 X149.095 Y72.329 E.03056
G1 X144.886 Y74.066 E.14277
G1 X143.248 Y78.031 E.13451
