; generated by PrusaSlicer 2.8.0 on 2024-09-21 at 14:29:26 UTC

; 

; external perimeters extrusion width = 0.60mm
; perimeters extrusion width = 0.43mm
; infill extrusion width = 0.45mm
; solid infill extrusion width = 0.70mm
; top infill extrusion width = 0.45mm
; first layer extrusion width = 0.42mm

M73 P0 R80
M201 X9000 Y9000 Z500 E10000 ; sets maximum accelerations, mm/sec^2
M203 X500 Y500 Z12 E120 ; sets maximum feedrates, mm / sec
M204 S2000 T1500 ; sets acceleration (S) and retract acceleration (R), mm/sec^2
M205 X10.00 Y10.00 Z0.20 E4.50 ; sets the jerk limits, mm/sec
M205 S0 T0 ; sets the minimum extruding and travel feed rate, mm/sec

; printing object X6 - AxoBlock Frame insert.stl id:0 copy 0
; stop printing object X6 - AxoBlock Frame insert.stl id:0 copy 0

;TYPE:Custom
M862.3 P "MK2.5" ; printer model check
M862.1 P0.4 ; nozzle diameter check
M115 U3.11.0 ; tell printer latest fw version
G90 ; use absolute coordinates
M83 ; extruder relative mode
M104 S215 ; set extruder temp
M140 S60 ; set bed temp
M190 S60 ; wait for bed temp
M109 S215 ; wait for extruder temp
G28 W ; home all without mesh bed level
G80 ; mesh bed leveling

G1 Z0.2 F720
G1 Y-3 F1000 ; go outside print area
G92 E0
G1 X60 E9 F1000 ; intro line
G1 X100 E12.5 F1000 ; intro line

G92 E0
G21 ; set units to millimeters
G90 ; use absolute coordinates
M83 ; use relative distances for extrusion
M900 K0.05 ; Filament gcode LA 1.5
M900 K30 ; Filament gcode LA 1.0
M107
;LAYER_CHANGE
;Z:0.2
;HEIGHT:0.2
G1 E-.8 F2100
G1 Z.6 F720
G1 X47.028 Y27.552 F10800
G1 Z.2 F720
G1 E.8 F2100
M204 S800
;TYPE:Skirt/Brim
;WIDTH:0.42
G1 F1200
G1 X48.061 Y26.749 E.04102
G1 X48.825 Y26.611 E.02434
G1 X201.175 Y26.611 E4.77683
G1 X202.423 Y27.002 E.04101
G1 X203.225 Y28.035 E.041
M73 P0 R79
G1 X203.363 Y28.8 E.02437
G1 X203.363 Y181.2 E4.77839
G1 X202.972 Y182.448 E.04101
G1 X201.939 Y183.251 E.04102
G1 X201.175 Y183.389 E.02434
G1 X48.825 Y183.389 E4.77683
G1 X47.577 Y182.998 E.04101
G1 X46.775 Y181.965 E.041
G1 X46.637 Y181.2 E.02437
G1 X46.637 Y28.8 E4.77839
G1 X47.01 Y27.609 E.03913
M204 S1000
;WIPE_START
G1 F8640
G1 X47.028 Y27.552 E-.0138
G1 X48.061 Y26.749 E-.30211
G1 X48.825 Y26.611 E-.17926
G1 X50.145 Y26.611 E-.30483
;WIPE_END
G1 Z.6 F720
; printing object X6 - AxoBlock Frame insert.stl id:0 copy 0
G1 X175.178 Y35.59 F10800
G1 Z.2 F720
G1 E.8 F2100
M204 S800
;TYPE:External perimeter
;WIDTH:0.419999
G1 F1200
G1 X175.219 Y35.691 E.00342
G1 X175.219 Y46.067 E.32533
G1 X175.151 Y46.212 E.00502
G1 X169.992 Y48.367 E.1753
G1 X168.268 Y52.486 E.14
G1 X168.02 Y52.931 E.01597
G1 X167.71 Y53.33 E.01584
;WIDTH:0.41872
G1 X167.562 Y53.401 E.00513
;WIDTH:0.41999
G1 X158.638 Y53.402 E.2798
;WIDTH:0.421094
G1 X158.489 Y53.331 E.00519
G1 X158.168 Y52.912 E.0166
;WIDTH:0.419999
G1 X157.876 Y52.354 E.01975
G1 X156.208 Y48.367 E.13551
G1 X151.097 Y46.241 E.17356
G1 X150.981 Y46.084 E.00612
G1 X150.981 Y35.691 E.32586
G1 X151.085 Y35.522 E.00622
G1 X151.169 Y35.502 E.00271
G1 X155.402 Y35.502 E.13272
G1 X156.618 Y34.431 E.05081
G1 X156.743 Y34.384 E.00419
G1 X169.457 Y34.384 E.39864
G1 X169.582 Y34.431 E.00419
G1 X170.799 Y35.502 E.05083
G1 X175.031 Y35.502 E.13269
G1 X175.141 Y35.548 E.00374
M204 S1000
;WIPE_START
G1 F8640
G1 X175.178 Y35.59 E-.01292
G1 X175.219 Y35.691 E-.02517
G1 X175.219 Y38.991 E-.76191
;WIPE_END
G1 Z.6 F720
G1 X98.977 Y46.158 F10800
G1 Z.2 F720
G1 E.8 F2100
M204 S800
G1 F1200
G1 X98.951 Y46.212 E.00188
G1 X94.916 Y47.9 E.13714
G1 X93.792 Y48.367 E.03816
G1 X92.069 Y52.484 E.13993
G1 X91.816 Y52.936 E.01624
;WIDTH:0.425381
G1 X91.429 Y53.394 E.01907
G1 X91.362 Y53.402 E.00215
;WIDTH:0.419989
G1 X82.416 Y53.399 E.28049
;WIDTH:0.419159
G1 X82.273 Y53.309 E.00529
;WIDTH:0.419999
G1 X81.968 Y52.912 E.0157
G1 X81.731 Y52.484 E.01534
G1 X80.008 Y48.367 E.13993
G1 X74.897 Y46.241 E.17356
G1 X74.781 Y46.084 E.00612
G1 X74.781 Y35.691 E.32586
G1 X74.885 Y35.522 E.00622
G1 X74.969 Y35.502 E.00271
G1 X79.201 Y35.502 E.13269
G1 X80.418 Y34.431 E.05083
G1 X80.543 Y34.384 E.00419
G1 X93.257 Y34.384 E.39864
G1 X93.382 Y34.431 E.00419
G1 X94.599 Y35.502 E.05083
G1 X98.831 Y35.502 E.13269
G1 X98.964 Y35.557 E.00451
G1 X99.019 Y35.691 E.00454
G1 X99.019 Y46.067 E.32533
G1 X99.002 Y46.104 E.00128
M204 S1000
;WIPE_START
G1 F8640
G1 X98.977 Y46.158 E-.01374
G1 X98.951 Y46.212 E-.01384
G1 X95.865 Y47.503 E-.77242
;WIPE_END
G1 Z.6 F720
G1 X194.385 Y105.597 F10800
G1 Z.2 F720
M73 P1 R79
G1 E.8 F2100
M204 S800
G1 F1200
G1 X194.418 Y105.611 E.00112
G1 X194.473 Y105.744 E.00451
G1 X194.473 Y109.976 E.13269
G1 X195.543 Y111.193 E.05081
G1 X195.59 Y111.317 E.00416
G1 X195.59 Y124.03 E.39861
G1 X195.546 Y124.151 E.00404
G1 X194.473 Y125.419 E.05208
G1 X194.473 Y129.605 E.13125
G1 X194.418 Y129.739 E.00454
G1 X194.284 Y129.794 E.00454
G1 X183.907 Y129.794 E.32536
G1 X183.733 Y129.678 E.00656
G1 X181.608 Y124.567 E.17355
G1 X177.491 Y122.843 E.13995
G1 X177.062 Y122.603 E.01541
G1 X176.652 Y122.277 E.01642
;WIDTH:0.418945
G1 X176.582 Y122.13 E.00509
;WIDTH:0.41678
G1 X176.582 Y113.241 E.27633
;WIDTH:0.418034
G1 X176.652 Y113.073 E.00568
;WIDTH:0.419999
G1 X177.062 Y112.746 E.01644
G1 X177.538 Y112.486 E.01701
G1 X181.608 Y110.783 E.13833
G1 X183.733 Y105.671 E.17358
G1 X183.907 Y105.555 E.00656
G1 X194.284 Y105.555 E.32536
G1 X194.33 Y105.574 E.00156
M204 S1000
;WIPE_START
G1 F8640
G1 X194.385 Y105.597 E-.01377
G1 X194.418 Y105.611 E-.00828
G1 X194.473 Y105.744 E-.03323
G1 X194.473 Y108.969 E-.74472
;WIPE_END
G1 Z.6 F720
G1 X74.396 Y163.882 F10800
G1 Z.2 F720
G1 E.8 F2100
M204 S800
;TYPE:Perimeter
;WIDTH:0.434969
G1 F1200
G1 X74.607 Y163.447 E.01576
;WIDTH:0.419999
G1 X75.454 Y163.068 E.02909
G1 X79.72 Y161.294 E.14486
G1 X81.384 Y157.32 E.13508
G1 X81.636 Y156.866 E.01628
G1 X81.76 Y156.695 E.00662
G1 X81.002 Y156.779 E.02391
G1 X73.779 Y156.787 E.22647
G1 X73.561 Y156.744 E.00697
G1 X73.377 Y156.62 E.00696
G1 X73.255 Y156.436 E.00692
G1 X73.213 Y156.221 E.00687
G1 X73.22 Y149.033 E.22537
G1 X73.256 Y148.495 E.01691
G1 X73.301 Y148.198 E.00942
G1 X72.714 Y148.562 E.02166
G1 X72.594 Y148.616 E.00413
G1 X68.681 Y150.255 E.13302
G1 X66.615 Y155.223 E.1687
G1 X66.528 Y155.367 E.00528
;WIDTH:0.434981
G1 X66.093 Y155.579 E.01578
G1 X55.716 Y155.579 E.33829
G1 X55.316 Y155.405 E.01422
;WIDTH:0.419999
G1 X55.167 Y155.142 E.00948
G1 X55.15 Y155.005 E.00433
G1 X55.15 Y150.958 E.12689
G1 X54.167 Y149.795 E.04775
G1 X54.041 Y149.527 E.00929
G1 X54.033 Y149.43 E.00305
G1 X54.033 Y136.717 E.39861
G1 X54.072 Y136.511 E.00657
G1 X54.511 Y135.96 E.02209
G1 X55.15 Y135.234 E.03032
G1 X55.15 Y131.144 E.12824
G1 X55.21 Y130.891 E.00815
G1 X55.316 Y130.744 E.00568
;WIDTH:0.434978
G1 X55.716 Y130.571 E.01421
G1 X66.093 Y130.571 E.33829
G1 X66.528 Y130.782 E.01576
;WIDTH:0.419999
G1 X66.909 Y131.633 E.02923
G1 X68.681 Y135.895 E.14472
G1 X72.655 Y137.558 E.13507
G1 X73.123 Y137.818 E.01679
G1 X73.303 Y137.953 E.00705
G1 X73.239 Y137.267 E.0216
G1 X73.213 Y136.595 E.02109
G1 X73.213 Y124.156 E.39002
G1 X73.219 Y123.651 E.01584
G1 X73.254 Y123.121 E.01665
G1 X73.304 Y122.796 E.01031
G1 X72.714 Y123.162 E.02177
G1 X68.681 Y124.854 E.13713
G1 X66.615 Y129.823 E.16873
G1 X66.528 Y129.967 E.00528
;WIDTH:0.434978
G1 X66.093 Y130.179 E.01578
G1 X55.716 Y130.179 E.33829
G1 X55.316 Y130.005 E.01422
;WIDTH:0.419999
G1 X55.167 Y129.742 E.00948
G1 X55.15 Y129.605 E.00433
G1 X55.15 Y125.558 E.12689
G1 X54.167 Y124.395 E.04775
G1 X54.041 Y124.127 E.00929
G1 X54.033 Y124.03 E.00305
G1 X54.033 Y111.317 E.39861
G1 X54.072 Y111.111 E.00657
G1 X54.511 Y110.56 E.02209
G1 X55.15 Y109.834 E.03032
G1 X55.15 Y105.744 E.12824
G1 X55.21 Y105.491 E.00815
G1 X55.316 Y105.344 E.00568
;WIDTH:0.434982
G1 X55.716 Y105.171 E.01421
G1 X66.093 Y105.171 E.33829
G1 X66.528 Y105.382 E.01576
;WIDTH:0.419999
G1 X66.909 Y106.234 E.02926
G1 X68.681 Y110.495 E.14469
G1 X72.658 Y112.159 E.13517
G1 X73.111 Y112.411 E.01625
G1 X73.301 Y112.551 E.0074
G1 X73.22 Y111.718 E.02624
G1 X73.213 Y98.781 E.40563
G1 X73.219 Y98.276 E.01584
G1 X73.251 Y97.748 E.01659
G1 X73.306 Y97.394 E.01123
G1 X72.714 Y97.762 E.02186
G1 X68.681 Y99.455 E.13714
G1 X66.615 Y104.423 E.1687
G1 X66.528 Y104.567 E.00528
;WIDTH:0.434982
G1 X66.093 Y104.779 E.01578
G1 X55.716 Y104.779 E.33829
G1 X55.316 Y104.605 E.01422
;WIDTH:0.419999
G1 X55.167 Y104.342 E.00948
G1 X55.15 Y104.205 E.00433
G1 X55.15 Y100.158 E.12689
G1 X54.167 Y98.995 E.04775
G1 X54.041 Y98.727 E.00929
G1 X54.033 Y98.63 E.00305
G1 X54.033 Y85.917 E.39861
G1 X54.072 Y85.711 E.00657
G1 X54.511 Y85.16 E.02209
G1 X55.15 Y84.434 E.03032
G1 X55.15 Y80.344 E.12824
G1 X55.21 Y80.091 E.00815
G1 X55.316 Y79.944 E.00568
;WIDTH:0.434982
G1 X55.716 Y79.771 E.01421
G1 X66.093 Y79.771 E.33829
G1 X66.528 Y79.982 E.01576
;WIDTH:0.419999
G1 X66.909 Y80.834 E.02926
G1 X68.681 Y85.095 E.14469
G1 X72.655 Y86.758 E.13507
G1 X73.123 Y87.018 E.01679
G1 X73.298 Y87.149 E.00685
G1 X73.22 Y86.343 E.02539
G1 X73.213 Y73.899 E.39017
G1 X73.219 Y72.903 E.03123
G1 X73.249 Y72.374 E.01661
G1 X73.309 Y71.992 E.01212
G1 X72.714 Y72.362 E.02197
G1 X68.681 Y74.054 E.13713
G1 X66.615 Y79.023 E.16873
G1 X66.528 Y79.167 E.00528
;WIDTH:0.434982
G1 X66.093 Y79.379 E.01578
G1 X55.716 Y79.379 E.33829
G1 X55.316 Y79.205 E.01422
;WIDTH:0.419999
G1 X55.167 Y78.942 E.00948
G1 X55.15 Y78.805 E.00433
G1 X55.15 Y74.715 E.12824
G1 X54.174 Y73.606 E.04632
G1 X54.041 Y73.33 E.00961
G1 X54.033 Y73.232 E.00308
G1 X54.033 Y60.517 E.39867
G1 X54.072 Y60.311 E.00657
G1 X54.511 Y59.76 E.02209
G1 X55.15 Y59.034 E.03032
G1 X55.15 Y54.944 E.12824
G1 X55.21 Y54.691 E.00815
G1 X55.316 Y54.544 E.00568
;WIDTH:0.434983
G1 X55.716 Y54.371 E.01421
G1 X66.093 Y54.371 E.33829
G1 X66.528 Y54.582 E.01576
;WIDTH:0.419999
G1 X66.909 Y55.433 E.02923
G1 X68.681 Y59.695 E.14472
G1 X72.655 Y61.358 E.13507
G1 X73.106 Y61.608 E.01617
G1 X73.303 Y61.752 E.00765
G1 X73.22 Y60.967 E.02475
G1 X73.213 Y53.779 E.22537
G1 X73.256 Y53.561 E.00697
G1 X73.38 Y53.377 E.00696
G1 X73.564 Y53.255 E.00692
G1 X73.779 Y53.213 E.00687
G1 X81.001 Y53.22 E.22644
G1 X81.536 Y53.258 E.01682
G1 X81.787 Y53.298 E.00797
G1 X81.383 Y52.629 E.0245
G1 X79.72 Y48.656 E.13504
G1 X74.752 Y46.59 E.1687
G1 X74.607 Y46.502 E.00532
;WIDTH:0.434969
G1 X74.396 Y46.067 E.01576
G1 X74.396 Y35.691 E.33825
G1 X74.57 Y35.29 E.01425
;WIDTH:0.419999
G1 X74.832 Y35.142 E.00943
G1 X74.969 Y35.125 E.00433
G1 X79.059 Y35.125 E.12824
G1 X80.169 Y34.148 E.04636
G1 X80.365 Y34.036 E.00708
G1 X80.543 Y34.007 E.00565
G1 X93.257 Y34.007 E.39864
G1 X93.463 Y34.046 E.00657
G1 X94.014 Y34.486 E.02211
G1 X94.741 Y35.125 E.03035
G1 X98.831 Y35.125 E.12824
G1 X99.083 Y35.184 E.00811
M73 P1 R78
G1 X99.23 Y35.29 E.00568
;WIDTH:0.434969
G1 X99.404 Y35.691 E.01425
G1 X99.404 Y46.067 E.33825
G1 X99.193 Y46.502 E.01576
;WIDTH:0.419999
G1 X98.337 Y46.885 E.0294
G1 X94.08 Y48.656 E.14456
G1 X92.417 Y52.629 E.13504
G1 X92.161 Y53.096 E.0167
G1 X92.014 Y53.297 E.00781
G1 X92.721 Y53.234 E.02226
G1 X93.5 Y53.213 E.02443
G1 X106 Y53.214 E.39193
G1 X106.511 Y53.223 E.01602
G1 X107.182 Y53.292 E.02115
G1 X106.852 Y52.76 E.01963
G1 X106.64 Y52.287 E.01625
G1 X105.12 Y48.656 E.12342
G1 X100.152 Y46.59 E.1687
G1 X100.007 Y46.502 E.00532
;WIDTH:0.434969
G1 X99.796 Y46.067 E.01576
G1 X99.796 Y35.691 E.33825
G1 X99.97 Y35.29 E.01425
;WIDTH:0.419999
G1 X100.232 Y35.142 E.00943
G1 X100.369 Y35.125 E.00433
G1 X104.459 Y35.125 E.12824
G1 X105.569 Y34.148 E.04636
G1 X105.845 Y34.016 E.00959
G1 X105.943 Y34.007 E.00309
G1 X118.708 Y34.007 E.40024
G1 X118.914 Y34.046 E.00657
G1 X119.465 Y34.486 E.02211
G1 X120.192 Y35.125 E.03035
G1 X124.231 Y35.125 E.12664
G1 X124.483 Y35.184 E.00811
G1 X124.63 Y35.29 E.00568
;WIDTH:0.434994
G1 X124.804 Y35.691 E.01425
G1 X124.804 Y46.067 E.33827
G1 X124.593 Y46.502 E.01576
;WIDTH:0.419999
G1 X123.737 Y46.885 E.0294
G1 X119.48 Y48.656 E.14456
G1 X117.817 Y52.629 E.13504
G1 X117.435 Y53.29 E.02394
G1 X117.937 Y53.235 E.01583
G1 X118.5 Y53.216 E.01766
G1 X131 Y53.213 E.39193
G1 X131.777 Y53.228 E.02437
G1 X132.571 Y53.278 E.02494
G1 X132.273 Y52.798 E.01771
G1 X131.887 Y51.923 E.02999
G1 X130.52 Y48.656 E.11104
G1 X125.552 Y46.59 E.1687
G1 X125.408 Y46.502 E.00529
;WIDTH:0.434994
G1 X125.196 Y46.067 E.01578
G1 X125.196 Y35.691 E.33827
G1 X125.37 Y35.29 E.01425
;WIDTH:0.419999
G1 X125.632 Y35.142 E.00943
G1 X125.769 Y35.125 E.00433
G1 X129.859 Y35.125 E.12824
G1 X130.969 Y34.148 E.04636
G1 X131.245 Y34.016 E.00959
G1 X131.343 Y34.007 E.00309
G1 X144.057 Y34.007 E.39864
G1 X144.263 Y34.046 E.00657
G1 X144.814 Y34.485 E.02209
G1 X145.541 Y35.125 E.03037
G1 X149.631 Y35.125 E.12824
G1 X149.883 Y35.184 E.00811
G1 X150.03 Y35.29 E.00568
;WIDTH:0.434969
G1 X150.204 Y35.691 E.01425
G1 X150.204 Y46.067 E.33825
G1 X149.993 Y46.502 E.01576
;WIDTH:0.419999
G1 X149.136 Y46.886 E.02944
G1 X144.88 Y48.656 E.14452
G1 X143.217 Y52.629 E.13504
G1 X142.961 Y53.096 E.0167
G1 X142.818 Y53.292 E.00761
G1 X143.449 Y53.225 E.0199
G1 X144 Y53.214 E.01728
G1 X157.001 Y53.217 E.40764
G1 X157.528 Y53.241 E.01654
G1 X157.986 Y53.297 E.01447
G1 X157.611 Y52.686 E.02248
G1 X155.92 Y48.656 E.13703
G1 X150.952 Y46.59 E.1687
G1 X150.807 Y46.502 E.00532
;WIDTH:0.434969
G1 X150.596 Y46.067 E.01576
G1 X150.596 Y35.691 E.33825
G1 X150.77 Y35.29 E.01425
;WIDTH:0.419999
G1 X151.032 Y35.142 E.00943
G1 X151.169 Y35.125 E.00433
G1 X155.259 Y35.125 E.12824
G1 X156.369 Y34.148 E.04636
G1 X156.645 Y34.016 E.00959
G1 X156.743 Y34.007 E.00309
G1 X169.457 Y34.007 E.39864
G1 X169.663 Y34.046 E.00657
G1 X170.214 Y34.486 E.02211
G1 X170.941 Y35.125 E.03035
G1 X175.031 Y35.125 E.12824
G1 X175.283 Y35.184 E.00811
G1 X175.43 Y35.29 E.00568
;WIDTH:0.434971
G1 X175.604 Y35.691 E.01425
G1 X175.604 Y46.067 E.33825
G1 X175.393 Y46.502 E.01576
;WIDTH:0.419999
G1 X174.537 Y46.885 E.0294
G1 X170.28 Y48.656 E.14456
G1 X168.617 Y52.629 E.13504
G1 X168.361 Y53.096 E.0167
G1 X168.213 Y53.298 E.00785
G1 X169.01 Y53.22 E.02511
G1 X176.221 Y53.213 E.2261
G1 X176.439 Y53.256 E.00697
G1 X176.62 Y53.377 E.00683
G1 X176.744 Y53.561 E.00696
G1 X176.787 Y53.779 E.00697
G1 X176.78 Y60.967 E.22537
G1 X176.704 Y61.747 E.02457
G1 X177.358 Y61.353 E.02394
G1 X181.319 Y59.695 E.13464
G1 X183.385 Y54.727 E.1687
G1 X183.472 Y54.582 E.0053
;WIDTH:0.434983
G1 X183.907 Y54.371 E.01576
G1 X194.284 Y54.371 E.33829
G1 X194.684 Y54.544 E.01421
;WIDTH:0.419999
G1 X194.833 Y54.807 E.00948
G1 X194.85 Y54.944 E.00433
G1 X194.85 Y59.034 E.12824
G1 X195.826 Y60.144 E.04634
G1 X195.959 Y60.42 E.00961
G1 X195.967 Y60.517 E.00305
G1 X195.967 Y73.232 E.39867
G1 X195.928 Y73.438 E.00657
G1 X195.489 Y73.989 E.02209
G1 X194.85 Y74.715 E.03032
G1 X194.85 Y78.805 E.12824
G1 X194.79 Y79.058 E.00815
G1 X194.684 Y79.205 E.00568
;WIDTH:0.434982
G1 X194.284 Y79.379 E.01422
G1 X183.907 Y79.379 E.33829
G1 X183.472 Y79.167 E.01578
;WIDTH:0.419999
G1 X183.091 Y78.315 E.02926
G1 X181.319 Y74.054 E.14469
G1 X177.345 Y72.391 E.13507
G1 X176.877 Y72.131 E.01679
G1 X176.691 Y71.992 E.00728
G1 X176.762 Y72.68 E.02169
G1 X176.787 Y73.405 E.02275
G1 X176.78 Y86.343 E.40566
G1 X176.741 Y86.883 E.01698
G1 X176.702 Y87.149 E.00843
G1 X177.381 Y86.743 E.02481
G1 X181.319 Y85.095 E.13385
G1 X183.385 Y80.127 E.1687
G1 X183.472 Y79.982 E.0053
;WIDTH:0.434982
G1 X183.907 Y79.771 E.01576
G1 X194.284 Y79.771 E.33829
G1 X194.684 Y79.944 E.01421
;WIDTH:0.419999
G1 X194.833 Y80.207 E.00948
G1 X194.85 Y80.344 E.00433
G1 X194.85 Y84.434 E.12824
G1 X195.826 Y85.544 E.04634
G1 X195.959 Y85.819 E.00958
G1 X195.967 Y85.917 E.00308
G1 X195.967 Y98.63 E.39861
G1 X195.931 Y98.83 E.00637
G1 X195.457 Y99.44 E.02422
G1 X194.85 Y100.157 E.02946
G1 X194.85 Y104.205 E.12692
G1 X194.79 Y104.458 E.00815
G1 X194.684 Y104.605 E.00568
;WIDTH:0.434982
G1 X194.284 Y104.779 E.01422
G1 X183.907 Y104.779 E.33829
G1 X183.472 Y104.567 E.01578
M73 P2 R78
;WIDTH:0.419999
G1 X183.091 Y103.716 E.02923
G1 X181.319 Y99.454 E.14472
G1 X177.345 Y97.791 E.13507
G1 X176.877 Y97.531 E.01679
G1 X176.694 Y97.394 E.00717
G1 X176.761 Y98.081 E.02164
G1 X176.787 Y98.78 E.02193
G1 X176.787 Y111.22 E.39005
G1 X176.78 Y111.725 E.01584
G1 X176.744 Y112.257 E.01672
G1 X176.699 Y112.551 E.00933
