; generated by PrusaSlicer 2.8.0 on 2024-09-21 at 14:30:11 UTC

; 

; external perimeters extrusion width = 0.60mm
; perimeters extrusion width = 0.43mm
; infill extrusion width = 0.45mm
; solid infill extrusion width = 0.70mm
; top infill extrusion width = 0.45mm
; first layer extrusion width = 0.42mm

M73 P0 R123
M201 X9000 Y9000 Z500 E10000 ; sets maximum accelerations, mm/sec^2
M203 X500 Y500 Z12 E120 ; sets maximum feedrates, mm / sec
M204 S2000 T1500 ; sets acceleration (S) and retract acceleration (R), mm/sec^2
M205 X10.00 Y10.00 Z0.20 E4.50 ; sets the jerk limits, mm/sec
M205 S0 T0 ; sets the minimum extruding and travel feed rate, mm/sec

; printing object c1.stl id:0 copy 0
; stop printing object c1.stl id:0 copy 0

;TYPE:Custom
M862.3 P "MK2.5" ; printer model check
M862.1 P0.4 ; nozzle diameter check
M115 U3.11.0 ; tell printer latest fw version
G90 ; use absolute coordinates
M83 ; extruder relative mode
M104 S215 ; set extruder temp
M140 S60 ; set bed temp
M190 S60 ; wait for bed temp
M109 S215 ; wait for extruder temp
G28 W ; home all without mesh bed level
G80 ; mesh bed leveling

G1 Z0.2 F720
G1 Y-3 F1000 ; go outside print area
G92 E0
G1 X60 E9 F1000 ; intro line
G1 X100 E12.5 F1000 ; intro line

G92 E0
G21 ; set units to millimeters
G90 ; use absolute coordinates
M83 ; use relative distances for extrusion
M900 K0.05 ; Filament gcode LA 1.5
M900 K30 ; Filament gcode LA 1.0
M107
;LAYER_CHANGE
;Z:0.2
;HEIGHT:0.2
G1 E-.8 F2100
G1 Z.6 F720
G1 X58.894 Y69.197 F10800
G1 Z.2 F720
G1 E.8 F2100
M204 S800
;TYPE:Skirt/Brim
;WIDTH:0.42
G1 F1200
G1 X59.859 Y68.406 E.03912
G1 X60.976 Y67.944 E.0379
G1 X62 Y67.812 E.03237
G1 X188.216 Y67.822 E3.95741
G1 X189.024 Y67.944 E.02562
G1 X189.795 Y68.221 E.02569
G1 X190.5 Y68.645 E.02579
G1 X191.106 Y69.197 E.0257
G1 X191.594 Y69.859 E.02579
G1 X191.941 Y70.596 E.02554
G1 X192.14 Y71.398 E.02591
G1 X192.188 Y72 E.01894
G1 X192.188 Y138 E2.06938
G1 X192.055 Y139.028 E.0325
G1 X191.594 Y140.141 E.03777
G1 X190.803 Y141.106 E.03912
G1 X190.141 Y141.594 E.02579
G1 X189.024 Y142.056 E.0379
G1 X188 Y142.188 E.03237
G1 X62 Y142.188 E3.95064
G1 X60.976 Y142.056 E.03237
G1 X59.859 Y141.594 E.0379
G1 X59.197 Y141.106 E.02579
G1 X58.406 Y140.141 E.03912
G1 X57.945 Y139.028 E.03777
G1 X57.812 Y138 E.0325
G1 X57.812 Y72 E2.06938
G1 X57.945 Y70.972 E.0325
G1 X58.406 Y69.859 E.03777
G1 X58.858 Y69.245 E.02391
M204 S1000
;WIPE_START
G1 F8640
G1 X58.894 Y69.197 E-.01385
G1 X59.859 Y68.406 E-.28811
G1 X60.976 Y67.944 E-.27911
G1 X61.917 Y67.822 E-.21893
;WIPE_END
G1 Z.6 F720
; printing object c1.stl id:0 copy 0
G1 X148.116 Y135.603 F10800
G1 Z.2 F720
G1 E.8 F2100
M204 S800
;TYPE:Perimeter
;WIDTH:0.419999
G1 F1200
G1 X148.244 Y135.439 E.00652
G1 X148.287 Y135.221 E.00697
G1 X148.287 Y70.787 E2.02028
G1 X187.896 Y70.787 E1.24191
G1 X188.236 Y70.814 E.01069
G1 X188.672 Y70.995 E.0148
G1 X189.005 Y71.328 E.01477
G1 X189.151 Y71.649 E.01106
G1 X189.213 Y72.102 E.01434
G1 X189.213 Y137.896 E2.06292
G1 X189.206 Y138.025 E.00405
G1 X189.117 Y138.463 E.01401
G1 X188.855 Y138.855 E.01478
G1 X188.463 Y139.117 E.01478
G1 X187.961 Y139.213 E.01603
G1 X62.104 Y139.213 E3.94615
G1 X61.764 Y139.186 E.01069
G1 X61.328 Y139.005 E.0148
G1 X60.995 Y138.672 E.01477
G1 X60.849 Y138.351 E.01106
G1 X60.787 Y137.962 E.01235
G1 X60.787 Y72.104 E2.06493
G1 X60.794 Y71.975 E.00405
G1 X60.883 Y71.537 E.01401
G1 X61.145 Y71.145 E.01478
G1 X61.537 Y70.883 E.01478
G1 X62.039 Y70.787 E.01603
G1 X101.713 Y70.787 E1.24395
G1 X101.713 Y135.221 E2.02028
G1 X101.722 Y135.323 E.00321
G1 X101.826 Y135.561 E.00814
G1 X102.095 Y135.756 E.01042
G1 X102.278 Y135.787 E.00582
G1 X147.722 Y135.787 E1.42486
G1 X147.819 Y135.778 E.00305
G1 X148.061 Y135.674 E.00826
G1 X148.079 Y135.65 E.00094
M204 S1000
G1 X148.079 Y135.65 F10800
G1 X147.859 Y135.324
M204 S800
;TYPE:External perimeter
G1 F1200
G1 X147.91 Y135.221 E.0036
G1 X147.91 Y70.41 E2.0321
G1 X187.896 Y70.41 E1.25373
M73 P0 R122
G1 X188.31 Y70.443 E.01302
G1 X188.745 Y70.606 E.01457
G1 X189.123 Y70.877 E.01458
G1 X189.394 Y71.255 E.01458
G1 X189.558 Y71.69 E.01458
G1 X189.59 Y72.102 E.01296
G1 X189.59 Y137.896 E2.06292
G1 X189.573 Y138.152 E.00804
G1 X189.467 Y138.608 E.01468
G1 X189.221 Y139.003 E.01459
G1 X188.883 Y139.32 E.01453
G1 X188.46 Y139.512 E.01457
G1 X187.98 Y139.59 E.01525
G1 X62.104 Y139.59 E3.94675
G1 X61.844 Y139.572 E.00817
G1 X61.392 Y139.467 E.01455
G1 X60.997 Y139.222 E.01457
G1 X60.68 Y138.883 E.01455
G1 X60.488 Y138.461 E.01454
G1 X60.41 Y137.98 E.01528
G1 X60.41 Y72.104 E2.06549
G1 X60.427 Y71.848 E.00804
G1 X60.533 Y71.392 E.01468
G1 X60.779 Y70.997 E.01459
G1 X61.117 Y70.68 E.01453
G1 X61.54 Y70.488 E.01457
G1 X62.02 Y70.41 E.01525
G1 X102.09 Y70.41 E1.25636
G1 X102.09 Y135.221 E2.0321
M73 P1 R122
G1 X102.128 Y135.334 E.00374
G1 X102.278 Y135.41 E.00527
G1 X147.722 Y135.41 E1.42486
G1 X147.829 Y135.374 E.00354
M204 S1000
;WIPE_START
G1 F8640
G1 X147.859 Y135.324 E-.01346
G1 X147.91 Y135.221 E-.02654
G1 X147.91 Y131.93 E-.76
;WIPE_END
G1 Z.6 F720
G1 X187.68 Y70.906 F10800
G1 Z.2 F720
G1 E.8 F2100
M204 S800
;TYPE:Solid infill
;WIDTH:0.420985
G1 F1200
G1 X188.93 Y72.156 E.05557
G1 X188.93 Y72.69 E.01679
G1 X187.315 Y71.075 E.0718
G1 X186.78 Y71.075 E.01682
G1 X188.93 Y73.225 E.09558
G1 X188.93 Y73.76 E.01682
G1 X186.246 Y71.075 E.11935
G1 X185.711 Y71.075 E.01682
G1 X188.93 Y74.294 E.14311
G1 X188.93 Y74.829 E.01682
G1 X185.176 Y71.075 E.16689
G1 X184.641 Y71.075 E.01682
G1 X188.93 Y75.363 E.19066
G1 X188.93 Y75.898 E.01682
G1 X184.107 Y71.075 E.21442
G1 X183.572 Y71.075 E.01682
G1 X188.93 Y76.433 E.2382
G1 X188.93 Y76.967 E.01679
G1 X183.037 Y71.075 E.26197
G1 X182.502 Y71.075 E.01682
G1 X188.93 Y77.502 E.28575
G1 X188.93 Y78.037 E.01682
G1 X181.968 Y71.075 E.30951
G1 X181.433 Y71.075 E.01682
G1 X188.93 Y78.571 E.33328
G1 X188.93 Y79.106 E.01682
G1 X180.898 Y71.074 E.35708
G1 X180.363 Y71.074 E.01682
G1 X188.93 Y79.641 E.38087
G1 X188.93 Y80.175 E.01679
G1 X179.829 Y71.074 E.40461
G1 X179.294 Y71.074 E.01682
G1 X188.93 Y80.71 E.42839
G1 X188.93 Y81.245 E.01682
G1 X178.759 Y71.074 E.45218
G1 X178.224 Y71.074 E.01682
G1 X188.93 Y81.779 E.47594
G1 X188.93 Y82.314 E.01682
G1 X177.69 Y71.074 E.4997
G1 X177.155 Y71.074 E.01682
G1 X188.93 Y82.849 E.52349
G1 X188.93 Y83.383 E.01679
G1 X176.62 Y71.074 E.54725
G1 X176.086 Y71.074 E.01679
G1 X188.93 Y83.918 E.57101
G1 X188.93 Y84.453 E.01682
G1 X175.551 Y71.074 E.5948
G1 X175.016 Y71.074 E.01682
G1 X188.93 Y84.987 E.61856
G1 X188.93 Y85.522 E.01682
G1 X174.481 Y71.074 E.64234
G1 X173.947 Y71.074 E.01679
G1 X188.93 Y86.057 E.66611
G1 X188.93 Y86.591 E.01679
G1 X173.412 Y71.073 E.68989
G1 X172.877 Y71.073 E.01682
G1 X188.93 Y87.126 E.71368
G1 X188.93 Y87.661 E.01682
G1 X172.342 Y71.073 E.73746
G1 X171.808 Y71.073 E.01679
G1 X188.93 Y88.195 E.7612
G1 X188.93 Y88.73 E.01682
G1 X171.273 Y71.073 E.78499
G1 X170.738 Y71.073 E.01682
G1 X188.93 Y89.265 E.80877
G1 X188.93 Y89.799 E.01679
G1 X170.203 Y71.073 E.83253
G1 X169.669 Y71.073 E.01679
G1 X188.93 Y90.334 E.8563
G1 X188.93 Y90.869 E.01682
G1 X169.134 Y71.073 E.88008
G1 X168.599 Y71.073 E.01682
G1 X188.93 Y91.403 E.90384
G1 X188.93 Y91.938 E.01682
G1 X168.064 Y71.073 E.92763
G1 X167.53 Y71.073 E.01679
G1 X188.93 Y92.473 E.95139
G1 X188.93 Y93.007 E.01679
G1 X166.995 Y71.073 E.97515
G1 X166.46 Y71.072 E.01682
G1 X188.93 Y93.542 E.99896
G1 X188.93 Y94.077 E.01682
G1 X165.925 Y71.072 E1.02275
G1 X165.391 Y71.072 E.01679
M73 P1 R121
G1 X188.93 Y94.611 E1.04649
G1 X188.93 Y95.146 E.01682
G1 X164.856 Y71.072 E1.07027
G1 X164.321 Y71.072 E.01682
G1 X188.93 Y95.681 E1.09406
G1 X188.93 Y96.215 E.01679
G1 X163.787 Y71.072 E1.1178
G1 X163.252 Y71.072 E.01682
G1 X188.93 Y96.75 E1.14158
G1 X188.93 Y97.285 E.01682
G1 X162.717 Y71.072 E1.16537
G1 X162.182 Y71.072 E.01682
G1 X188.93 Y97.819 E1.18913
G1 X188.93 Y98.354 E.01682
G1 X161.648 Y71.072 E1.21289
G1 X161.113 Y71.072 E.01682
G1 X188.93 Y98.889 E1.23668
G1 X188.93 Y99.423 E.01679
G1 X160.578 Y71.072 E1.26044
G1 X160.043 Y71.072 E.01682
G1 X188.93 Y99.958 E1.28422
G1 X188.93 Y100.493 E.01682
G1 X159.509 Y71.072 E1.30799
G1 X158.974 Y71.071 E.01682
G1 X188.93 Y101.027 E1.33177
G1 X188.93 Y101.562 E.01682
G1 X158.439 Y71.071 E1.35556
G1 X157.904 Y71.071 E.01682
G1 X188.93 Y102.097 E1.37934
G1 X188.93 Y102.631 E.01679
G1 X157.37 Y71.071 E1.40308
G1 X156.835 Y71.071 E.01682
M73 P2 R121
G1 X188.93 Y103.166 E1.42686
G1 X188.93 Y103.701 E.01682
G1 X156.3 Y71.071 E1.45065
G1 X155.765 Y71.071 E.01682
G1 X188.93 Y104.235 E1.47441
G1 X188.93 Y104.77 E.01682
G1 X155.231 Y71.071 E1.49817
G1 X154.696 Y71.071 E.01682
G1 X188.93 Y105.305 E1.52196
G1 X188.93 Y105.839 E.01679
G1 X154.161 Y71.071 E1.54572
G1 X153.626 Y71.071 E.01682
G1 X188.93 Y106.374 E1.56951
G1 X188.93 Y106.909 E.01682
G1 X153.092 Y71.071 E1.59327
G1 X152.557 Y71.071 E.01682
G1 X188.93 Y107.443 E1.61703
G1 X188.93 Y107.978 E.01682
G1 X152.022 Y71.07 E1.64084
G1 X151.488 Y71.07 E.01679
G1 X188.93 Y108.513 E1.6646
G1 X188.93 Y109.047 E.01679
M73 P2 R120
G1 X150.953 Y71.07 E1.68836
G1 X150.418 Y71.07 E.01682
G1 X188.93 Y109.582 E1.71215
G1 X188.93 Y110.117 E.01682
G1 X149.883 Y71.07 E1.73593
G1 X149.349 Y71.07 E.01679
G1 X188.93 Y110.651 E1.75967
G1 X188.93 Y111.186 E.01682
G1 X148.814 Y71.07 E1.78346
G1 X148.57 Y71.07 E.00767
G1 X148.57 Y71.361 E.00915
G1 X188.93 Y111.721 E1.79431
G1 X188.93 Y112.255 E.01679
G1 X148.57 Y71.895 E1.79431
G1 X148.57 Y72.43 E.01682
G1 X188.93 Y112.79 E1.79431
G1 X188.93 Y113.325 E.01682
G1 X148.57 Y72.965 E1.79431
G1 X148.57 Y73.499 E.01679
G1 X188.93 Y113.859 E1.79431
G1 X188.93 Y114.394 E.01682
G1 X148.57 Y74.034 E1.79431
G1 X148.57 Y74.569 E.01682
G1 X188.93 Y114.929 E1.79431
G1 X188.93 Y115.463 E.01679
G1 X148.57 Y75.103 E1.79431
G1 X148.57 Y75.638 E.01682
G1 X188.93 Y115.998 E1.79431
G1 X188.93 Y116.533 E.01682
G1 X148.57 Y76.173 E1.79431
G1 X148.57 Y76.707 E.01679
G1 X188.93 Y117.067 E1.79431
G1 X188.93 Y117.602 E.01682
M73 P3 R120
G1 X148.57 Y77.242 E1.79431
G1 X148.57 Y77.777 E.01682
G1 X188.93 Y118.137 E1.79431
G1 X188.93 Y118.671 E.01679
G1 X148.57 Y78.311 E1.79431
G1 X148.57 Y78.846 E.01682
G1 X188.93 Y119.206 E1.79431
G1 X188.93 Y119.741 E.01682
G1 X148.57 Y79.381 E1.79431
G1 X148.57 Y79.915 E.01679
M73 P3 R119
G1 X188.93 Y120.275 E1.79431
G1 X188.93 Y120.81 E.01682
G1 X148.57 Y80.45 E1.79431
G1 X148.57 Y80.985 E.01682
G1 X188.93 Y121.345 E1.79431
G1 X188.93 Y121.879 E.01679
G1 X148.57 Y81.519 E1.79431
G1 X148.57 Y82.054 E.01682
G1 X188.93 Y122.414 E1.79431
G1 X188.93 Y122.949 E.01682
G1 X148.57 Y82.589 E1.79431
G1 X148.57 Y83.123 E.01679
G1 X188.93 Y123.483 E1.79431
G1 X188.93 Y124.018 E.01682
G1 X148.57 Y83.658 E1.79431
G1 X148.57 Y84.193 E.01682
G1 X188.93 Y124.553 E1.79431
G1 X188.93 Y125.087 E.01679
G1 X148.57 Y84.727 E1.79431
G1 X148.57 Y85.262 E.01682
G1 X188.93 Y125.622 E1.79431
G1 X188.93 Y126.157 E.01682
G1 X148.57 Y85.797 E1.79431
G1 X148.57 Y86.331 E.01679
G1 X188.93 Y126.691 E1.79431
G1 X188.93 Y127.226 E.01682
G1 X148.57 Y86.866 E1.79431
G1 X148.57 Y87.401 E.01682
G1 X188.93 Y127.761 E1.79431
G1 X188.93 Y128.295 E.01679
G1 X148.57 Y87.935 E1.79431
G1 X148.57 Y88.47 E.01682
G1 X188.93 Y128.83 E1.79431
G1 X188.93 Y129.365 E.01682
G1 X148.57 Y89.005 E1.79431
G1 X148.57 Y89.539 E.01679
G1 X188.93 Y129.899 E1.79431
G1 X188.93 Y130.434 E.01682
G1 X148.57 Y90.074 E1.79431
G1 X148.57 Y90.609 E.01682
G1 X188.93 Y130.969 E1.79431
G1 X188.93 Y131.503 E.01679
M73 P4 R118
G1 X148.57 Y91.143 E1.79431
G1 X148.57 Y91.678 E.01682
G1 X188.93 Y132.038 E1.79431
G1 X188.93 Y132.573 E.01682
G1 X148.57 Y92.213 E1.79431
G1 X148.57 Y92.747 E.01679
G1 X188.93 Y133.107 E1.79431
G1 X188.93 Y133.642 E.01682
G1 X148.57 Y93.282 E1.79431
G1 X148.57 Y93.817 E.01682
G1 X188.93 Y134.177 E1.79431
G1 X188.93 Y134.711 E.01679
G1 X148.57 Y94.351 E1.79431
G1 X148.57 Y94.886 E.01682
G1 X188.93 Y135.246 E1.79431
G1 X188.93 Y135.781 E.01682
G1 X148.57 Y95.421 E1.79431
G1 X148.57 Y95.955 E.01679
G1 X188.93 Y136.315 E1.79431
G1 X188.93 Y136.85 E.01682
G1 X148.57 Y96.49 E1.79431
G1 X148.57 Y97.025 E.01682
G1 X188.93 Y137.385 E1.79431
G1 X188.93 Y137.919 E.01679
G1 X148.57 Y97.559 E1.79431
G1 X148.57 Y98.094 E.01682
G1 X188.846 Y138.37 E1.79057
G1 X188.769 Y138.515 E.00516
G1 X188.622 Y138.681 E.00697
G1 X148.57 Y98.629 E1.78061
G1 X148.57 Y99.163 E.01679
G1 X188.283 Y138.876 E1.76554
G1 X188.18 Y138.907 E.00338
G1 X187.802 Y138.93 E.0119
G1 X148.57 Y99.698 E1.74416
G1 X148.57 Y100.233 E.01682
G1 X187.267 Y138.93 E1.72037
G1 X186.733 Y138.93 E.01679
G1 X148.57 Y100.767 E1.69663
G1 X148.57 Y101.302 E.01682
G1 X186.198 Y138.93 E1.67285
G1 X185.663 Y138.93 E.01682
G1 X148.57 Y101.837 E1.64906
G1 X148.57 Y102.371 E.01679
M73 P4 R117
G1 X185.129 Y138.93 E1.62532
G1 X184.594 Y138.93 E.01682
G1 X148.57 Y102.906 E1.60154
G1 X148.57 Y103.441 E.01682
G1 X184.059 Y138.93 E1.57775
G1 X183.525 Y138.93 E.01679
G1 X148.57 Y103.975 E1.55401
G1 X148.57 Y104.51 E.01682
G1 X182.99 Y138.93 E1.53023
G1 X182.455 Y138.93 E.01682
G1 X148.57 Y105.045 E1.50644
G1 X148.57 Y105.579 E.01679
M73 P5 R117
G1 X181.921 Y138.93 E1.4827
G1 X181.386 Y138.93 E.01682
G1 X148.57 Y106.114 E1.45892
G1 X148.57 Y106.649 E.01682
G1 X180.851 Y138.93 E1.43513
G1 X180.317 Y138.93 E.01679
G1 X148.57 Y107.183 E1.41139
G1 X148.57 Y107.718 E.01682
G1 X179.782 Y138.93 E1.38761
G1 X179.247 Y138.93 E.01682
G1 X148.57 Y108.253 E1.36382
G1 X148.57 Y108.787 E.01679
G1 X178.713 Y138.93 E1.34008
G1 X178.178 Y138.93 E.01682
G1 X148.57 Y109.322 E1.3163
G1 X148.57 Y109.857 E.01682
G1 X177.643 Y138.93 E1.29251
G1 X177.109 Y138.93 E.01679
G1 X148.57 Y110.391 E1.26877
G1 X148.57 Y110.926 E.01682
G1 X176.574 Y138.93 E1.24499
G1 X176.039 Y138.93 E.01682
G1 X148.57 Y111.461 E1.2212
G1 X148.57 Y111.995 E.01679
G1 X175.505 Y138.93 E1.19746
G1 X174.97 Y138.93 E.01682
G1 X148.57 Y112.53 E1.17368
G1 X148.57 Y113.065 E.01682
G1 X174.435 Y138.93 E1.14989
G1 X173.901 Y138.93 E.01679
G1 X148.57 Y113.599 E1.12615
G1 X148.57 Y114.134 E.01682
G1 X173.366 Y138.93 E1.10237
G1 X172.831 Y138.93 E.01682
G1 X148.57 Y114.669 E1.07858
G1 X148.57 Y115.203 E.01679
G1 X172.297 Y138.93 E1.05484
G1 X171.762 Y138.93 E.01682
G1 X148.57 Y115.738 E1.03106
G1 X148.57 Y116.273 E.01682
G1 X171.227 Y138.93 E1.00727
G1 X170.693 Y138.93 E.01679
G1 X148.57 Y116.807 E.98353
G1 X148.57 Y117.342 E.01682
G1 X170.158 Y138.93 E.95975
G1 X169.623 Y138.93 E.01682
M73 P5 R116
G1 X148.57 Y117.877 E.93596
G1 X148.57 Y118.411 E.01679
G1 X169.089 Y138.93 E.91222
G1 X168.554 Y138.93 E.01682
G1 X148.57 Y118.946 E.88844
G1 X148.57 Y119.481 E.01682
G1 X168.019 Y138.93 E.86465
G1 X167.485 Y138.93 E.01679
G1 X148.57 Y120.015 E.84091
G1 X148.57 Y120.55 E.01682
G1 X166.95 Y138.93 E.81713
G1 X166.415 Y138.93 E.01682
G1 X148.57 Y121.085 E.79334
G1 X148.57 Y121.619 E.01679
G1 X165.881 Y138.93 E.7696
G1 X165.346 Y138.93 E.01682
G1 X148.57 Y122.154 E.74582
G1 X148.57 Y122.689 E.01682
G1 X164.811 Y138.93 E.72204
G1 X164.277 Y138.93 E.01679
G1 X148.57 Y123.223 E.69829
G1 X148.57 Y123.758 E.01682
G1 X163.742 Y138.93 E.67451
G1 X163.207 Y138.93 E.01682
G1 X148.57 Y124.293 E.65073
G1 X148.57 Y124.827 E.01679
G1 X162.673 Y138.93 E.62698
G1 X162.138 Y138.93 E.01682
G1 X148.57 Y125.362 E.6032
G1 X148.57 Y125.897 E.01682
G1 X161.603 Y138.93 E.57942
G1 X161.069 Y138.93 E.01679
G1 X148.57 Y126.431 E.55567
G1 X148.57 Y126.966 E.01682
G1 X160.534 Y138.93 E.53189
G1 X159.999 Y138.93 E.01682
G1 X148.57 Y127.501 E.50811
G1 X148.57 Y128.035 E.01679
G1 X159.465 Y138.93 E.48436
G1 X158.93 Y138.93 E.01682
G1 X148.57 Y128.57 E.46058
G1 X148.57 Y129.105 E.01682
G1 X158.395 Y138.93 E.4368
G1 X157.861 Y138.93 E.01679
G1 X148.57 Y129.639 E.41306
G1 X148.57 Y130.174 E.01682
G1 X157.326 Y138.93 E.38927
G1 X156.791 Y138.93 E.01682
G1 X148.57 Y130.709 E.36549
G1 X148.57 Y131.243 E.01679
G1 X156.257 Y138.93 E.34175
G1 X155.722 Y138.93 E.01682
M73 P6 R116
G1 X148.57 Y131.778 E.31796
G1 X148.57 Y132.313 E.01682
G1 X155.187 Y138.93 E.29418
G1 X154.653 Y138.93 E.01679
G1 X148.57 Y132.847 E.27044
G1 X148.57 Y133.382 E.01682
G1 X154.118 Y138.93 E.24665
G1 X153.583 Y138.93 E.01682
G1 X148.57 Y133.917 E.22287
