; generated by PrusaSlicer 2.5.0+linux-x64-GTK3 on 2022-09-09 at 20:22:29 UTC

; 

; external perimeters extrusion width = 0.60mm
; perimeters extrusion width = 0.43mm
; infill extrusion width = 0.45mm
; solid infill extrusion width = 0.70mm
; top infill extrusion width = 0.43mm
; first layer extrusion width = 0.42mm

M73 P0 R124
M201 X9000 Y9000 Z500 E10000 ; sets maximum accelerations, mm/sec^2
M203 X500 Y500 Z12 E120 ; sets maximum feedrates, mm / sec
M204 P2000 R1500 T2000 ; sets acceleration (P, T) and retract acceleration (R), mm/sec^2
M205 X10.00 Y10.00 Z0.20 E4.50 ; sets the jerk limits, mm/sec
M205 S0 T0 ; sets the minimum extruding and travel feed rate, mm/sec
M107
;TYPE:Custom
M862.3 P "MK2.5" ; printer model check
M862.1 P0.4 ; nozzle diameter check
M115 U3.11.0 ; tell printer latest fw version
G90 ; use absolute coordinates
M83 ; extruder relative mode
M104 S215 ; set extruder temp
M140 S60 ; set bed temp
M190 S60 ; wait for bed temp
M109 S215 ; wait for extruder temp
G28 W ; home all without mesh bed level
G80 ; mesh bed leveling

G1 Z0.2 F720
G1 Y-3 F1000 ; go outside print area
G92 E0
G1 X60 E9 F1000 ; intro line
G1 X100 E12.5 F1000 ; intro line

G92 E0
G21 ; set units to millimeters
G90 ; use absolute coordinates
M83 ; use relative distances for extrusion
M900 K0.05 ; Filament gcode LA 1.5
M900 K30 ; Filament gcode LA 1.0
M107
;LAYER_CHANGE
;Z:0.2
;HEIGHT:0.2
;BEFORE_LAYER_CHANGE
G92 E0.0
;0.2


G1 E-.8 F2100
G1 Z.4 F720
;AFTER_LAYER_CHANGE
;0.2
;CURRENT_Z: 0.2
G1 X58.748 Y69.078 F10800
G1 Z.2 F720
G1 E.8 F2100
M204 S800
;TYPE:Skirt/Brim
;WIDTH:0.42
G1 F1200
G1 X59.768 Y68.241 E.04137
G1 X60.92 Y67.764 E.03908
G1 X62 Y67.623 E.03416
G1 X188.233 Y67.634 E3.95795
G1 X189.08 Y67.764 E.02687
G1 X189.886 Y68.056 E.02687
G1 X190.619 Y68.5 E.02687
G1 X191.252 Y69.078 E.02687
G1 X191.759 Y69.768 E.02687
G1 X192.122 Y70.545 E.02687
G1 X192.327 Y71.377 E.02687
G1 X192.377 Y72 E.0196
G1 X192.377 Y138 E2.06938
G1 X192.236 Y139.08 E.03416
G1 X191.759 Y140.232 E.03908
G1 X191.252 Y140.922 E.02687
G1 X190.232 Y141.759 E.04137
G1 X189.08 Y142.236 E.03908
G1 X188 Y142.377 E.03416
G1 X62 Y142.377 E3.95064
G1 X60.92 Y142.236 E.03416
G1 X59.768 Y141.759 E.03908
G1 X58.748 Y140.922 E.04137
G1 X58.241 Y140.232 E.02687
G1 X57.764 Y139.08 E.03908
G1 X57.623 Y138 E.03416
G1 X57.623 Y72 E2.06938
G1 X57.764 Y70.92 E.03416
M73 P0 R123
G1 X58.241 Y69.768 E.03908
G1 X58.713 Y69.126 E.02499
M204 S1000
; printing object c1.stl id:0 copy 0
;WIPE_START
G1 F8640
G1 X59.768 Y68.241 E-.31814
G1 X60.92 Y67.764 E-.28778
G1 X61.581 Y67.677 E-.15408
;WIPE_END
G1 E-.04 F2100
G1 Z.6 F720
G1 X147.763 Y135.783 F10800
G1 Z.2 F720
G1 E.8 F2100
M204 S800
;TYPE:Perimeter
;WIDTH:0.419999
G1 F1200
G1 X147.819 Y135.779 E.00177
G1 X148.061 Y135.674 E.00826
G1 X148.244 Y135.439 E.00933
G1 X148.287 Y135.221 E.00696
G1 X148.287 Y70.787 E2.02029
G1 X187.961 Y70.787 E1.24396
G1 X188.463 Y70.883 E.016
G1 X188.855 Y71.145 E.01479
G1 X189.117 Y71.537 E.01479
G1 X189.213 Y72.039 E.01601
G1 X189.213 Y137.961 E2.06695
G1 X189.117 Y138.463 E.01601
G1 X188.855 Y138.855 E.01479
G1 X188.463 Y139.117 E.01479
G1 X187.961 Y139.213 E.016
G1 X62.039 Y139.213 E3.94821
G1 X61.537 Y139.117 E.016
G1 X61.145 Y138.855 E.01479
G1 X60.883 Y138.463 E.01479
G1 X60.787 Y137.961 E.01601
G1 X60.787 Y72.039 E2.06695
G1 X60.883 Y71.537 E.01601
G1 X61.145 Y71.145 E.01479
G1 X61.537 Y70.883 E.01479
G1 X62.039 Y70.787 E.016
G1 X101.713 Y70.787 E1.24396
G1 X101.713 Y135.221 E2.02029
G1 X101.722 Y135.323 E.00321
G1 X101.826 Y135.561 E.00812
G1 X102.095 Y135.757 E.01043
G1 X102.279 Y135.787 E.00583
G1 X147.703 Y135.787 E1.42425
M204 S1000
G1 X147.721 Y135.41 F10800
M204 S800
;TYPE:External perimeter
G1 F1200
G1 X147.835 Y135.372 E.00374
G1 X147.91 Y135.221 E.00529
G1 X147.91 Y70.41 E2.03211
G1 X187.897 Y70.41 E1.25375
G1 X188.155 Y70.427 E.00811
G1 X188.608 Y70.533 E.01458
G1 X189.003 Y70.778 E.01458
G1 X189.32 Y71.118 E.01458
G1 X189.512 Y71.541 E.01458
G1 X189.59 Y72.02 E.01521
G1 X189.59 Y137.897 E2.06551
G1 X189.573 Y138.155 E.00811
G1 X189.467 Y138.608 E.01458
G1 X189.222 Y139.003 E.01458
G1 X188.882 Y139.32 E.01458
G1 X188.459 Y139.512 E.01458
G1 X187.98 Y139.59 E.01521
G1 X62.103 Y139.59 E3.94676
G1 X61.845 Y139.573 E.00811
G1 X61.392 Y139.467 E.01458
G1 X60.997 Y139.222 E.01458
G1 X60.68 Y138.882 E.01458
G1 X60.488 Y138.459 E.01458
G1 X60.41 Y137.98 E.01521
G1 X60.41 Y72.103 E2.06551
G1 X60.427 Y71.845 E.00811
G1 X60.533 Y71.392 E.01458
G1 X60.778 Y70.997 E.01458
G1 X61.118 Y70.68 E.01458
G1 X61.541 Y70.488 E.01458
G1 X62.02 Y70.41 E.01521
G1 X102.09 Y70.41 E1.25636
G1 X102.09 Y135.221 E2.03211
M73 P1 R123
G1 X102.128 Y135.335 E.00374
G1 X102.279 Y135.41 E.00529
G1 X147.661 Y135.41 E1.42295
M204 S1000
G1 X147.802 Y135.498 F10800
;WIPE_START
G1 F8640
G1 X147.835 Y135.372 E-.04091
G1 X147.91 Y135.221 E-.03894
G1 X147.91 Y132.276 E-.68015
;WIPE_END
G1 E-.04 F2100
G1 Z.6 F720
G1 X187.674 Y70.9 F10800
G1 Z.2 F720
G1 E.8 F2100
M204 S800
;TYPE:Solid infill
;WIDTH:0.420983
G1 F1200
G1 X188.93 Y72.156 E.05584
G1 X188.93 Y72.691 E.01681
G1 X187.309 Y71.07 E.07206
G1 X186.774 Y71.07 E.01681
G1 X188.93 Y73.226 E.09583
G1 X188.93 Y73.76 E.01681
G1 X186.24 Y71.07 E.1196
G1 X185.705 Y71.07 E.01681
G1 X188.93 Y74.295 E.14337
G1 X188.93 Y74.829 E.01681
G1 X185.171 Y71.07 E.16714
G1 X184.636 Y71.07 E.01681
G1 X188.93 Y75.364 E.19091
G1 X188.93 Y75.899 E.01681
G1 X184.101 Y71.07 E.21468
G1 X183.567 Y71.07 E.01681
G1 X188.93 Y76.433 E.23845
G1 X188.93 Y76.968 E.01681
G1 X183.032 Y71.07 E.26222
G1 X182.497 Y71.07 E.01681
G1 X188.93 Y77.503 E.28599
G1 X188.93 Y78.037 E.01681
M73 P1 R122
G1 X181.963 Y71.07 E.30976
G1 X181.428 Y71.07 E.01681
G1 X188.93 Y78.572 E.33353
G1 X188.93 Y79.107 E.01681
G1 X180.893 Y71.07 E.3573
G1 X180.359 Y71.07 E.01681
G1 X188.93 Y79.641 E.38107
G1 X188.93 Y80.176 E.01681
G1 X179.824 Y71.07 E.40484
G1 X179.289 Y71.07 E.01681
G1 X188.93 Y80.711 E.42861
G1 X188.93 Y81.245 E.01681
G1 X178.755 Y71.07 E.45238
G1 X178.22 Y71.07 E.01681
G1 X188.93 Y81.78 E.47615
G1 X188.93 Y82.315 E.01681
G1 X177.685 Y71.07 E.49992
G1 X177.151 Y71.07 E.01681
G1 X188.93 Y82.849 E.52369
G1 X188.93 Y83.384 E.01681
G1 X176.616 Y71.07 E.54746
G1 X176.081 Y71.07 E.01681
G1 X188.93 Y83.919 E.57123
G1 X188.93 Y84.453 E.01681
G1 X175.547 Y71.07 E.595
G1 X175.012 Y71.07 E.01681
G1 X188.93 Y84.988 E.61877
G1 X188.93 Y85.523 E.01681
G1 X174.477 Y71.07 E.64254
G1 X173.943 Y71.07 E.01681
G1 X188.93 Y86.057 E.66631
G1 X188.93 Y86.592 E.01681
G1 X173.408 Y71.07 E.69007
G1 X172.873 Y71.07 E.01681
G1 X188.93 Y87.127 E.71384
G1 X188.93 Y87.661 E.01681
G1 X172.339 Y71.07 E.73761
G1 X171.804 Y71.07 E.01681
G1 X188.93 Y88.196 E.76138
G1 X188.93 Y88.731 E.01681
G1 X171.269 Y71.07 E.78515
G1 X170.735 Y71.07 E.01681
G1 X188.93 Y89.265 E.80892
G1 X188.93 Y89.8 E.01681
G1 X170.2 Y71.07 E.83269
G1 X169.665 Y71.07 E.01681
G1 X188.93 Y90.335 E.85646
G1 X188.93 Y90.869 E.01681
G1 X169.131 Y71.07 E.88023
G1 X168.596 Y71.07 E.01681
G1 X188.93 Y91.404 E.904
G1 X188.93 Y91.939 E.01681
G1 X168.061 Y71.07 E.92777
G1 X167.527 Y71.07 E.01681
G1 X188.93 Y92.473 E.95154
G1 X188.93 Y93.008 E.01681
G1 X166.992 Y71.07 E.97531
G1 X166.457 Y71.07 E.01681
G1 X188.93 Y93.543 E.99908
G1 X188.93 Y94.077 E.01681
G1 X165.923 Y71.07 E1.02285
G1 X165.388 Y71.07 E.01681
G1 X188.93 Y94.612 E1.04662
G1 X188.93 Y95.147 E.01681
G1 X164.853 Y71.07 E1.07039
G1 X164.319 Y71.07 E.01681
G1 X188.93 Y95.681 E1.09416
G1 X188.93 Y96.216 E.01681
G1 X163.784 Y71.07 E1.11793
G1 X163.249 Y71.07 E.01681
G1 X188.93 Y96.751 E1.1417
G1 X188.93 Y97.285 E.01681
G1 X162.715 Y71.07 E1.16547
G1 X162.18 Y71.07 E.01681
G1 X188.93 Y97.82 E1.18924
G1 X188.93 Y98.355 E.01681
G1 X161.645 Y71.07 E1.21301
G1 X161.111 Y71.07 E.01681
G1 X188.93 Y98.889 E1.23678
G1 X188.93 Y99.424 E.01681
G1 X160.576 Y71.07 E1.26055
G1 X160.041 Y71.07 E.01681
G1 X188.93 Y99.959 E1.28432
G1 X188.93 Y100.493 E.01681
G1 X159.507 Y71.07 E1.30809
G1 X158.972 Y71.07 E.01681
G1 X188.93 Y101.028 E1.33185
G1 X188.93 Y101.563 E.01681
G1 X158.437 Y71.07 E1.35562
G1 X157.903 Y71.07 E.01681
M73 P1 R121
G1 X188.93 Y102.097 E1.37939
G1 X188.93 Y102.632 E.01681
G1 X157.368 Y71.07 E1.40316
G1 X156.833 Y71.07 E.01681
M73 P2 R121
G1 X188.93 Y103.167 E1.42693
G1 X188.93 Y103.701 E.01681
G1 X156.299 Y71.07 E1.4507
G1 X155.764 Y71.07 E.01681
G1 X188.93 Y104.236 E1.47447
G1 X188.93 Y104.771 E.01681
G1 X155.229 Y71.07 E1.49824
G1 X154.695 Y71.07 E.01681
G1 X188.93 Y105.305 E1.52201
G1 X188.93 Y105.84 E.01681
G1 X154.16 Y71.07 E1.54578
G1 X153.625 Y71.07 E.01681
G1 X188.93 Y106.375 E1.56955
G1 X188.93 Y106.909 E.01681
G1 X153.091 Y71.07 E1.59332
G1 X152.556 Y71.07 E.01681
G1 X188.93 Y107.444 E1.61709
G1 X188.93 Y107.979 E.01681
G1 X152.021 Y71.07 E1.64086
G1 X151.487 Y71.07 E.01681
G1 X188.93 Y108.513 E1.66463
G1 X188.93 Y109.048 E.01681
G1 X150.952 Y71.07 E1.6884
G1 X150.417 Y71.07 E.01681
G1 X188.93 Y109.583 E1.71217
G1 X188.93 Y110.117 E.01681
G1 X149.883 Y71.07 E1.73594
G1 X149.348 Y71.07 E.01681
G1 X188.93 Y110.652 E1.75971
G1 X188.93 Y111.187 E.01681
G1 X148.813 Y71.07 E1.78348
G1 X148.57 Y71.07 E.00766
G1 X148.57 Y71.361 E.00915
G1 X188.93 Y111.721 E1.79431
G1 X188.93 Y112.256 E.01681
G1 X148.57 Y71.896 E1.79431
G1 X148.57 Y72.43 E.01681
G1 X188.93 Y112.79 E1.79431
G1 X188.93 Y113.325 E.01681
G1 X148.57 Y72.965 E1.79431
G1 X148.57 Y73.5 E.01681
G1 X188.93 Y113.86 E1.79431
G1 X188.93 Y114.394 E.01681
M73 P2 R120
G1 X148.57 Y74.034 E1.79431
G1 X148.57 Y74.569 E.01681
G1 X188.93 Y114.929 E1.79431
G1 X188.93 Y115.464 E.01681
G1 X148.57 Y75.104 E1.79431
G1 X148.57 Y75.638 E.01681
G1 X188.93 Y115.998 E1.79431
G1 X188.93 Y116.533 E.01681
G1 X148.57 Y76.173 E1.79431
G1 X148.57 Y76.708 E.01681
G1 X188.93 Y117.068 E1.79431
G1 X188.93 Y117.602 E.01681
G1 X148.57 Y77.242 E1.79431
G1 X148.57 Y77.777 E.01681
M73 P3 R120
G1 X188.93 Y118.137 E1.79431
G1 X188.93 Y118.672 E.01681
G1 X148.57 Y78.312 E1.79431
G1 X148.57 Y78.846 E.01681
G1 X188.93 Y119.206 E1.79431
G1 X188.93 Y119.741 E.01681
G1 X148.57 Y79.381 E1.79431
G1 X148.57 Y79.915 E.01681
G1 X188.93 Y120.276 E1.79431
G1 X188.93 Y120.81 E.01681
G1 X148.57 Y80.45 E1.79431
G1 X148.57 Y80.985 E.01681
G1 X188.93 Y121.345 E1.79431
G1 X188.93 Y121.88 E.01681
G1 X148.57 Y81.519 E1.79431
G1 X148.57 Y82.054 E.01681
G1 X188.93 Y122.414 E1.79431
G1 X188.93 Y122.949 E.01681
G1 X148.57 Y82.589 E1.79431
G1 X148.57 Y83.123 E.01681
G1 X188.93 Y123.484 E1.79431
G1 X188.93 Y124.018 E.01681
G1 X148.57 Y83.658 E1.79431
G1 X148.57 Y84.193 E.01681
G1 X188.93 Y124.553 E1.79431
G1 X188.93 Y125.088 E.01681
G1 X148.57 Y84.727 E1.79431
G1 X148.57 Y85.262 E.01681
M73 P3 R119
G1 X188.93 Y125.622 E1.79431
G1 X188.93 Y126.157 E.01681
G1 X148.57 Y85.797 E1.79431
G1 X148.57 Y86.331 E.01681
G1 X188.93 Y126.692 E1.79431
G1 X188.93 Y127.226 E.01681
G1 X148.57 Y86.866 E1.79431
G1 X148.57 Y87.401 E.01681
G1 X188.93 Y127.761 E1.79431
G1 X188.93 Y128.296 E.01681
G1 X148.57 Y87.935 E1.79431
G1 X148.57 Y88.47 E.01681
G1 X188.93 Y128.83 E1.79431
G1 X188.93 Y129.365 E.01681
G1 X148.57 Y89.005 E1.79431
G1 X148.57 Y89.539 E.01681
G1 X188.93 Y129.9 E1.79431
G1 X188.93 Y130.434 E.01681
G1 X148.57 Y90.074 E1.79431
G1 X148.57 Y90.609 E.01681
G1 X188.93 Y130.969 E1.79431
G1 X188.93 Y131.504 E.01681
M73 P4 R119
G1 X148.57 Y91.143 E1.79431
G1 X148.57 Y91.678 E.01681
G1 X188.93 Y132.038 E1.79431
G1 X188.93 Y132.573 E.01681
G1 X148.57 Y92.213 E1.79431
G1 X148.57 Y92.747 E.01681
G1 X188.93 Y133.108 E1.79431
G1 X188.93 Y133.642 E.01681
G1 X148.57 Y93.282 E1.79431
G1 X148.57 Y93.817 E.01681
G1 X188.93 Y134.177 E1.79431
G1 X188.93 Y134.712 E.01681
G1 X148.57 Y94.351 E1.79431
G1 X148.57 Y94.886 E.01681
G1 X188.93 Y135.246 E1.79431
G1 X188.93 Y135.781 E.01681
G1 X148.57 Y95.421 E1.79431
G1 X148.57 Y95.955 E.01681
M73 P4 R118
G1 X188.93 Y136.316 E1.79431
G1 X188.93 Y136.85 E.01681
G1 X148.57 Y96.49 E1.79431
G1 X148.57 Y97.025 E.01681
G1 X188.93 Y137.385 E1.79431
G1 X188.93 Y137.92 E.01681
G1 X148.57 Y97.559 E1.79431
G1 X148.57 Y98.094 E.01681
G1 X188.846 Y138.37 E1.79057
G1 X188.769 Y138.514 E.00513
G1 X188.622 Y138.681 E.00699
G1 X148.57 Y98.629 E1.7806
G1 X148.57 Y99.163 E.01681
G1 X188.283 Y138.876 E1.76553
G1 X188.18 Y138.907 E.00336
G1 X187.802 Y138.93 E.01192
G1 X148.57 Y99.698 E1.74416
G1 X148.57 Y100.233 E.01681
G1 X187.267 Y138.93 E1.72039
G1 X186.733 Y138.93 E.01681
G1 X148.57 Y100.767 E1.69662
G1 X148.57 Y101.302 E.01681
G1 X186.198 Y138.93 E1.67285
G1 X185.663 Y138.93 E.01681
G1 X148.57 Y101.837 E1.64908
G1 X148.57 Y102.371 E.01681
G1 X185.129 Y138.93 E1.62531
G1 X184.594 Y138.93 E.01681
G1 X148.57 Y102.906 E1.60154
G1 X148.57 Y103.441 E.01681
G1 X184.059 Y138.93 E1.57777
G1 X183.525 Y138.93 E.01681
G1 X148.57 Y103.975 E1.554
G1 X148.57 Y104.51 E.01681
G1 X182.99 Y138.93 E1.53023
G1 X182.455 Y138.93 E.01681
G1 X148.57 Y105.045 E1.50646
G1 X148.57 Y105.579 E.01681
M73 P5 R118
G1 X181.921 Y138.93 E1.48269
G1 X181.386 Y138.93 E.01681
G1 X148.57 Y106.114 E1.45892
G1 X148.57 Y106.649 E.01681
G1 X180.851 Y138.93 E1.43515
G1 X180.317 Y138.93 E.01681
G1 X148.57 Y107.183 E1.41138
G1 X148.57 Y107.718 E.01681
G1 X179.782 Y138.93 E1.38761
G1 X179.247 Y138.93 E.01681
M73 P5 R117
G1 X148.57 Y108.253 E1.36384
G1 X148.57 Y108.787 E.01681
G1 X178.713 Y138.93 E1.34007
G1 X178.178 Y138.93 E.01681
G1 X148.57 Y109.322 E1.3163
G1 X148.57 Y109.857 E.01681
G1 X177.643 Y138.93 E1.29253
G1 X177.109 Y138.93 E.01681
G1 X148.57 Y110.391 E1.26876
G1 X148.57 Y110.926 E.01681
G1 X176.574 Y138.93 E1.24499
G1 X176.039 Y138.93 E.01681
G1 X148.57 Y111.461 E1.22122
G1 X148.57 Y111.995 E.01681
G1 X175.505 Y138.93 E1.19745
G1 X174.97 Y138.93 E.01681
G1 X148.57 Y112.53 E1.17369
G1 X148.57 Y113.065 E.01681
G1 X174.435 Y138.93 E1.14992
G1 X173.901 Y138.93 E.01681
G1 X148.57 Y113.599 E1.12615
G1 X148.57 Y114.134 E.01681
G1 X173.366 Y138.93 E1.10238
G1 X172.831 Y138.93 E.01681
G1 X148.57 Y114.669 E1.07861
G1 X148.57 Y115.203 E.01681
G1 X172.297 Y138.93 E1.05484
G1 X171.762 Y138.93 E.01681
G1 X148.57 Y115.738 E1.03107
G1 X148.57 Y116.272 E.01681
G1 X171.228 Y138.93 E1.0073
G1 X170.693 Y138.93 E.01681
G1 X148.57 Y116.807 E.98353
G1 X148.57 Y117.342 E.01681
G1 X170.158 Y138.93 E.95976
G1 X169.624 Y138.93 E.01681
G1 X148.57 Y117.876 E.93599
G1 X148.57 Y118.411 E.01681
G1 X169.089 Y138.93 E.91222
G1 X168.554 Y138.93 E.01681
G1 X148.57 Y118.946 E.88845
G1 X148.57 Y119.48 E.01681
G1 X168.02 Y138.93 E.86468
G1 X167.485 Y138.93 E.01681
G1 X148.57 Y120.015 E.84091
G1 X148.57 Y120.55 E.01681
G1 X166.95 Y138.93 E.81714
G1 X166.416 Y138.93 E.01681
G1 X148.57 Y121.084 E.79337
G1 X148.57 Y121.619 E.01681
G1 X165.881 Y138.93 E.7696
G1 X165.346 Y138.93 E.01681
G1 X148.57 Y122.154 E.74583
G1 X148.57 Y122.688 E.01681
G1 X164.812 Y138.93 E.72206
G1 X164.277 Y138.93 E.01681
G1 X148.57 Y123.223 E.69829
G1 X148.57 Y123.758 E.01681
G1 X163.742 Y138.93 E.67452
G1 X163.208 Y138.93 E.01681
G1 X148.57 Y124.292 E.65075
G1 X148.57 Y124.827 E.01681
G1 X162.673 Y138.93 E.62698
G1 X162.138 Y138.93 E.01681
G1 X148.57 Y125.362 E.60321
G1 X148.57 Y125.896 E.01681
G1 X161.604 Y138.93 E.57944
G1 X161.069 Y138.93 E.01681
G1 X148.57 Y126.431 E.55567
G1 X148.57 Y126.966 E.01681
G1 X160.534 Y138.93 E.53191
G1 X160 Y138.93 E.01681
G1 X148.57 Y127.5 E.50814
G1 X148.57 Y128.035 E.01681
G1 X159.465 Y138.93 E.48437
G1 X158.93 Y138.93 E.01681
G1 X148.57 Y128.57 E.4606
G1 X148.57 Y129.104 E.01681
G1 X158.396 Y138.93 E.43683
G1 X157.861 Y138.93 E.01681
G1 X148.57 Y129.639 E.41306
G1 X148.57 Y130.174 E.01681
M73 P5 R116
G1 X157.326 Y138.93 E.38929
G1 X156.792 Y138.93 E.01681
G1 X148.57 Y130.708 E.36552
G1 X148.57 Y131.243 E.01681
G1 X156.257 Y138.93 E.34175
G1 X155.722 Y138.93 E.01681
G1 X148.57 Y131.778 E.31798
G1 X148.57 Y132.312 E.01681
G1 X155.188 Y138.93 E.29421
G1 X154.653 Y138.93 E.01681
G1 X148.57 Y132.847 E.27044
G1 X148.57 Y133.382 E.01681
M73 P6 R116
G1 X154.118 Y138.93 E.24667
G1 X153.584 Y138.93 E.01681
G1 X148.57 Y133.916 E.2229
G1 X148.57 Y134.451 E.01681
G1 X153.049 Y138.93 E.19913
G1 X152.514 Y138.93 E.01681
G1 X148.57 Y134.986 E.17536
G1 X148.57 Y135.226 E.00755
G1 X148.526 Y135.477 E.00801
