; generated by PrusaSlicer 2.8.0 on 2024-09-21 at 14:30:10 UTC

; 

; external perimeters extrusion width = 0.60mm
; perimeters extrusion width = 0.43mm
; infill extrusion width = 0.45mm
; solid infill extrusion width = 0.70mm
; top infill extrusion width = 0.45mm
; first layer extrusion width = 0.42mm

M73 P0 R213
M201 X9000 Y9000 Z500 E10000 ; sets maximum accelerations, mm/sec^2
M203 X500 Y500 Z12 E120 ; sets maximum feedrates, mm / sec
M204 S2000 T1500 ; sets acceleration (S) and retract acceleration (R), mm/sec^2
M205 X10.00 Y10.00 Z0.20 E4.50 ; sets the jerk limits, mm/sec
M205 S0 T0 ; sets the minimum extruding and travel feed rate, mm/sec

; printing object c2.stl id:0 copy 0
; stop printing object c2.stl id:0 copy 0

;TYPE:Custom
M862.3 P "MK2.5" ; printer model check
M862.1 P0.4 ; nozzle diameter check
M115 U3.11.0 ; tell printer latest fw version
G90 ; use absolute coordinates
M83 ; extruder relative mode
M104 S215 ; set extruder temp
M140 S60 ; set bed temp
M190 S60 ; wait for bed temp
M109 S215 ; wait for extruder temp
G28 W ; home all without mesh bed level
G80 ; mesh bed leveling

G1 Z0.2 F720
G1 Y-3 F1000 ; go outside print area
G92 E0
G1 X60 E9 F1000 ; intro line
G1 X100 E12.5 F1000 ; intro line

G92 E0
G21 ; set units to millimeters
G90 ; use absolute coordinates
M83 ; use relative distances for extrusion
M900 K0.05 ; Filament gcode LA 1.5
M900 K30 ; Filament gcode LA 1.0
M107
;LAYER_CHANGE
;Z:0.2
;HEIGHT:0.2
G1 E-.8 F2100
G1 Z.6 F720
G1 X58.407 Y39.858 F10800
G1 Z.2 F720
G1 E.8 F2100
M204 S800
;TYPE:Skirt/Brim
;WIDTH:0.42
G1 F1200
G1 X58.892 Y39.199 E.02566
G1 X59.503 Y38.644 E.02588
G1 X60.203 Y38.222 E.02563
G1 X60.97 Y37.945 E.02557
G1 X62 Y37.812 E.03256
G1 X188.21 Y37.822 E3.95723
G1 X189.03 Y37.945 E.026
M73 P0 R212
G1 X189.797 Y38.222 E.02557
G1 X190.497 Y38.644 E.02563
G1 X191.108 Y39.199 E.02588
G1 X191.593 Y39.858 E.02566
G1 X191.941 Y40.595 E.02555
G1 X192.14 Y41.399 E.02597
G1 X192.188 Y42 E.0189
G1 X192.188 Y168 E3.95064
G1 X192.14 Y168.601 E.0189
G1 X191.941 Y169.405 E.02597
G1 X191.593 Y170.142 E.02555
G1 X191.108 Y170.801 E.02566
G1 X190.497 Y171.356 E.02588
G1 X189.797 Y171.778 E.02563
G1 X189.03 Y172.055 E.02557
G1 X188 Y172.188 E.03256
G1 X62 Y172.188 E3.95064
G1 X61.399 Y172.14 E.0189
G1 X60.595 Y171.941 E.02597
G1 X59.858 Y171.593 E.02555
G1 X59.199 Y171.108 E.02566
G1 X58.644 Y170.497 E.02588
G1 X58.222 Y169.797 E.02563
G1 X57.945 Y169.03 E.02557
G1 X57.812 Y168 E.03256
G1 X57.812 Y42 E3.95064
G1 X57.86 Y41.399 E.0189
G1 X58.059 Y40.595 E.02597
G1 X58.381 Y39.912 E.02368
M204 S1000
;WIPE_START
G1 F8640
G1 X58.407 Y39.858 E-.01384
G1 X58.892 Y39.199 E-.18893
G1 X59.503 Y38.644 E-.1906
G1 X60.203 Y38.222 E-.18873
G1 X60.97 Y37.945 E-.1883
G1 X61.097 Y37.929 E-.0296
;WIPE_END
G1 Z.6 F720
; printing object c2.stl id:0 copy 0
G1 X101.901 Y165.616 F10800
G1 Z.2 F720
G1 E.8 F2100
M204 S800
;TYPE:Perimeter
;WIDTH:0.419999
G1 F1200
G1 X102.095 Y165.757 E.00752
G1 X102.279 Y165.788 E.00585
G1 X147.721 Y165.788 E1.4248
G1 X147.819 Y165.779 E.00309
G1 X148.06 Y165.674 E.00824
G1 X148.243 Y165.439 E.00934
G1 X148.287 Y165.222 E.00694
G1 X148.287 Y40.787 E3.90157
G1 X187.898 Y40.787 E1.24197
G1 X188.236 Y40.814 E.01063
G1 X188.672 Y40.995 E.0148
G1 X189.005 Y41.328 E.01477
G1 X189.151 Y41.649 E.01106
G1 X189.213 Y42.102 E.01434
G1 X189.213 Y167.898 E3.94424
G1 X189.186 Y168.236 E.01063
G1 X189.005 Y168.672 E.0148
G1 X188.672 Y169.005 E.01477
G1 X188.351 Y169.151 E.01106
G1 X187.962 Y169.213 E.01235
G1 X62.102 Y169.213 E3.94625
G1 X61.764 Y169.186 E.01063
G1 X61.328 Y169.005 E.0148
G1 X60.995 Y168.672 E.01477
G1 X60.849 Y168.351 E.01106
G1 X60.787 Y167.962 E.01235
G1 X60.787 Y42.102 E3.94625
G1 X60.814 Y41.764 E.01063
G1 X60.995 Y41.328 E.0148
G1 X61.328 Y40.995 E.01477
G1 X61.649 Y40.849 E.01106
G1 X62.038 Y40.787 E.01235
G1 X101.713 Y40.787 E1.24398
G1 X101.713 Y165.222 E3.90157
G1 X101.723 Y165.324 E.00321
M73 P0 R211
G1 X101.826 Y165.561 E.0081
G1 X101.853 Y165.58 E.00104
M204 S1000
G1 X101.853 Y165.58 F10800
G1 X102.176 Y165.359
M204 S800
;TYPE:External perimeter
G1 F1200
G1 X102.279 Y165.41 E.0036
G1 X147.721 Y165.41 E1.4248
G1 X147.834 Y165.373 E.00373
G1 X147.91 Y165.222 E.0053
G1 X147.91 Y40.41 E3.91339
G1 X187.898 Y40.41 E1.25379
G1 X188.31 Y40.442 E.01296
G1 X188.742 Y40.605 E.01448
G1 X189.123 Y40.877 E.01468
G1 X189.393 Y41.254 E.01454
G1 X189.558 Y41.69 E.01462
G1 X189.59 Y42.102 E.01296
G1 X189.59 Y167.898 E3.94424
G1 X189.573 Y168.151 E.00795
G1 X189.467 Y168.607 E.01468
G1 X189.223 Y169.002 E.01456
G1 X188.882 Y169.32 E.01462
G1 X188.461 Y169.512 E.01451
G1 X187.98 Y169.59 E.01528
G1 X62.102 Y169.59 E3.94681
G1 X61.849 Y169.573 E.00795
G1 X61.393 Y169.467 E.01468
G1 X60.998 Y169.223 E.01456
G1 X60.68 Y168.882 E.01462
G1 X60.488 Y168.461 E.01451
G1 X60.41 Y167.98 E.01528
G1 X60.41 Y42.102 E3.94681
G1 X60.427 Y41.849 E.00795
G1 X60.533 Y41.393 E.01468
G1 X60.777 Y40.998 E.01456
G1 X61.118 Y40.68 E.01462
G1 X61.539 Y40.488 E.01451
G1 X62.02 Y40.41 E.01528
G1 X102.09 Y40.41 E1.25636
G1 X102.09 Y165.222 E3.91339
G1 X102.126 Y165.329 E.00354
M204 S1000
;WIPE_START
G1 F8640
G1 X102.176 Y165.359 E-.01346
G1 X102.279 Y165.41 E-.02654
G1 X105.57 Y165.41 E-.76
;WIPE_END
G1 Z.6 F720
G1 X189.1 Y42.324 F10800
G1 Z.2 F720
G1 E.8 F2100
M204 S800
;TYPE:Solid infill
;WIDTH:0.420367
G1 F1200
G1 X187.851 Y41.075 E.05544
G1 X187.317 Y41.075 E.01676
G1 X188.93 Y42.688 E.07159
G1 X188.93 Y43.222 E.01676
G1 X186.783 Y41.075 E.09529
G1 X186.249 Y41.075 E.01676
G1 X188.93 Y43.756 E.119
G1 X188.93 Y44.29 E.01676
G1 X185.715 Y41.075 E.1427
G1 X185.182 Y41.075 E.01673
G1 X188.93 Y44.823 E.16635
G1 X188.93 Y45.357 E.01676
G1 X184.648 Y41.075 E.19006
G1 X184.114 Y41.075 E.01676
G1 X188.93 Y45.891 E.21376
G1 X188.93 Y46.425 E.01676
G1 X183.58 Y41.075 E.23746
G1 X183.046 Y41.075 E.01676
G1 X188.93 Y46.959 E.26116
G1 X188.93 Y47.492 E.01673
G1 X182.512 Y41.075 E.28484
G1 X181.978 Y41.075 E.01676
G1 X188.93 Y48.026 E.30854
G1 X188.93 Y48.56 E.01676
G1 X181.444 Y41.074 E.33227
G1 X180.911 Y41.074 E.01673
G1 X188.93 Y49.094 E.35594
G1 X188.93 Y49.627 E.01673
G1 X180.377 Y41.074 E.37962
G1 X179.843 Y41.074 E.01676
G1 X188.93 Y50.161 E.40333
G1 X188.93 Y50.695 E.01676
G1 X179.309 Y41.074 E.42703
G1 X178.775 Y41.074 E.01676
G1 X188.93 Y51.229 E.45073
G1 X188.93 Y51.763 E.01676
G1 X178.241 Y41.074 E.47443
G1 X177.707 Y41.074 E.01676
G1 X188.93 Y52.296 E.49811
G1 X188.93 Y52.83 E.01676
G1 X177.174 Y41.074 E.52179
G1 X176.64 Y41.074 E.01676
G1 X188.93 Y53.364 E.54549
G1 X188.93 Y53.898 E.01676
G1 X176.106 Y41.074 E.56919
G1 X175.572 Y41.074 E.01676
G1 X188.93 Y54.432 E.59289
G1 X188.93 Y54.965 E.01673
G1 X175.038 Y41.074 E.61657
G1 X174.504 Y41.074 E.01676
G1 X188.93 Y55.499 E.64027
G1 X188.93 Y56.033 E.01676
G1 X173.97 Y41.073 E.664
G1 X173.437 Y41.073 E.01673
M73 P1 R211
G1 X188.93 Y56.567 E.68768
G1 X188.93 Y57.101 E.01676
G1 X172.903 Y41.073 E.71138
G1 X172.369 Y41.073 E.01676
M73 P1 R210
G1 X188.93 Y57.634 E.73506
G1 X188.93 Y58.168 E.01676
G1 X171.835 Y41.073 E.75876
G1 X171.301 Y41.073 E.01676
G1 X188.93 Y58.702 E.78246
G1 X188.93 Y59.236 E.01676
G1 X170.767 Y41.073 E.80616
G1 X170.233 Y41.073 E.01676
G1 X188.93 Y59.769 E.82984
G1 X188.93 Y60.303 E.01676
G1 X169.7 Y41.073 E.85352
G1 X169.166 Y41.073 E.01676
G1 X188.93 Y60.837 E.87722
G1 X188.93 Y61.371 E.01676
G1 X168.632 Y41.073 E.90092
G1 X168.098 Y41.073 E.01676
G1 X188.93 Y61.905 E.92463
G1 X188.93 Y62.438 E.01673
G1 X167.564 Y41.073 E.94831
G1 X167.03 Y41.073 E.01676
G1 X188.93 Y62.972 E.97201
G1 X188.93 Y63.506 E.01676
G1 X166.496 Y41.072 E.99573
G1 X165.963 Y41.072 E.01673
G1 X188.93 Y64.04 E1.01941
G1 X188.93 Y64.574 E.01676
G1 X165.429 Y41.072 E1.04311
G1 X164.895 Y41.072 E.01676
G1 X188.93 Y65.107 E1.06679
G1 X188.93 Y65.641 E.01676
G1 X164.361 Y41.072 E1.09049
G1 X163.827 Y41.072 E.01676
G1 X188.93 Y66.175 E1.11419
G1 X188.93 Y66.709 E.01676
G1 X163.293 Y41.072 E1.1379
G1 X162.759 Y41.072 E.01676
G1 X188.93 Y67.243 E1.1616
G1 X188.93 Y67.776 E.01673
G1 X162.225 Y41.072 E1.18528
G1 X161.692 Y41.072 E.01673
G1 X188.93 Y68.31 E1.20896
G1 X188.93 Y68.844 E.01676
G1 X161.158 Y41.072 E1.23266
G1 X160.624 Y41.072 E.01676
G1 X188.93 Y69.378 E1.25636
G1 X188.93 Y69.912 E.01676
G1 X160.09 Y41.072 E1.28006
G1 X159.556 Y41.072 E.01676
G1 X188.93 Y70.445 E1.30374
G1 X188.93 Y70.979 E.01676
G1 X159.022 Y41.071 E1.32746
G1 X158.488 Y41.071 E.01676
G1 X188.93 Y71.513 E1.35116
G1 X188.93 Y72.047 E.01676
G1 X157.955 Y41.071 E1.37484
G1 X157.421 Y41.071 E.01676
G1 X188.93 Y72.58 E1.39852
G1 X188.93 Y73.114 E.01676
G1 X156.887 Y41.071 E1.42222
G1 X156.353 Y41.071 E.01676
G1 X188.93 Y73.648 E1.44593
G1 X188.93 Y74.182 E.01676
G1 X155.819 Y41.071 E1.46963
G1 X155.285 Y41.071 E.01676
G1 X188.93 Y74.716 E1.49333
G1 X188.93 Y75.249 E.01673
M73 P1 R209
G1 X154.751 Y41.071 E1.51701
G1 X154.218 Y41.071 E.01673
G1 X188.93 Y75.783 E1.54069
G1 X188.93 Y76.317 E.01676
G1 X153.684 Y41.071 E1.56439
G1 X153.15 Y41.071 E.01676
G1 X188.93 Y76.851 E1.58809
G1 X188.93 Y77.385 E.01676
G1 X152.616 Y41.071 E1.61179
G1 X152.082 Y41.071 E.01676
G1 X188.93 Y77.918 E1.63547
G1 X188.93 Y78.452 E.01676
G1 X151.548 Y41.07 E1.6592
G1 X151.014 Y41.07 E.01676
G1 X188.93 Y78.986 E1.6829
G1 X188.93 Y79.52 E.01676
G1 X150.481 Y41.07 E1.70658
G1 X149.947 Y41.07 E.01676
G1 X188.93 Y80.054 E1.73028
G1 X188.93 Y80.587 E.01673
G1 X149.413 Y41.07 E1.75396
G1 X148.879 Y41.07 E.01676
G1 X188.93 Y81.121 E1.77766
G1 X188.93 Y81.655 E.01676
G1 X148.57 Y41.295 E1.79137
G1 X148.57 Y41.828 E.01673
G1 X188.93 Y82.189 E1.7914
G1 X188.93 Y82.722 E.01673
G1 X148.57 Y42.362 E1.79137
G1 X148.57 Y42.896 E.01676
G1 X188.93 Y83.256 E1.79137
G1 X188.93 Y83.79 E.01676
G1 X148.57 Y43.43 E1.79137
G1 X148.57 Y43.963 E.01673
G1 X188.93 Y84.324 E1.7914
G1 X188.93 Y84.858 E.01676
G1 X148.57 Y44.497 E1.7914
G1 X148.57 Y45.031 E.01676
G1 X188.93 Y85.391 E1.79137
G1 X188.93 Y85.925 E.01676
G1 X148.57 Y45.565 E1.79137
G1 X148.57 Y46.099 E.01676
G1 X188.93 Y86.459 E1.79137
G1 X188.93 Y86.993 E.01676
M73 P1 R208
G1 X148.57 Y46.632 E1.7914
G1 X148.57 Y47.166 E.01676
G1 X188.93 Y87.527 E1.7914
G1 X188.93 Y88.06 E.01673
M73 P2 R208
G1 X148.57 Y47.7 E1.79137
G1 X148.57 Y48.234 E.01676
G1 X188.93 Y88.594 E1.79137
G1 X188.93 Y89.128 E.01676
G1 X148.57 Y48.768 E1.79137
G1 X148.57 Y49.301 E.01673
G1 X188.93 Y89.662 E1.7914
G1 X188.93 Y90.196 E.01676
G1 X148.57 Y49.835 E1.7914
G1 X148.57 Y50.369 E.01676
G1 X188.93 Y90.729 E1.79137
G1 X188.93 Y91.263 E.01676
G1 X148.57 Y50.903 E1.79137
G1 X148.57 Y51.437 E.01676
G1 X188.93 Y91.797 E1.79137
G1 X188.93 Y92.331 E.01676
G1 X148.57 Y51.97 E1.7914
G1 X148.57 Y52.504 E.01676
G1 X188.93 Y92.865 E1.7914
G1 X188.93 Y93.398 E.01673
G1 X148.57 Y53.038 E1.79137
G1 X148.57 Y53.572 E.01676
G1 X188.93 Y93.932 E1.79137
G1 X188.93 Y94.466 E.01676
G1 X148.57 Y54.105 E1.7914
G1 X148.57 Y54.639 E.01676
G1 X188.93 Y95 E1.7914
G1 X188.93 Y95.533 E.01673
G1 X148.57 Y55.173 E1.79137
G1 X148.57 Y55.707 E.01676
G1 X188.93 Y96.067 E1.79137
G1 X188.93 Y96.601 E.01676
G1 X148.57 Y56.241 E1.79137
G1 X148.57 Y56.774 E.01673
G1 X188.93 Y97.135 E1.7914
G1 X188.93 Y97.669 E.01676
G1 X148.57 Y57.308 E1.7914
G1 X148.57 Y57.842 E.01676
M73 P2 R207
G1 X188.93 Y98.202 E1.79137
G1 X188.93 Y98.736 E.01676
G1 X148.57 Y58.376 E1.79137
G1 X148.57 Y58.91 E.01676
G1 X188.93 Y99.27 E1.79137
G1 X188.93 Y99.804 E.01676
G1 X148.57 Y59.443 E1.7914
G1 X148.57 Y59.977 E.01676
G1 X188.93 Y100.338 E1.7914
G1 X188.93 Y100.871 E.01673
G1 X148.57 Y60.511 E1.79137
G1 X148.57 Y61.045 E.01676
G1 X188.93 Y101.405 E1.79137
G1 X188.93 Y101.939 E.01676
G1 X148.57 Y61.579 E1.79137
G1 X148.57 Y62.112 E.01673
G1 X188.93 Y102.473 E1.7914
G1 X188.93 Y103.007 E.01676
G1 X148.57 Y62.646 E1.7914
G1 X148.57 Y63.18 E.01676
G1 X188.93 Y103.54 E1.79137
G1 X188.93 Y104.074 E.01676
G1 X148.57 Y63.714 E1.79137
G1 X148.57 Y64.247 E.01673
G1 X188.93 Y104.608 E1.7914
G1 X188.93 Y105.142 E.01676
G1 X148.57 Y64.781 E1.7914
G1 X148.57 Y65.315 E.01676
G1 X188.93 Y105.675 E1.79137
G1 X188.93 Y106.209 E.01676
G1 X148.57 Y65.849 E1.79137
G1 X148.57 Y66.383 E.01676
G1 X188.93 Y106.743 E1.79137
G1 X188.93 Y107.277 E.01676
G1 X148.57 Y66.916 E1.7914
G1 X148.57 Y67.45 E.01676
G1 X188.93 Y107.811 E1.7914
G1 X188.93 Y108.344 E.01673
G1 X148.57 Y67.984 E1.79137
G1 X148.57 Y68.518 E.01676
G1 X188.93 Y108.878 E1.79137
G1 X188.93 Y109.412 E.01676
M73 P2 R206
G1 X148.57 Y69.052 E1.79137
G1 X148.57 Y69.585 E.01673
G1 X188.93 Y109.946 E1.7914
G1 X188.93 Y110.48 E.01676
G1 X148.57 Y70.119 E1.7914
G1 X148.57 Y70.653 E.01676
G1 X188.93 Y111.013 E1.79137
G1 X188.93 Y111.547 E.01676
M73 P3 R206
G1 X148.57 Y71.187 E1.79137
G1 X148.57 Y71.721 E.01676
G1 X188.93 Y112.081 E1.79137
G1 X188.93 Y112.615 E.01676
G1 X148.57 Y72.254 E1.7914
G1 X148.57 Y72.788 E.01676
G1 X188.93 Y113.149 E1.7914
G1 X188.93 Y113.682 E.01673
G1 X148.57 Y73.322 E1.79137
G1 X148.57 Y73.856 E.01676
G1 X188.93 Y114.216 E1.79137
G1 X188.93 Y114.75 E.01676
G1 X148.57 Y74.39 E1.79137
G1 X148.57 Y74.923 E.01673
G1 X188.93 Y115.284 E1.7914
G1 X188.93 Y115.818 E.01676
G1 X148.57 Y75.457 E1.7914
G1 X148.57 Y75.991 E.01676
G1 X188.93 Y116.351 E1.79137
G1 X188.93 Y116.885 E.01676
G1 X148.57 Y76.525 E1.79137
G1 X148.57 Y77.058 E.01673
G1 X188.93 Y117.419 E1.7914
G1 X188.93 Y117.953 E.01676
G1 X148.57 Y77.592 E1.7914
G1 X148.57 Y78.126 E.01676
G1 X188.93 Y118.486 E1.79137
G1 X188.93 Y119.02 E.01676
G1 X148.57 Y78.66 E1.79137
G1 X148.57 Y79.194 E.01676
G1 X188.93 Y119.554 E1.79137
G1 X188.93 Y120.088 E.01676
M73 P3 R205
G1 X148.57 Y79.727 E1.7914
G1 X148.57 Y80.261 E.01676
G1 X188.93 Y120.622 E1.7914
G1 X188.93 Y121.155 E.01673
G1 X148.57 Y80.795 E1.79137
G1 X148.57 Y81.329 E.01676
G1 X188.93 Y121.689 E1.79137
G1 X188.93 Y122.223 E.01676
G1 X148.57 Y81.863 E1.79137
G1 X148.57 Y82.396 E.01673
G1 X188.93 Y122.757 E1.7914
G1 X188.93 Y123.291 E.01676
G1 X148.57 Y82.93 E1.7914
G1 X148.57 Y83.464 E.01676
G1 X188.93 Y123.824 E1.79137
G1 X188.93 Y124.358 E.01676
G1 X148.57 Y83.998 E1.79137
G1 X148.57 Y84.532 E.01676
G1 X188.93 Y124.892 E1.79137
G1 X188.93 Y125.426 E.01676
G1 X148.57 Y85.065 E1.7914
G1 X148.57 Y85.599 E.01676
G1 X188.93 Y125.96 E1.7914
G1 X188.93 Y126.493 E.01673
G1 X148.57 Y86.133 E1.79137
G1 X148.57 Y86.667 E.01676
G1 X188.93 Y127.027 E1.79137
G1 X188.93 Y127.561 E.01676
G1 X148.57 Y87.2 E1.7914
G1 X148.57 Y87.734 E.01676
G1 X188.93 Y128.095 E1.7914
G1 X188.93 Y128.628 E.01673
G1 X148.57 Y88.268 E1.79137
G1 X148.57 Y88.802 E.01676
G1 X188.93 Y129.162 E1.79137
G1 X188.93 Y129.696 E.01676
G1 X148.57 Y89.336 E1.79137
G1 X148.57 Y89.869 E.01673
G1 X188.93 Y130.23 E1.7914
G1 X188.93 Y130.764 E.01676
G1 X148.57 Y90.403 E1.7914
G1 X148.57 Y90.937 E.01676
M73 P3 R204
G1 X188.93 Y131.297 E1.79137
G1 X188.93 Y131.831 E.01676
G1 X148.57 Y91.471 E1.79137
G1 X148.57 Y92.005 E.01676
G1 X188.93 Y132.365 E1.79137
G1 X188.93 Y132.899 E.01676
G1 X148.57 Y92.538 E1.7914
G1 X148.57 Y93.072 E.01676
G1 X188.93 Y133.433 E1.7914
G1 X188.93 Y133.966 E.01673
G1 X148.57 Y93.606 E1.79137
G1 X148.57 Y94.14 E.01676
G1 X188.93 Y134.5 E1.79137
G1 X188.93 Y135.034 E.01676
G1 X148.57 Y94.674 E1.79137
G1 X148.57 Y95.207 E.01673
M73 P4 R204
G1 X188.93 Y135.568 E1.7914
G1 X188.93 Y136.102 E.01676
G1 X148.57 Y95.741 E1.7914
G1 X148.57 Y96.275 E.01676
G1 X188.93 Y136.635 E1.79137
G1 X188.93 Y137.169 E.01676
G1 X148.57 Y96.809 E1.79137
G1 X148.57 Y97.343 E.01676
G1 X188.93 Y137.703 E1.79137
G1 X188.93 Y138.237 E.01676
G1 X148.57 Y97.876 E1.7914
G1 X148.57 Y98.41 E.01676
G1 X188.93 Y138.771 E1.7914
G1 X188.93 Y139.304 E.01673
G1 X148.57 Y98.944 E1.79137
G1 X148.57 Y99.478 E.01676
G1 X188.93 Y139.838 E1.79137
G1 X188.93 Y140.372 E.01676
G1 X148.57 Y100.011 E1.7914
G1 X148.57 Y100.545 E.01676
G1 X188.93 Y140.906 E1.7914
G1 X188.93 Y141.439 E.01673
G1 X148.57 Y101.079 E1.79137
G1 X148.57 Y101.613 E.01676
G1 X188.93 Y141.973 E1.79137
G1 X188.93 Y142.507 E.01676
M73 P4 R203
G1 X148.57 Y102.147 E1.79137
G1 X148.57 Y102.68 E.01673
G1 X188.93 Y143.041 E1.7914
G1 X188.93 Y143.575 E.01676
G1 X148.57 Y103.214 E1.7914
G1 X148.57 Y103.748 E.01676
