; generated by PrusaSlicer 2.5.0+linux-x64-GTK3 on 2022-09-09 at 20:22:31 UTC

; 

; external perimeters extrusion width = 0.60mm
; perimeters extrusion width = 0.43mm
; infill extrusion width = 0.45mm
; solid infill extrusion width = 0.70mm
; top infill extrusion width = 0.43mm
; first layer extrusion width = 0.42mm

M73 P0 R212
M201 X9000 Y9000 Z500 E10000 ; sets maximum accelerations, mm/sec^2
M203 X500 Y500 Z12 E120 ; sets maximum feedrates, mm / sec
M204 P2000 R1500 T2000 ; sets acceleration (P, T) and retract acceleration (R), mm/sec^2
M205 X10.00 Y10.00 Z0.20 E4.50 ; sets the jerk limits, mm/sec
M205 S0 T0 ; sets the minimum extruding and travel feed rate, mm/sec
M107
;TYPE:Custom
M862.3 P "MK2.5" ; printer model check
M862.1 P0.4 ; nozzle diameter check
M115 U3.11.0 ; tell printer latest fw version
G90 ; use absolute coordinates
M83 ; extruder relative mode
M104 S215 ; set extruder temp
M140 S60 ; set bed temp
M190 S60 ; wait for bed temp
M109 S215 ; wait for extruder temp
G28 W ; home all without mesh bed level
G80 ; mesh bed leveling

G1 Z0.2 F720
G1 Y-3 F1000 ; go outside print area
G92 E0
G1 X60 E9 F1000 ; intro line
G1 X100 E12.5 F1000 ; intro line

G92 E0
G21 ; set units to millimeters
G90 ; use absolute coordinates
M83 ; use relative distances for extrusion
M900 K0.05 ; Filament gcode LA 1.5
M900 K30 ; Filament gcode LA 1.0
M107
;LAYER_CHANGE
;Z:0.2
;HEIGHT:0.2
;BEFORE_LAYER_CHANGE
G92 E0.0
;0.2


G1 E-.8 F2100
G1 Z.4 F720
;AFTER_LAYER_CHANGE
;0.2
;CURRENT_Z: 0.2
G1 X58.241 Y39.768 F10800
G1 Z.2 F720
G1 E.8 F2100
M204 S800
;TYPE:Skirt/Brim
;WIDTH:0.42
G1 F1200
G1 X58.748 Y39.078 E.02687
G1 X59.381 Y38.5 E.02687
G1 X60.114 Y38.056 E.02687
G1 X60.92 Y37.764 E.02687
G1 X62 Y37.623 E.03416
G1 X188.233 Y37.634 E3.95795
G1 X189.08 Y37.764 E.02687
G1 X189.886 Y38.056 E.02687
G1 X190.619 Y38.5 E.02687
G1 X191.252 Y39.078 E.02687
G1 X191.759 Y39.768 E.02687
G1 X192.122 Y40.545 E.02687
G1 X192.327 Y41.377 E.02687
G1 X192.377 Y42 E.0196
G1 X192.377 Y168 E3.95064
G1 X192.327 Y168.623 E.0196
G1 X192.122 Y169.455 E.02687
G1 X191.759 Y170.232 E.02687
G1 X191.252 Y170.922 E.02687
G1 X190.619 Y171.5 E.02687
G1 X189.886 Y171.944 E.02687
G1 X189.08 Y172.236 E.02687
G1 X188 Y172.377 E.03416
G1 X62 Y172.377 E3.95064
G1 X61.377 Y172.327 E.0196
G1 X60.545 Y172.122 E.02687
G1 X59.768 Y171.759 E.02687
G1 X59.078 Y171.252 E.02687
G1 X58.5 Y170.619 E.02687
G1 X58.056 Y169.886 E.02687
G1 X57.764 Y169.08 E.02687
G1 X57.623 Y168 E.03416
G1 X57.623 Y42 E3.95064
G1 X57.673 Y41.377 E.0196
G1 X57.878 Y40.545 E.02687
G1 X58.215 Y39.823 E.02499
M204 S1000
; printing object c2.stl id:0 copy 0
;WIPE_START
G1 F8640
G1 X58.748 Y39.078 E-.21149
G1 X59.381 Y38.5 E-.19791
G1 X60.114 Y38.056 E-.19789
G1 X60.736 Y37.83 E-.15271
;WIPE_END
G1 E-.04 F2100
G1 Z.6 F720
G1 X101.865 Y165.589 F10800
G1 Z.2 F720
G1 E.8 F2100
M204 S800
;TYPE:Perimeter
;WIDTH:0.419999
G1 F1200
G1 X102.095 Y165.757 E.0089
G1 X102.279 Y165.787 E.00583
G1 X147.721 Y165.787 E1.42483
G1 X147.819 Y165.779 E.00308
G1 X148.061 Y165.674 E.00826
G1 X148.244 Y165.439 E.00933
G1 X148.287 Y165.221 E.00696
G1 X148.287 Y40.787 E3.90155
G1 X187.961 Y40.787 E1.24396
G1 X188.463 Y40.883 E.016
G1 X188.855 Y41.145 E.01479
G1 X189.117 Y41.537 E.01479
G1 X189.213 Y42.039 E.01601
G1 X189.213 Y167.961 E3.94821
G1 X189.117 Y168.463 E.016
G1 X188.855 Y168.855 E.01479
G1 X188.463 Y169.117 E.01479
G1 X187.961 Y169.213 E.016
G1 X62.039 Y169.213 E3.94821
M73 P0 R211
G1 X61.537 Y169.117 E.016
G1 X61.145 Y168.855 E.01479
G1 X60.883 Y168.463 E.01479
G1 X60.787 Y167.961 E.016
G1 X60.787 Y42.039 E3.94821
G1 X60.883 Y41.537 E.016
G1 X61.145 Y41.145 E.01479
G1 X61.537 Y40.883 E.01479
G1 X62.039 Y40.787 E.016
G1 X101.713 Y40.787 E1.24396
G1 X101.713 Y165.221 E3.90155
G1 X101.722 Y165.323 E.00321
G1 X101.822 Y165.551 E.00777
M204 S1000
G1 X102.128 Y165.335 F10800
M204 S800
;TYPE:External perimeter
G1 F1200
G1 X102.279 Y165.41 E.00529
G1 X147.721 Y165.41 E1.42483
G1 X147.835 Y165.372 E.00374
G1 X147.91 Y165.221 E.00529
G1 X147.91 Y40.41 E3.91337
G1 X187.897 Y40.41 E1.25375
G1 X188.155 Y40.427 E.00811
G1 X188.608 Y40.533 E.01458
G1 X189.003 Y40.778 E.01458
G1 X189.32 Y41.118 E.01458
G1 X189.512 Y41.541 E.01458
G1 X189.59 Y42.02 E.01521
G1 X189.59 Y167.897 E3.94676
G1 X189.573 Y168.155 E.00811
G1 X189.467 Y168.608 E.01458
G1 X189.222 Y169.003 E.01458
G1 X188.882 Y169.32 E.01458
G1 X188.459 Y169.512 E.01458
G1 X187.98 Y169.59 E.01521
G1 X62.103 Y169.59 E3.94676
G1 X61.845 Y169.573 E.00811
G1 X61.392 Y169.467 E.01458
G1 X60.997 Y169.222 E.01458
G1 X60.68 Y168.882 E.01458
G1 X60.488 Y168.459 E.01458
G1 X60.41 Y167.98 E.01521
G1 X60.41 Y42.103 E3.94676
G1 X60.427 Y41.845 E.00811
G1 X60.533 Y41.392 E.01458
G1 X60.778 Y40.997 E.01458
G1 X61.118 Y40.68 E.01458
G1 X61.541 Y40.488 E.01458
G1 X62.02 Y40.41 E.01521
G1 X102.09 Y40.41 E1.25636
G1 X102.09 Y165.221 E3.91337
G1 X102.109 Y165.278 E.00186
M204 S1000
G1 X102.076 Y165.495 F10800
;WIPE_START
G1 F8640
G1 X102.279 Y165.41 E-.04971
G1 X105.355 Y165.41 E-.71029
;WIPE_END
G1 E-.04 F2100
G1 Z.6 F720
G1 X189.1 Y42.325 F10800
G1 Z.2 F720
M73 P0 R210
G1 E.8 F2100
M204 S800
;TYPE:Solid infill
;WIDTH:0.420367
G1 F1200
G1 X187.845 Y41.07 E.05569
G1 X187.311 Y41.07 E.01675
G1 X188.93 Y42.689 E.07185
G1 X188.93 Y43.222 E.01675
G1 X186.778 Y41.07 E.09554
G1 X186.244 Y41.07 E.01675
G1 X188.93 Y43.756 E.11923
G1 X188.93 Y44.29 E.01675
G1 X185.71 Y41.07 E.14293
G1 X185.176 Y41.07 E.01675
G1 X188.93 Y44.824 E.16662
G1 X188.93 Y45.358 E.01675
G1 X184.642 Y41.07 E.19031
G1 X184.109 Y41.07 E.01675
G1 X188.93 Y45.891 E.214
G1 X188.93 Y46.425 E.01675
G1 X183.575 Y41.07 E.2377
G1 X183.041 Y41.07 E.01675
G1 X188.93 Y46.959 E.26139
G1 X188.93 Y47.493 E.01675
G1 X182.507 Y41.07 E.28508
G1 X181.973 Y41.07 E.01675
G1 X188.93 Y48.027 E.30877
G1 X188.93 Y48.56 E.01675
G1 X181.44 Y41.07 E.33247
G1 X180.906 Y41.07 E.01675
G1 X188.93 Y49.094 E.35616
G1 X188.93 Y49.628 E.01675
G1 X180.372 Y41.07 E.37985
G1 X179.838 Y41.07 E.01675
G1 X188.93 Y50.162 E.40354
G1 X188.93 Y50.696 E.01675
G1 X179.304 Y41.07 E.42723
G1 X178.771 Y41.07 E.01675
G1 X188.93 Y51.229 E.45093
G1 X188.93 Y51.763 E.01675
G1 X178.237 Y41.07 E.47462
G1 X177.703 Y41.07 E.01675
G1 X188.93 Y52.297 E.49831
G1 X188.93 Y52.831 E.01675
G1 X177.169 Y41.07 E.522
G1 X176.636 Y41.07 E.01675
G1 X188.93 Y53.364 E.5457
G1 X188.93 Y53.898 E.01675
G1 X176.102 Y41.07 E.56939
G1 X175.568 Y41.07 E.01675
G1 X188.93 Y54.432 E.59308
G1 X188.93 Y54.966 E.01675
G1 X175.034 Y41.07 E.61677
G1 X174.5 Y41.07 E.01675
G1 X188.93 Y55.5 E.64046
G1 X188.93 Y56.033 E.01675
G1 X173.967 Y41.07 E.66416
G1 X173.433 Y41.07 E.01675
M73 P1 R210
G1 X188.93 Y56.567 E.68785
G1 X188.93 Y57.101 E.01675
G1 X172.899 Y41.07 E.71154
G1 X172.365 Y41.07 E.01675
G1 X188.93 Y57.635 E.73523
G1 X188.93 Y58.169 E.01675
G1 X171.831 Y41.07 E.75893
G1 X171.298 Y41.07 E.01675
G1 X188.93 Y58.702 E.78262
G1 X188.93 Y59.236 E.01675
G1 X170.764 Y41.07 E.80631
G1 X170.23 Y41.07 E.01675
G1 X188.93 Y59.77 E.83
G1 X188.93 Y60.304 E.01675
G1 X169.696 Y41.07 E.85369
G1 X169.162 Y41.07 E.01675
G1 X188.93 Y60.838 E.87739
G1 X188.93 Y61.371 E.01675
G1 X168.629 Y41.07 E.90108
G1 X168.095 Y41.07 E.01675
G1 X188.93 Y61.905 E.92477
G1 X188.93 Y62.439 E.01675
G1 X167.561 Y41.07 E.94846
G1 X167.027 Y41.07 E.01675
G1 X188.93 Y62.973 E.97216
G1 X188.93 Y63.507 E.01675
G1 X166.493 Y41.07 E.99585
G1 X165.96 Y41.07 E.01675
G1 X188.93 Y64.04 E1.01954
G1 X188.93 Y64.574 E.01675
G1 X165.426 Y41.07 E1.04323
G1 X164.892 Y41.07 E.01675
G1 X188.93 Y65.108 E1.06692
G1 X188.93 Y65.642 E.01675
G1 X164.358 Y41.07 E1.09062
G1 X163.825 Y41.07 E.01675
G1 X188.93 Y66.175 E1.11431
G1 X188.93 Y66.709 E.01675
G1 X163.291 Y41.07 E1.138
G1 X162.757 Y41.07 E.01675
G1 X188.93 Y67.243 E1.16169
G1 X188.93 Y67.777 E.01675
G1 X162.223 Y41.07 E1.18539
G1 X161.689 Y41.07 E.01675
G1 X188.93 Y68.311 E1.20908
G1 X188.93 Y68.844 E.01675
G1 X161.156 Y41.07 E1.23277
G1 X160.622 Y41.07 E.01675
G1 X188.93 Y69.378 E1.25646
G1 X188.93 Y69.912 E.01675
G1 X160.088 Y41.07 E1.28015
G1 X159.554 Y41.07 E.01675
G1 X188.93 Y70.446 E1.30385
G1 X188.93 Y70.98 E.01675
M73 P1 R209
G1 X159.02 Y41.07 E1.32754
G1 X158.487 Y41.07 E.01675
G1 X188.93 Y71.513 E1.35123
G1 X188.93 Y72.047 E.01675
G1 X157.953 Y41.07 E1.37492
G1 X157.419 Y41.07 E.01675
G1 X188.93 Y72.581 E1.39862
G1 X188.93 Y73.115 E.01675
G1 X156.885 Y41.07 E1.42231
G1 X156.351 Y41.07 E.01675
G1 X188.93 Y73.649 E1.446
G1 X188.93 Y74.182 E.01675
G1 X155.818 Y41.07 E1.46969
G1 X155.284 Y41.07 E.01675
G1 X188.93 Y74.716 E1.49338
G1 X188.93 Y75.25 E.01675
G1 X154.75 Y41.07 E1.51708
G1 X154.216 Y41.07 E.01675
G1 X188.93 Y75.784 E1.54077
G1 X188.93 Y76.317 E.01675
G1 X153.683 Y41.07 E1.56446
G1 X153.149 Y41.07 E.01675
G1 X188.93 Y76.851 E1.58815
G1 X188.93 Y77.385 E.01675
G1 X152.615 Y41.07 E1.61185
G1 X152.081 Y41.07 E.01675
G1 X188.93 Y77.919 E1.63554
G1 X188.93 Y78.453 E.01675
G1 X151.547 Y41.07 E1.65923
G1 X151.014 Y41.07 E.01675
G1 X188.93 Y78.986 E1.68292
G1 X188.93 Y79.52 E.01675
G1 X150.48 Y41.07 E1.70661
G1 X149.946 Y41.07 E.01675
G1 X188.93 Y80.054 E1.73031
G1 X188.93 Y80.588 E.01675
G1 X149.412 Y41.07 E1.754
G1 X148.878 Y41.07 E.01675
G1 X188.93 Y81.122 E1.77769
G1 X188.93 Y81.655 E.01675
G1 X148.57 Y41.295 E1.79139
G1 X148.57 Y41.829 E.01675
G1 X188.93 Y82.189 E1.79139
G1 X188.93 Y82.723 E.01675
G1 X148.57 Y42.363 E1.79139
G1 X148.57 Y42.896 E.01675
G1 X188.93 Y83.257 E1.79139
G1 X188.93 Y83.791 E.01675
M73 P1 R208
G1 X148.57 Y43.43 E1.79139
G1 X148.57 Y43.964 E.01675
G1 X188.93 Y84.324 E1.79139
G1 X188.93 Y84.858 E.01675
G1 X148.57 Y44.498 E1.79139
G1 X148.57 Y45.032 E.01675
G1 X188.93 Y85.392 E1.79139
G1 X188.93 Y85.926 E.01675
G1 X148.57 Y45.565 E1.79139
G1 X148.57 Y46.099 E.01675
G1 X188.93 Y86.46 E1.79139
G1 X188.93 Y86.993 E.01675
G1 X148.57 Y46.633 E1.79139
G1 X148.57 Y47.167 E.01675
G1 X188.93 Y87.527 E1.79139
G1 X188.93 Y88.061 E.01675
M73 P2 R208
G1 X148.57 Y47.701 E1.79139
G1 X148.57 Y48.234 E.01675
G1 X188.93 Y88.595 E1.79139
G1 X188.93 Y89.128 E.01675
G1 X148.57 Y48.768 E1.79139
G1 X148.57 Y49.302 E.01675
G1 X188.93 Y89.662 E1.79139
G1 X188.93 Y90.196 E.01675
G1 X148.57 Y49.836 E1.79139
G1 X148.57 Y50.37 E.01675
G1 X188.93 Y90.73 E1.79139
G1 X188.93 Y91.264 E.01675
G1 X148.57 Y50.903 E1.79139
G1 X148.57 Y51.437 E.01675
G1 X188.93 Y91.797 E1.79139
G1 X188.93 Y92.331 E.01675
G1 X148.57 Y51.971 E1.79139
G1 X148.57 Y52.505 E.01675
G1 X188.93 Y92.865 E1.79139
G1 X188.93 Y93.399 E.01675
G1 X148.57 Y53.039 E1.79139
G1 X148.57 Y53.572 E.01675
G1 X188.93 Y93.933 E1.79139
G1 X188.93 Y94.466 E.01675
M73 P2 R207
G1 X148.57 Y54.106 E1.79139
G1 X148.57 Y54.64 E.01675
G1 X188.93 Y95 E1.79139
G1 X188.93 Y95.534 E.01675
G1 X148.57 Y55.174 E1.79139
G1 X148.57 Y55.707 E.01675
G1 X188.93 Y96.068 E1.79139
G1 X188.93 Y96.602 E.01675
G1 X148.57 Y56.241 E1.79139
G1 X148.57 Y56.775 E.01675
G1 X188.93 Y97.135 E1.79139
G1 X188.93 Y97.669 E.01675
G1 X148.57 Y57.309 E1.79139
G1 X148.57 Y57.843 E.01675
G1 X188.93 Y98.203 E1.79139
G1 X188.93 Y98.737 E.01675
G1 X148.57 Y58.376 E1.79139
G1 X148.57 Y58.91 E.01675
G1 X188.93 Y99.27 E1.79139
G1 X188.93 Y99.804 E.01675
G1 X148.57 Y59.444 E1.79139
G1 X148.57 Y59.978 E.01675
G1 X188.93 Y100.338 E1.79139
G1 X188.93 Y100.872 E.01675
G1 X148.57 Y60.512 E1.79139
G1 X148.57 Y61.045 E.01675
G1 X188.93 Y101.406 E1.79139
G1 X188.93 Y101.939 E.01675
G1 X148.57 Y61.579 E1.79139
G1 X148.57 Y62.113 E.01675
G1 X188.93 Y102.473 E1.79139
G1 X188.93 Y103.007 E.01675
G1 X148.57 Y62.647 E1.79139
G1 X148.57 Y63.181 E.01675
G1 X188.93 Y103.541 E1.79139
G1 X188.93 Y104.075 E.01675
G1 X148.57 Y63.714 E1.79139
G1 X148.57 Y64.248 E.01675
G1 X188.93 Y104.608 E1.79139
G1 X188.93 Y105.142 E.01675
G1 X148.57 Y64.782 E1.79139
G1 X148.57 Y65.316 E.01675
M73 P2 R206
G1 X188.93 Y105.676 E1.79139
G1 X188.93 Y106.21 E.01675
G1 X148.57 Y65.849 E1.79139
G1 X148.57 Y66.383 E.01675
G1 X188.93 Y106.744 E1.79139
G1 X188.93 Y107.277 E.01675
G1 X148.57 Y66.917 E1.79139
G1 X148.57 Y67.451 E.01675
G1 X188.93 Y107.811 E1.79139
G1 X188.93 Y108.345 E.01675
G1 X148.57 Y67.985 E1.79139
G1 X148.57 Y68.518 E.01675
G1 X188.93 Y108.879 E1.79139
G1 X188.93 Y109.413 E.01675
G1 X148.57 Y69.052 E1.79139
G1 X148.57 Y69.586 E.01675
G1 X188.93 Y109.946 E1.79139
G1 X188.93 Y110.48 E.01675
G1 X148.57 Y70.12 E1.79139
G1 X148.57 Y70.654 E.01675
G1 X188.93 Y111.014 E1.79139
G1 X188.93 Y111.548 E.01675
M73 P3 R206
G1 X148.57 Y71.187 E1.79139
G1 X148.57 Y71.721 E.01675
G1 X188.93 Y112.081 E1.79139
G1 X188.93 Y112.615 E.01675
G1 X148.57 Y72.255 E1.79139
G1 X148.57 Y72.789 E.01675
G1 X188.93 Y113.149 E1.79139
G1 X188.93 Y113.683 E.01675
G1 X148.57 Y73.323 E1.79139
G1 X148.57 Y73.856 E.01675
G1 X188.93 Y114.217 E1.79139
G1 X188.93 Y114.75 E.01675
G1 X148.57 Y74.39 E1.79139
G1 X148.57 Y74.924 E.01675
G1 X188.93 Y115.284 E1.79139
G1 X188.93 Y115.818 E.01675
G1 X148.57 Y75.458 E1.79139
G1 X148.57 Y75.992 E.01675
G1 X188.93 Y116.352 E1.79139
G1 X188.93 Y116.886 E.01675
M73 P3 R205
G1 X148.57 Y76.525 E1.79139
G1 X148.57 Y77.059 E.01675
G1 X188.93 Y117.419 E1.79139
G1 X188.93 Y117.953 E.01675
G1 X148.57 Y77.593 E1.79139
G1 X148.57 Y78.127 E.01675
G1 X188.93 Y118.487 E1.79139
G1 X188.93 Y119.021 E.01675
G1 X148.57 Y78.66 E1.79139
G1 X148.57 Y79.194 E.01675
G1 X188.93 Y119.555 E1.79139
G1 X188.93 Y120.088 E.01675
G1 X148.57 Y79.728 E1.79139
G1 X148.57 Y80.262 E.01675
G1 X188.93 Y120.622 E1.79139
G1 X188.93 Y121.156 E.01675
G1 X148.57 Y80.796 E1.79139
G1 X148.57 Y81.329 E.01675
G1 X188.93 Y121.69 E1.79139
G1 X188.93 Y122.223 E.01675
G1 X148.57 Y81.863 E1.79139
G1 X148.57 Y82.397 E.01675
G1 X188.93 Y122.757 E1.79139
G1 X188.93 Y123.291 E.01675
G1 X148.57 Y82.931 E1.79139
G1 X148.57 Y83.465 E.01675
G1 X188.93 Y123.825 E1.79139
G1 X188.93 Y124.359 E.01675
G1 X148.57 Y83.998 E1.79139
G1 X148.57 Y84.532 E.01675
G1 X188.93 Y124.892 E1.79139
G1 X188.93 Y125.426 E.01675
G1 X148.57 Y85.066 E1.79139
G1 X148.57 Y85.6 E.01675
G1 X188.93 Y125.96 E1.79139
G1 X188.93 Y126.494 E.01675
G1 X148.57 Y86.134 E1.79139
G1 X148.57 Y86.667 E.01675
G1 X188.93 Y127.028 E1.79139
G1 X188.93 Y127.561 E.01675
G1 X148.57 Y87.201 E1.79139
G1 X148.57 Y87.735 E.01675
M73 P3 R204
G1 X188.93 Y128.095 E1.79139
G1 X188.93 Y128.629 E.01675
G1 X148.57 Y88.269 E1.79139
G1 X148.57 Y88.802 E.01675
G1 X188.93 Y129.163 E1.79139
G1 X188.93 Y129.697 E.01675
G1 X148.57 Y89.336 E1.79139
G1 X148.57 Y89.87 E.01675
G1 X188.93 Y130.23 E1.79139
G1 X188.93 Y130.764 E.01675
G1 X148.57 Y90.404 E1.79139
G1 X148.57 Y90.938 E.01675
G1 X188.93 Y131.298 E1.79139
G1 X188.93 Y131.832 E.01675
G1 X148.57 Y91.471 E1.79139
G1 X148.57 Y92.005 E.01675
G1 X188.93 Y132.366 E1.79139
G1 X188.93 Y132.899 E.01675
G1 X148.57 Y92.539 E1.79139
G1 X148.57 Y93.073 E.01675
G1 X188.93 Y133.433 E1.79139
G1 X188.93 Y133.967 E.01675
G1 X148.57 Y93.607 E1.79139
G1 X148.57 Y94.14 E.01675
G1 X188.93 Y134.501 E1.79139
G1 X188.93 Y135.034 E.01675
M73 P4 R204
G1 X148.57 Y94.674 E1.79139
G1 X148.57 Y95.208 E.01675
G1 X188.93 Y135.568 E1.79139
G1 X188.93 Y136.102 E.01675
G1 X148.57 Y95.742 E1.79139
G1 X148.57 Y96.276 E.01675
G1 X188.93 Y136.636 E1.79139
G1 X188.93 Y137.17 E.01675
G1 X148.57 Y96.809 E1.79139
G1 X148.57 Y97.343 E.01675
G1 X188.93 Y137.703 E1.79139
G1 X188.93 Y138.237 E.01675
G1 X148.57 Y97.877 E1.79139
G1 X148.57 Y98.411 E.01675
G1 X188.93 Y138.771 E1.79139
G1 X188.93 Y139.305 E.01675
M73 P4 R203
G1 X148.57 Y98.945 E1.79139
G1 X148.57 Y99.478 E.01675
G1 X188.93 Y139.839 E1.79139
G1 X188.93 Y140.372 E.01675
G1 X148.57 Y100.012 E1.79139
G1 X148.57 Y100.546 E.01675
G1 X188.93 Y140.906 E1.79139
G1 X188.93 Y141.44 E.01675
G1 X148.57 Y101.08 E1.79139
G1 X148.57 Y101.613 E.01675
G1 X188.93 Y141.974 E1.79139
G1 X188.93 Y142.508 E.01675
G1 X148.57 Y102.147 E1.79139
G1 X148.57 Y102.681 E.01675
G1 X188.93 Y143.041 E1.79139
G1 X188.93 Y143.575 E.01675
G1 X148.57 Y103.215 E1.79139
G1 X148.57 Y103.749 E.01675
G1 X188.93 Y144.109 E1.79139
G1 X188.93 Y144.643 E.01675
G1 X148.57 Y104.282 E1.79139
G1 X148.57 Y104.816 E.01675
G1 X188.93 Y145.176 E1.79139
G1 X188.93 Y145.71 E.01675
G1 X148.57 Y105.35 E1.79139
