; generated by PrusaSlicer 2.3.0+linux-x64 on 2021-07-11 at 23:32:44 UTC



; 



; external perimeters extrusion width = 0.45mm

; perimeters extrusion width = 0.45mm

; infill extrusion width = 0.45mm

; solid infill extrusion width = 0.45mm

; top infill extrusion width = 0.40mm

; support material extrusion width = 0.35mm

; first layer extrusion width = 0.42mm



M73 P0 R16

M201 X9000 Y9000 Z500 E10000 ; sets maximum accelerations, mm/sec^2

M203 X500 Y500 Z12 E120 ; sets maximum feedrates, mm/sec

M204 P2000 R1500 T2000 ; sets acceleration (P, T) and retract acceleration (R), mm/sec^2

M205 X10.00 Y10.00 Z0.20 E4.50 ; sets the jerk limits, mm/sec

M205 S0 T0 ; sets the minimum extruding and travel feed rate, mm/sec

M107

;TYPE:Custom

M862.3 P "MK2.5" ; printer model check

M862.1 P0.4 ; nozzle diameter check

M115 U3.9.1 ; tell printer latest fw version

G90 ; use absolute coordinates

M83 ; extruder relative mode

M104 S215 ; set extruder temp

M140 S60 ; set bed temp

M190 S60 ; wait for bed temp

M109 S215 ; wait for extruder temp

G28 W ; home all without mesh bed level

G80 ; mesh bed leveling

G1 Y-3.0 F1000.0 ; go outside print area

G92 E0.0

G1 X60.0 E9.0 F1000.0 ; intro line

M73 P0 R15

G1 X100.0 E12.5 F1000.0 ; intro line

G92 E0.0

G21 ; set units to millimeters

G90 ; use absolute coordinates

M83 ; use relative distances for extrusion

M900 K0.05 ; Filament gcode LA 1.5

M900 K30 ; Filament gcode LA 1.0

;LAYER_CHANGE

;Z:0.2

;HEIGHT:0.2

;BEFORE_LAYER_CHANGE

G92 E0.0

;0.2





G1 E-0.80000 F2100.000

G1 Z0.600 F10800.000

;AFTER_LAYER_CHANGE

;0.2

;CURRENT_Z: 0.2

G1 X104.508 Y95.528

G1 Z0.200

G1 E0.80000 F2100.000

M204 S1000

;TYPE:Skirt

;WIDTH:0.42

G1 F1200.000

G1 X105.267 Y95.042 E0.02825

G1 X106.149 Y94.874 E0.02813

G1 X143.884 Y95.044 E1.18317

G1 X144.500 Y95.133 E0.01953

G1 X145.072 Y95.380 E0.01953

G1 X145.539 Y95.745 E0.01858

G1 X145.900 Y96.210 E0.01846

G1 X146.136 Y96.754 E0.01858

G1 X146.230 Y97.335 E0.01846

G1 X146.231 Y117.401 E0.62915

M73 P1 R15

G1 X146.140 Y118.013 E0.01941

G1 X145.895 Y118.582 E0.01941

G1 X145.524 Y119.054 E0.01882

G1 X145.044 Y119.421 E0.01894

G1 X144.487 Y119.654 E0.01894

G1 X143.893 Y119.740 E0.01882

G1 X106.116 Y119.570 E1.18448

G1 X105.500 Y119.481 E0.01953

G1 X104.928 Y119.234 E0.01953

G1 X104.469 Y118.878 E0.01823

G1 X104.110 Y118.420 E0.01823

G1 X103.873 Y117.889 E0.01823

G1 X103.772 Y117.317 E0.01823

G1 X103.772 Y97.133 E0.63285

G1 X103.985 Y96.261 E0.02813

G1 X104.474 Y95.577 E0.02637

;WIPE_START

G1 F8640.000

G1 X105.267 Y95.042 E-0.22098

G1 X106.149 Y94.874 E-0.20719

G1 X107.586 Y94.881 E-0.33183

;WIPE_END

G1 E-0.04000 F2100.000

G1 Z0.800 F10800.000

G1 X106.146 Y97.251

G1 Z0.200

G1 E0.80000 F2100.000

;TYPE:Support material

G1 F1200.000

G1 X106.146 Y117.193 E0.62527

G1 X106.900 Y117.193 E0.02365

G1 X106.900 Y97.421 E0.61995

G1 X107.654 Y97.421 E0.02365

G1 X107.654 Y117.193 E0.61995

G1 X108.409 Y117.193 E0.02365

G1 X108.409 Y97.421 E0.61995

G1 X109.163 Y97.421 E0.02365

G1 X109.163 Y100.044 E0.08224

G1 X108.508 Y100.044 E0.02052

G1 X108.508 Y112.263 E0.38314

M73 P2 R15

G1 X109.163 Y112.263 E0.02052

G1 X109.163 Y117.193 E0.15457

G1 X109.917 Y117.193 E0.02365

G1 X109.917 Y112.263 E0.15457

G1 X110.671 Y112.263 E0.02365

G1 X110.671 Y117.193 E0.15457

G1 X111.425 Y117.193 E0.02365

G1 X111.425 Y112.263 E0.15457

G1 X112.179 Y112.263 E0.02365

G1 X112.179 Y117.193 E0.15457

G1 X112.933 Y117.193 E0.02365

G1 X112.933 Y112.263 E0.15457

G1 X113.688 Y112.263 E0.02365

G1 X113.688 Y117.193 E0.15457

G1 X114.442 Y117.193 E0.02365

G1 X114.442 Y112.263 E0.15457

G1 X115.196 Y112.263 E0.02365

G1 X115.196 Y117.193 E0.15457

G1 X115.950 Y117.193 E0.02365

G1 X115.950 Y112.263 E0.15457

G1 X116.704 Y112.263 E0.02365

G1 X116.704 Y117.193 E0.15457

G1 X117.458 Y117.193 E0.02365

G1 X117.458 Y112.263 E0.15457

G1 X118.213 Y112.263 E0.02365

G1 X118.213 Y117.193 E0.15457

G1 X118.967 Y117.193 E0.02365

G1 X118.967 Y112.263 E0.15457

G1 X119.721 Y112.263 E0.02365

G1 X119.721 Y117.193 E0.15457

G1 X120.475 Y117.193 E0.02365

G1 X120.475 Y112.263 E0.15457

G1 X121.229 Y112.263 E0.02365

G1 X121.229 Y117.193 E0.15457

G1 X121.983 Y117.193 E0.02365

G1 X121.983 Y112.263 E0.15457

G1 X122.738 Y112.263 E0.02365

G1 X122.738 Y117.193 E0.15457

G1 X123.492 Y117.193 E0.02365

G1 X123.492 Y112.263 E0.15457

G1 X124.246 Y112.263 E0.02365

G1 X124.246 Y117.193 E0.15457

G1 X125.000 Y117.193 E0.02365

G1 X125.000 Y112.263 E0.15457

G1 X125.754 Y112.263 E0.02365

G1 X125.754 Y117.193 E0.15457

G1 X126.508 Y117.193 E0.02365

G1 X126.508 Y112.263 E0.15457

G1 X127.262 Y112.263 E0.02365

G1 X127.262 Y117.193 E0.15457

G1 X128.017 Y117.193 E0.02365

G1 X128.017 Y112.263 E0.15457

G1 X128.771 Y112.263 E0.02365

G1 X128.771 Y117.193 E0.15457

G1 X129.525 Y117.193 E0.02365

G1 X129.525 Y112.263 E0.15457

G1 X130.279 Y112.263 E0.02365

G1 X130.279 Y117.193 E0.15457

G1 X131.033 Y117.193 E0.02365

G1 X131.033 Y112.263 E0.15457

G1 X131.787 Y112.263 E0.02365

G1 X131.787 Y117.193 E0.15457

M73 P3 R15

G1 X132.542 Y117.193 E0.02365

G1 X132.542 Y112.263 E0.15457

G1 X133.296 Y112.263 E0.02365

G1 X133.296 Y117.193 E0.15457

G1 X134.050 Y117.193 E0.02365

G1 X134.050 Y112.263 E0.15457

G1 X134.804 Y112.263 E0.02365

G1 X134.804 Y117.193 E0.15457

G1 X135.558 Y117.193 E0.02365

G1 X135.558 Y112.263 E0.15457

G1 X136.312 Y112.263 E0.02365

G1 X136.312 Y117.193 E0.15457

G1 X137.067 Y117.193 E0.02365

G1 X137.067 Y112.263 E0.15457

G1 X137.821 Y112.263 E0.02365

G1 X137.821 Y117.193 E0.15457

G1 X138.575 Y117.193 E0.02365

G1 X138.575 Y112.263 E0.15457

G1 X139.329 Y112.263 E0.02365

G1 X139.329 Y117.193 E0.15457

G1 X140.083 Y117.193 E0.02365

G1 X140.083 Y112.263 E0.15457

G1 X140.837 Y112.263 E0.02365

G1 X140.837 Y117.193 E0.15457

G1 X141.591 Y117.193 E0.02365

G1 X141.591 Y97.421 E0.61995

G1 X142.346 Y97.421 E0.02365

G1 X142.346 Y117.193 E0.61995

G1 X143.100 Y117.193 E0.02365

G1 X143.100 Y97.421 E0.61995

G1 X143.854 Y97.421 E0.02365

G1 X143.854 Y117.363 E0.62527

;WIPE_START

G1 F8640.000

G1 X143.854 Y114.071 E-0.76000

;WIPE_END

G1 E-0.04000 F2100.000

G1 Z0.800 F10800.000

G1 X140.719 Y112.059

G1 Z0.200

G1 E0.80000 F2100.000

;TYPE:Support material interface

;WIDTH:0.35

G1 F1200.000

G1 X140.719 Y100.386 E0.29807

G1 X140.379 Y100.386 E0.00870

G1 X140.379 Y102.157 E0.04522

G1 X140.348 Y102.187 E0.00109

G1 X140.348 Y105.013 E0.07215

G1 X140.212 Y105.149 E0.00491

G1 X140.212 Y111.921 E0.17293

M73 P4 R15

G1 X139.705 Y111.921 E0.01295

G1 X139.705 Y105.348 E0.16783

G1 X139.198 Y105.348 E0.01295

G1 X139.198 Y111.921 E0.16783

G1 X138.691 Y111.921 E0.01295

G1 X138.691 Y105.348 E0.16783

G1 X138.184 Y105.348 E0.01295

G1 X138.184 Y111.921 E0.16783

G1 X137.677 Y111.921 E0.01295

G1 X137.677 Y105.348 E0.16783

G1 X137.170 Y105.348 E0.01295

G1 X137.170 Y111.921 E0.16783

G1 X136.663 Y111.921 E0.01295

G1 X136.663 Y105.348 E0.16783

G1 X136.156 Y105.348 E0.01295

G1 X136.156 Y111.921 E0.16783

G1 X135.649 Y111.921 E0.01295

G1 X135.649 Y105.348 E0.16783

G1 X135.142 Y105.348 E0.01295

G1 X135.142 Y111.921 E0.16783

G1 X134.635 Y111.921 E0.01295

G1 X134.635 Y105.348 E0.16783

G1 X134.127 Y105.348 E0.01295

G1 X134.127 Y111.921 E0.16783

G1 X133.620 Y111.921 E0.01295

G1 X133.620 Y105.348 E0.16783

G1 X133.113 Y105.348 E0.01295

G1 X133.113 Y111.921 E0.16783

G1 X132.606 Y111.921 E0.01295

G1 X132.606 Y105.348 E0.16783

G1 X132.099 Y105.348 E0.01295

G1 X132.099 Y111.921 E0.16783

G1 X131.592 Y111.921 E0.01295

G1 X131.592 Y105.348 E0.16783

G1 X131.085 Y105.348 E0.01295

G1 X131.085 Y111.921 E0.16783

G1 X130.578 Y111.921 E0.01295

G1 X130.578 Y105.348 E0.16783

G1 X130.071 Y105.348 E0.01295

G1 X130.071 Y111.921 E0.16783

G1 X129.564 Y111.921 E0.01295

G1 X129.564 Y105.348 E0.16783

G1 X129.057 Y105.348 E0.01295

G1 X129.057 Y111.921 E0.16783

G1 X128.550 Y111.921 E0.01295

G1 X128.550 Y105.348 E0.16783

G1 X128.042 Y105.348 E0.01295

G1 X128.042 Y111.921 E0.16783

G1 X127.535 Y111.921 E0.01295

G1 X127.535 Y105.348 E0.16783

G1 X127.028 Y105.348 E0.01295

G1 X127.028 Y111.921 E0.16783

M73 P5 R15

G1 X126.521 Y111.921 E0.01295

G1 X126.521 Y105.348 E0.16783

G1 X126.014 Y105.348 E0.01295

G1 X126.014 Y111.921 E0.16783

G1 X125.507 Y111.921 E0.01295

G1 X125.507 Y105.348 E0.16783

G1 X125.000 Y105.348 E0.01295

G1 X125.000 Y111.921 E0.16783

G1 X124.493 Y111.921 E0.01295

G1 X124.493 Y105.348 E0.16783

G1 X123.986 Y105.348 E0.01295

G1 X123.986 Y111.921 E0.16783

G1 X123.479 Y111.921 E0.01295

G1 X123.479 Y105.348 E0.16783

G1 X122.972 Y105.348 E0.01295

G1 X122.972 Y111.921 E0.16783

G1 X122.465 Y111.921 E0.01295

G1 X122.465 Y105.348 E0.16783

G1 X121.958 Y105.348 E0.01295

G1 X121.958 Y111.921 E0.16783

G1 X121.450 Y111.921 E0.01295

G1 X121.450 Y105.348 E0.16783

G1 X120.943 Y105.348 E0.01295

G1 X120.943 Y111.921 E0.16783

G1 X120.436 Y111.921 E0.01295

G1 X120.436 Y105.348 E0.16783

G1 X119.929 Y105.348 E0.01295

G1 X119.929 Y111.921 E0.16783

G1 X119.422 Y111.921 E0.01295

G1 X119.422 Y105.348 E0.16783

G1 X118.915 Y105.348 E0.01295

G1 X118.915 Y111.921 E0.16783

G1 X118.408 Y111.921 E0.01295

G1 X118.408 Y105.348 E0.16783

G1 X117.901 Y105.348 E0.01295

G1 X117.901 Y111.921 E0.16783

G1 X117.394 Y111.921 E0.01295

G1 X117.394 Y105.348 E0.16783

G1 X116.887 Y105.348 E0.01295

G1 X116.887 Y111.921 E0.16783

G1 X116.380 Y111.921 E0.01295

G1 X116.380 Y105.348 E0.16783

G1 X115.873 Y105.348 E0.01295

G1 X115.873 Y111.921 E0.16783

G1 X115.365 Y111.921 E0.01295

G1 X115.365 Y105.348 E0.16783

G1 X114.858 Y105.348 E0.01295

G1 X114.858 Y111.921 E0.16783

G1 X114.351 Y111.921 E0.01295

G1 X114.351 Y105.348 E0.16783

M73 P6 R15

G1 X113.844 Y105.348 E0.01295

G1 X113.844 Y111.921 E0.16783

G1 X113.337 Y111.921 E0.01295

G1 X113.337 Y105.348 E0.16783

G1 X112.830 Y105.348 E0.01295

G1 X112.830 Y111.921 E0.16783

G1 X112.323 Y111.921 E0.01295

G1 X112.323 Y105.348 E0.16783

G1 X111.816 Y105.348 E0.01295

G1 X111.816 Y111.921 E0.16783

G1 X111.309 Y111.921 E0.01295

G1 X111.309 Y105.348 E0.16783

G1 X110.802 Y105.348 E0.01295

G1 X110.802 Y111.921 E0.16783

G1 X110.295 Y111.921 E0.01295

G1 X110.295 Y105.348 E0.16783

G1 X109.987 Y105.348 E0.00785

G1 X109.788 Y105.149 E0.00722

G1 X109.788 Y111.921 E0.17293

G1 X109.281 Y111.921 E0.01295

G1 X109.281 Y100.248 E0.29807

G1 X109.917 Y102.208 F10800.000

;TYPE:Support material

;WIDTH:0.42

G1 F1200.000

G1 X109.917 Y99.414 E0.08763

G1 X110.671 Y99.414 E0.02365

G1 X110.671 Y105.006 E0.17536

G1 X111.425 Y105.006 E0.02365

G1 X111.425 Y99.414 E0.17536

G1 X112.179 Y99.414 E0.02365

G1 X112.179 Y103.213 E0.11914

;WIPE_START

G1 F8640.000

G1 X112.179 Y99.922 E-0.76000

;WIPE_END

G1 E-0.04000 F2100.000

G1 Z0.800 F10800.000

M73 P6 R14

G1 X137.821 Y99.244

G1 Z0.200

G1 E0.80000 F2100.000

G1 F1200.000

G1 X137.821 Y103.044 E0.11914

G1 X138.492 Y103.044 E0.02104

G1 X138.492 Y105.006 E0.06154

G1 X138.575 Y105.006 E0.00261

G1 X138.575 Y99.414 E0.17536

G1 X139.329 Y99.414 E0.02365

G1 X139.329 Y105.006 E0.17536

G1 X139.871 Y105.006 E0.01699

G1 X140.006 Y104.871 E0.00601

G1 X140.006 Y102.389 E0.07783

G1 X139.663 Y102.389 E0.01077

G1 X140.036 Y102.015 E0.01656

G1 X140.036 Y100.044 E0.06181

G1 X140.083 Y100.044 E0.00146

G1 X140.083 Y99.414 E0.01976

G1 X140.171 Y99.414 E0.00276

G1 X140.414 Y99.171 E0.01074

G1 X140.414 Y97.421 E0.05488

G1 X140.837 Y97.421 E0.01329

G1 X140.837 Y100.213 E0.08756

;WIPE_START

G1 F8640.000

G1 X140.837 Y97.421 E-0.64480

G1 X140.414 Y97.421 E-0.09786

G1 X140.414 Y97.496 E-0.01734

;WIPE_END

G1 E-0.04000 F2100.000

G1 Z0.800 F10800.000

G1 X139.590 Y98.590

G1 Z0.200

G1 E0.80000 F2100.000

;TYPE:External perimeter

G1 F1200.000

G1 X110.410 Y98.590 E0.91492

G1 X110.410 Y97.910 E0.02132

G1 X139.590 Y97.910 E0.91492

M73 P7 R14

G1 X139.590 Y98.530 E0.01944

G1 X139.190 Y98.587 F10800.000

;WIPE_START

G1 F8640.000

G1 X136.299 Y98.537 E-0.76000

;WIPE_END

G1 E-0.04000 F2100.000

G1 Z0.800 F10800.000

G1 X110.599 Y98.250

G1 Z0.200

G1 E0.80000 F2100.000

;TYPE:Gap fill

;WIDTH:0.345842

G1 F1200.000

G1 X139.401 Y98.250 E0.72549

M106 S255

;LAYER_CHANGE

;Z:0.3

;HEIGHT:0.1

;BEFORE_LAYER_CHANGE

G92 E0.0

;0.3





;WIPE_START

G1 F8640.000

G1 X136.110 Y98.250 E-0.76000

;WIPE_END

G1 E-0.04000 F2100.000

G1 Z0.800 F10800.000

;AFTER_LAYER_CHANGE

;0.3

;CURRENT_Z: 0.3

M104 S210 ; set temperature

G1 X109.281 Y100.248

G1 Z0.300

G1 E0.80000 F2100.000

;TYPE:Support material interface

;WIDTH:0.35

G1 F1838

G1 X109.281 Y114.228 E0.19096

G1 X109.788 Y114.228 E0.00693

G1 X109.788 Y105.149 E0.12402

G1 X109.987 Y105.348 E0.00386

G1 X110.295 Y105.348 E0.00420

G1 X110.295 Y114.228 E0.12129

G1 X110.802 Y114.228 E0.00693

G1 X110.802 Y105.348 E0.12129

G1 X111.309 Y105.348 E0.00693

G1 X111.309 Y114.228 E0.12129

G1 X111.816 Y114.228 E0.00693

G1 X111.816 Y105.348 E0.12129

G1 X112.323 Y105.348 E0.00693

G1 X112.323 Y114.228 E0.12129

G1 X112.830 Y114.228 E0.00693

G1 X112.830 Y105.348 E0.12129

G1 X113.337 Y105.348 E0.00693

G1 X113.337 Y114.228 E0.12129

G1 X113.844 Y114.228 E0.00693

G1 X113.844 Y105.348 E0.12129

G1 X114.351 Y105.348 E0.00693

G1 X114.351 Y114.228 E0.12129

G1 X114.858 Y114.228 E0.00693

G1 X114.858 Y105.348 E0.12129

G1 X115.365 Y105.348 E0.00693

G1 X115.365 Y114.228 E0.12129

G1 X115.873 Y114.228 E0.00693

G1 X115.873 Y105.348 E0.12129

G1 X116.380 Y105.348 E0.00693

G1 X116.380 Y114.228 E0.12129

G1 X116.887 Y114.228 E0.00693

G1 X116.887 Y105.348 E0.12129

M73 P8 R14

G1 X117.394 Y105.348 E0.00693

G1 X117.394 Y114.228 E0.12129

G1 X117.901 Y114.228 E0.00693

G1 X117.901 Y105.348 E0.12129

G1 X118.408 Y105.348 E0.00693

G1 X118.408 Y114.228 E0.12129

G1 X118.915 Y114.228 E0.00693

G1 X118.915 Y105.348 E0.12129

G1 X119.422 Y105.348 E0.00693

G1 X119.422 Y114.228 E0.12129

G1 X119.929 Y114.228 E0.00693

G1 X119.929 Y105.348 E0.12129

G1 X120.436 Y105.348 E0.00693

G1 X120.436 Y114.228 E0.12129

G1 X120.943 Y114.228 E0.00693

G1 X120.943 Y105.348 E0.12129

G1 X121.450 Y105.348 E0.00693

G1 X121.450 Y114.228 E0.12129

G1 X121.958 Y114.228 E0.00693

G1 X121.958 Y105.348 E0.12129

G1 X122.465 Y105.348 E0.00693

G1 X122.465 Y114.228 E0.12129

G1 X122.972 Y114.228 E0.00693

G1 X122.972 Y105.348 E0.12129

G1 X123.479 Y105.348 E0.00693

G1 X123.479 Y114.228 E0.12129

G1 X123.986 Y114.228 E0.00693

G1 X123.986 Y105.348 E0.12129

G1 X124.493 Y105.348 E0.00693

G1 X124.493 Y114.228 E0.12129

G1 X125.000 Y114.228 E0.00693

G1 X125.000 Y105.348 E0.12129

G1 X125.507 Y105.348 E0.00693

G1 X125.507 Y114.228 E0.12129

G1 X126.014 Y114.228 E0.00693

G1 X126.014 Y105.348 E0.12129

G1 X126.521 Y105.348 E0.00693

G1 X126.521 Y114.228 E0.12129

G1 X127.028 Y114.228 E0.00693

G1 X127.028 Y105.348 E0.12129

G1 X127.535 Y105.348 E0.00693

G1 X127.535 Y114.228 E0.12129

G1 X128.042 Y114.228 E0.00693

G1 X128.042 Y105.348 E0.12129

G1 X128.550 Y105.348 E0.00693

G1 X128.550 Y114.228 E0.12129

G1 X129.057 Y114.228 E0.00693

G1 X129.057 Y105.348 E0.12129

G1 X129.564 Y105.348 E0.00693

G1 X129.564 Y114.228 E0.12129

G1 X130.071 Y114.228 E0.00693

G1 X130.071 Y105.348 E0.12129

G1 X130.578 Y105.348 E0.00693

G1 X130.578 Y114.228 E0.12129

G1 X131.085 Y114.228 E0.00693

G1 X131.085 Y105.348 E0.12129

M73 P9 R14

G1 X131.592 Y105.348 E0.00693

G1 X131.592 Y114.228 E0.12129

G1 X132.099 Y114.228 E0.00693

G1 X132.099 Y105.348 E0.12129

G1 X132.606 Y105.348 E0.00693

G1 X132.606 Y114.228 E0.12129

G1 X133.113 Y114.228 E0.00693

G1 X133.113 Y105.348 E0.12129

G1 X133.620 Y105.348 E0.00693

G1 X133.620 Y114.228 E0.12129

G1 X134.127 Y114.228 E0.00693

G1 X134.127 Y105.348 E0.12129

G1 X134.635 Y105.348 E0.00693

G1 X134.635 Y114.228 E0.12129

G1 X135.142 Y114.228 E0.00693

G1 X135.142 Y105.348 E0.12129

G1 X135.649 Y105.348 E0.00693

G1 X135.649 Y114.228 E0.12129

G1 X136.156 Y114.228 E0.00693

G1 X136.156 Y105.348 E0.12129

G1 X136.663 Y105.348 E0.00693

G1 X136.663 Y114.228 E0.12129

