; generated by PrusaSlicer 2.6.0-alpha6+linux-x64-GTK3 on 2023-05-08 at 03:34:12 UTC

; 

; external perimeters extrusion width = 0.45mm
; perimeters extrusion width = 0.45mm
; infill extrusion width = 0.45mm
; solid infill extrusion width = 0.45mm
; top infill extrusion width = 0.40mm
; first layer extrusion width = 0.42mm

M73 P0 R8
M201 X9000 Y9000 Z500 E10000 ; sets maximum accelerations, mm/sec^2
M203 X500 Y500 Z12 E120 ; sets maximum feedrates, mm / sec
M204 S2000 T1500 ; sets acceleration (S) and retract acceleration (R), mm/sec^2
M205 X10.00 Y10.00 Z0.20 E4.50 ; sets the jerk limits, mm/sec
M205 S0 T0 ; sets the minimum extruding and travel feed rate, mm/sec
;TYPE:Custom
M862.3 P "MK2.5" ; printer model check
M862.1 P0.4 ; nozzle diameter check
M115 U3.11.0 ; tell printer latest fw version
G90 ; use absolute coordinates
M83 ; extruder relative mode
M104 S215 ; set extruder temp
M140 S60 ; set bed temp
M190 S60 ; wait for bed temp
M109 S215 ; wait for extruder temp
G28 W ; home all without mesh bed level
G80 ; mesh bed leveling

G1 Z0.2 F720
G1 Y-3 F1000 ; go outside print area
G92 E0
G1 X60 E9 F1000 ; intro line
G1 X100 E12.5 F1000 ; intro line

G92 E0
G21 ; set units to millimeters
G90 ; use absolute coordinates
M83 ; use relative distances for extrusion
M900 K0.05 ; Filament gcode LA 1.5
M900 K30 ; Filament gcode LA 1.0
M107
;LAYER_CHANGE
;Z:0.2
;HEIGHT:0.2
;BEFORE_LAYER_CHANGE
G92 E0.0
;0.2


G1 E-.8 F2100
M73 P1 R8
G1 Z.4 F720
;AFTER_LAYER_CHANGE
;0.2
;CURRENT_Z: 0.2
G1 X117.262 Y98.48 F10800
G1 Z.2 F720
G1 E.8 F2100
M204 S800
;TYPE:Skirt/Brim
;WIDTH:0.42
G1 F1200
G1 X118.344 Y97.342 E.04923
G1 X120 Y96.869 E.054
G1 X130 Y96.869 E.31354
G1 X131.52 Y97.262 E.04923
G1 X132.658 Y98.344 E.04923
G1 X133.131 Y100 E.054
G1 X133.131 Y110 E.31354
G1 X132.738 Y111.52 E.04923
G1 X131.656 Y112.658 E.04923
G1 X130 Y113.131 E.054
G1 X120 Y113.131 E.31354
G1 X118.48 Y112.738 E.04923
G1 X117.342 Y111.656 E.04923
G1 X116.869 Y110 E.054
G1 X116.869 Y100 E.31354
G1 X117.247 Y98.538 E.04735
M204 S1000
G1 X117.622 Y98.642 F10800
M204 S800
G1 F1200
G1 X117.639 Y98.583 E.00193
G1 X118.705 Y97.569 E.04613
G1 X120 Y97.246 E.04185
G1 X130 Y97.246 E.31354
G1 X131.417 Y97.639 E.04611
G1 X132.431 Y98.705 E.04613
M73 P2 R8
G1 X132.754 Y100 E.04185
G1 X132.754 Y110 E.31354
G1 X132.361 Y111.417 E.04611
G1 X131.295 Y112.431 E.04613
G1 X130 Y112.754 E.04185
G1 X120 Y112.754 E.31354
G1 X118.583 Y112.361 E.04611
G1 X117.569 Y111.295 E.04613
G1 X117.246 Y110 E.04185
G1 X117.246 Y100 E.31354
G1 X117.606 Y98.7 E.04229
M204 S1000
G1 X117.979 Y98.812 F10800
M204 S800
G1 F1200
G1 X118.015 Y98.693 E.0039
G1 X119.06 Y97.817 E.04275
G1 X120 Y97.623 E.03009
G1 X130 Y97.623 E.31354
G1 X131.307 Y98.015 E.04278
G1 X132.183 Y99.06 E.04275
G1 X132.377 Y100 E.03009
G1 X132.377 Y110 E.31354
G1 X131.985 Y111.307 E.04278
G1 X130.94 Y112.183 E.04275
G1 X130 Y112.377 E.03009
G1 X120 Y112.377 E.31354
G1 X118.693 Y111.985 E.04278
G1 X117.817 Y110.94 E.04275
G1 X117.623 Y110 E.03009
G1 X117.623 Y100 E.31354
G1 X117.962 Y98.869 E.03702
M204 S1000
; printing object teste.stl id:0 copy 0
;WIPE_START
G1 F8640
G1 X118.015 Y98.693 E-.04244
G1 X119.06 Y97.817 E-.31486
G1 X120 Y97.623 E-.22162
G1 X120.957 Y97.623 E-.22108
;WIPE_END
G1 Z.6 F720
G1 X120.787 Y100.787 F10800
G1 Z.2 F720
G1 E.8 F2100
M204 S800
;TYPE:Perimeter
;WIDTH:0.419999
G1 F1200
G1 X129.213 Y100.787 E.26419
G1 X129.213 Y109.213 E.26419
M73 P3 R8
G1 X120.787 Y109.213 E.26419
G1 X120.787 Y100.847 E.26231
M204 S1000
G1 X120.41 Y100.41 F10800
M204 S800
;TYPE:External perimeter
G1 F1200
G1 X129.59 Y100.41 E.28783
G1 X129.59 Y109.59 E.28783
G1 X120.41 Y109.59 E.28783
G1 X120.41 Y100.47 E.28595
M204 S1000
G1 X120.796 Y100.514 F10800
;WIPE_START
G1 F8640
G1 X123.875 Y100.447 E-.8
;WIPE_END
G1 Z.6 F720
G1 X129.1 Y101.686 F10800
G1 Z.2 F720
G1 E.8 F2100
M204 S800
;TYPE:Solid infill
;WIDTH:0.43123
G1 F1200
G1 X128.483 Y101.07 E.02815
G1 X127.934 Y101.07 E.01773
G1 X128.93 Y102.066 E.04548
G1 X128.93 Y102.615 E.01773
G1 X127.385 Y101.07 E.07055
G1 X126.836 Y101.07 E.01773
G1 X128.93 Y103.164 E.09562
G1 X128.93 Y103.713 E.01773
G1 X126.287 Y101.07 E.12069
G1 X125.738 Y101.07 E.01773
G1 X128.93 Y104.262 E.14575
G1 X128.93 Y104.812 E.01776
G1 X125.188 Y101.07 E.17087
G1 X124.639 Y101.07 E.01773
G1 X128.93 Y105.361 E.19594
G1 X128.93 Y105.91 E.01773
M73 P4 R8
G1 X124.09 Y101.07 E.22101
G1 X123.541 Y101.07 E.01773
G1 X128.93 Y106.459 E.24607
G1 X128.93 Y107.008 E.01773
G1 X122.992 Y101.07 E.27114
G1 X122.443 Y101.07 E.01773
G1 X128.93 Y107.557 E.29621
G1 X128.93 Y108.106 E.01773
G1 X121.894 Y101.07 E.32128
G1 X121.344 Y101.07 E.01776
G1 X128.93 Y108.656 E.34639
G1 X128.93 Y108.93 E.00885
G1 X128.655 Y108.93 E.00888
G1 X121.07 Y101.345 E.34635
G1 X121.07 Y101.894 E.01773
G1 X128.106 Y108.93 E.32128
G1 X127.557 Y108.93 E.01773
G1 X121.07 Y102.443 E.29621
G1 X121.07 Y102.992 E.01773
G1 X127.008 Y108.93 E.27114
G1 X126.459 Y108.93 E.01773
G1 X121.07 Y103.541 E.24607
G1 X121.07 Y104.09 E.01773
M73 P5 R8
G1 X125.91 Y108.93 E.22101
G1 X125.361 Y108.93 E.01773
G1 X121.07 Y104.639 E.19594
G1 X121.07 Y105.189 E.01776
G1 X124.811 Y108.93 E.17082
G1 X124.262 Y108.93 E.01773
G1 X121.07 Y105.738 E.14575
G1 X121.07 Y106.287 E.01773
G1 X123.713 Y108.93 E.12069
G1 X123.164 Y108.93 E.01773
G1 X121.07 Y106.836 E.09562
G1 X121.07 Y107.385 E.01773
G1 X122.615 Y108.93 E.07055
G1 X122.066 Y108.93 E.01773
G1 X121.07 Y107.934 E.04548
G1 X121.07 Y108.484 E.01776
G1 X121.686 Y109.1 E.02813
M204 S1000
; stop printing object teste.stl id:0 copy 0
M106 S84.15
;LAYER_CHANGE
;Z:0.4
;HEIGHT:0.2
;BEFORE_LAYER_CHANGE
G92 E0.0
;0.4


;WIPE_START
G1 F8640
G1 X121.07 Y108.484 E-.20115
G1 X121.07 Y107.934 E-.127
G1 X122.066 Y108.93 E-.32524
G1 X122.615 Y108.93 E-.12677
G1 X122.554 Y108.869 E-.01984
;WIPE_END
G1 Z.6 F720
;AFTER_LAYER_CHANGE
;0.4
;CURRENT_Z: 0.4
M104 S210 ; set temperature
G1 X122.554 Y113.131 F10800
G1 Z.4 F720
G1 E.8 F2100
;TYPE:Skirt/Brim
;WIDTH:0.42
G1 F1805
G1 X120 Y113.131 E.08008
G1 X118.48 Y112.738 E.04923
G1 X117.342 Y111.656 E.04923
G1 X116.869 Y110 E.054
G1 X116.869 Y100 E.31354
G1 X117.262 Y98.48 E.04923
G1 X118.344 Y97.342 E.04923
G1 X120 Y96.869 E.054
G1 X130 Y96.869 E.31354
G1 X131.52 Y97.262 E.04923
G1 X132.658 Y98.344 E.04923
G1 X133.131 Y100 E.054
G1 X133.131 Y110 E.31354
G1 X132.738 Y111.52 E.04923
G1 X131.656 Y112.658 E.04923
G1 X130 Y113.131 E.054
G1 X122.614 Y113.131 E.23158
G1 X122.614 Y112.754 F10800
G1 F1805
G1 X120 Y112.754 E.08196
G1 X118.583 Y112.361 E.04611
G1 X117.569 Y111.295 E.04613
G1 X117.246 Y110 E.04185
G1 X117.246 Y100 E.31354
G1 X117.639 Y98.583 E.04611
G1 X118.705 Y97.569 E.04613
G1 X120 Y97.246 E.04185
M73 P6 R8
G1 X130 Y97.246 E.31354
G1 X131.417 Y97.639 E.04611
G1 X132.431 Y98.705 E.04613
G1 X132.754 Y100 E.04185
G1 X132.754 Y110 E.31354
G1 X132.361 Y111.417 E.04611
G1 X131.295 Y112.431 E.04613
G1 X130 Y112.754 E.04185
G1 X122.674 Y112.754 E.2297
G1 X122.674 Y112.377 F10800
G1 F1805
G1 X120 Y112.377 E.08384
G1 X118.693 Y111.985 E.04278
G1 X117.817 Y110.94 E.04275
G1 X117.623 Y110 E.03009
G1 X117.623 Y100 E.31354
G1 X118.015 Y98.693 E.04278
G1 X119.06 Y97.817 E.04275
G1 X120 Y97.623 E.03009
G1 X130 Y97.623 E.31354
G1 X131.307 Y98.015 E.04278
G1 X132.183 Y99.06 E.04275
G1 X132.377 Y100 E.03009
G1 X132.377 Y110 E.31354
G1 X131.985 Y111.307 E.04278
G1 X130.94 Y112.183 E.04275
G1 X130 Y112.377 E.03009
G1 X122.734 Y112.377 E.22782
; printing object teste.stl id:0 copy 0
;WIPE_START
G1 F8640
G1 X120 Y112.377 E-.63129
G1 X119.3 Y112.167 E-.16871
;WIPE_END
G1 Z.8 F720
G1 X120.632 Y100.632 F10800
G1 Z.4 F720
G1 E.8 F2100
M204 S800
;TYPE:Perimeter
;WIDTH:0.449999
G1 F1500
G1 X129.368 Y100.632 E.2957
G1 X129.368 Y109.368 E.2957
G1 X120.632 Y109.368 E.2957
G1 X120.632 Y100.692 E.29367
M204 S1000
G1 X120.225 Y100.225 F10800
M204 S800
;TYPE:External perimeter
G1 F1500
G1 X129.775 Y100.225 E.32326
G1 X129.775 Y109.775 E.32326
M73 P7 R8
G1 X120.225 Y109.775 E.32326
G1 X120.225 Y100.285 E.32122
M204 S1000
G1 X120.611 Y100.329 F10800
;WIPE_START
G1 F8640
G1 X123.69 Y100.263 E-.8
;WIPE_END
G1 Z.8 F720
G1 X128.404 Y109.246 F10800
G1 Z.4 F720
G1 E.8 F2100
M204 S2000
;TYPE:Solid infill
;WIDTH:0.459006
G1 F1805
G1 X129.063 Y108.587 E.03224
G1 X129.063 Y107.999 E.02034
G1 X127.999 Y109.063 E.05206
G1 X127.41 Y109.063 E.02038
G1 X129.063 Y107.41 E.08088
G1 X129.063 Y106.822 E.02034
G1 X126.822 Y109.063 E.10965
G1 X126.233 Y109.063 E.02038
G1 X129.063 Y106.233 E.13847
G1 X129.063 Y105.645 E.02034
G1 X125.645 Y109.063 E.16724
G1 X125.056 Y109.063 E.02038
G1 X129.063 Y105.056 E.19606
G1 X129.063 Y104.468 E.02034
G1 X124.468 Y109.063 E.22483
G1 X123.879 Y109.063 E.02038
G1 X129.063 Y103.879 E.25365
G1 X129.063 Y103.291 E.02034
G1 X123.291 Y109.063 E.28242
G1 X122.703 Y109.063 E.02034
G1 X129.063 Y102.703 E.31119
G1 X129.063 Y102.114 E.02038
G1 X122.114 Y109.063 E.34
G1 X121.526 Y109.063 E.02034
G1 X129.063 Y101.526 E.36877
G1 X129.063 Y100.937 E.02038
G1 X120.937 Y109.063 E.39759
G1 X120.937 Y108.474 E.02038
G1 X128.474 Y100.937 E.36877
G1 X127.886 Y100.937 E.02034
M73 P8 R8
G1 X120.937 Y107.886 E.34
G1 X120.937 Y107.297 E.02038
G1 X127.297 Y100.937 E.31119
G1 X126.709 Y100.937 E.02034
G1 X120.937 Y106.709 E.28242
G1 X120.937 Y106.12 E.02038
G1 X126.12 Y100.937 E.2536
G1 X125.532 Y100.937 E.02034
G1 X120.937 Y105.532 E.22483
G1 X120.937 Y104.944 E.02034
G1 X124.944 Y100.937 E.19606
G1 X124.355 Y100.937 E.02038
G1 X120.937 Y104.355 E.16724
G1 X120.937 Y103.767 E.02034
G1 X123.767 Y100.937 E.13847
G1 X123.178 Y100.937 E.02038
G1 X120.937 Y103.178 E.10965
G1 X120.937 Y102.59 E.02034
G1 X122.59 Y100.937 E.08088
G1 X122.001 Y100.937 E.02038
G1 X120.937 Y102.001 E.05206
G1 X120.937 Y101.413 E.02034
G1 X121.596 Y100.754 E.03224
M204 S1000
; stop printing object teste.stl id:0 copy 0
M106 S170.85
;LAYER_CHANGE
;Z:0.6
;HEIGHT:0.2
;BEFORE_LAYER_CHANGE
G92 E0.0
;0.6


;WIPE_START
G1 F8640
G1 X120.937 Y101.413 E-.21519
G1 X120.937 Y102.001 E-.13577
G1 X122.001 Y100.937 E-.34744
G1 X122.441 Y100.937 E-.1016
;WIPE_END
G1 Z.8 F720
;AFTER_LAYER_CHANGE
;0.6
;CURRENT_Z: 0.6
G1 X122.441 Y96.869 F10800
G1 Z.6 F720
G1 E.8 F2100
;TYPE:Skirt/Brim
;WIDTH:0.42
G1 F1794
G1 X130 Y96.869 E.23701
G1 X131.52 Y97.262 E.04923
G1 X132.658 Y98.344 E.04923
G1 X133.131 Y100 E.054
G1 X133.131 Y110 E.31354
G1 X132.738 Y111.52 E.04923
G1 X131.656 Y112.658 E.04923
G1 X130 Y113.131 E.054
G1 X120 Y113.131 E.31354
G1 X118.48 Y112.738 E.04923
G1 X117.342 Y111.656 E.04923
G1 X116.869 Y110 E.054
G1 X116.869 Y100 E.31354
G1 X117.262 Y98.48 E.04923
G1 X118.344 Y97.342 E.04923
G1 X120 Y96.869 E.054
G1 X122.381 Y96.869 E.07465
G1 X122.381 Y97.246 F10800
G1 F1794
G1 X130 Y97.246 E.23889
G1 X131.417 Y97.639 E.04611
G1 X132.431 Y98.705 E.04613
G1 X132.754 Y100 E.04185
M73 P9 R8
G1 X132.754 Y110 E.31354
G1 X132.361 Y111.417 E.04611
G1 X131.295 Y112.431 E.04613
G1 X130 Y112.754 E.04185
G1 X120 Y112.754 E.31354
G1 X118.583 Y112.361 E.04611
G1 X117.569 Y111.295 E.04613
G1 X117.246 Y110 E.04185
G1 X117.246 Y100 E.31354
G1 X117.639 Y98.583 E.04611
G1 X118.705 Y97.569 E.04613
G1 X120 Y97.246 E.04185
G1 X122.321 Y97.246 E.07277
G1 X122.321 Y97.623 F10800
G1 F1794
G1 X130 Y97.623 E.24077
G1 X131.307 Y98.015 E.04278
G1 X132.183 Y99.06 E.04275
G1 X132.377 Y100 E.03009
G1 X132.377 Y110 E.31354
G1 X131.985 Y111.307 E.04278
G1 X130.94 Y112.183 E.04275
G1 X130 Y112.377 E.03009
G1 X120 Y112.377 E.31354
G1 X118.693 Y111.985 E.04278
G1 X117.817 Y110.94 E.04275
G1 X117.623 Y110 E.03009
G1 X117.623 Y100 E.31354
G1 X118.015 Y98.693 E.04278
G1 X119.06 Y97.817 E.04275
G1 X120 Y97.623 E.03009
G1 X122.261 Y97.623 E.07089
; printing object teste.stl id:0 copy 0
;WIPE_START
G1 F8640
G1 X125.726 Y97.623 E-.8
;WIPE_END
G1 Z1 F720
G1 X120.632 Y100.632 F10800
G1 Z.6 F720
G1 E.8 F2100
M204 S800
;TYPE:Perimeter
;WIDTH:0.449999
G1 F1500
G1 X129.368 Y100.632 E.2957
G1 X129.368 Y109.368 E.2957
G1 X120.632 Y109.368 E.2957
G1 X120.632 Y100.692 E.29367
M204 S1000
G1 X120.225 Y100.225 F10800
M204 S800
;TYPE:External perimeter
G1 F1500
M73 P10 R8
G1 X129.775 Y100.225 E.32326
G1 X129.775 Y109.775 E.32326
G1 X120.225 Y109.775 E.32326
G1 X120.225 Y100.285 E.32122
M204 S1000
M73 P10 R7
G1 X120.611 Y100.329 F10800
;WIPE_START
G1 F8640
G1 X123.69 Y100.263 E-.8
;WIPE_END
G1 Z1 F720
G1 X129.246 Y101.596 F10800
G1 Z.6 F720
G1 E.8 F2100
M204 S2000
;TYPE:Solid infill
;WIDTH:0.459006
G1 F1794
G1 X128.587 Y100.937 E.03224
G1 X127.999 Y100.937 E.02034
G1 X129.063 Y102.001 E.05206
G1 X129.063 Y102.59 E.02038
G1 X127.41 Y100.937 E.08088
G1 X126.822 Y100.937 E.02034
G1 X129.063 Y103.178 E.10965
G1 X129.063 Y103.767 E.02038
G1 X126.233 Y100.937 E.13847
G1 X125.645 Y100.937 E.02034
G1 X129.063 Y104.355 E.16724
G1 X129.063 Y104.944 E.02038
G1 X125.056 Y100.937 E.19606
G1 X124.468 Y100.937 E.02034
G1 X129.063 Y105.532 E.22483
G1 X129.063 Y106.121 E.02038
G1 X123.879 Y100.937 E.25365
G1 X123.291 Y100.937 E.02034
G1 X129.063 Y106.709 E.28242
G1 X129.063 Y107.297 E.02034
G1 X122.703 Y100.937 E.31119
G1 X122.114 Y100.937 E.02038
G1 X129.063 Y107.886 E.34
G1 X129.063 Y108.474 E.02034
G1 X121.526 Y100.937 E.36877
G1 X120.937 Y100.937 E.02038
G1 X129.063 Y109.063 E.39759
G1 X128.474 Y109.063 E.02038
G1 X120.937 Y101.526 E.36877
G1 X120.937 Y102.114 E.02034
M73 P11 R7
G1 X127.886 Y109.063 E.34
G1 X127.297 Y109.063 E.02038
G1 X120.937 Y102.703 E.31119
G1 X120.937 Y103.291 E.02034
G1 X126.709 Y109.063 E.28242
G1 X126.12 Y109.063 E.02038
G1 X120.937 Y103.88 E.2536
G1 X120.937 Y104.468 E.02034
G1 X125.532 Y109.063 E.22483
G1 X124.944 Y109.063 E.02034
G1 X120.937 Y105.056 E.19606
G1 X120.937 Y105.645 E.02038
G1 X124.355 Y109.063 E.16724
G1 X123.767 Y109.063 E.02034
G1 X120.937 Y106.233 E.13847
G1 X120.937 Y106.822 E.02038
G1 X123.178 Y109.063 E.10965
G1 X122.59 Y109.063 E.02034
G1 X120.937 Y107.41 E.08088
G1 X120.937 Y107.999 E.02038
G1 X122.001 Y109.063 E.05206
G1 X121.413 Y109.063 E.02034
G1 X120.754 Y108.404 E.03224
M204 S1000
; stop printing object teste.stl id:0 copy 0
M106 S255
;LAYER_CHANGE
;Z:0.8
;HEIGHT:0.2
;BEFORE_LAYER_CHANGE
G92 E0.0
;0.8


;WIPE_START
G1 F8640
G1 X121.413 Y109.063 E-.21519
G1 X122.001 Y109.063 E-.13577
G1 X120.937 Y107.999 E-.34744
G1 X120.937 Y107.559 E-.1016
;WIPE_END
G1 Z1 F720
;AFTER_LAYER_CHANGE
;0.8
;CURRENT_Z: 0.8
; printing object teste.stl id:0 copy 0
G1 X120.632 Y100.632 F10800
G1 Z.8 F720
G1 E.8 F2100
M204 S800
;TYPE:Perimeter
;WIDTH:0.449999
G1 F1019
G1 X129.368 Y100.632 E.2957
G1 X129.368 Y109.368 E.2957
G1 X120.632 Y109.368 E.2957
G1 X120.632 Y100.692 E.29367
M204 S1000
G1 X120.225 Y100.225 F10800
M204 S800
;TYPE:External perimeter
G1 F1019
G1 X129.775 Y100.225 E.32326
G1 X129.775 Y109.775 E.32326
M73 P12 R7
G1 X120.225 Y109.775 E.32326
G1 X120.225 Y100.285 E.32122
M204 S1000
G1 X120.611 Y100.329 F10800
;WIPE_START
G1 F8640
G1 X123.69 Y100.263 E-.8
;WIPE_END
G1 Z1.2 F720
G1 X128.404 Y109.246 F10800
G1 Z.8 F720
G1 E.8 F2100
M204 S2000
;TYPE:Solid infill
;WIDTH:0.459006
G1 F1019
G1 X129.063 Y108.587 E.03224
G1 X129.063 Y107.999 E.02034
G1 X127.999 Y109.063 E.05206
G1 X127.41 Y109.063 E.02038
G1 X129.063 Y107.41 E.08088
G1 X129.063 Y106.822 E.02034
G1 X126.822 Y109.063 E.10965
G1 X126.233 Y109.063 E.02038
G1 X129.063 Y106.233 E.13847
G1 X129.063 Y105.645 E.02034
G1 X125.645 Y109.063 E.16724
G1 X125.056 Y109.063 E.02038
G1 X129.063 Y105.056 E.19606
G1 X129.063 Y104.468 E.02034
G1 X124.468 Y109.063 E.22483
G1 X123.879 Y109.063 E.02038
G1 X129.063 Y103.879 E.25365
G1 X129.063 Y103.291 E.02034
G1 X123.291 Y109.063 E.28242
G1 X122.703 Y109.063 E.02034
M73 P13 R7
G1 X129.063 Y102.703 E.31119
G1 X129.063 Y102.114 E.02038
G1 X122.114 Y109.063 E.34
G1 X121.526 Y109.063 E.02034
G1 X129.063 Y101.526 E.36877
G1 X129.063 Y100.937 E.02038
G1 X120.937 Y109.063 E.39759
G1 X120.937 Y108.474 E.02038
G1 X128.474 Y100.937 E.36877
G1 X127.886 Y100.937 E.02034
G1 X120.937 Y107.886 E.34
G1 X120.937 Y107.297 E.02038
G1 X127.297 Y100.937 E.31119
G1 X126.709 Y100.937 E.02034
G1 X120.937 Y106.709 E.28242
G1 X120.937 Y106.12 E.02038
G1 X126.12 Y100.937 E.2536
G1 X125.532 Y100.937 E.02034
M73 P14 R7
