; generated by PrusaSlicer 2.8.0 on 2024-09-21 at 14:29:07 UTC

; 

; external perimeters extrusion width = 0.45mm
; perimeters extrusion width = 0.45mm
; infill extrusion width = 0.45mm
; solid infill extrusion width = 0.45mm
; top infill extrusion width = 0.40mm
; first layer extrusion width = 0.42mm

M73 P0 R8
M201 X9000 Y9000 Z500 E10000 ; sets maximum accelerations, mm/sec^2
M203 X500 Y500 Z12 E120 ; sets maximum feedrates, mm / sec
M204 S2000 T1500 ; sets acceleration (S) and retract acceleration (R), mm/sec^2
M205 X10.00 Y10.00 Z0.20 E4.50 ; sets the jerk limits, mm/sec
M205 S0 T0 ; sets the minimum extruding and travel feed rate, mm/sec

; printing object teste.stl id:0 copy 0
; stop printing object teste.stl id:0 copy 0

;TYPE:Custom
M862.3 P "MK2.5" ; printer model check
M862.1 P0.4 ; nozzle diameter check
M115 U3.11.0 ; tell printer latest fw version
G90 ; use absolute coordinates
M83 ; extruder relative mode
M104 S215 ; set extruder temp
M140 S60 ; set bed temp
M190 S60 ; wait for bed temp
M109 S215 ; wait for extruder temp
G28 W ; home all without mesh bed level
G80 ; mesh bed leveling

G1 Z0.2 F720
G1 Y-3 F1000 ; go outside print area
G92 E0
G1 X60 E9 F1000 ; intro line
G1 X100 E12.5 F1000 ; intro line

G92 E0
G21 ; set units to millimeters
G90 ; use absolute coordinates
M83 ; use relative distances for extrusion
M900 K0.05 ; Filament gcode LA 1.5
M900 K30 ; Filament gcode LA 1.0
M107
;LAYER_CHANGE
;Z:0.2
;HEIGHT:0.2
G1 E-.8 F2100
M73 P1 R8
G1 Z.6 F720
G1 X117.451 Y98.53 F10800
G1 Z.2 F720
G1 E.8 F2100
M204 S800
;TYPE:Skirt/Brim
;WIDTH:0.42
G1 F1200
G1 X118.525 Y97.454 E.04767
G1 X120 Y97.057 E.04789
G1 X130 Y97.057 E.31354
G1 X131.47 Y97.451 E.04772
G1 X132.546 Y98.525 E.04767
G1 X132.943 Y100 E.04789
G1 X132.943 Y110 E.31354
G1 X132.549 Y111.47 E.04772
G1 X131.475 Y112.546 E.04767
G1 X130 Y112.943 E.04789
G1 X120 Y112.943 E.31354
G1 X118.53 Y112.549 E.04772
G1 X117.454 Y111.475 E.04767
G1 X117.057 Y110 E.04789
G1 X117.057 Y100 E.31354
G1 X117.435 Y98.588 E.04583
M204 S1000
G1 X117.435 Y98.588 F10800
G1 X117.809 Y98.696
M204 S800
G1 F1200
G1 X117.827 Y98.637 E.00193
G1 X118.883 Y97.69 E.04447
G1 X120 Y97.434 E.03593
G1 X130 Y97.434 E.31354
G1 X131.363 Y97.827 E.04448
G1 X132.31 Y98.883 E.04447
G1 X132.566 Y100 E.03593
M73 P2 R8
G1 X132.566 Y110 E.31354
G1 X132.173 Y111.363 E.04448
G1 X131.117 Y112.31 E.04447
G1 X130 Y112.566 E.03593
G1 X120 Y112.566 E.31354
G1 X118.637 Y112.173 E.04448
G1 X117.69 Y111.117 E.04447
G1 X117.434 Y110 E.03593
G1 X117.434 Y100 E.31354
G1 X117.793 Y98.754 E.04066
M204 S1000
G1 X117.793 Y98.754 F10800
G1 X118.165 Y98.87
M204 S800
G1 F1200
G1 X118.202 Y98.752 E.00388
G1 X119.235 Y97.949 E.04102
G1 X120 Y97.811 E.02437
G1 X130 Y97.811 E.31354
G1 X131.248 Y98.202 E.04101
G1 X132.051 Y99.235 E.04102
G1 X132.189 Y100 E.02437
G1 X132.189 Y110 E.31354
G1 X131.798 Y111.248 E.04101
G1 X130.765 Y112.051 E.04102
G1 X130 Y112.189 E.02437
G1 X120 Y112.189 E.31354
G1 X118.752 Y111.798 E.04101
G1 X117.949 Y110.765 E.04102
G1 X117.811 Y110 E.02437
G1 X117.811 Y100 E.31354
G1 X118.147 Y98.928 E.03522
M204 S1000
;WIPE_START
G1 F8640
G1 X118.165 Y98.87 E-.01402
G1 X118.202 Y98.752 E-.02855
G1 X119.235 Y97.949 E-.30211
G1 X120 Y97.811 E-.17949
G1 X121.195 Y97.811 E-.27583
;WIPE_END
G1 Z.6 F720
; printing object teste.stl id:0 copy 0
G1 X129.213 Y109.213 F10800
G1 Z.2 F720
G1 E.8 F2100
M204 S800
;TYPE:Perimeter
;WIDTH:0.419999
G1 F1200
G1 X120.787 Y109.213 E.26419
G1 X120.787 Y100.787 E.26419
M73 P3 R8
G1 X129.213 Y100.787 E.26419
G1 X129.213 Y105 E.1321
G1 X129.213 Y109.153 E.13021
M204 S1000
G1 X129.59 Y109.59 F10800
M204 S800
;TYPE:External perimeter
G1 F1200
G1 X120.41 Y109.59 E.28783
G1 X120.41 Y100.41 E.28783
G1 X129.59 Y100.41 E.28783
G1 X129.59 Y105 E.14392
G1 X129.59 Y109.53 E.14203
M204 S1000
;WIPE_START
G1 F8640
G1 X129.59 Y109.59 E-.01385
G1 X126.185 Y109.59 E-.78615
;WIPE_END
G1 Z.6 F720
G1 X128.314 Y100.9 F10800
G1 Z.2 F720
G1 E.8 F2100
M204 S800
;TYPE:Solid infill
;WIDTH:0.43123
G1 F1200
G1 X128.93 Y101.517 E.02815
G1 X128.93 Y102.066 E.01773
G1 X127.934 Y101.07 E.04548
G1 X127.385 Y101.07 E.01773
G1 X128.93 Y102.615 E.07055
G1 X128.93 Y103.164 E.01773
G1 X126.836 Y101.07 E.09562
G1 X126.287 Y101.07 E.01773
G1 X128.93 Y103.713 E.12069
G1 X128.93 Y104.262 E.01773
G1 X125.738 Y101.07 E.14575
G1 X125.188 Y101.07 E.01776
G1 X128.93 Y104.812 E.17087
G1 X128.93 Y105.361 E.01773
G1 X124.639 Y101.07 E.19594
G1 X124.09 Y101.07 E.01773
M73 P4 R8
G1 X128.93 Y105.91 E.22101
G1 X128.93 Y106.459 E.01773
G1 X123.541 Y101.07 E.24607
G1 X122.992 Y101.07 E.01773
G1 X128.93 Y107.008 E.27114
G1 X128.93 Y107.557 E.01773
G1 X122.443 Y101.07 E.29621
G1 X121.894 Y101.07 E.01773
G1 X128.93 Y108.106 E.32128
G1 X128.93 Y108.656 E.01776
G1 X121.344 Y101.07 E.34639
G1 X121.07 Y101.07 E.00885
G1 X121.07 Y101.345 E.00888
G1 X128.655 Y108.93 E.34635
G1 X128.106 Y108.93 E.01773
G1 X121.07 Y101.894 E.32128
G1 X121.07 Y102.443 E.01773
G1 X127.557 Y108.93 E.29621
G1 X127.008 Y108.93 E.01773
G1 X121.07 Y102.992 E.27114
G1 X121.07 Y103.541 E.01773
G1 X126.459 Y108.93 E.24607
G1 X125.91 Y108.93 E.01773
M73 P5 R8
G1 X121.07 Y104.09 E.22101
G1 X121.07 Y104.639 E.01773
G1 X125.361 Y108.93 E.19594
G1 X124.811 Y108.93 E.01776
G1 X121.07 Y105.189 E.17082
G1 X121.07 Y105.738 E.01773
G1 X124.262 Y108.93 E.14575
G1 X123.713 Y108.93 E.01773
G1 X121.07 Y106.287 E.12069
G1 X121.07 Y106.836 E.01773
G1 X123.164 Y108.93 E.09562
G1 X122.615 Y108.93 E.01773
G1 X121.07 Y107.385 E.07055
G1 X121.07 Y107.934 E.01773
G1 X122.066 Y108.93 E.04548
G1 X121.516 Y108.93 E.01776
G1 X120.9 Y108.314 E.02813
M204 S1000
M106 S84.15
;LAYER_CHANGE
;Z:0.4
;HEIGHT:0.2
;BEFORE_LAYER_CHANGE
G92 E0.0
;0.4


;WIPE_START
G1 F8640
G1 X121.516 Y108.93 E-.20115
G1 X122.066 Y108.93 E-.127
G1 X121.07 Y107.934 E-.32524
G1 X121.07 Y107.385 E-.12677
G1 X121.131 Y107.446 E-.01984
;WIPE_END
G1 Z.4 F720
;AFTER_LAYER_CHANGE
;0.4
;CURRENT_Z: 0.4
M104 S210 ; set temperature
; stop printing object teste.stl id:0 copy 0
G1 Z.8
G1 X117.057 Y107.446 F10800
G1 Z.4 F720
G1 E.8 F2100
;TYPE:Skirt/Brim
;WIDTH:0.42
G1 F1817
G1 X117.057 Y100 E.23346
G1 X117.451 Y98.53 E.04772
G1 X118.525 Y97.454 E.04767
G1 X120 Y97.057 E.04789
G1 X130 Y97.057 E.31354
G1 X131.47 Y97.451 E.04772
G1 X132.546 Y98.525 E.04767
G1 X132.943 Y100 E.04789
G1 X132.943 Y110 E.31354
G1 X132.549 Y111.47 E.04772
G1 X131.475 Y112.546 E.04767
G1 X130 Y112.943 E.04789
G1 X120 Y112.943 E.31354
G1 X118.53 Y112.549 E.04772
G1 X117.454 Y111.475 E.04767
G1 X117.057 Y110 E.04789
G1 X117.057 Y107.506 E.0782
G1 X117.057 Y107.506 F10800
G1 X117.434 Y107.506
G1 F1817
G1 X117.434 Y100 E.23535
G1 X117.827 Y98.637 E.04448
G1 X118.883 Y97.69 E.04447
G1 X120 Y97.434 E.03593
G1 X130 Y97.434 E.31354
G1 X131.363 Y97.827 E.04448
G1 X132.31 Y98.883 E.04447
G1 X132.566 Y100 E.03593
G1 X132.566 Y110 E.31354
G1 X132.173 Y111.363 E.04448
M73 P6 R8
G1 X131.117 Y112.31 E.04447
G1 X130 Y112.566 E.03593
G1 X120 Y112.566 E.31354
G1 X118.637 Y112.173 E.04448
G1 X117.69 Y111.117 E.04447
G1 X117.434 Y110 E.03593
G1 X117.434 Y107.566 E.07632
G1 X117.434 Y107.566 F10800
G1 X117.811 Y107.566
G1 F1817
G1 X117.811 Y100 E.23723
G1 X118.202 Y98.752 E.04101
G1 X119.235 Y97.949 E.04102
G1 X120 Y97.811 E.02437
G1 X130 Y97.811 E.31354
G1 X131.248 Y98.202 E.04101
G1 X132.051 Y99.235 E.04102
G1 X132.189 Y100 E.02437
G1 X132.189 Y110 E.31354
G1 X131.798 Y111.248 E.04101
G1 X130.765 Y112.051 E.04102
G1 X130 Y112.189 E.02437
G1 X120 Y112.189 E.31354
G1 X118.752 Y111.798 E.04101
G1 X117.949 Y110.765 E.04102
G1 X117.811 Y110 E.02437
G1 X117.811 Y107.626 E.07444
;WIPE_START
G1 F8640
G1 X117.811 Y107.566 E-.01385
G1 X117.811 Y104.161 E-.78615
;WIPE_END
G1 Z.8 F720
; printing object teste.stl id:0 copy 0
G1 X129.368 Y109.368 F10800
G1 Z.4 F720
G1 E.8 F2100
M204 S800
;TYPE:Perimeter
;WIDTH:0.449999
G1 F1500
G1 X120.632 Y109.368 E.2957
G1 X120.632 Y100.632 E.2957
G1 X129.368 Y100.632 E.2957
G1 X129.368 Y105 E.14785
G1 X129.368 Y109.308 E.14582
M204 S1000
G1 X129.775 Y109.775 F10800
M204 S800
;TYPE:External perimeter
G1 F1500
G1 X120.225 Y109.775 E.32326
G1 X120.225 Y100.225 E.32326
G1 X129.775 Y100.225 E.32326
M73 P7 R8
G1 X129.775 Y105 E.16163
G1 X129.775 Y109.715 E.1596
M204 S1000
;WIPE_START
G1 F8640
G1 X129.775 Y109.775 E-.01385
G1 X126.37 Y109.775 E-.78615
;WIPE_END
G1 Z.8 F720
G1 X121.048 Y100.97 F10800
G1 Z.4 F720
G1 E.8 F2100
M204 S2000
;TYPE:Solid infill
;WIDTH:0.548766
G1 F1817
G1 X121.003 Y100.926 E.00265
G1 X120.942 Y100.942 E.00265
G1 X120.926 Y101.003 E.00265
G1 X120.97 Y101.048 E.00265
G1 X121.031 Y101.031 E.00266
M204 S1000
G1 X121.031 Y101.031 F10800
G1 X120.805 Y101.827
M204 S2000
;WIDTH:0.38292
G1 F1817
G1 X120.734 Y101.808 E.00208
G1 X120.753 Y101.879 E.00208
G1 X120.794 Y101.868 E.0012
;WIDTH:0.41646
G1 X120.866 Y101.775 E.00365
;WIDTH:0.449999
G1 X120.937 Y101.682 E.00396
G1 X121.682 Y100.937 E.03566
G1 X121.775 Y100.866 E.00396
;WIDTH:0.41646
G1 X121.868 Y100.794 E.00365
;WIDTH:0.38292
G1 X121.827 Y100.805 E.0012
G1 X121.808 Y100.734 E.00208
G1 X121.879 Y100.753 E.00208
;WIDTH:0.449999
G1 X122.257 Y100.937 E.01423
G1 X120.937 Y102.257 E.06319
G1 X120.937 Y102.833 E.0195
G1 X122.833 Y100.937 E.09076
G1 X123.409 Y100.937 E.0195
G1 X120.937 Y103.409 E.11833
G1 X120.937 Y103.984 E.01946
G1 X123.984 Y100.937 E.14586
G1 X124.56 Y100.937 E.0195
G1 X120.937 Y104.56 E.17343
G1 X120.937 Y105.136 E.0195
G1 X125.136 Y100.937 E.201
G1 X125.712 Y100.937 E.0195
G1 X120.937 Y105.712 E.22858
G1 X120.937 Y106.287 E.01946
G1 X126.287 Y100.937 E.2561
G1 X126.863 Y100.937 E.0195
G1 X120.937 Y106.863 E.28367
G1 X120.937 Y107.439 E.0195
G1 X127.439 Y100.937 E.31125
G1 X128.014 Y100.937 E.01946
G1 X120.937 Y108.014 E.33877
G1 X120.937 Y108.59 E.0195
G1 X128.59 Y100.937 E.36634
G1 X129.229 Y100.801 E.02211
;WIDTH:0.38292
G1 X129.158 Y100.782 E.00208
G1 X129.177 Y100.853 E.00208
G1 X129.218 Y100.842 E.0012
;WIDTH:0.41646
G1 X129.14 Y100.941 E.00391
;WIDTH:0.449999
G1 X129.063 Y101.041 E.00427
G1 X121.041 Y109.063 E.38401
G1 X120.941 Y109.14 E.00427
;WIDTH:0.41646
G1 X120.842 Y109.218 E.00391
;WIDTH:0.38292
G1 X120.801 Y109.229 E.0012
G1 X120.782 Y109.158 E.00208
G1 X120.853 Y109.177 E.00208
;WIDTH:0.449999
G1 X121.616 Y109.063 E.02611
G1 X129.063 Y101.616 E.35648
G1 X129.063 Y102.192 E.0195
G1 X122.192 Y109.063 E.32891
G1 X122.768 Y109.063 E.0195
M73 P8 R8
G1 X129.063 Y102.768 E.30134
G1 X129.063 Y103.343 E.01946
G1 X123.343 Y109.063 E.27381
G1 X123.919 Y109.063 E.0195
G1 X129.063 Y103.919 E.24624
G1 X129.063 Y104.495 E.0195
G1 X124.495 Y109.063 E.21867
G1 X125.07 Y109.063 E.01946
G1 X129.063 Y105.07 E.19114
G1 X129.063 Y105.646 E.0195
G1 X125.646 Y109.063 E.16357
G1 X126.222 Y109.063 E.0195
G1 X129.063 Y106.222 E.136
G1 X129.063 Y106.798 E.0195
G1 X126.798 Y109.063 E.10842
G1 X127.373 Y109.063 E.01946
G1 X129.063 Y107.373 E.0809
G1 X129.063 Y107.949 E.0195
G1 X127.949 Y109.063 E.05333
G1 X128.409 Y109.225 E.01651
;WIDTH:0.38292
G1 X128.338 Y109.206 E.00208
G1 X128.357 Y109.277 E.00208
G1 X128.398 Y109.266 E.0012
;WIDTH:0.41646
G1 X128.461 Y109.165 E.0037
;WIDTH:0.449999
G1 X128.525 Y109.063 E.00408
G1 X129.063 Y108.525 E.02575
G1 X129.165 Y108.461 E.00408
;WIDTH:0.41646
G1 X129.266 Y108.398 E.0037
;WIDTH:0.38292
G1 X129.225 Y108.409 E.0012
G1 X129.206 Y108.338 E.00208
G1 X129.277 Y108.357 E.00208
M204 S1000
M106 S170.85
;LAYER_CHANGE
;Z:0.6
;HEIGHT:0.2
;BEFORE_LAYER_CHANGE
G92 E0.0
;0.6


;WIPE_START
G1 F8640
G1 X129.206 Y108.338 E-.01697
G1 X129.225 Y108.409 E-.01697
G1 X129.266 Y108.398 E-.0098
G1 X129.165 Y108.461 E-.02749
G1 X129.063 Y108.525 E-.0278
G1 X128.525 Y109.063 E-.17568
G1 X128.461 Y109.165 E-.0278
G1 X128.398 Y109.266 E-.02749
G1 X128.357 Y109.277 E-.0098
G1 X128.338 Y109.206 E-.01697
G1 X128.409 Y109.225 E-.01697
G1 X127.949 Y109.063 E-.11261
G1 X128.909 Y108.102 E-.31365
;WIPE_END
G1 Z.6 F720
;AFTER_LAYER_CHANGE
;0.6
;CURRENT_Z: 0.6
; stop printing object teste.stl id:0 copy 0
G1 Z1
G1 X132.943 Y108.102 F10800
G1 Z.6 F720
G1 E.8 F2100
;TYPE:Skirt/Brim
;WIDTH:0.42
G1 F1807
G1 X132.943 Y110 E.05951
G1 X132.549 Y111.47 E.04772
G1 X131.475 Y112.546 E.04767
G1 X130 Y112.943 E.04789
G1 X120 Y112.943 E.31354
G1 X118.53 Y112.549 E.04772
G1 X117.454 Y111.475 E.04767
G1 X117.057 Y110 E.04789
G1 X117.057 Y100 E.31354
G1 X117.451 Y98.53 E.04772
G1 X118.525 Y97.454 E.04767
G1 X120 Y97.057 E.04789
G1 X130 Y97.057 E.31354
G1 X131.47 Y97.451 E.04772
G1 X132.546 Y98.525 E.04767
G1 X132.943 Y100 E.04789
G1 X132.943 Y108.042 E.25215
G1 X132.943 Y108.042 F10800
G1 X132.566 Y108.042
G1 F1807
G1 X132.566 Y110 E.06139
G1 X132.173 Y111.363 E.04448
G1 X131.117 Y112.31 E.04447
G1 X130 Y112.566 E.03593
G1 X120 Y112.566 E.31354
G1 X118.637 Y112.173 E.04448
G1 X117.69 Y111.117 E.04447
G1 X117.434 Y110 E.03593
G1 X117.434 Y100 E.31354
M73 P9 R8
G1 X117.827 Y98.637 E.04448
G1 X118.883 Y97.69 E.04447
G1 X120 Y97.434 E.03593
G1 X130 Y97.434 E.31354
G1 X131.363 Y97.827 E.04448
G1 X132.31 Y98.883 E.04447
G1 X132.566 Y100 E.03593
G1 X132.566 Y107.982 E.25027
G1 X132.566 Y107.982 F10800
G1 X132.189 Y107.982
G1 F1807
G1 X132.189 Y110 E.06327
G1 X131.798 Y111.248 E.04101
G1 X130.765 Y112.051 E.04102
G1 X130 Y112.189 E.02437
G1 X120 Y112.189 E.31354
G1 X118.752 Y111.798 E.04101
G1 X117.949 Y110.765 E.04102
G1 X117.811 Y110 E.02437
G1 X117.811 Y100 E.31354
G1 X118.202 Y98.752 E.04101
G1 X119.235 Y97.949 E.04102
G1 X120 Y97.811 E.02437
G1 X130 Y97.811 E.31354
G1 X131.248 Y98.202 E.04101
G1 X132.051 Y99.235 E.04102
G1 X132.189 Y100 E.02437
G1 X132.189 Y107.922 E.24839
;WIPE_START
G1 F8640
G1 X132.189 Y107.982 E-.01385
G1 X132.189 Y110 E-.46596
G1 X131.798 Y111.248 E-.30198
G1 X131.736 Y111.296 E-.01821
;WIPE_END
G1 Z1 F720
; printing object teste.stl id:0 copy 0
G1 X129.368 Y109.368 F10800
G1 Z.6 F720
G1 E.8 F2100
M204 S800
;TYPE:Perimeter
;WIDTH:0.449999
G1 F1500
G1 X120.632 Y109.368 E.2957
G1 X120.632 Y100.632 E.2957
G1 X129.368 Y100.632 E.2957
G1 X129.368 Y105 E.14785
G1 X129.368 Y109.308 E.14582
M204 S1000
G1 X129.775 Y109.775 F10800
M204 S800
;TYPE:External perimeter
G1 F1500
G1 X120.225 Y109.775 E.32326
G1 X120.225 Y100.225 E.32326
G1 X129.775 Y100.225 E.32326
M73 P10 R8
G1 X129.775 Y105 E.16163
G1 X129.775 Y109.715 E.1596
M204 S1000
;WIPE_START
G1 F8640
G1 X129.775 Y109.775 E-.01385
G1 X126.37 Y109.775 E-.78615
;WIPE_END
G1 Z1 F720
G1 X120.97 Y108.952 F10800
G1 Z.6 F720
G1 E.8 F2100
M204 S2000
;TYPE:Solid infill
;WIDTH:0.548766
G1 F1807
G1 X120.926 Y108.997 E.00265
G1 X120.942 Y109.058 E.00265
G1 X121.003 Y109.074 E.00265
G1 X121.048 Y109.03 E.00265
G1 X121.031 Y108.969 E.00266
M204 S1000
G1 X121.031 Y108.969 F10800
G1 X121.868 Y109.206
M204 S2000
;WIDTH:0.38292
G1 F1807
G1 X121.879 Y109.247 E.0012
G1 X121.808 Y109.266 E.00208
G1 X121.827 Y109.195 E.00208
;WIDTH:0.41646
G1 X121.754 Y109.129 E.00306
;WIDTH:0.449999
G1 X120.937 Y108.318 E.03897
G1 X120.866 Y108.225 E.00396
;WIDTH:0.41646
G1 X120.794 Y108.132 E.00365
;WIDTH:0.38292
G1 X120.805 Y108.173 E.0012
G1 X120.734 Y108.192 E.00208
G1 X120.753 Y108.121 E.00208
;WIDTH:0.449999
G1 X120.937 Y107.743 E.01423
G1 X122.257 Y109.063 E.06319
G1 X122.833 Y109.063 E.0195
G1 X120.937 Y107.167 E.09076
G1 X120.937 Y106.591 E.0195
G1 X123.409 Y109.063 E.11833
G1 X123.984 Y109.063 E.01946
G1 X120.937 Y106.016 E.14586
G1 X120.937 Y105.44 E.0195
G1 X124.56 Y109.063 E.17343
G1 X125.136 Y109.063 E.0195
G1 X120.937 Y104.864 E.201
G1 X120.937 Y104.288 E.0195
G1 X125.712 Y109.063 E.22858
G1 X126.287 Y109.063 E.01946
G1 X120.937 Y103.713 E.2561
G1 X120.937 Y103.137 E.0195
G1 X126.863 Y109.063 E.28367
G1 X127.439 Y109.063 E.0195
G1 X120.937 Y102.561 E.31125
G1 X120.937 Y101.986 E.01946
G1 X128.014 Y109.063 E.33877
G1 X128.59 Y109.063 E.0195
G1 X120.937 Y101.41 E.36634
G1 X120.801 Y100.771 E.02211
;WIDTH:0.38292
G1 X120.782 Y100.842 E.00208
G1 X120.853 Y100.823 E.00208
G1 X120.842 Y100.782 E.0012
;WIDTH:0.41646
G1 X120.941 Y100.86 E.00391
;WIDTH:0.449999
G1 X121.041 Y100.937 E.00427
G1 X129.063 Y108.959 E.38401
G1 X129.14 Y109.059 E.00427
;WIDTH:0.41646
G1 X129.218 Y109.158 E.00391
;WIDTH:0.38292
G1 X129.229 Y109.199 E.0012
