; generated by PrusaSlicer 2.5.0+linux-x64-GTK3 on 2022-09-09 at 20:31:14 UTC

; 

; external perimeters extrusion width = 0.45mm
; perimeters extrusion width = 0.45mm
; infill extrusion width = 0.45mm
; solid infill extrusion width = 0.45mm
; top infill extrusion width = 0.40mm
; first layer extrusion width = 0.42mm

M73 P0 R0
M201 X9000 Y9000 Z500 E10000 ; sets maximum accelerations, mm/sec^2
M203 X500 Y500 Z12 E120 ; sets maximum feedrates, mm / sec
M204 P2000 R1500 T2000 ; sets acceleration (P, T) and retract acceleration (R), mm/sec^2
M205 X10.00 Y10.00 Z0.20 E4.50 ; sets the jerk limits, mm/sec
M205 S0 T0 ; sets the minimum extruding and travel feed rate, mm/sec
M107
;TYPE:Custom
M862.3 P "MK2.5" ; printer model check
M862.1 P0.4 ; nozzle diameter check
M115 U3.11.0 ; tell printer latest fw version
G90 ; use absolute coordinates
M83 ; extruder relative mode
M104 S215 ; set extruder temp
M140 S60 ; set bed temp
M190 S60 ; wait for bed temp
M109 S215 ; wait for extruder temp
G28 W ; home all without mesh bed level
G80 ; mesh bed leveling

G1 Z0.2 F720
G1 Y-3 F1000 ; go outside print area
G92 E0
G1 X60 E9 F1000 ; intro line
G1 X100 E12.5 F1000 ; intro line

G92 E0
G21 ; set units to millimeters
G90 ; use absolute coordinates
M83 ; use relative distances for extrusion
M900 K0.05 ; Filament gcode LA 1.5
M900 K30 ; Filament gcode LA 1.0
M107
;LAYER_CHANGE
;Z:0.2
;HEIGHT:0.2
;BEFORE_LAYER_CHANGE
G92 E0.0
;0.2


M73 P7 R0
G1 E-.8 F2100
M73 P11 R0
G1 Z.4 F720
;AFTER_LAYER_CHANGE
;0.2
;CURRENT_Z: 0.2
G1 X118.386 Y103.134 F10800
G1 Z.2 F720
M73 P13 R0
G1 E.8 F2100
M204 S800
;TYPE:Skirt/Brim
;WIDTH:0.42
G1 F900
G1 X119.48 Y101.881 E.05215
G1 X121.5 Y101.242 E.06643
G1 X128.5 Y101.242 E.21948
G1 X130.116 Y101.636 E.05215
M73 P14 R0
G1 X131.369 Y102.73 E.05215
G1 X132.008 Y104.75 E.06643
G1 X132.008 Y105.25 E.01568
M73 P15 R0
G1 X131.614 Y106.866 E.05215
G1 X130.52 Y108.119 E.05215
G1 X128.5 Y108.758 E.06643
G1 X121.5 Y108.758 E.21948
M73 P16 R0
G1 X119.884 Y108.364 E.05215
G1 X118.631 Y107.27 E.05215
M73 P17 R0
G1 X117.992 Y105.25 E.06643
G1 X117.992 Y104.75 E.01568
G1 X118.372 Y103.192 E.05027
M204 S1000
G1 X118.747 Y103.29 F10800
M204 S800
G1 F900
G1 X118.762 Y103.23 E.00193
G1 X119.844 Y102.092 E.04923
G1 X121.5 Y101.619 E.054
M73 P18 R0
G1 X128.5 Y101.619 E.21948
G1 X130.02 Y102.012 E.04923
M73 P19 R0
G1 X131.158 Y103.094 E.04923
G1 X131.631 Y104.75 E.054
G1 X131.631 Y105.25 E.01568
G1 X131.238 Y106.77 E.04923
G1 X130.156 Y107.908 E.04923
M73 P20 R0
G1 X128.5 Y108.381 E.054
G1 X121.5 Y108.381 E.21948
G1 X119.98 Y107.988 E.04923
M73 P21 R0
G1 X118.842 Y106.906 E.04923
G1 X118.369 Y105.25 E.054
G1 X118.369 Y104.75 E.01568
G1 X118.732 Y103.348 E.04542
M204 S1000
G1 X119.106 Y103.451 F10800
M204 S800
M73 P22 R0
G1 F900
G1 X119.139 Y103.333 E.00386
G1 X120.205 Y102.319 E.04612
G1 X121.5 Y101.996 E.04186
G1 X128.5 Y101.996 E.21948
G1 X129.917 Y102.389 E.04612
M73 P23 R0
G1 X130.931 Y103.455 E.04612
G1 X131.254 Y104.75 E.04186
G1 X131.254 Y105.25 E.01568
G1 X130.861 Y106.667 E.04612
M73 P24 R0
G1 X129.795 Y107.681 E.04612
G1 X128.5 Y108.004 E.04186
G1 X121.5 Y108.004 E.21948
G1 X120.083 Y107.611 E.04612
M73 P25 R0
G1 X119.069 Y106.545 E.04612
G1 X118.746 Y105.25 E.04186
G1 X118.746 Y104.75 E.01568
M73 P26 R0
G1 X119.09 Y103.509 E.04038
M204 S1000
G1 X119.461 Y103.62 F10800
M204 S800
G1 F900
G1 X119.515 Y103.443 E.00581
G1 X120.56 Y102.567 E.04278
G1 X121.5 Y102.373 E.03008
G1 X128.5 Y102.373 E.21948
G1 X129.807 Y102.765 E.04278
M73 P27 R0
G1 X130.683 Y103.81 E.04278
G1 X130.877 Y104.75 E.03008
G1 X130.877 Y105.25 E.01568
G1 X130.485 Y106.557 E.04278
G1 X129.44 Y107.433 E.04278
M73 P28 R0
G1 X128.5 Y107.627 E.03008
G1 X121.5 Y107.627 E.21948
G1 X120.193 Y107.235 E.04278
M73 P29 R0
G1 X119.317 Y106.19 E.04278
G1 X119.123 Y105.25 E.03008
G1 X119.123 Y104.75 E.01568
G1 X119.444 Y103.678 E.03509
M204 S1000
; printing object file1.stl id:0 copy 0
;WIPE_START
G1 F8640
M73 P30 R0
G1 X119.515 Y103.443 E-.05661
G1 X120.56 Y102.567 E-.31505
G1 X121.5 Y102.373 E-.22155
G1 X122.222 Y102.373 E-.16679
;WIPE_END
G1 E-.04 F2100
G1 Z.6 F720
G1 X128.25 Y105 F10800
G1 Z.2 F720
G1 E.8 F2100
M204 S800
;TYPE:External perimeter
;WIDTH:0.5
G1 F900
G1 X121.75 Y105 E.24704
M204 S1000
; stop printing object file1.stl id:0 copy 0
M106 S84.15
;LAYER_CHANGE
;Z:0.4
;HEIGHT:0.2
;BEFORE_LAYER_CHANGE
G92 E0.0
;0.4


;WIPE_START
G1 F8640
M73 P31 R0
G1 X125.041 Y105 E-.76
;WIPE_END
G1 E-.04 F2100
G1 Z.6 F720
;AFTER_LAYER_CHANGE
;0.4
;CURRENT_Z: 0.4
M104 S210 ; set temperature
G1 X125.041 Y108.758 F10800
G1 Z.4 F720
M73 P32 R0
G1 E.8 F2100
;TYPE:Skirt/Brim
;WIDTH:0.42
G1 F900
G1 X121.5 Y108.758 E.11104
G1 X119.884 Y108.364 E.05215
G1 X118.631 Y107.27 E.05215
G1 X117.992 Y105.25 E.06643
M73 P33 R0
G1 X117.992 Y104.75 E.01568
G1 X118.386 Y103.134 E.05215
G1 X119.48 Y101.881 E.05215
G1 X121.5 Y101.242 E.06643
G1 X128.5 Y101.242 E.21948
M73 P34 R0
G1 X130.116 Y101.636 E.05215
M73 P35 R0
G1 X131.369 Y102.73 E.05215
G1 X132.008 Y104.75 E.06643
G1 X132.008 Y105.25 E.01568
G1 X131.614 Y106.866 E.05215
G1 X130.52 Y108.119 E.05215
G1 X128.5 Y108.758 E.06643
M73 P36 R0
G1 X125.101 Y108.758 E.10656
G1 X125.101 Y108.381 F10800
G1 F900
G1 X121.5 Y108.381 E.11292
G1 X119.98 Y107.988 E.04923
M73 P37 R0
G1 X118.842 Y106.906 E.04923
G1 X118.369 Y105.25 E.054
G1 X118.369 Y104.75 E.01568
G1 X118.762 Y103.23 E.04923
M73 P38 R0
G1 X119.844 Y102.092 E.04923
G1 X121.5 Y101.619 E.054
G1 X128.5 Y101.619 E.21948
G1 X130.02 Y102.012 E.04923
M73 P39 R0
G1 X131.158 Y103.094 E.04923
G1 X131.631 Y104.75 E.054
G1 X131.631 Y105.25 E.01568
M73 P40 R0
G1 X131.238 Y106.77 E.04923
G1 X130.156 Y107.908 E.04923
G1 X128.5 Y108.381 E.054
G1 X125.161 Y108.381 E.10468
G1 X125.161 Y108.004 F10800
M73 P41 R0
G1 F900
G1 X121.5 Y108.004 E.1148
G1 X120.083 Y107.611 E.04612
G1 X119.069 Y106.545 E.04612
G1 X118.746 Y105.25 E.04186
M73 P42 R0
G1 X118.746 Y104.75 E.01568
G1 X119.139 Y103.333 E.04612
G1 X120.205 Y102.319 E.04612
G1 X121.5 Y101.996 E.04186
G1 X128.5 Y101.996 E.21948
G1 X129.917 Y102.389 E.04612
M73 P43 R0
G1 X130.931 Y103.455 E.04612
G1 X131.254 Y104.75 E.04186
M73 P44 R0
G1 X131.254 Y105.25 E.01568
G1 X130.861 Y106.667 E.04612
G1 X129.795 Y107.681 E.04612
G1 X128.5 Y108.004 E.04186
G1 X125.221 Y108.004 E.1028
G1 X125.221 Y107.627 F10800
M73 P45 R0
G1 F900
G1 X121.5 Y107.627 E.11668
G1 X120.193 Y107.235 E.04278
G1 X119.317 Y106.19 E.04278
G1 X119.123 Y105.25 E.03008
M73 P46 R0
G1 X119.123 Y104.75 E.01568
G1 X119.515 Y103.443 E.04278
G1 X120.56 Y102.567 E.04278
G1 X121.5 Y102.373 E.03008
G1 X128.5 Y102.373 E.21948
G1 X129.807 Y102.765 E.04278
M73 P47 R0
G1 X130.683 Y103.81 E.04278
G1 X130.877 Y104.75 E.03008
G1 X130.877 Y105.25 E.01568
M73 P48 R0
G1 X130.485 Y106.557 E.04278
G1 X129.44 Y107.433 E.04278
G1 X128.5 Y107.627 E.03008
G1 X125.281 Y107.627 E.10092
; printing object file1.stl id:0 copy 0
;WIPE_START
G1 F8640
M73 P49 R0
G1 X121.99 Y107.627 E-.76
;WIPE_END
G1 E-.04 F2100
G1 Z.8 F720
G1 X128.25 Y105 F10800
G1 Z.4 F720
G1 E.8 F2100
M204 S800
;TYPE:External perimeter
;WIDTH:0.5
G1 F900
G1 X121.75 Y105 E.24704
M204 S1000
; stop printing object file1.stl id:0 copy 0
M106 S170.85
;LAYER_CHANGE
;Z:0.6
;HEIGHT:0.2
;BEFORE_LAYER_CHANGE
G92 E0.0
;0.6


;WIPE_START
G1 F8640
M73 P50 R0
G1 X125.041 Y105 E-.76
;WIPE_END
G1 E-.04 F2100
G1 Z.8 F720
;AFTER_LAYER_CHANGE
;0.6
;CURRENT_Z: 0.6
G1 X125.041 Y108.758 F10800
G1 Z.6 F720
M73 P51 R0
G1 E.8 F2100
;TYPE:Skirt/Brim
;WIDTH:0.42
G1 F900
G1 X121.5 Y108.758 E.11104
G1 X119.884 Y108.364 E.05215
G1 X118.631 Y107.27 E.05215
G1 X117.992 Y105.25 E.06643
M73 P52 R0
G1 X117.992 Y104.75 E.01568
G1 X118.386 Y103.134 E.05215
G1 X119.48 Y101.881 E.05215
G1 X121.5 Y101.242 E.06643
G1 X128.5 Y101.242 E.21948
M73 P53 R0
G1 X130.116 Y101.636 E.05215
M73 P54 R0
G1 X131.369 Y102.73 E.05215
G1 X132.008 Y104.75 E.06643
G1 X132.008 Y105.25 E.01568
G1 X131.614 Y106.866 E.05215
G1 X130.52 Y108.119 E.05215
G1 X128.5 Y108.758 E.06643
M73 P55 R0
G1 X125.101 Y108.758 E.10656
G1 X125.101 Y108.381 F10800
G1 F900
G1 X121.5 Y108.381 E.11292
G1 X119.98 Y107.988 E.04923
M73 P56 R0
G1 X118.842 Y106.906 E.04923
G1 X118.369 Y105.25 E.054
G1 X118.369 Y104.75 E.01568
G1 X118.762 Y103.23 E.04923
M73 P57 R0
G1 X119.844 Y102.092 E.04923
G1 X121.5 Y101.619 E.054
G1 X128.5 Y101.619 E.21948
G1 X130.02 Y102.012 E.04923
M73 P58 R0
G1 X131.158 Y103.094 E.04923
G1 X131.631 Y104.75 E.054
G1 X131.631 Y105.25 E.01568
M73 P59 R0
G1 X131.238 Y106.77 E.04923
G1 X130.156 Y107.908 E.04923
G1 X128.5 Y108.381 E.054
G1 X125.161 Y108.381 E.10468
G1 X125.161 Y108.004 F10800
M73 P60 R0
G1 F900
G1 X121.5 Y108.004 E.1148
G1 X120.083 Y107.611 E.04612
G1 X119.069 Y106.545 E.04612
G1 X118.746 Y105.25 E.04186
M73 P61 R0
G1 X118.746 Y104.75 E.01568
G1 X119.139 Y103.333 E.04612
G1 X120.205 Y102.319 E.04612
G1 X121.5 Y101.996 E.04186
G1 X128.5 Y101.996 E.21948
G1 X129.917 Y102.389 E.04612
M73 P62 R0
G1 X130.931 Y103.455 E.04612
G1 X131.254 Y104.75 E.04186
M73 P63 R0
G1 X131.254 Y105.25 E.01568
G1 X130.861 Y106.667 E.04612
G1 X129.795 Y107.681 E.04612
G1 X128.5 Y108.004 E.04186
G1 X125.221 Y108.004 E.1028
G1 X125.221 Y107.627 F10800
M73 P64 R0
G1 F900
G1 X121.5 Y107.627 E.11668
G1 X120.193 Y107.235 E.04278
G1 X119.317 Y106.19 E.04278
G1 X119.123 Y105.25 E.03008
M73 P65 R0
G1 X119.123 Y104.75 E.01568
G1 X119.515 Y103.443 E.04278
G1 X120.56 Y102.567 E.04278
G1 X121.5 Y102.373 E.03008
G1 X128.5 Y102.373 E.21948
G1 X129.807 Y102.765 E.04278
M73 P66 R0
G1 X130.683 Y103.81 E.04278
G1 X130.877 Y104.75 E.03008
M73 P67 R0
G1 X130.877 Y105.25 E.01568
G1 X130.485 Y106.557 E.04278
G1 X129.44 Y107.433 E.04278
G1 X128.5 Y107.627 E.03008
G1 X125.281 Y107.627 E.10092
; printing object file1.stl id:0 copy 0
;WIPE_START
G1 F8640
M73 P68 R0
G1 X121.99 Y107.627 E-.76
;WIPE_END
G1 E-.04 F2100
G1 Z1 F720
G1 X121.75 Y105 F10800
G1 Z.6 F720
G1 E.8 F2100
M204 S800
;TYPE:External perimeter
;WIDTH:0.5
G1 F900
G1 X128.25 Y105 E.24704
M204 S1000
; stop printing object file1.stl id:0 copy 0
M106 S255
;LAYER_CHANGE
;Z:0.8
;HEIGHT:0.2
;BEFORE_LAYER_CHANGE
G92 E0.0
;0.8


;WIPE_START
G1 F8640
M73 P69 R0
G1 X124.959 Y105 E-.76
;WIPE_END
G1 E-.04 F2100
G1 Z1 F720
;AFTER_LAYER_CHANGE
;0.8
;CURRENT_Z: 0.8
; printing object file1.stl id:0 copy 0
G1 X121.75 Y105 F10800
G1 Z.8 F720
M73 P70 R0
G1 E.8 F2100
M204 S800
G1 F900
G1 X128.25 Y105 E.24704
M204 S1000
; stop printing object file1.stl id:0 copy 0
;LAYER_CHANGE
;Z:1
;HEIGHT:0.2
;BEFORE_LAYER_CHANGE
G92 E0.0
;1


;WIPE_START
G1 F8640
G1 X124.959 Y105 E-.76
;WIPE_END
G1 E-.04 F2100
M73 P71 R0
G1 Z1.2 F720
;AFTER_LAYER_CHANGE
;1
;CURRENT_Z: 1
; printing object file1.stl id:0 copy 0
G1 X128.25 Y105 F10800
G1 Z1 F720
G1 E.8 F2100
M204 S800
G1 F900
G1 X121.75 Y105 E.24704
M204 S1000
; stop printing object file1.stl id:0 copy 0
;LAYER_CHANGE
;Z:1.2
;HEIGHT:0.2
;BEFORE_LAYER_CHANGE
G92 E0.0
;1.2


;WIPE_START
G1 F8640
M73 P72 R0
G1 X125.041 Y105 E-.76
;WIPE_END
G1 E-.04 F2100
G1 Z1.4 F720
;AFTER_LAYER_CHANGE
;1.2
;CURRENT_Z: 1.2
; printing object file1.stl id:0 copy 0
G1 X128.25 Y105 F10800
G1 Z1.2 F720
G1 E.8 F2100
M204 S800
M73 P73 R0
G1 F900
G1 X121.75 Y105 E.24704
M204 S1000
; stop printing object file1.stl id:0 copy 0
;LAYER_CHANGE
;Z:1.4
;HEIGHT:0.2
;BEFORE_LAYER_CHANGE
G92 E0.0
;1.4


;WIPE_START
G1 F8640
G1 X125.041 Y105 E-.76
;WIPE_END
G1 E-.04 F2100
M73 P74 R0
G1 Z1.6 F720
;AFTER_LAYER_CHANGE
;1.4
;CURRENT_Z: 1.4
; printing object file1.stl id:0 copy 0
G1 X128.25 Y105 F10800
G1 Z1.4 F720
G1 E.8 F2100
M204 S800
G1 F900
G1 X121.75 Y105 E.24704
M204 S1000
; stop printing object file1.stl id:0 copy 0
;LAYER_CHANGE
;Z:1.6
;HEIGHT:0.2
;BEFORE_LAYER_CHANGE
G92 E0.0
;1.6


;WIPE_START
G1 F8640
M73 P75 R0
G1 X125.041 Y105 E-.76
;WIPE_END
G1 E-.04 F2100
G1 Z1.8 F720
;AFTER_LAYER_CHANGE
;1.6
;CURRENT_Z: 1.6
; printing object file1.stl id:0 copy 0
G1 X121.75 Y105 F10800
G1 Z1.6 F720
G1 E.8 F2100
M204 S800
G1 F900
G1 X128.25 Y105 E.24704
M204 S1000
; stop printing object file1.stl id:0 copy 0
;LAYER_CHANGE
;Z:1.8
;HEIGHT:0.2
;BEFORE_LAYER_CHANGE
G92 E0.0
;1.8


;WIPE_START
G1 F8640
M73 P76 R0
G1 X124.959 Y105 E-.76
;WIPE_END
G1 E-.04 F2100
M73 P77 R0
G1 Z2 F720
;AFTER_LAYER_CHANGE
;1.8
;CURRENT_Z: 1.8
; printing object file1.stl id:0 copy 0
G1 X121.75 Y105 F10800
G1 Z1.8 F720
G1 E.8 F2100
M204 S800
G1 F900
G1 X128.25 Y105 E.24704
M204 S1000
; stop printing object file1.stl id:0 copy 0
;LAYER_CHANGE
;Z:2
;HEIGHT:0.2
;BEFORE_LAYER_CHANGE
G92 E0.0
;2


;WIPE_START
G1 F8640
M73 P78 R0
G1 X124.959 Y105 E-.76
;WIPE_END
G1 E-.04 F2100
G1 Z2.2 F720
;AFTER_LAYER_CHANGE
;2
;CURRENT_Z: 2
; printing object file1.stl id:0 copy 0
G1 X121.75 Y105 F10800
G1 Z2 F720
G1 E.8 F2100
M204 S800
G1 F900
G1 X128.25 Y105 E.24704
M204 S1000
; stop printing object file1.stl id:0 copy 0
;LAYER_CHANGE
;Z:2.2
;HEIGHT:0.2
;BEFORE_LAYER_CHANGE
G92 E0.0
;2.2


;WIPE_START
G1 F8640
M73 P79 R0
G1 X124.959 Y105 E-.76
;WIPE_END
G1 E-.04 F2100
G1 Z2.4 F720
;AFTER_LAYER_CHANGE
;2.2
;CURRENT_Z: 2.2
; printing object file1.stl id:0 copy 0
G1 X128.25 Y105 F10800
M73 P80 R0
G1 Z2.2 F720
G1 E.8 F2100
M204 S800
G1 F900
G1 X121.75 Y105 E.24704
M204 S1000
; stop printing object file1.stl id:0 copy 0
;LAYER_CHANGE
;Z:2.4
;HEIGHT:0.2
;BEFORE_LAYER_CHANGE
G92 E0.0
;2.4


;WIPE_START
G1 F8640
M73 P81 R0
G1 X125.041 Y105 E-.76
;WIPE_END
G1 E-.04 F2100
G1 Z2.6 F720
;AFTER_LAYER_CHANGE
;2.4
;CURRENT_Z: 2.4
; printing object file1.stl id:0 copy 0
G1 X121.75 Y105 F10800
G1 Z2.4 F720
G1 E.8 F2100
M204 S800
G1 F900
G1 X128.25 Y105 E.24704
M204 S1000
; stop printing object file1.stl id:0 copy 0
;LAYER_CHANGE
;Z:2.6
;HEIGHT:0.2
;BEFORE_LAYER_CHANGE
G92 E0.0
;2.6


;WIPE_START
G1 F8640
M73 P82 R0
G1 X124.959 Y105 E-.76
;WIPE_END
G1 E-.04 F2100
G1 Z2.8 F720
;AFTER_LAYER_CHANGE
;2.6
;CURRENT_Z: 2.6
; printing object file1.stl id:0 copy 0
G1 X128.25 Y105 F10800
G1 Z2.6 F720
M73 P83 R0
G1 E.8 F2100
M204 S800
G1 F900
G1 X121.75 Y105 E.24704
M204 S1000
; stop printing object file1.stl id:0 copy 0
;LAYER_CHANGE
;Z:2.8
;HEIGHT:0.2
;BEFORE_LAYER_CHANGE
G92 E0.0
;2.8


;WIPE_START
G1 F8640
M73 P84 R0
G1 X125.041 Y105 E-.76
;WIPE_END
G1 E-.04 F2100
G1 Z3 F720
;AFTER_LAYER_CHANGE
;2.8
;CURRENT_Z: 2.8
; printing object file1.stl id:0 copy 0
G1 X128.25 Y105 F10800
G1 Z2.8 F720
G1 E.8 F2100
M204 S800
G1 F900
G1 X121.75 Y105 E.24704
M204 S1000
; stop printing object file1.stl id:0 copy 0
;LAYER_CHANGE
;Z:3
;HEIGHT:0.2
;BEFORE_LAYER_CHANGE
G92 E0.0
;3


;WIPE_START
G1 F8640
M73 P85 R0
G1 X125.041 Y105 E-.76
;WIPE_END
G1 E-.04 F2100
G1 Z3.2 F720
;AFTER_LAYER_CHANGE
;3
;CURRENT_Z: 3
; printing object file1.stl id:0 copy 0
G1 X128.25 Y105 F10800
G1 Z3 F720
M73 P86 R0
G1 E.8 F2100
M204 S800
G1 F900
G1 X121.75 Y105 E.24704
M204 S1000
; stop printing object file1.stl id:0 copy 0
;WIPE_START
G1 F8640;_WIPE
M73 P87 R0
G1 X125.041 Y105 E-.76
;WIPE_END
G1 E-.04 F2100
G1 Z3.4 F720
M107
;TYPE:Custom
; Filament-specific end gcode
G1 Z4 F720 ; Move print head up
G1 X0 Y200 F3600 ; park
G1 Z52 F720 ; Move print head further up
G4 ; wait
M104 S0 ; turn off temperature
M140 S0 ; turn off heatbed
M107 ; turn off fan
M900 K0 ; reset LA
M84 ; disable motors
M73 P100 R0
; filament used [mm] = 16.20
; filament used [cm3] = 0.04
; filament used [g] = 0.05
; filament cost = 0.00
; total filament used [g] = 0.05
; total filament cost = 0.00
; estimated printing time (normal mode) = 53s

; prusaslicer_config = begin
; avoid_crossing_perimeters = 0
; avoid_crossing_perimeters_max_detour = 0
; bed_custom_model = 
; bed_custom_texture = 
; bed_shape = 0x0,250x0,250x210,0x210
; bed_temperature = 60
; before_layer_gcode = ;BEFORE_LAYER_CHANGE\nG92 E0.0\n;[layer_z]\n\n
; between_objects_gcode = 
; bottom_fill_pattern = monotonic
; bottom_solid_layers = 4
; bottom_solid_min_thickness = 0.5
; bridge_acceleration = 1000
; bridge_angle = 0
; bridge_fan_speed = 100
; bridge_flow_ratio = 0.95
; bridge_speed = 25
; brim_separation = 0.1
; brim_type = outer_only
; brim_width = 0
; clip_multipart_objects = 1
; color_change_gcode = M600\nG1 E0.4 F1500 ; prime after color change
