; generated by PrusaSlicer 2.2.0+linux-x64 on 2020-11-01 at 00:42:42 UTC

; 

; external perimeters extrusion width = 0.45mm
; perimeters extrusion width = 0.45mm
; infill extrusion width = 0.45mm
; solid infill extrusion width = 0.45mm
; top infill extrusion width = 0.40mm
; first layer extrusion width = 0.42mm

M73 P0 R1
M201 X9000 Y9000 Z500 E10000 ; sets maximum accelerations, mm/sec^2
M203 X500 Y500 Z12 E120 ; sets maximum feedrates, mm/sec
M204 P2000 R1500 T2000 ; sets acceleration (P, T) and retract acceleration (R), mm/sec^2
M205 X10.00 Y10.00 Z0.20 E2.50 ; sets the jerk limits, mm/sec
M205 S0 T0 ; sets the minimum extruding and travel feed rate, mm/sec
M107
M115 U3.4.0 ; tell printer latest fw version
M83  ; extruder relative mode
M104 S215 ; set extruder temp
M140 S60 ; set bed temp
M190 S60 ; wait for bed temp
M109 S215 ; wait for extruder temp
G28 W ; home all without mesh bed level
G80 ; mesh bed leveling
G1 Y-3.0 F1000.0 ; go outside print area
G92 E0.0
G1 X60.0 E9.0  F1000.0 ; intro line
G1 X100.0 E12.5  F1000.0 ; intro line
G92 E0.0
G21 ; set units to millimeters
G90 ; use absolute coordinates
M83 ; use relative distances for extrusion
M900 K30; Filament gcode
;BEFORE_LAYER_CHANGE
G92 E0.0
;0.2


G1 E-0.80000 F2100.00000
G1 Z0.600 F10800.000
;AFTER_LAYER_CHANGE
;0.2
;CURRENT_Z: 0.2
G1 X118.699 Y102.637
G1 Z0.200
G1 E0.80000 F2100.00000
M204 S1000
G1 F900
G1 X119.183 Y102.116 E0.02231
G1 X119.758 Y101.705 E0.02216
G1 X120.510 Y101.384 E0.02562
G1 X121.315 Y101.247 E0.02562
G1 X128.505 Y101.242 E0.22541
G1 X129.645 Y101.434 E0.03625
G1 X130.664 Y101.989 E0.03639
G1 X131.447 Y102.846 E0.03639
G1 X131.907 Y103.912 E0.03639
G1 X132.001 Y104.524 E0.01942
G1 X132.004 Y105.421 E0.02814
G1 X131.780 Y106.495 E0.03439
G1 X131.520 Y107.036 E0.01884
G1 X131.167 Y107.529 E0.01898
G1 X130.736 Y107.953 E0.01898
G1 X130.242 Y108.295 E0.01884
G1 X129.486 Y108.617 E0.02577
G1 X128.671 Y108.754 E0.02591
G1 X121.112 Y108.737 E0.23700
G1 X120.312 Y108.551 E0.02577
G1 X119.576 Y108.184 E0.02577
G1 X118.947 Y107.656 E0.02577
G1 X118.455 Y106.992 E0.02591
G1 X118.167 Y106.346 E0.02216
G1 X118.016 Y105.660 E0.02202
G1 X117.995 Y104.593 E0.03349
G1 X118.093 Y103.911 E0.02158
G1 X118.333 Y103.241 E0.02231
G1 X118.668 Y102.688 E0.02028
G1 F8640.000
G1 X119.183 Y102.116 E-0.17786
G1 X119.758 Y101.705 E-0.16320
G1 X120.510 Y101.384 E-0.18869
G1 X121.315 Y101.247 E-0.18869
G1 X121.495 Y101.246 E-0.04156
G1 E-0.04000 F2100.00000
G1 Z0.800 F10800.000
G1 X130.812 Y107.361
G1 Z0.200
G1 E0.80000 F2100.00000
G1 F900
G1 X129.939 Y108.031 E0.03450
G1 X129.300 Y108.277 E0.02148
G1 X128.618 Y108.379 E0.02161
G1 X121.129 Y108.359 E0.23482
G1 X120.388 Y108.177 E0.02393
G1 X119.717 Y107.824 E0.02379
G1 X119.147 Y107.316 E0.02393
G1 X118.719 Y106.689 E0.02379
G1 X118.490 Y106.113 E0.01943
G1 X118.379 Y105.508 E0.01930
G1 X118.376 Y104.540 E0.03034
G1 X118.488 Y103.895 E0.02052
G1 X118.723 Y103.303 E0.01998
G1 X119.076 Y102.768 E0.02011
G1 X119.528 Y102.318 E0.01998
G1 X120.061 Y101.969 E0.01998
G1 X120.696 Y101.724 E0.02134
G1 X121.368 Y101.622 E0.02134
G1 X128.504 Y101.619 E0.22374
G1 X129.542 Y101.797 E0.03301
G1 X130.459 Y102.307 E0.03288
G1 X131.158 Y103.094 E0.03301
G1 X131.555 Y104.064 E0.03288
G1 X131.624 Y105.455 E0.04366
G1 X131.400 Y106.431 E0.03139
G1 X130.844 Y107.311 E0.03262
G1 X130.469 Y107.175 F10800.000
G1 F900
G1 X129.661 Y107.748 E0.03107
G1 X129.131 Y107.931 E0.01758
G1 X128.575 Y108.003 E0.01758
G1 X121.156 Y107.983 E0.23259
G1 X120.483 Y107.810 E0.02180
G1 X119.875 Y107.474 E0.02180
G1 X119.370 Y106.996 E0.02180
G1 X119.002 Y106.411 E0.02167
G1 X118.827 Y105.912 E0.01656
G1 X118.749 Y105.386 E0.01669
G1 X118.756 Y104.512 E0.02739
G1 X118.878 Y103.907 E0.01937
G1 X119.107 Y103.386 E0.01784
G1 X119.436 Y102.927 E0.01771
G1 X119.854 Y102.542 E0.01784
G1 X120.339 Y102.252 E0.01771
G1 X120.865 Y102.070 E0.01745
G1 X121.413 Y101.997 E0.01733
G1 X128.504 Y101.996 E0.22233
G1 X129.432 Y102.158 E0.02955
G1 X130.248 Y102.622 E0.02942
G1 X130.861 Y103.332 E0.02942
G1 X131.200 Y104.208 E0.02942
G1 X131.245 Y105.475 E0.03977
G1 X131.025 Y106.350 E0.02828
G1 X130.503 Y107.126 E0.02931
G1 X130.143 Y106.968 F10800.000
G1 F900
G1 X129.403 Y107.449 E0.02767
G1 X128.547 Y107.627 E0.02743
G1 X121.196 Y107.608 E0.23048
G1 X120.594 Y107.448 E0.01953
G1 X120.054 Y107.137 E0.01953
G1 X119.611 Y106.694 E0.01965
G1 X119.301 Y106.153 E0.01953
G1 X119.123 Y105.293 E0.02755
G1 X119.135 Y104.507 E0.02466
G1 X119.263 Y103.947 E0.01799
G1 X119.477 Y103.502 E0.01550
G1 X119.781 Y103.108 E0.01562
G1 X120.161 Y102.786 E0.01562
G1 X120.597 Y102.551 E0.01550
G1 X121.446 Y102.374 E0.02720
G1 X128.504 Y102.373 E0.22131
G1 X129.317 Y102.518 E0.02590
G1 X130.029 Y102.930 E0.02579
G1 X130.558 Y103.560 E0.02579
G1 X130.841 Y104.336 E0.02590
G1 X130.866 Y105.474 E0.03571
G1 X130.658 Y106.247 E0.02508
G1 X130.178 Y106.919 E0.02590
G1 F8640.000
G1 X129.403 Y107.449 E-0.21669
G1 X128.547 Y107.627 E-0.20201
G1 X127.069 Y107.623 E-0.34130
G1 E-0.04000 F2100.00000
G1 Z0.800 F10800.000
G1 X128.290 Y105.040
G1 Z0.200
G1 E0.80000 F2100.00000
G1 F900
G1 X121.710 Y105.040 E0.20631
G1 X121.710 Y104.960 E0.00251
G1 X128.290 Y104.960 E0.20631
G1 X128.290 Y104.980 E0.00063
G1 X127.890 Y105.038 F10800.000
M106 S255
;BEFORE_LAYER_CHANGE
G92 E0.0
;0.4


G1 F8640.000
G1 X124.999 Y105.010 E-0.76000
G1 E-0.04000 F2100.00000
G1 Z0.800 F10800.000
;AFTER_LAYER_CHANGE
;0.4
;CURRENT_Z: 0.4
M104 S210 ; set temperature
G1 X131.447 Y102.846
G1 Z0.400
G1 E0.80000 F2100.00000
G1 F900
G1 X131.907 Y103.912 E0.03639
G1 X132.001 Y104.524 E0.01942
G1 X132.004 Y105.421 E0.02814
G1 X131.780 Y106.495 E0.03439
G1 X131.520 Y107.036 E0.01884
G1 X131.167 Y107.529 E0.01898
G1 X130.736 Y107.953 E0.01898
G1 X130.242 Y108.295 E0.01884
G1 X129.486 Y108.617 E0.02577
G1 X128.671 Y108.754 E0.02591
G1 X121.112 Y108.737 E0.23700
G1 X120.312 Y108.551 E0.02577
G1 X119.576 Y108.184 E0.02577
G1 X118.947 Y107.656 E0.02577
G1 X118.455 Y106.992 E0.02591
G1 X118.167 Y106.346 E0.02216
G1 X118.016 Y105.660 E0.02202
G1 X117.995 Y104.593 E0.03349
G1 X118.093 Y103.911 E0.02158
G1 X118.333 Y103.241 E0.02231
G1 X118.699 Y102.637 E0.02216
G1 X119.183 Y102.116 E0.02231
G1 X119.758 Y101.705 E0.02216
G1 X120.510 Y101.384 E0.02562
G1 X121.315 Y101.247 E0.02562
G1 X128.505 Y101.242 E0.22541
G1 X129.645 Y101.434 E0.03625
G1 X130.664 Y101.989 E0.03639
G1 X131.406 Y102.802 E0.03451
G1 X131.158 Y103.094 F10800.000
G1 F900
G1 X131.555 Y104.064 E0.03288
G1 X131.624 Y105.455 E0.04366
G1 X131.400 Y106.431 E0.03139
G1 X130.812 Y107.361 E0.03450
G1 X129.939 Y108.031 E0.03450
G1 X129.300 Y108.277 E0.02148
G1 X128.618 Y108.379 E0.02161
G1 X121.129 Y108.359 E0.23482
G1 X120.388 Y108.177 E0.02393
G1 X119.717 Y107.824 E0.02379
G1 X119.147 Y107.316 E0.02393
G1 X118.719 Y106.689 E0.02379
G1 X118.490 Y106.113 E0.01943
G1 X118.379 Y105.508 E0.01930
G1 X118.376 Y104.540 E0.03034
G1 X118.488 Y103.895 E0.02052
G1 X118.723 Y103.303 E0.01998
G1 X119.076 Y102.768 E0.02011
G1 X119.528 Y102.318 E0.01998
G1 X120.061 Y101.969 E0.01998
G1 X120.696 Y101.724 E0.02134
G1 X121.368 Y101.622 E0.02134
G1 X128.504 Y101.619 E0.22374
G1 X129.542 Y101.797 E0.03301
G1 X130.459 Y102.307 E0.03288
G1 X131.118 Y103.049 E0.03113
G1 X130.861 Y103.332 F10800.000
G1 F900
G1 X131.200 Y104.208 E0.02942
G1 X131.245 Y105.475 E0.03977
G1 X131.025 Y106.350 E0.02828
G1 X130.469 Y107.175 E0.03119
G1 X129.661 Y107.748 E0.03107
G1 X129.131 Y107.931 E0.01758
G1 X128.575 Y108.003 E0.01758
G1 X121.156 Y107.983 E0.23259
G1 X120.483 Y107.810 E0.02180
G1 X119.875 Y107.474 E0.02180
G1 X119.370 Y106.996 E0.02180
G1 X119.002 Y106.411 E0.02167
G1 X118.827 Y105.912 E0.01656
G1 X118.749 Y105.386 E0.01669
G1 X118.756 Y104.512 E0.02739
G1 X118.878 Y103.907 E0.01937
G1 X119.107 Y103.386 E0.01784
G1 X119.436 Y102.927 E0.01771
G1 X119.854 Y102.542 E0.01784
G1 X120.339 Y102.252 E0.01771
G1 X120.865 Y102.070 E0.01745
G1 X121.413 Y101.997 E0.01733
G1 X128.504 Y101.996 E0.22233
G1 X129.432 Y102.158 E0.02955
G1 X130.248 Y102.622 E0.02942
G1 X130.822 Y103.287 E0.02754
G1 X130.558 Y103.560 F10800.000
G1 F900
G1 X130.841 Y104.336 E0.02590
G1 X130.866 Y105.474 E0.03571
G1 X130.658 Y106.247 E0.02508
G1 X130.143 Y106.968 E0.02778
G1 X129.403 Y107.449 E0.02767
G1 X128.547 Y107.627 E0.02743
G1 X121.196 Y107.608 E0.23048
G1 X120.594 Y107.448 E0.01953
G1 X120.054 Y107.137 E0.01953
G1 X119.611 Y106.694 E0.01965
G1 X119.301 Y106.153 E0.01953
G1 X119.123 Y105.293 E0.02755
G1 X119.135 Y104.507 E0.02466
G1 X119.263 Y103.947 E0.01799
G1 X119.477 Y103.502 E0.01550
G1 X119.781 Y103.108 E0.01562
G1 X120.161 Y102.786 E0.01562
G1 X120.597 Y102.551 E0.01550
G1 X121.446 Y102.374 E0.02720
G1 X128.504 Y102.373 E0.22131
G1 X129.317 Y102.518 E0.02590
G1 X130.029 Y102.930 E0.02579
G1 X130.519 Y103.514 E0.02390
G1 F8640.000
G1 X130.841 Y104.336 E-0.20384
G1 X130.866 Y105.474 E-0.26296
G1 X130.658 Y106.247 E-0.18469
G1 X130.385 Y106.629 E-0.10851
G1 E-0.04000 F2100.00000
G1 Z1.000 F10800.000
G1 X128.275 Y104.975
G1 Z0.400
G1 E0.80000 F2100.00000
M204 S800
G1 F900
G1 X128.275 Y105.025 E0.00169
G1 X121.725 Y105.025 E0.22171
G1 X121.725 Y104.975 E0.00169
G1 X128.215 Y104.975 E0.21968
M204 S1000
G1 X128.250 Y105.018 F10800.000
;BEFORE_LAYER_CHANGE
G92 E0.0
;0.6


G1 F8640.000
G1 X128.275 Y105.025 E-0.01803
G1 X125.062 Y105.025 E-0.74197
G1 E-0.04000 F2100.00000
G1 Z1.000 F10800.000
;AFTER_LAYER_CHANGE
;0.6
;CURRENT_Z: 0.6
G1 X131.447 Y102.846
G1 Z0.600
G1 E0.80000 F2100.00000
G1 F900
G1 X131.907 Y103.912 E0.03639
G1 X132.001 Y104.524 E0.01942
G1 X132.004 Y105.421 E0.02814
G1 X131.780 Y106.495 E0.03439
G1 X131.520 Y107.036 E0.01884
G1 X131.167 Y107.529 E0.01898
G1 X130.736 Y107.953 E0.01898
G1 X130.242 Y108.295 E0.01884
G1 X129.486 Y108.617 E0.02577
G1 X128.671 Y108.754 E0.02591
G1 X121.112 Y108.737 E0.23700
G1 X120.312 Y108.551 E0.02577
G1 X119.576 Y108.184 E0.02577
G1 X118.947 Y107.656 E0.02577
G1 X118.455 Y106.992 E0.02591
G1 X118.167 Y106.346 E0.02216
G1 X118.016 Y105.660 E0.02202
G1 X117.995 Y104.593 E0.03349
G1 X118.093 Y103.911 E0.02158
G1 X118.333 Y103.241 E0.02231
G1 X118.699 Y102.637 E0.02216
G1 X119.183 Y102.116 E0.02231
G1 X119.758 Y101.705 E0.02216
G1 X120.510 Y101.384 E0.02562
G1 X121.315 Y101.247 E0.02562
G1 X128.505 Y101.242 E0.22541
G1 X129.645 Y101.434 E0.03625
G1 X130.664 Y101.989 E0.03639
G1 X131.406 Y102.802 E0.03451
G1 X131.158 Y103.094 F10800.000
G1 F900
G1 X131.555 Y104.064 E0.03288
G1 X131.624 Y105.455 E0.04366
G1 X131.400 Y106.431 E0.03139
G1 X130.812 Y107.361 E0.03450
G1 X129.939 Y108.031 E0.03450
G1 X129.300 Y108.277 E0.02148
G1 X128.618 Y108.379 E0.02161
G1 X121.129 Y108.359 E0.23482
G1 X120.388 Y108.177 E0.02393
G1 X119.717 Y107.824 E0.02379
G1 X119.147 Y107.316 E0.02393
G1 X118.719 Y106.689 E0.02379
G1 X118.490 Y106.113 E0.01943
G1 X118.379 Y105.508 E0.01930
G1 X118.376 Y104.540 E0.03034
G1 X118.488 Y103.895 E0.02052
G1 X118.723 Y103.303 E0.01998
G1 X119.076 Y102.768 E0.02011
G1 X119.528 Y102.318 E0.01998
G1 X120.061 Y101.969 E0.01998
G1 X120.696 Y101.724 E0.02134
G1 X121.368 Y101.622 E0.02134
G1 X128.504 Y101.619 E0.22374
G1 X129.542 Y101.797 E0.03301
G1 X130.459 Y102.307 E0.03288
G1 X131.118 Y103.049 E0.03113
G1 X130.861 Y103.332 F10800.000
G1 F900
G1 X131.200 Y104.208 E0.02942
G1 X131.245 Y105.475 E0.03977
G1 X131.025 Y106.350 E0.02828
G1 X130.469 Y107.175 E0.03119
G1 X129.661 Y107.748 E0.03107
G1 X129.131 Y107.931 E0.01758
G1 X128.575 Y108.003 E0.01758
G1 X121.156 Y107.983 E0.23259
G1 X120.483 Y107.810 E0.02180
G1 X119.875 Y107.474 E0.02180
G1 X119.370 Y106.996 E0.02180
G1 X119.002 Y106.411 E0.02167
G1 X118.827 Y105.912 E0.01656
G1 X118.749 Y105.386 E0.01669
G1 X118.756 Y104.512 E0.02739
G1 X118.878 Y103.907 E0.01937
G1 X119.107 Y103.386 E0.01784
G1 X119.436 Y102.927 E0.01771
G1 X119.854 Y102.542 E0.01784
G1 X120.339 Y102.252 E0.01771
G1 X120.865 Y102.070 E0.01745
G1 X121.413 Y101.997 E0.01733
G1 X128.504 Y101.996 E0.22233
G1 X129.432 Y102.158 E0.02955
G1 X130.248 Y102.622 E0.02942
G1 X130.822 Y103.287 E0.02754
G1 X130.558 Y103.560 F10800.000
G1 F900
G1 X130.841 Y104.336 E0.02590
G1 X130.866 Y105.474 E0.03571
G1 X130.658 Y106.247 E0.02508
G1 X130.143 Y106.968 E0.02778
G1 X129.403 Y107.449 E0.02767
G1 X128.547 Y107.627 E0.02743
G1 X121.196 Y107.608 E0.23048
G1 X120.594 Y107.448 E0.01953
G1 X120.054 Y107.137 E0.01953
G1 X119.611 Y106.694 E0.01965
G1 X119.301 Y106.153 E0.01953
G1 X119.123 Y105.293 E0.02755
G1 X119.135 Y104.507 E0.02466
G1 X119.263 Y103.947 E0.01799
G1 X119.477 Y103.502 E0.01550
G1 X119.781 Y103.108 E0.01562
G1 X120.161 Y102.786 E0.01562
G1 X120.597 Y102.551 E0.01550
G1 X121.446 Y102.374 E0.02720
G1 X128.504 Y102.373 E0.22131
G1 X129.317 Y102.518 E0.02590
G1 X130.029 Y102.930 E0.02579
G1 X130.519 Y103.514 E0.02390
G1 F8640.000
G1 X130.841 Y104.336 E-0.20384
G1 X130.866 Y105.474 E-0.26296
G1 X130.658 Y106.247 E-0.18469
G1 X130.385 Y106.629 E-0.10851
G1 E-0.04000 F2100.00000
G1 Z1.200 F10800.000
G1 X128.275 Y104.975
G1 Z0.600
G1 E0.80000 F2100.00000
M204 S800
G1 F900
G1 X128.275 Y105.025 E0.00169
G1 X121.725 Y105.025 E0.22171
G1 X121.725 Y104.975 E0.00169
G1 X128.215 Y104.975 E0.21968
M204 S1000
G1 X128.250 Y105.018 F10800.000
;BEFORE_LAYER_CHANGE
G92 E0.0
;0.8


G1 F8640.000
G1 X128.275 Y105.025 E-0.01803
G1 X125.062 Y105.025 E-0.74197
G1 E-0.04000 F2100.00000
G1 Z1.200 F10800.000
;AFTER_LAYER_CHANGE
;0.8
;CURRENT_Z: 0.8
G1 X128.275 Y105.025
G1 Z0.800
G1 E0.80000 F2100.00000
M204 S800
G1 F900
G1 X121.725 Y105.025 E0.22171
G1 X121.725 Y104.975 E0.00169
G1 X128.265 Y104.975 E0.22137
M204 S1000
G1 X128.475 Y104.679 F10800.000
;BEFORE_LAYER_CHANGE
G92 E0.0
;1


G1 F8640.000
G1 X124.974 Y105.000 E-0.76000
G1 E-0.04000 F2100.00000
G1 Z1.400 F10800.000
;AFTER_LAYER_CHANGE
;1
;CURRENT_Z: 1
G1 X128.275 Y105.025
G1 Z1.000
G1 E0.80000 F2100.00000
M204 S800
G1 F900
G1 X121.725 Y105.025 E0.22171
G1 X121.725 Y104.975 E0.00169
G1 X128.265 Y104.975 E0.22137
M204 S1000
G1 X128.475 Y104.679 F10800.000
;BEFORE_LAYER_CHANGE
G92 E0.0
;1.2


G1 F8640.000
G1 X124.974 Y105.000 E-0.76000
G1 E-0.04000 F2100.00000
G1 Z1.600 F10800.000
;AFTER_LAYER_CHANGE
;1.2
;CURRENT_Z: 1.2
G1 X128.275 Y105.025
G1 Z1.200
G1 E0.80000 F2100.00000
M204 S800
G1 F900
G1 X121.725 Y105.025 E0.22171
G1 X121.725 Y104.975 E0.00169
G1 X128.265 Y104.975 E0.22137
M204 S1000
G1 X128.475 Y104.679 F10800.000
;BEFORE_LAYER_CHANGE
G92 E0.0
;1.4


G1 F8640.000
G1 X124.974 Y105.000 E-0.76000
G1 E-0.04000 F2100.00000
G1 Z1.800 F10800.000
;AFTER_LAYER_CHANGE
;1.4
;CURRENT_Z: 1.4
G1 X128.275 Y105.025
G1 Z1.400
G1 E0.80000 F2100.00000
M204 S800
G1 F900
G1 X121.725 Y105.025 E0.22171
G1 X121.725 Y104.975 E0.00169
G1 X128.265 Y104.975 E0.22137
M204 S1000
G1 X128.475 Y104.679 F10800.000
;BEFORE_LAYER_CHANGE
G92 E0.0
;1.6


G1 F8640.000
G1 X124.974 Y105.000 E-0.76000
G1 E-0.04000 F2100.00000
G1 Z2.000 F10800.000
;AFTER_LAYER_CHANGE
;1.6
;CURRENT_Z: 1.6
G1 X128.275 Y105.025
G1 Z1.600
G1 E0.80000 F2100.00000
M204 S800
G1 F900
G1 X121.725 Y105.025 E0.22171
G1 X121.725 Y104.975 E0.00169
G1 X128.265 Y104.975 E0.22137
M204 S1000
G1 X128.475 Y104.679 F10800.000
;BEFORE_LAYER_CHANGE
G92 E0.0
;1.8


G1 F8640.000
G1 X124.974 Y105.000 E-0.76000
G1 E-0.04000 F2100.00000
G1 Z2.200 F10800.000
;AFTER_LAYER_CHANGE
;1.8
;CURRENT_Z: 1.8
G1 X128.275 Y105.025
G1 Z1.800
G1 E0.80000 F2100.00000
M204 S800
G1 F900
G1 X121.725 Y105.025 E0.22171
G1 X121.725 Y104.975 E0.00169
G1 X128.265 Y104.975 E0.22137
M204 S1000
G1 X128.475 Y104.679 F10800.000
;BEFORE_LAYER_CHANGE
G92 E0.0
;2


G1 F8640.000
G1 X124.974 Y105.000 E-0.76000
G1 E-0.04000 F2100.00000
G1 Z2.400 F10800.000
;AFTER_LAYER_CHANGE
;2
;CURRENT_Z: 2
G1 X128.275 Y105.025
G1 Z2.000
G1 E0.80000 F2100.00000
M204 S800
G1 F900
G1 X121.725 Y105.025 E0.22171
G1 X121.725 Y104.975 E0.00169
G1 X128.265 Y104.975 E0.22137
M204 S1000
G1 X128.475 Y104.679 F10800.000
;BEFORE_LAYER_CHANGE
G92 E0.0
;2.2


G1 F8640.000
G1 X124.974 Y105.000 E-0.76000
G1 E-0.04000 F2100.00000
G1 Z2.600 F10800.000
;AFTER_LAYER_CHANGE
;2.2
;CURRENT_Z: 2.2
G1 X128.275 Y105.025
G1 Z2.200
G1 E0.80000 F2100.00000
M204 S800
G1 F900
G1 X121.725 Y105.025 E0.22171
