; generated by PrusaSlicer 2.8.0 on 2024-09-21 at 14:29:13 UTC

; 

; external perimeters extrusion width = 0.45mm
; perimeters extrusion width = 0.45mm
; infill extrusion width = 0.45mm
; solid infill extrusion width = 0.45mm
; top infill extrusion width = 0.40mm
; first layer extrusion width = 0.42mm

M73 P0 R0
M201 X9000 Y9000 Z500 E10000 ; sets maximum accelerations, mm/sec^2
M203 X500 Y500 Z12 E120 ; sets maximum feedrates, mm / sec
M204 S2000 T1500 ; sets acceleration (S) and retract acceleration (R), mm/sec^2
M205 X10.00 Y10.00 Z0.20 E4.50 ; sets the jerk limits, mm/sec
M205 S0 T0 ; sets the minimum extruding and travel feed rate, mm/sec

; printing object file1.stl id:0 copy 0
; stop printing object file1.stl id:0 copy 0

;TYPE:Custom
M862.3 P "MK2.5" ; printer model check
M862.1 P0.4 ; nozzle diameter check
M115 U3.11.0 ; tell printer latest fw version
G90 ; use absolute coordinates
M83 ; extruder relative mode
M104 S215 ; set extruder temp
M140 S60 ; set bed temp
M190 S60 ; wait for bed temp
M109 S215 ; wait for extruder temp
G28 W ; home all without mesh bed level
G80 ; mesh bed leveling

G1 Z0.2 F720
G1 Y-3 F1000 ; go outside print area
G92 E0
G1 X60 E9 F1000 ; intro line
G1 X100 E12.5 F1000 ; intro line
M73 P7 R0

G92 E0
G21 ; set units to millimeters
G90 ; use absolute coordinates
M83 ; use relative distances for extrusion
M900 K0.05 ; Filament gcode LA 1.5
M900 K30 ; Filament gcode LA 1.0
M107
;LAYER_CHANGE
;Z:0.2
;HEIGHT:0.2
G1 E-.8 F2100
M73 P11 R0
G1 Z.6 F720
G1 X118.574 Y103.181 F10800
G1 Z.2 F720
M73 P13 R0
G1 E.8 F2100
M204 S800
;TYPE:Skirt/Brim
;WIDTH:0.42
G1 F900
G1 X119.663 Y101.985 E.05072
G1 X121.5 Y101.43 E.06017
G1 X128.5 Y101.43 E.21948
G1 X130.069 Y101.824 E.05072
M73 P14 R0
G1 X131.265 Y102.913 E.05072
G1 X131.82 Y104.75 E.06017
M73 P15 R0
G1 X131.82 Y105.25 E.01568
G1 X131.426 Y106.819 E.05072
G1 X130.337 Y108.015 E.05072
G1 X128.5 Y108.57 E.06017
G1 X121.5 Y108.57 E.21948
M73 P16 R0
G1 X119.931 Y108.176 E.05072
M73 P17 R0
G1 X118.735 Y107.087 E.05072
G1 X118.18 Y105.25 E.06017
G1 X118.18 Y104.75 E.01568
G1 X118.56 Y103.24 E.04882
M204 S1000
G1 X118.56 Y103.24 F10800
G1 X118.935 Y103.34
M204 S800
G1 F900
M73 P18 R0
G1 X118.951 Y103.28 E.00195
G1 X120.025 Y102.204 E.04767
G1 X121.5 Y101.807 E.04789
G1 X128.5 Y101.807 E.21948
G1 X129.97 Y102.201 E.04772
M73 P19 R0
G1 X131.046 Y103.275 E.04767
G1 X131.443 Y104.75 E.04789
G1 X131.443 Y105.25 E.01568
G1 X131.049 Y106.72 E.04772
G1 X129.975 Y107.796 E.04767
M73 P20 R0
G1 X128.5 Y108.193 E.04789
G1 X121.5 Y108.193 E.21948
G1 X120.03 Y107.8 E.04771
M73 P21 R0
G1 X118.954 Y106.725 E.04769
G1 X118.557 Y105.25 E.04789
G1 X118.557 Y104.75 E.01568
G1 X118.919 Y103.398 E.04388
M73 P22 R0
M204 S1000
G1 X118.919 Y103.398 F10800
G1 X119.292 Y103.505
M204 S800
G1 F900
G1 X119.327 Y103.387 E.00386
G1 X120.383 Y102.44 E.04447
G1 X121.5 Y102.184 E.03593
G1 X128.5 Y102.184 E.21948
G1 X129.863 Y102.577 E.04448
M73 P23 R0
G1 X130.81 Y103.633 E.04447
G1 X131.066 Y104.75 E.03593
G1 X131.066 Y105.25 E.01568
G1 X130.673 Y106.613 E.04448
M73 P24 R0
G1 X129.617 Y107.56 E.04447
G1 X128.5 Y107.816 E.03593
G1 X121.5 Y107.816 E.21948
G1 X120.137 Y107.423 E.04448
M73 P25 R0
G1 X119.19 Y106.367 E.04447
G1 X118.934 Y105.25 E.03593
G1 X118.934 Y104.75 E.01568
G1 X119.276 Y103.563 E.03873
M73 P26 R0
M204 S1000
G1 X119.276 Y103.563 F10800
G1 X119.647 Y103.679
M204 S800
G1 F900
G1 X119.702 Y103.502 E.00581
G1 X120.735 Y102.699 E.04102
G1 X121.5 Y102.561 E.02437
G1 X128.5 Y102.561 E.21948
G1 X129.748 Y102.952 E.04101
M73 P27 R0
G1 X130.551 Y103.985 E.04102
G1 X130.689 Y104.75 E.02437
G1 X130.689 Y105.25 E.01568
G1 X130.298 Y106.498 E.04101
G1 X129.265 Y107.301 E.04102
M73 P28 R0
G1 X128.5 Y107.439 E.02437
G1 X121.5 Y107.439 E.21948
G1 X120.252 Y107.048 E.04101
M73 P29 R0
G1 X119.449 Y106.015 E.04102
G1 X119.311 Y105.25 E.02437
G1 X119.311 Y104.75 E.01568
G1 X119.629 Y103.736 E.03332
M204 S1000
;WIPE_START
G1 F8640
G1 X119.647 Y103.679 E-.0138
G1 X119.702 Y103.502 E-.0428
G1 X120.735 Y102.699 E-.30211
G1 X121.5 Y102.561 E-.17949
G1 X122.634 Y102.561 E-.2618
;WIPE_END
G1 Z.6 F720
M73 P30 R0
; printing object file1.stl id:0 copy 0
G1 X121.75 Y105 F10800
G1 Z.2 F720
G1 E.8 F2100
M204 S800
;TYPE:External perimeter
;WIDTH:0.50001
G1 F900
G1 X128.25 Y105 E.24705
M204 S1000
M106 S84.15
;LAYER_CHANGE
;Z:0.4
;HEIGHT:0.2
;BEFORE_LAYER_CHANGE
G92 E0.0
;0.4


;WIPE_START
G1 F8640
M73 P31 R0
G1 X124.785 Y105 E-.8
;WIPE_END
G1 Z.4 F720
;AFTER_LAYER_CHANGE
;0.4
;CURRENT_Z: 0.4
M104 S210 ; set temperature
; stop printing object file1.stl id:0 copy 0
G1 Z.8
G1 X124.785 Y101.43 F10800
G1 Z.4 F720
G1 E.8 F2100
;TYPE:Skirt/Brim
;WIDTH:0.42
G1 F900
G1 X128.5 Y101.43 E.11648
G1 X130.069 Y101.824 E.05072
M73 P32 R0
G1 X131.265 Y102.913 E.05072
G1 X131.82 Y104.75 E.06017
G1 X131.82 Y105.25 E.01568
M73 P33 R0
G1 X131.426 Y106.819 E.05072
G1 X130.337 Y108.015 E.05072
G1 X128.5 Y108.57 E.06017
G1 X121.5 Y108.57 E.21948
G1 X119.931 Y108.176 E.05072
M73 P34 R0
G1 X118.735 Y107.087 E.05072
M73 P35 R0
G1 X118.18 Y105.25 E.06017
G1 X118.18 Y104.75 E.01568
G1 X118.574 Y103.181 E.05072
G1 X119.663 Y101.985 E.05072
G1 X121.5 Y101.43 E.06017
G1 X124.725 Y101.43 E.10112
M73 P36 R0
G1 X124.725 Y101.43 F10800
G1 X124.725 Y101.807
G1 F900
G1 X128.5 Y101.807 E.11836
G1 X129.97 Y102.201 E.04772
M73 P37 R0
G1 X131.046 Y103.275 E.04767
G1 X131.443 Y104.75 E.04789
G1 X131.443 Y105.25 E.01568
G1 X131.049 Y106.72 E.04772
G1 X129.975 Y107.796 E.04767
G1 X128.5 Y108.193 E.04789
M73 P38 R0
G1 X121.5 Y108.193 E.21948
G1 X120.03 Y107.8 E.04771
M73 P39 R0
G1 X118.954 Y106.725 E.04769
G1 X118.557 Y105.25 E.04789
G1 X118.557 Y104.75 E.01568
G1 X118.951 Y103.28 E.04772
G1 X120.025 Y102.204 E.04767
M73 P40 R0
G1 X121.5 Y101.807 E.04789
G1 X124.665 Y101.807 E.09924
G1 X124.665 Y101.807 F10800
G1 X124.665 Y102.184
G1 F900
G1 X128.5 Y102.184 E.12024
G1 X129.863 Y102.577 E.04448
M73 P41 R0
G1 X130.81 Y103.633 E.04447
G1 X131.066 Y104.75 E.03593
G1 X131.066 Y105.25 E.01568
G1 X130.673 Y106.613 E.04448
G1 X129.617 Y107.56 E.04447
M73 P42 R0
G1 X128.5 Y107.816 E.03593
G1 X121.5 Y107.816 E.21948
G1 X120.137 Y107.423 E.04448
M73 P43 R0
G1 X119.19 Y106.367 E.04447
G1 X118.934 Y105.25 E.03593
G1 X118.934 Y104.75 E.01568
G1 X119.327 Y103.387 E.04448
G1 X120.383 Y102.44 E.04447
M73 P44 R0
G1 X121.5 Y102.184 E.03593
G1 X124.605 Y102.184 E.09736
G1 X124.605 Y102.184 F10800
G1 X124.605 Y102.561
G1 F900
G1 X128.5 Y102.561 E.12212
G1 X129.748 Y102.952 E.04101
M73 P45 R0
G1 X130.551 Y103.985 E.04102
G1 X130.689 Y104.75 E.02437
G1 X130.689 Y105.25 E.01568
G1 X130.298 Y106.498 E.04101
G1 X129.265 Y107.301 E.04102
G1 X128.5 Y107.439 E.02437
M73 P46 R0
G1 X121.5 Y107.439 E.21948
G1 X120.252 Y107.048 E.04101
M73 P47 R0
G1 X119.449 Y106.015 E.04102
G1 X119.311 Y105.25 E.02437
G1 X119.311 Y104.75 E.01568
G1 X119.702 Y103.502 E.04101
G1 X120.735 Y102.699 E.04102
G1 X121.5 Y102.561 E.02437
G1 X124.545 Y102.561 E.09547
M73 P48 R0
;WIPE_START
G1 F8640
G1 X124.605 Y102.561 E-.01385
G1 X128.01 Y102.561 E-.78615
;WIPE_END
G1 Z.8 F720
; printing object file1.stl id:0 copy 0
G1 X128.25 Y105 F10800
G1 Z.4 F720
G1 E.8 F2100
M204 S800
;TYPE:External perimeter
;WIDTH:0.50001
G1 F900
G1 X121.75 Y105 E.24705
M204 S1000
M106 S170.85
;LAYER_CHANGE
;Z:0.6
;HEIGHT:0.2
;BEFORE_LAYER_CHANGE
G92 E0.0
;0.6


;WIPE_START
G1 F8640
M73 P49 R0
G1 X125.215 Y105 E-.8
;WIPE_END
G1 Z.6 F720
M73 P50 R0
;AFTER_LAYER_CHANGE
;0.6
;CURRENT_Z: 0.6
; stop printing object file1.stl id:0 copy 0
G1 Z1
G1 X125.215 Y101.43 F10800
G1 Z.6 F720
G1 E.8 F2100
;TYPE:Skirt/Brim
;WIDTH:0.42
G1 F900
G1 X128.5 Y101.43 E.103
G1 X130.069 Y101.824 E.05072
M73 P51 R0
G1 X131.265 Y102.913 E.05072
G1 X131.82 Y104.75 E.06017
G1 X131.82 Y105.25 E.01568
G1 X131.426 Y106.819 E.05072
G1 X130.337 Y108.015 E.05072
G1 X128.5 Y108.57 E.06017
M73 P52 R0
G1 X121.5 Y108.57 E.21948
G1 X119.931 Y108.176 E.05072
M73 P53 R0
G1 X118.735 Y107.087 E.05072
G1 X118.18 Y105.25 E.06017
G1 X118.18 Y104.75 E.01568
G1 X118.574 Y103.181 E.05072
M73 P54 R0
G1 X119.663 Y101.985 E.05072
G1 X121.5 Y101.43 E.06017
G1 X125.155 Y101.43 E.1146
G1 X125.155 Y101.43 F10800
M73 P55 R0
G1 X125.155 Y101.807
G1 F900
G1 X128.5 Y101.807 E.10488
G1 X129.97 Y102.201 E.04772
G1 X131.046 Y103.275 E.04767
G1 X131.443 Y104.75 E.04789
G1 X131.443 Y105.25 E.01568
M73 P56 R0
G1 X131.049 Y106.72 E.04772
G1 X129.975 Y107.796 E.04767
G1 X128.5 Y108.193 E.04789
G1 X121.5 Y108.193 E.21948
G1 X120.03 Y107.8 E.04771
M73 P57 R0
G1 X118.954 Y106.725 E.04769
G1 X118.557 Y105.25 E.04789
M73 P58 R0
G1 X118.557 Y104.75 E.01568
G1 X118.951 Y103.28 E.04772
G1 X120.025 Y102.204 E.04767
G1 X121.5 Y101.807 E.04789
G1 X125.095 Y101.807 E.11272
G1 X125.095 Y101.807 F10800
M73 P59 R0
G1 X125.095 Y102.184
G1 F900
G1 X128.5 Y102.184 E.10676
G1 X129.863 Y102.577 E.04448
G1 X130.81 Y103.633 E.04447
M73 P60 R0
G1 X131.066 Y104.75 E.03593
G1 X131.066 Y105.25 E.01568
G1 X130.673 Y106.613 E.04448
G1 X129.617 Y107.56 E.04447
G1 X128.5 Y107.816 E.03593
G1 X121.5 Y107.816 E.21948
G1 X120.137 Y107.423 E.04448
M73 P61 R0
G1 X119.19 Y106.367 E.04447
M73 P62 R0
G1 X118.934 Y105.25 E.03593
G1 X118.934 Y104.75 E.01568
G1 X119.327 Y103.387 E.04448
G1 X120.383 Y102.44 E.04447
G1 X121.5 Y102.184 E.03593
G1 X125.035 Y102.184 E.11084
G1 X125.035 Y102.184 F10800
M73 P63 R0
G1 X125.035 Y102.561
G1 F900
G1 X128.5 Y102.561 E.10864
G1 X129.748 Y102.952 E.04101
G1 X130.551 Y103.985 E.04102
G1 X130.689 Y104.75 E.02437
M73 P64 R0
G1 X130.689 Y105.25 E.01568
G1 X130.298 Y106.498 E.04101
G1 X129.265 Y107.301 E.04102
G1 X128.5 Y107.439 E.02437
G1 X121.5 Y107.439 E.21948
G1 X120.252 Y107.048 E.04101
M73 P65 R0
G1 X119.449 Y106.015 E.04102
G1 X119.311 Y105.25 E.02437
G1 X119.311 Y104.75 E.01568
M73 P66 R0
G1 X119.702 Y103.502 E.04101
G1 X120.735 Y102.699 E.04102
G1 X121.5 Y102.561 E.02437
G1 X124.975 Y102.561 E.10896
;WIPE_START
G1 F8640
M73 P67 R0
G1 X125.035 Y102.561 E-.01385
G1 X128.44 Y102.561 E-.78615
;WIPE_END
G1 Z1 F720
; printing object file1.stl id:0 copy 0
G1 X128.25 Y105 F10800
G1 Z.6 F720
G1 E.8 F2100
M204 S800
;TYPE:External perimeter
;WIDTH:0.50001
G1 F900
G1 X121.75 Y105 E.24705
M204 S1000
M106 S255
;LAYER_CHANGE
;Z:0.8
;HEIGHT:0.2
;BEFORE_LAYER_CHANGE
G92 E0.0
;0.8


;WIPE_START
G1 F8640
M73 P68 R0
G1 X125.215 Y105 E-.8
;WIPE_END
G1 Z.8 F720
;AFTER_LAYER_CHANGE
;0.8
;CURRENT_Z: 0.8
G1 Z1.2
G1 X128.25 Y105 F10800
G1 Z.8 F720
G1 E.8 F2100
M73 P69 R0
M204 S800
G1 F900
G1 X121.75 Y105 E.24705
M204 S1000
;LAYER_CHANGE
;Z:1
;HEIGHT:0.2
;BEFORE_LAYER_CHANGE
G92 E0.0
;1


;WIPE_START
G1 F8640
G1 X125.215 Y105 E-.8
;WIPE_END
G1 Z1 F720
M73 P70 R0
;AFTER_LAYER_CHANGE
;1
;CURRENT_Z: 1
G1 Z1.4
G1 X128.25 Y105 F10800
G1 Z1 F720
G1 E.8 F2100
M204 S800
G1 F900
G1 X121.75 Y105 E.24705
M204 S1000
;LAYER_CHANGE
;Z:1.2
;HEIGHT:0.2
;BEFORE_LAYER_CHANGE
G92 E0.0
;1.2


;WIPE_START
G1 F8640
M73 P71 R0
G1 X125.215 Y105 E-.8
;WIPE_END
G1 Z1.2 F720
;AFTER_LAYER_CHANGE
;1.2
;CURRENT_Z: 1.2
G1 Z1.6
G1 X128.25 Y105 F10800
G1 Z1.2 F720
M73 P72 R0
G1 E.8 F2100
M204 S800
G1 F900
G1 X121.75 Y105 E.24705
M204 S1000
;LAYER_CHANGE
;Z:1.4
;HEIGHT:0.2
;BEFORE_LAYER_CHANGE
G92 E0.0
;1.4


;WIPE_START
G1 F8640
M73 P73 R0
G1 X125.215 Y105 E-.8
;WIPE_END
G1 Z1.4 F720
;AFTER_LAYER_CHANGE
;1.4
;CURRENT_Z: 1.4
G1 Z1.8
G1 X128.25 Y105 F10800
G1 Z1.4 F720
G1 E.8 F2100
M204 S800
G1 F900
G1 X121.75 Y105 E.24705
M204 S1000
;LAYER_CHANGE
;Z:1.6
;HEIGHT:0.2
;BEFORE_LAYER_CHANGE
G92 E0.0
;1.6


;WIPE_START
G1 F8640
M73 P74 R0
G1 X125.215 Y105 E-.8
;WIPE_END
G1 Z1.6 F720
;AFTER_LAYER_CHANGE
;1.6
;CURRENT_Z: 1.6
G1 Z2
G1 X128.25 Y105 F10800
G1 Z1.6 F720
M73 P75 R0
G1 E.8 F2100
M204 S800
G1 F900
G1 X121.75 Y105 E.24705
M204 S1000
;LAYER_CHANGE
;Z:1.8
;HEIGHT:0.2
;BEFORE_LAYER_CHANGE
G92 E0.0
;1.8


;WIPE_START
G1 F8640
M73 P76 R0
G1 X125.215 Y105 E-.8
;WIPE_END
G1 Z1.8 F720
;AFTER_LAYER_CHANGE
;1.8
;CURRENT_Z: 1.8
G1 Z2.2
G1 X128.25 Y105 F10800
G1 Z1.8 F720
G1 E.8 F2100
M204 S800
G1 F900
G1 X121.75 Y105 E.24705
M204 S1000
;LAYER_CHANGE
;Z:2
;HEIGHT:0.2
;BEFORE_LAYER_CHANGE
G92 E0.0
;2


;WIPE_START
G1 F8640
M73 P77 R0
G1 X125.215 Y105 E-.8
;WIPE_END
G1 Z2 F720
;AFTER_LAYER_CHANGE
;2
;CURRENT_Z: 2
G1 Z2.4
G1 X128.25 Y105 F10800
M73 P78 R0
G1 Z2 F720
G1 E.8 F2100
M204 S800
G1 F900
G1 X121.75 Y105 E.24705
M204 S1000
;LAYER_CHANGE
;Z:2.2
;HEIGHT:0.2
;BEFORE_LAYER_CHANGE
G92 E0.0
;2.2


;WIPE_START
G1 F8640
M73 P79 R0
G1 X125.215 Y105 E-.8
;WIPE_END
G1 Z2.2 F720
;AFTER_LAYER_CHANGE
;2.2
;CURRENT_Z: 2.2
G1 Z2.6
G1 X128.25 Y105 F10800
G1 Z2.2 F720
G1 E.8 F2100
M204 S800
G1 F900
G1 X121.75 Y105 E.24705
M204 S1000
;LAYER_CHANGE
;Z:2.4
;HEIGHT:0.2
;BEFORE_LAYER_CHANGE
G92 E0.0
;2.4


;WIPE_START
G1 F8640
M73 P80 R0
G1 X125.215 Y105 E-.8
;WIPE_END
G1 Z2.4 F720
;AFTER_LAYER_CHANGE
;2.4
;CURRENT_Z: 2.4
G1 Z2.8
M73 P81 R0
G1 X128.25 Y105 F10800
G1 Z2.4 F720
G1 E.8 F2100
M204 S800
G1 F900
G1 X121.75 Y105 E.24705
M204 S1000
;LAYER_CHANGE
;Z:2.6
;HEIGHT:0.2
;BEFORE_LAYER_CHANGE
G92 E0.0
;2.6


;WIPE_START
G1 F8640
M73 P82 R0
G1 X125.215 Y105 E-.8
;WIPE_END
G1 Z2.6 F720
;AFTER_LAYER_CHANGE
;2.6
;CURRENT_Z: 2.6
G1 Z3
G1 X128.25 Y105 F10800
G1 Z2.6 F720
G1 E.8 F2100
M204 S800
G1 F900
G1 X121.75 Y105 E.24705
M204 S1000
;LAYER_CHANGE
;Z:2.8
;HEIGHT:0.2
;BEFORE_LAYER_CHANGE
G92 E0.0
;2.8


;WIPE_START
G1 F8640
M73 P83 R0
G1 X125.215 Y105 E-.8
;WIPE_END
G1 Z2.8 F720
M73 P84 R0
;AFTER_LAYER_CHANGE
;2.8
;CURRENT_Z: 2.8
G1 Z3.2
G1 X128.25 Y105 F10800
G1 Z2.8 F720
G1 E.8 F2100
M204 S800
G1 F900
G1 X121.75 Y105 E.24705
M204 S1000
;LAYER_CHANGE
;Z:3
;HEIGHT:0.2
;BEFORE_LAYER_CHANGE
G92 E0.0
;3


;WIPE_START
G1 F8640
M73 P85 R0
G1 X125.215 Y105 E-.8
;WIPE_END
G1 Z3 F720
;AFTER_LAYER_CHANGE
;3
;CURRENT_Z: 3
G1 Z3.4
G1 X128.25 Y105 F10800
G1 Z3 F720
G1 E.8 F2100
M204 S800
G1 F900
G1 X121.75 Y105 E.24705
M204 S1000
; stop printing object file1.stl id:0 copy 0
;WIPE_START
G1 F8640;_WIPE
M73 P86 R0
G1 X125.215 Y105 E-.8
;WIPE_END
M107
;TYPE:Custom
; Filament-specific end gcode
G1 Z4 F720 ; Move print head up
M73 P87 R0
G1 X0 Y200 F3600 ; park
G1 Z52 F720 ; Move print head further up
M73 P92 R0
G4 ; wait
M104 S0 ; turn off temperature
M140 S0 ; turn off heatbed
M107 ; turn off fan
M900 K0 ; reset LA
M84 ; disable motors
M73 P100 R0
; objects_info = {"objects":[{"name":"file1.stl id:0 copy 0","polygon":[[128.500,105.250],[121.500,105.250],[121.500,104.750],[128.500,104.750]]}]}
; filament used [mm] = 37.26
; filament used [cm3] = 0.09
; filament used [g] = 0.11
; filament cost = 0.00
; total filament used [g] = 0.11
; total filament cost = 0.00
; total filament used for wipe tower [g] = 0.00
; estimated printing time (normal mode) = 53s
; estimated first layer printing time (normal mode) = 17s

; prusaslicer_config = begin
; arc_fitting = disabled
; autoemit_temperature_commands = 1
; avoid_crossing_curled_overhangs = 0
; avoid_crossing_perimeters = 0
; avoid_crossing_perimeters_max_detour = 0
; bed_custom_model = 
; bed_custom_texture = 
; bed_shape = 0x0,250x0,250x210,0x210
; bed_temperature = 60
; before_layer_gcode = ;BEFORE_LAYER_CHANGE\nG92 E0.0\n;[layer_z]\n\n
; between_objects_gcode = 
; binary_gcode = 0
; bottom_fill_pattern = monotonic
; bottom_solid_layers = 4
; bottom_solid_min_thickness = 0.5
; bridge_acceleration = 1000
; bridge_angle = 0
; bridge_fan_speed = 100
; bridge_flow_ratio = 0.95
; bridge_speed = 25
; brim_separation = 0.1
; brim_type = outer_only
; brim_width = 0
; chamber_minimal_temperature = 0
; chamber_temperature = 0
; color_change_gcode = M600\nG1 E0.4 F1500 ; prime after color change
; colorprint_heights = 
; compatible_printers_condition = "printer_notes=~/.*PRINTER_VENDOR_PRUSA3D.*/ and printer_notes=~/.*PRINTER_MODEL_MK2[^.].*/ and nozzle_diameter[0]==0.4"
; complete_objects = 0
; cooling = 1
; cooling_tube_length = 5
; cooling_tube_retraction = 91.5
; default_acceleration = 1000
; default_filament_profile = "Prusament PLA"
; default_print_profile = 0.15mm OPTIMAL
; deretract_speed = 0
; disable_fan_first_layers = 1
; dont_support_bridges = 0
; draft_shield = disabled
; duplicate_distance = 6
; elefant_foot_compensation = 0.2
