; generated by PrusaSlicer 2.2.0+linux-x64 on 2020-10-31 at 22:53:57 UTC

; 

; external perimeters extrusion width = 0.45mm
; perimeters extrusion width = 0.45mm
; infill extrusion width = 0.45mm
; solid infill extrusion width = 0.45mm
; top infill extrusion width = 0.40mm
; first layer extrusion width = 0.42mm

M73 P0 R1
M201 X9000 Y9000 Z500 E10000 ; sets maximum accelerations, mm/sec^2
M203 X500 Y500 Z12 E120 ; sets maximum feedrates, mm/sec
M204 P2000 R1500 T2000 ; sets acceleration (P, T) and retract acceleration (R), mm/sec^2
M205 X10.00 Y10.00 Z0.20 E2.50 ; sets the jerk limits, mm/sec
M205 S0 T0 ; sets the minimum extruding and travel feed rate, mm/sec
M107
M115 U3.4.0 ; tell printer latest fw version
M83  ; extruder relative mode
M104 S215 ; set extruder temp
M140 S60 ; set bed temp
M190 S60 ; wait for bed temp
M109 S215 ; wait for extruder temp
G28 W ; home all without mesh bed level
G80 ; mesh bed leveling
G1 Y-3.0 F1000.0 ; go outside print area
G92 E0.0
G1 X60.0 E9.0  F1000.0 ; intro line
M73 P5 R1
G1 X100.0 E12.5  F1000.0 ; intro line
G92 E0.0
G21 ; set units to millimeters
G90 ; use absolute coordinates
M83 ; use relative distances for extrusion
M900 K30; Filament gcode
;BEFORE_LAYER_CHANGE
G92 E0.0
;0.2


G1 E-0.80000 F2100.00000
G1 Z0.600 F10800.000
;AFTER_LAYER_CHANGE
;0.2
;CURRENT_Z: 0.2
G1 X121.329 Y101.324
G1 Z0.200
G1 E0.80000 F2100.00000
M204 S1000
G1 F900
G1 X122.116 Y100.679 E0.03193
G1 X123.015 Y100.199 E0.03193
G1 X123.990 Y99.904 E0.03193
G1 X125.003 Y99.805 E0.03193
G1 X126.017 Y99.905 E0.03193
G1 X126.991 Y100.202 E0.03193
G1 X127.889 Y100.682 E0.03193
G1 X128.676 Y101.329 E0.03193
G1 X129.321 Y102.116 E0.03193
G1 X129.801 Y103.015 E0.03193
G1 X130.096 Y103.990 E0.03193
G1 X130.195 Y105.003 E0.03193
G1 X130.095 Y106.017 E0.03193
G1 X129.798 Y106.991 E0.03193
G1 X129.318 Y107.889 E0.03193
G1 X128.671 Y108.676 E0.03193
G1 X127.884 Y109.321 E0.03193
G1 X126.985 Y109.801 E0.03193
G1 X126.010 Y110.096 E0.03193
G1 X124.997 Y110.195 E0.03193
G1 X123.983 Y110.095 E0.03193
G1 X123.009 Y109.798 E0.03193
G1 X122.111 Y109.318 E0.03193
G1 X121.324 Y108.671 E0.03193
G1 X120.679 Y107.884 E0.03193
G1 X120.199 Y106.985 E0.03193
G1 X119.904 Y106.010 E0.03193
G1 X119.805 Y104.997 E0.03193
G1 X119.905 Y103.983 E0.03193
G1 X120.202 Y103.009 E0.03193
G1 X120.682 Y102.111 E0.03193
G1 X121.291 Y101.371 E0.03005
G1 X121.581 Y101.609 F10800.000
G1 F900
G1 X122.325 Y100.993 E0.03031
G1 X123.159 Y100.548 E0.02961
G1 X124.063 Y100.274 E0.02961
G1 X125.003 Y100.182 E0.02961
G1 X125.943 Y100.275 E0.02961
G1 X126.846 Y100.550 E0.02961
G1 X127.679 Y100.995 E0.02961
G1 X128.409 Y101.595 E0.02961
G1 X129.007 Y102.325 E0.02961
G1 X129.452 Y103.159 E0.02961
G1 X129.726 Y104.063 E0.02961
G1 X129.818 Y105.003 E0.02961
G1 X129.725 Y105.943 E0.02961
G1 X129.450 Y106.846 E0.02961
G1 X129.005 Y107.679 E0.02961
G1 X128.405 Y108.409 E0.02961
G1 X127.675 Y109.007 E0.02961
G1 X126.841 Y109.452 E0.02961
G1 X125.937 Y109.726 E0.02961
G1 X124.997 Y109.818 E0.02961
G1 X124.057 Y109.725 E0.02961
G1 X123.154 Y109.450 E0.02961
G1 X122.321 Y109.005 E0.02961
G1 X121.591 Y108.405 E0.02961
G1 X120.993 Y107.675 E0.02961
G1 X120.548 Y106.841 E0.02961
G1 X120.274 Y105.937 E0.02961
G1 X120.182 Y104.997 E0.02961
G1 X120.275 Y104.057 E0.02961
G1 X120.550 Y103.154 E0.02961
G1 X120.995 Y102.321 E0.02961
G1 X121.543 Y101.655 E0.02702
G1 X121.833 Y101.893 F10800.000
G1 F900
G1 X122.535 Y101.306 E0.02872
G1 X123.303 Y100.896 E0.02730
G1 X124.137 Y100.644 E0.02730
G1 X125.003 Y100.559 E0.02730
G1 X125.869 Y100.645 E0.02730
G1 X126.702 Y100.898 E0.02730
G1 X127.470 Y101.309 E0.02730
G1 X128.142 Y101.862 E0.02730
G1 X128.694 Y102.535 E0.02730
G1 X129.104 Y103.303 E0.02730
G1 X129.356 Y104.137 E0.02730
G1 X129.441 Y105.003 E0.02730
G1 X129.355 Y105.869 E0.02730
G1 X129.102 Y106.702 E0.02730
G1 X128.691 Y107.470 E0.02730
G1 X128.138 Y108.142 E0.02730
G1 X127.465 Y108.694 E0.02730
G1 X126.697 Y109.104 E0.02730
G1 X125.863 Y109.356 E0.02730
G1 X124.997 Y109.441 E0.02730
G1 X124.131 Y109.355 E0.02730
G1 X123.298 Y109.102 E0.02730
G1 X122.530 Y108.691 E0.02730
G1 X121.858 Y108.138 E0.02730
G1 X121.306 Y107.465 E0.02730
G1 X120.896 Y106.697 E0.02730
G1 X120.644 Y105.863 E0.02730
G1 X120.559 Y104.997 E0.02730
G1 X120.645 Y104.131 E0.02730
G1 X120.898 Y103.298 E0.02730
G1 X121.309 Y102.530 E0.02730
G1 X121.794 Y101.940 E0.02397
G1 X122.084 Y102.178 F10800.000
G1 F900
G1 X122.742 Y101.621 E0.02703
G1 X123.445 Y101.245 E0.02498
G1 X124.207 Y101.014 E0.02498
G1 X125.004 Y100.936 E0.02511
G1 X125.793 Y101.014 E0.02485
G1 X126.555 Y101.246 E0.02498
G1 X127.258 Y101.621 E0.02498
G1 X127.874 Y102.127 E0.02498
G1 X128.379 Y102.742 E0.02498
G1 X128.755 Y103.445 E0.02498
G1 X128.986 Y104.207 E0.02498
G1 X129.064 Y105.000 E0.02498
G1 X128.986 Y105.793 E0.02498
G1 X128.754 Y106.555 E0.02498
G1 X128.379 Y107.258 E0.02498
G1 X127.873 Y107.874 E0.02498
G1 X127.258 Y108.379 E0.02498
G1 X126.555 Y108.755 E0.02498
G1 X125.793 Y108.986 E0.02498
G1 X125.000 Y109.064 E0.02498
G1 X124.207 Y108.986 E0.02498
G1 X123.445 Y108.754 E0.02498
G1 X122.742 Y108.379 E0.02498
G1 X122.126 Y107.873 E0.02498
G1 X121.621 Y107.258 E0.02498
G1 X121.245 Y106.555 E0.02498
G1 X121.014 Y105.793 E0.02498
G1 X120.936 Y105.000 E0.02498
G1 X121.014 Y104.207 E0.02498
G1 X121.246 Y103.445 E0.02498
G1 X121.621 Y102.742 E0.02498
G1 X122.046 Y102.224 E0.02101
G1 X122.336 Y102.462 F10800.000
G1 F900
G1 X122.395 Y102.391 E0.00290
G1 X122.954 Y101.933 E0.02266
G1 X123.592 Y101.593 E0.02266
G1 X124.283 Y101.384 E0.02266
G1 X125.003 Y101.313 E0.02266
G1 X125.722 Y101.385 E0.02266
G1 X126.413 Y101.595 E0.02266
G1 X127.051 Y101.936 E0.02266
G1 X127.609 Y102.395 E0.02266
G1 X128.067 Y102.954 E0.02266
G1 X128.407 Y103.592 E0.02266
G1 X128.616 Y104.283 E0.02266
G1 X128.687 Y105.003 E0.02266
G1 X128.615 Y105.722 E0.02266
G1 X128.405 Y106.413 E0.02266
G1 X128.064 Y107.051 E0.02266
G1 X127.605 Y107.609 E0.02266
G1 X127.046 Y108.067 E0.02266
G1 X126.408 Y108.407 E0.02266
G1 X125.716 Y108.616 E0.02266
G1 X124.997 Y108.687 E0.02266
G1 X124.278 Y108.615 E0.02266
G1 X123.587 Y108.405 E0.02266
G1 X122.949 Y108.064 E0.02266
G1 X122.391 Y107.605 E0.02266
G1 X121.933 Y107.046 E0.02266
G1 X121.593 Y106.408 E0.02266
G1 X121.384 Y105.716 E0.02266
G1 X121.313 Y104.997 E0.02266
G1 X121.385 Y104.278 E0.02266
G1 X121.595 Y103.587 E0.02266
G1 X121.936 Y102.949 E0.02266
G1 X122.298 Y102.509 E0.01788
G1 F8640.000
G1 X122.395 Y102.391 E-0.03520
G1 X122.954 Y101.933 E-0.16688
G1 X123.592 Y101.593 E-0.16688
G1 X124.284 Y101.384 E-0.16688
G1 X125.003 Y101.313 E-0.16688
G1 X125.250 Y101.338 E-0.05728
G1 E-0.04000 F2100.00000
G1 Z0.800 F10800.000
G1 X124.685 Y104.789
G1 Z0.200
G1 E0.80000 F2100.00000
G1 F900
G1 X124.789 Y104.685 E0.00464
G1 X124.928 Y104.628 E0.00470
G1 X125.056 Y104.625 E0.00403
G1 X125.203 Y104.677 E0.00488
G1 X125.315 Y104.789 E0.00497
G1 X125.372 Y104.926 E0.00464
G1 X125.372 Y105.074 E0.00464
G1 X125.315 Y105.211 E0.00464
G1 X125.211 Y105.315 E0.00464
G1 X125.074 Y105.372 E0.00464
G1 X124.926 Y105.372 E0.00464
G1 X124.789 Y105.315 E0.00464
G1 X124.685 Y105.211 E0.00464
G1 X124.628 Y105.074 E0.00464
G1 X124.628 Y104.926 E0.00464
G1 X124.662 Y104.845 E0.00276
G1 X124.832 Y104.799 F10800.000
M106 S255
;BEFORE_LAYER_CHANGE
G92 E0.0
;0.4


G1 F8640.000
G1 X124.789 Y104.685 E-0.04725
G1 X124.928 Y104.628 E-0.03459
G1 X125.056 Y104.625 E-0.02967
G1 X125.203 Y104.677 E-0.03596
G1 X125.315 Y104.789 E-0.03660
G1 X125.372 Y104.926 E-0.03415
G1 X125.372 Y105.074 E-0.03415
G1 X125.315 Y105.211 E-0.03415
G1 X125.211 Y105.315 E-0.03415
G1 X125.074 Y105.372 E-0.03415
G1 X124.926 Y105.372 E-0.03415
G1 X124.789 Y105.315 E-0.03415
G1 X124.685 Y105.211 E-0.03415
G1 X124.628 Y105.074 E-0.03415
G1 X124.628 Y104.926 E-0.03415
G1 X124.662 Y104.845 E-0.02029
G1 E-0.25415 F2100.00000
G1 Z0.800 F10800.000
;AFTER_LAYER_CHANGE
;0.4
;CURRENT_Z: 0.4
M104 S210 ; set temperature
G1 X120.202 Y103.009
G1 Z0.400
G1 E0.80000 F2100.00000
G1 F900
G1 X120.682 Y102.111 E0.03193
G1 X121.329 Y101.324 E0.03193
G1 X122.116 Y100.679 E0.03193
G1 X123.015 Y100.199 E0.03193
G1 X123.990 Y99.904 E0.03193
G1 X125.003 Y99.805 E0.03193
G1 X126.017 Y99.905 E0.03193
G1 X126.991 Y100.202 E0.03193
G1 X127.889 Y100.682 E0.03193
G1 X128.676 Y101.329 E0.03193
G1 X129.321 Y102.116 E0.03193
G1 X129.801 Y103.015 E0.03193
G1 X130.096 Y103.990 E0.03193
G1 X130.195 Y105.003 E0.03193
G1 X130.095 Y106.017 E0.03193
G1 X129.798 Y106.991 E0.03193
G1 X129.318 Y107.889 E0.03193
G1 X128.671 Y108.676 E0.03193
G1 X127.884 Y109.321 E0.03193
G1 X126.985 Y109.801 E0.03193
G1 X126.010 Y110.096 E0.03193
G1 X124.997 Y110.195 E0.03193
G1 X123.983 Y110.095 E0.03193
G1 X123.009 Y109.798 E0.03193
G1 X122.111 Y109.318 E0.03193
G1 X121.324 Y108.671 E0.03193
G1 X120.679 Y107.884 E0.03193
G1 X120.199 Y106.985 E0.03193
G1 X119.904 Y106.010 E0.03193
G1 X119.805 Y104.997 E0.03193
G1 X119.905 Y103.983 E0.03193
G1 X120.184 Y103.066 E0.03005
G1 X120.543 Y103.175 F10800.000
G1 F900
G1 X120.995 Y102.321 E0.03031
G1 X121.595 Y101.591 E0.02961
G1 X122.325 Y100.993 E0.02961
G1 X123.159 Y100.548 E0.02961
G1 X124.063 Y100.274 E0.02961
G1 X125.003 Y100.182 E0.02961
G1 X125.943 Y100.275 E0.02961
G1 X126.846 Y100.550 E0.02961
G1 X127.679 Y100.995 E0.02961
G1 X128.409 Y101.595 E0.02961
G1 X129.007 Y102.325 E0.02961
G1 X129.452 Y103.159 E0.02961
G1 X129.726 Y104.063 E0.02961
G1 X129.818 Y105.003 E0.02961
G1 X129.725 Y105.943 E0.02961
G1 X129.450 Y106.846 E0.02961
G1 X129.005 Y107.679 E0.02961
G1 X128.405 Y108.409 E0.02961
G1 X127.675 Y109.007 E0.02961
G1 X126.841 Y109.452 E0.02961
G1 X125.937 Y109.726 E0.02961
G1 X124.997 Y109.818 E0.02961
G1 X124.057 Y109.725 E0.02961
G1 X123.154 Y109.450 E0.02961
G1 X122.321 Y109.005 E0.02961
G1 X121.591 Y108.405 E0.02961
G1 X120.993 Y107.675 E0.02961
G1 X120.548 Y106.841 E0.02961
G1 X120.274 Y105.937 E0.02961
G1 X120.182 Y104.997 E0.02961
G1 X120.275 Y104.057 E0.02961
G1 X120.526 Y103.233 E0.02702
G1 X120.885 Y103.342 F10800.000
G1 F900
G1 X121.309 Y102.530 E0.02872
G1 X121.862 Y101.858 E0.02730
G1 X122.535 Y101.306 E0.02730
G1 X123.303 Y100.896 E0.02730
G1 X124.137 Y100.644 E0.02730
G1 X125.003 Y100.559 E0.02730
G1 X125.869 Y100.645 E0.02730
G1 X126.702 Y100.898 E0.02730
G1 X127.470 Y101.309 E0.02730
G1 X128.142 Y101.862 E0.02730
G1 X128.694 Y102.535 E0.02730
G1 X129.104 Y103.303 E0.02730
G1 X129.356 Y104.137 E0.02730
G1 X129.441 Y105.003 E0.02730
G1 X129.355 Y105.869 E0.02730
G1 X129.102 Y106.702 E0.02730
G1 X128.691 Y107.470 E0.02730
G1 X128.138 Y108.142 E0.02730
G1 X127.465 Y108.694 E0.02730
G1 X126.697 Y109.104 E0.02730
G1 X125.863 Y109.356 E0.02730
G1 X124.997 Y109.441 E0.02730
G1 X124.131 Y109.355 E0.02730
G1 X123.298 Y109.102 E0.02730
G1 X122.530 Y108.691 E0.02730
G1 X121.858 Y108.138 E0.02730
G1 X121.306 Y107.465 E0.02730
G1 X120.896 Y106.697 E0.02730
G1 X120.644 Y105.863 E0.02730
G1 X120.559 Y104.997 E0.02730
G1 X120.645 Y104.131 E0.02730
G1 X120.867 Y103.399 E0.02396
G1 X121.226 Y103.508 F10800.000
G1 F900
G1 X121.621 Y102.742 E0.02703
G1 X122.127 Y102.126 E0.02498
G1 X122.742 Y101.621 E0.02498
G1 X123.445 Y101.245 E0.02498
G1 X124.207 Y101.014 E0.02498
G1 X125.004 Y100.936 E0.02511
G1 X125.793 Y101.014 E0.02485
G1 X126.555 Y101.246 E0.02498
G1 X127.258 Y101.621 E0.02498
G1 X127.874 Y102.127 E0.02498
G1 X128.379 Y102.742 E0.02498
G1 X128.755 Y103.445 E0.02498
G1 X128.986 Y104.207 E0.02498
G1 X129.064 Y105.000 E0.02498
G1 X128.986 Y105.793 E0.02498
G1 X128.754 Y106.555 E0.02498
G1 X128.379 Y107.258 E0.02498
G1 X127.873 Y107.874 E0.02498
G1 X127.258 Y108.379 E0.02498
G1 X126.555 Y108.755 E0.02498
G1 X125.793 Y108.986 E0.02498
G1 X125.000 Y109.064 E0.02498
G1 X124.207 Y108.986 E0.02498
G1 X123.445 Y108.754 E0.02498
G1 X122.742 Y108.379 E0.02498
G1 X122.126 Y107.873 E0.02498
G1 X121.621 Y107.258 E0.02498
G1 X121.245 Y106.555 E0.02498
G1 X121.014 Y105.793 E0.02498
G1 X120.936 Y105.000 E0.02498
G1 X121.014 Y104.207 E0.02498
G1 X121.209 Y103.566 E0.02101
G1 X121.568 Y103.675 F10800.000
G1 F900
G1 X121.595 Y103.587 E0.00290
G1 X121.936 Y102.949 E0.02266
G1 X122.395 Y102.391 E0.02266
G1 X122.954 Y101.933 E0.02266
G1 X123.592 Y101.593 E0.02266
G1 X124.283 Y101.384 E0.02266
G1 X125.003 Y101.313 E0.02266
G1 X125.722 Y101.385 E0.02266
G1 X126.413 Y101.595 E0.02266
G1 X127.051 Y101.936 E0.02266
G1 X127.609 Y102.395 E0.02266
G1 X128.067 Y102.954 E0.02266
G1 X128.407 Y103.592 E0.02266
G1 X128.616 Y104.283 E0.02266
G1 X128.687 Y105.003 E0.02266
G1 X128.615 Y105.722 E0.02266
G1 X128.405 Y106.413 E0.02266
G1 X128.064 Y107.051 E0.02266
G1 X127.605 Y107.609 E0.02266
G1 X127.046 Y108.067 E0.02266
G1 X126.408 Y108.407 E0.02266
G1 X125.716 Y108.616 E0.02266
G1 X124.997 Y108.687 E0.02266
G1 X124.278 Y108.615 E0.02266
G1 X123.587 Y108.405 E0.02266
G1 X122.949 Y108.064 E0.02266
G1 X122.391 Y107.605 E0.02266
G1 X121.933 Y107.046 E0.02266
G1 X121.593 Y106.408 E0.02266
G1 X121.384 Y105.716 E0.02266
G1 X121.313 Y104.997 E0.02266
G1 X121.385 Y104.278 E0.02266
G1 X121.551 Y103.732 E0.01788
G1 F8640.000
G1 X121.595 Y103.587 E-0.03520
G1 X121.936 Y102.949 E-0.16688
G1 X122.395 Y102.391 E-0.16689
G1 X122.954 Y101.933 E-0.16688
G1 X123.592 Y101.593 E-0.16688
G1 X123.829 Y101.521 E-0.05728
G1 E-0.04000 F2100.00000
G1 Z1.000 F10800.000
G1 X124.624 Y104.844
G1 Z0.400
G1 E0.80000 F2100.00000
M204 S800
G1 F900
G1 X124.712 Y104.712 E0.00537
G1 X124.844 Y104.624 E0.00537
G1 X125.000 Y104.593 E0.00537
G1 X125.163 Y104.628 E0.00563
G1 X125.288 Y104.712 E0.00510
G1 X125.376 Y104.844 E0.00537
G1 X125.407 Y105.000 E0.00537
G1 X125.376 Y105.156 E0.00537
G1 X125.288 Y105.288 E0.00537
G1 X125.156 Y105.376 E0.00537
G1 X125.000 Y105.407 E0.00537
G1 X124.844 Y105.376 E0.00537
G1 X124.712 Y105.288 E0.00537
G1 X124.624 Y105.156 E0.00537
G1 X124.593 Y105.000 E0.00537
G1 X124.607 Y104.902 E0.00336
M204 S1000
G1 X124.217 Y104.784 F10800.000
M204 S800
G1 F900
G1 X124.322 Y104.547 E0.00876
G1 X124.423 Y104.423 E0.00541
G1 X124.547 Y104.322 E0.00541
G1 X124.688 Y104.246 E0.00541
G1 X124.841 Y104.200 E0.00541
G1 X125.000 Y104.184 E0.00541
G1 X125.132 Y104.197 E0.00449
G1 X125.315 Y104.248 E0.00641
G1 X125.453 Y104.322 E0.00532
G1 X125.577 Y104.423 E0.00541
G1 X125.678 Y104.547 E0.00541
G1 X125.754 Y104.688 E0.00541
G1 X125.800 Y104.841 E0.00541
G1 X125.816 Y105.000 E0.00541
G1 X125.800 Y105.159 E0.00541
G1 X125.754 Y105.312 E0.00541
G1 X125.678 Y105.453 E0.00541
G1 X125.577 Y105.577 E0.00541
G1 X125.453 Y105.678 E0.00541
G1 X125.312 Y105.754 E0.00541
G1 X125.159 Y105.800 E0.00541
G1 X125.000 Y105.816 E0.00541
G1 X124.841 Y105.800 E0.00541
G1 X124.688 Y105.754 E0.00541
G1 X124.547 Y105.678 E0.00541
G1 X124.423 Y105.577 E0.00541
G1 X124.322 Y105.453 E0.00541
G1 X124.246 Y105.312 E0.00541
G1 X124.200 Y105.159 E0.00541
G1 X124.184 Y105.000 E0.00541
G1 X124.200 Y104.841 E0.00541
M204 S1000
G1 X124.469 Y104.724 F10800.000
;BEFORE_LAYER_CHANGE
G92 E0.0
;0.6


G1 F8640.000
G1 X124.322 Y104.547 E-0.07353
G1 X124.423 Y104.423 E-0.03692
G1 X124.547 Y104.322 E-0.03692
G1 X124.688 Y104.246 E-0.03692
G1 X124.841 Y104.200 E-0.03692
G1 X125.000 Y104.184 E-0.03692
G1 X125.132 Y104.197 E-0.03063
G1 X125.315 Y104.248 E-0.04375
G1 X125.453 Y104.322 E-0.03626
G1 X125.577 Y104.423 E-0.03692
G1 X125.678 Y104.547 E-0.03692
G1 X125.754 Y104.688 E-0.03692
G1 X125.800 Y104.841 E-0.03692
G1 X125.816 Y105.000 E-0.03692
G1 X125.800 Y105.159 E-0.03692
G1 X125.754 Y105.312 E-0.03692
G1 X125.678 Y105.453 E-0.03692
G1 X125.577 Y105.577 E-0.03692
G1 X125.453 Y105.678 E-0.03692
G1 X125.369 Y105.723 E-0.02197
G1 E-0.04000 F2100.00000
G1 Z1.000 F10800.000
;AFTER_LAYER_CHANGE
;0.6
;CURRENT_Z: 0.6
G1 X126.985 Y109.801
G1 Z0.600
G1 E0.80000 F2100.00000
G1 F900
G1 X126.010 Y110.096 E0.03193
G1 X124.997 Y110.195 E0.03193
G1 X123.983 Y110.095 E0.03193
G1 X123.009 Y109.798 E0.03193
G1 X122.111 Y109.318 E0.03193
G1 X121.324 Y108.671 E0.03193
G1 X120.679 Y107.884 E0.03193
G1 X120.199 Y106.985 E0.03193
G1 X119.904 Y106.010 E0.03193
G1 X119.805 Y104.997 E0.03193
G1 X119.905 Y103.983 E0.03193
G1 X120.202 Y103.009 E0.03193
G1 X120.682 Y102.111 E0.03193
