; generated by PrusaSlicer 2.5.0-alpha2+linux-x64-GTK3 on 2022-08-28 at 04:11:51 UTC



; 



; external perimeters extrusion width = 0.45mm

; perimeters extrusion width = 0.45mm

; infill extrusion width = 0.45mm

; solid infill extrusion width = 0.45mm

; top infill extrusion width = 0.40mm

; first layer extrusion width = 0.42mm



M73 P0 R199

M107

;TYPE:Custom

M862.3 P "MK2.5" ; printer model check

M862.1 P0.4 ; nozzle diameter check

M115 U3.9.1 ; tell printer latest fw version

G90 ; use absolute coordinates

M83 ; extruder relative mode

M104 S215 ; set extruder temp

M140 S60 ; set bed temp

M190 S60 ; wait for bed temp

M109 S215 ; wait for extruder temp

G28 W ; home all without mesh bed level

G80 ; mesh bed leveling

G1 Y-3.0 F1000.0 ; go outside print area

G92 E0.0

G1 X60.0 E9.0 F1000.0 ; intro line

G1 X100.0 E12.5 F1000.0 ; intro line

G92 E0.0

G21 ; set units to millimeters

G90 ; use absolute coordinates

M83 ; use relative distances for extrusion

M900 K0.05 ; Filament gcode LA 1.5

M900 K30 ; Filament gcode LA 1.0

M107

;LAYER_CHANGE

;Z:0.2

;HEIGHT:0.2

;BEFORE_LAYER_CHANGE

G92 E0.0

;0.2





G1 E-.8 F2100

G1 Z.6 F10800

;AFTER_LAYER_CHANGE

;0.2

;CURRENT_Z: 0.2

G1 X73.463 Y67.618

G1 Z.2

G1 E.8 F2100

M204 S1000

;TYPE:Skirt/Brim

;WIDTH:0.42

G1 F1200

G1 X74.118 Y66.964 E.02904

G1 X74.605 Y66.638 E.01835

G1 X75.462 Y66.283 E.02911

G1 X76.5 Y66.123 E.03292

G1 X173.963 Y66.169 E3.05589

G1 X174.537 Y66.283 E.01836

G1 X175.395 Y66.638 E.02911

G1 X175.882 Y66.963 E.01835

G1 X176.537 Y67.618 E.02904

G1 X176.862 Y68.105 E.01835

G1 X177.217 Y68.963 E.02911

G1 X177.377 Y70 E.03292

G1 X177.377 Y140 E2.1948

G1 X177.217 Y141.038 E.03291

G1 X176.862 Y141.895 E.0291

G1 X176.537 Y142.382 E.01835

G1 X175.882 Y143.036 E.02904

G1 X175.395 Y143.362 E.01835

G1 X174.538 Y143.717 E.02912

G1 X173.5 Y143.877 E.03292

G1 X76.5 Y143.877 E3.04136

G1 X75.463 Y143.717 E.03291

G1 X74.605 Y143.362 E.02911

G1 X74.118 Y143.036 E.01835

G1 X73.463 Y142.382 E.02904

G1 X73.138 Y141.895 E.01835

G1 X72.783 Y141.038 E.0291

G1 X72.623 Y140 E.03291

G1 X72.623 Y70 E2.1948

G1 X72.783 Y68.963 E.03292

G1 X73.138 Y68.105 E.02911

G1 X73.43 Y67.668 E.01647

;WIPE_START

G1 F8640

G1 X74.118 Y66.964 E-.22744

G1 X74.605 Y66.638 E-.13512

G1 X75.462 Y66.283 E-.2144

G1 X76.246 Y66.162 E-.18303

;WIPE_END

G1 E-.04 F2100

G1 Z.8 F10800

G1 X76.306 Y69.775

G1 Z.2

G1 E.8 F2100

;TYPE:Perimeter

;WIDTH:0.419999

G1 F1200

G1 X76.562 Y69.687 E.00849

G1 X173.373 Y69.687 E3.03544

G1 X173.537 Y69.712 E.00518

G1 X173.725 Y69.807 E.0066

G1 X173.813 Y70.063 E.00849

G1 X173.813 Y139.874 E2.1889

G1 X173.788 Y140.038 E.00518

G1 X173.694 Y140.225 E.00658

G1 X173.438 Y140.313 E.00849

G1 X76.625 Y140.313 E3.03548

G1 X76.375 Y140.27 E.00797

M73 P0 R198

G1 X76.233 Y140.116 E.00656

G1 X76.187 Y139.875 E.0077

G1 X76.187 Y70.08 E2.18834

G1 X76.212 Y69.963 E.00375

G1 X76.279 Y69.829 E.00472

G1 X76.056 Y69.482 F10800

;TYPE:External perimeter

G1 F1200

G1 X76.317 Y69.342 E.00929

G1 X76.535 Y69.31 E.00691

G1 X173.373 Y69.31 E3.0363

G1 X173.785 Y69.379 E.01307

G1 X174.019 Y69.556 E.0092

G1 X174.158 Y69.817 E.00929

G1 X174.19 Y70.035 E.00691

G1 X174.19 Y139.874 E2.18976

G1 X174.121 Y140.285 E.01306

G1 X173.944 Y140.519 E.00919

G1 X173.683 Y140.658 E.00927

G1 X173.465 Y140.69 E.00692

G1 X76.625 Y140.69 E3.03634

G1 X76.215 Y140.621 E.01306

G1 X75.982 Y140.445 E.00917

G1 X75.842 Y140.183 E.00931

G1 X75.81 Y139.965 E.00689

G1 X75.81 Y70.041 E2.19242

G1 X75.879 Y69.715 E.01045

G1 X76.019 Y69.529 E.0073

;WIPE_START

G1 F8640

G1 X76.317 Y69.342 E-.08121

;WIPE_END

G1 E-.71879 F2100

G1 Z.8 F10800

G1 X77.198 Y140.2

G1 Z.2

G1 E.8 F2100

;TYPE:Solid infill

;WIDTH:0.420352

G1 F1200

G1 X76.47 Y139.471 E.03233

G1 X76.47 Y138.937 E.01675

G1 X77.562 Y140.03 E.04849

G1 X78.096 Y140.03 E.01675

G1 X76.47 Y138.404 E.07218

G1 X76.47 Y137.87 E.01675

G1 X78.63 Y140.03 E.09587

G1 X79.164 Y140.03 E.01675

G1 X76.47 Y137.336 E.11956

G1 X76.47 Y136.802 E.01675

G1 X79.697 Y140.03 E.14325

G1 X80.231 Y140.03 E.01675

G1 X76.47 Y136.269 E.16694

G1 X76.47 Y135.735 E.01675

G1 X80.765 Y140.03 E.19063

G1 X81.299 Y140.03 E.01675

G1 X76.47 Y135.201 E.21432

G1 X76.47 Y134.667 E.01675

G1 X81.832 Y140.03 E.23801

G1 X82.366 Y140.03 E.01675

G1 X76.47 Y134.134 E.2617

G1 X76.47 Y133.6 E.01675

G1 X82.9 Y140.03 E.28539

G1 X83.434 Y140.03 E.01675

G1 X76.47 Y133.066 E.30908

G1 X76.47 Y132.532 E.01675

G1 X83.968 Y140.03 E.33277

G1 X84.501 Y140.03 E.01675

G1 X76.47 Y131.998 E.35646

G1 X76.47 Y131.465 E.01675

G1 X85.035 Y140.03 E.38015

G1 X85.569 Y140.03 E.01675

G1 X76.47 Y130.931 E.40384

G1 X76.47 Y130.397 E.01675

G1 X86.103 Y140.03 E.42753

G1 X86.636 Y140.03 E.01675

G1 X76.47 Y129.863 E.45122

G1 X76.47 Y129.33 E.01675

G1 X87.17 Y140.03 E.47491

G1 X87.704 Y140.03 E.01675

G1 X76.47 Y128.796 E.4986

G1 X76.47 Y128.262 E.01675

G1 X88.238 Y140.03 E.52229

G1 X88.771 Y140.03 E.01675

G1 X76.47 Y127.728 E.54598

G1 X76.47 Y127.195 E.01675

G1 X89.305 Y140.03 E.56967

G1 X89.839 Y140.03 E.01675

G1 X76.47 Y126.661 E.59336

G1 X76.47 Y126.127 E.01675

G1 X90.373 Y140.03 E.61705

G1 X90.907 Y140.03 E.01675

G1 X76.47 Y125.593 E.64074

G1 X76.47 Y125.059 E.01675

G1 X91.44 Y140.03 E.66444

G1 X91.974 Y140.03 E.01675

G1 X76.47 Y124.526 E.68813

G1 X76.47 Y123.992 E.01675

G1 X92.508 Y140.03 E.71182

G1 X93.042 Y140.03 E.01675

G1 X76.47 Y123.458 E.73551

G1 X76.47 Y122.924 E.01675

G1 X93.575 Y140.03 E.7592

G1 X94.109 Y140.03 E.01675

G1 X76.47 Y122.391 E.78289

G1 X76.47 Y121.857 E.01675

G1 X94.643 Y140.03 E.80658

G1 X95.177 Y140.03 E.01675

G1 X76.47 Y121.323 E.83027

G1 X76.47 Y120.789 E.01675

G1 X95.71 Y140.03 E.85396

G1 X96.244 Y140.03 E.01675

G1 X76.47 Y120.256 E.87765

G1 X76.47 Y119.722 E.01675

G1 X96.778 Y140.03 E.90134

G1 X97.312 Y140.03 E.01675

G1 X76.47 Y119.188 E.92503

G1 X76.47 Y118.654 E.01675

G1 X97.846 Y140.03 E.94872

G1 X98.379 Y140.03 E.01675

G1 X76.47 Y118.12 E.97241

G1 X76.47 Y117.587 E.01675

G1 X98.913 Y140.03 E.9961

G1 X99.447 Y140.03 E.01675

G1 X76.47 Y117.053 E1.01979

G1 X76.47 Y116.519 E.01675

G1 X99.981 Y140.03 E1.04348

G1 X100.514 Y140.03 E.01675

M73 P0 R197

G1 X76.47 Y115.985 E1.06717

G1 X76.47 Y115.452 E.01675

G1 X101.048 Y140.03 E1.09086

G1 X101.582 Y140.03 E.01675

G1 X76.47 Y114.918 E1.11455

G1 X76.47 Y114.384 E.01675

G1 X102.116 Y140.03 E1.13824

G1 X102.649 Y140.03 E.01675

G1 X76.47 Y113.85 E1.16193

G1 X76.47 Y113.317 E.01675

G1 X103.183 Y140.03 E1.18562

G1 X103.717 Y140.03 E.01675

G1 X76.47 Y112.783 E1.20931

G1 X76.47 Y112.249 E.01675

G1 X104.251 Y140.03 E1.233

G1 X104.785 Y140.03 E.01675

G1 X76.47 Y111.715 E1.25669

G1 X76.47 Y111.181 E.01675

G1 X105.318 Y140.03 E1.28038

G1 X105.852 Y140.03 E.01675

G1 X76.47 Y110.648 E1.30407

G1 X76.47 Y110.114 E.01675

M73 P1 R197

G1 X106.386 Y140.03 E1.32776

G1 X106.92 Y140.03 E.01675

G1 X76.47 Y109.58 E1.35146

G1 X76.47 Y109.046 E.01675

G1 X107.453 Y140.03 E1.37515

G1 X107.987 Y140.03 E.01675

G1 X76.47 Y108.513 E1.39884

G1 X76.47 Y107.979 E.01675

G1 X108.521 Y140.03 E1.42253

G1 X109.055 Y140.03 E.01675

G1 X76.47 Y107.445 E1.44622

G1 X76.47 Y106.911 E.01675

G1 X109.588 Y140.03 E1.46991

G1 X110.122 Y140.03 E.01675

G1 X76.47 Y106.378 E1.4936

G1 X76.47 Y105.844 E.01675

G1 X110.656 Y140.03 E1.51729

G1 X111.19 Y140.03 E.01675

G1 X76.47 Y105.31 E1.54098

G1 X76.47 Y104.776 E.01675

G1 X111.724 Y140.03 E1.56467

G1 X112.257 Y140.03 E.01675

G1 X76.47 Y104.242 E1.58836

G1 X76.47 Y103.709 E.01675

G1 X112.791 Y140.03 E1.61205

G1 X113.325 Y140.03 E.01675

G1 X76.47 Y103.175 E1.63574

G1 X76.47 Y102.641 E.01675

G1 X113.859 Y140.03 E1.65943

G1 X114.392 Y140.03 E.01675

G1 X76.47 Y102.107 E1.68312

G1 X76.47 Y101.574 E.01675

M73 P1 R196

G1 X114.926 Y140.03 E1.70681

G1 X115.46 Y140.03 E.01675

G1 X76.47 Y101.04 E1.7305

G1 X76.47 Y100.506 E.01675

G1 X115.994 Y140.03 E1.75419

G1 X116.527 Y140.03 E.01675

G1 X76.47 Y99.972 E1.77788

G1 X76.47 Y99.439 E.01675

G1 X117.061 Y140.03 E1.80157

G1 X117.595 Y140.03 E.01675

G1 X76.47 Y98.905 E1.82526

G1 X76.47 Y98.371 E.01675

G1 X118.129 Y140.03 E1.84895

G1 X118.663 Y140.03 E.01675

G1 X76.47 Y97.837 E1.87264

G1 X76.47 Y97.303 E.01675

G1 X119.196 Y140.03 E1.89633

G1 X119.73 Y140.03 E.01675

G1 X76.47 Y96.77 E1.92002

G1 X76.47 Y96.236 E.01675

G1 X120.264 Y140.03 E1.94371

G1 X120.798 Y140.03 E.01675

G1 X76.47 Y95.702 E1.9674

G1 X76.47 Y95.168 E.01675

G1 X121.331 Y140.03 E1.99109

G1 X121.865 Y140.03 E.01675

G1 X76.47 Y94.635 E2.01479

G1 X76.47 Y94.101 E.01675

G1 X122.399 Y140.03 E2.03848

G1 X122.933 Y140.03 E.01675

G1 X76.47 Y93.567 E2.06217

G1 X76.47 Y93.033 E.01675

G1 X123.467 Y140.03 E2.08586

G1 X124 Y140.03 E.01675

G1 X76.47 Y92.5 E2.10955

G1 X76.47 Y91.966 E.01675

G1 X124.534 Y140.03 E2.13324

G1 X125.068 Y140.03 E.01675

G1 X76.47 Y91.432 E2.15693

G1 X76.47 Y90.898 E.01675

M73 P1 R195

G1 X125.602 Y140.03 E2.18062

G1 X126.135 Y140.03 E.01675

G1 X76.47 Y90.364 E2.20431

G1 X76.47 Y89.831 E.01675

G1 X126.669 Y140.03 E2.228

G1 X127.203 Y140.03 E.01675

G1 X76.47 Y89.297 E2.25169

G1 X76.47 Y88.763 E.01675

G1 X127.737 Y140.03 E2.27538

G1 X128.27 Y140.03 E.01675

G1 X76.47 Y88.229 E2.29907

G1 X76.47 Y87.696 E.01675

M73 P2 R195

G1 X128.804 Y140.03 E2.32276

G1 X129.338 Y140.03 E.01675

G1 X76.47 Y87.162 E2.34645

G1 X76.47 Y86.628 E.01675

G1 X129.872 Y140.03 E2.37014

G1 X130.406 Y140.03 E.01675

G1 X76.47 Y86.094 E2.39383

G1 X76.47 Y85.561 E.01675

G1 X130.939 Y140.03 E2.41752

G1 X131.473 Y140.03 E.01675

G1 X76.47 Y85.027 E2.44121

G1 X76.47 Y84.493 E.01675

G1 X132.007 Y140.03 E2.4649

G1 X132.541 Y140.03 E.01675

G1 X76.47 Y83.959 E2.48859

G1 X76.47 Y83.425 E.01675

G1 X133.074 Y140.03 E2.51228

G1 X133.608 Y140.03 E.01675

G1 X76.47 Y82.892 E2.53597

G1 X76.47 Y82.358 E.01675

M73 P2 R194

G1 X134.142 Y140.03 E2.55966

G1 X134.676 Y140.03 E.01675

G1 X76.47 Y81.824 E2.58335

G1 X76.47 Y81.29 E.01675

G1 X135.209 Y140.03 E2.60704

G1 X135.743 Y140.03 E.01675

G1 X76.47 Y80.757 E2.63073

G1 X76.47 Y80.223 E.01675

G1 X136.277 Y140.03 E2.65442

G1 X136.811 Y140.03 E.01675

G1 X76.47 Y79.689 E2.67811

G1 X76.47 Y79.155 E.01675

G1 X137.345 Y140.03 E2.70181

G1 X137.878 Y140.03 E.01675

G1 X76.47 Y78.622 E2.7255

G1 X76.47 Y78.088 E.01675

G1 X138.412 Y140.03 E2.74919

G1 X138.946 Y140.03 E.01675

G1 X76.47 Y77.554 E2.77288

G1 X76.47 Y77.02 E.01675

G1 X139.48 Y140.03 E2.79657

G1 X140.013 Y140.03 E.01675

G1 X76.47 Y76.486 E2.82026

G1 X76.47 Y75.953 E.01675

G1 X140.547 Y140.03 E2.84395

G1 X141.081 Y140.03 E.01675

M73 P2 R193

G1 X76.47 Y75.419 E2.86764

G1 X76.47 Y74.885 E.01675

G1 X141.615 Y140.03 E2.89133

G1 X142.148 Y140.03 E.01675

G1 X76.47 Y74.351 E2.91502

G1 X76.47 Y73.818 E.01675

G1 X142.682 Y140.03 E2.93871

G1 X143.216 Y140.03 E.01675

G1 X76.47 Y73.284 E2.9624

G1 X76.47 Y72.75 E.01675

M73 P3 R193

G1 X143.75 Y140.03 E2.98609

G1 X144.284 Y140.03 E.01675

G1 X76.47 Y72.216 E3.00978

G1 X76.47 Y71.683 E.01675

G1 X144.817 Y140.03 E3.03347

G1 X145.351 Y140.03 E.01675

G1 X76.47 Y71.149 E3.05716

G1 X76.47 Y70.615 E.01675

G1 X145.885 Y140.03 E3.08085

G1 X146.419 Y140.03 E.01675

G1 X76.475 Y70.086 E3.10432

G1 X76.494 Y69.996 E.00291

G1 X76.583 Y69.97 E.0029

G1 X76.893 Y69.97 E.00972

G1 X146.952 Y140.03 E3.10947

G1 X147.486 Y140.03 E.01675

G1 X77.426 Y69.97 E3.10947

G1 X77.96 Y69.97 E.01675

M73 P3 R192

G1 X148.02 Y140.03 E3.10947

G1 X148.554 Y140.03 E.01675

G1 X78.494 Y69.97 E3.10947

G1 X79.028 Y69.97 E.01675

G1 X149.087 Y140.03 E3.10947

G1 X149.621 Y140.03 E.01675

G1 X79.562 Y69.97 E3.10947

G1 X80.095 Y69.97 E.01675

G1 X150.155 Y140.03 E3.10946

G1 X150.689 Y140.03 E.01675

G1 X80.629 Y69.97 E3.10946

G1 X81.163 Y69.97 E.01675

G1 X151.223 Y140.03 E3.10946

G1 X151.756 Y140.03 E.01675

G1 X81.697 Y69.97 E3.10946

G1 X82.231 Y69.97 E.01675

G1 X152.29 Y140.03 E3.10946

G1 X152.824 Y140.03 E.01675

G1 X82.764 Y69.97 E3.10946

G1 X83.298 Y69.97 E.01675

G1 X153.358 Y140.03 E3.10946

G1 X153.891 Y140.03 E.01675

G1 X83.832 Y69.97 E3.10946

G1 X84.366 Y69.971 E.01675

M73 P3 R191

G1 X154.425 Y140.03 E3.10945

G1 X154.959 Y140.03 E.01675

G1 X84.9 Y69.971 E3.10945

G1 X85.433 Y69.971 E.01675

G1 X155.493 Y140.03 E3.10945

G1 X156.026 Y140.03 E.01675

G1 X85.967 Y69.971 E3.10945

G1 X86.501 Y69.971 E.01675

M73 P4 R191

G1 X156.56 Y140.03 E3.10945

G1 X157.094 Y140.03 E.01675

G1 X87.035 Y69.971 E3.10945

G1 X87.569 Y69.971 E.01675

G1 X157.628 Y140.03 E3.10945

G1 X158.162 Y140.03 E.01675

G1 X88.102 Y69.971 E3.10945

G1 X88.636 Y69.971 E.01675

G1 X158.695 Y140.03 E3.10944

G1 X159.229 Y140.03 E.01675

G1 X89.17 Y69.971 E3.10944

G1 X89.704 Y69.971 E.01675

G1 X159.763 Y140.03 E3.10944

G1 X160.297 Y140.03 E.01675

G1 X90.238 Y69.971 E3.10944

G1 X90.771 Y69.971 E.01675

M73 P4 R190

G1 X160.83 Y140.03 E3.10944

G1 X161.364 Y140.03 E.01675

G1 X91.305 Y69.971 E3.10944

G1 X91.839 Y69.971 E.01675

G1 X161.898 Y140.03 E3.10944

G1 X162.432 Y140.03 E.01675

G1 X92.373 Y69.971 E3.10943

G1 X92.907 Y69.971 E.01675

G1 X162.965 Y140.03 E3.10943

G1 X163.499 Y140.03 E.01675

G1 X93.44 Y69.971 E3.10943

G1 X93.974 Y69.971 E.01675

G1 X164.033 Y140.03 E3.10943

G1 X164.567 Y140.03 E.01675

G1 X94.508 Y69.971 E3.10943

G1 X95.042 Y69.971 E.01675

G1 X165.101 Y140.03 E3.10943

G1 X165.634 Y140.03 E.01675

G1 X95.576 Y69.971 E3.10943

G1 X96.109 Y69.971 E.01675

G1 X166.168 Y140.03 E3.10943

G1 X166.702 Y140.03 E.01675

G1 X96.643 Y69.971 E3.10942

G1 X97.177 Y69.971 E.01675

M73 P4 R189

G1 X167.236 Y140.03 E3.10942

G1 X167.769 Y140.03 E.01675

G1 X97.711 Y69.971 E3.10942

G1 X98.245 Y69.971 E.01675

G1 X168.303 Y140.03 E3.10942

G1 X168.837 Y140.03 E.01675

G1 X98.778 Y69.971 E3.10942

G1 X99.312 Y69.971 E.01675

M73 P5 R189

G1 X169.371 Y140.03 E3.10942

G1 X169.904 Y140.03 E.01675

G1 X99.846 Y69.971 E3.10942

G1 X100.38 Y69.971 E.01675

G1 X170.438 Y140.03 E3.10941

G1 X170.972 Y140.03 E.01675

G1 X100.913 Y69.971 E3.10941

G1 X101.447 Y69.971 E.01675

G1 X171.506 Y140.03 E3.10941

G1 X172.04 Y140.03 E.01675

G1 X101.981 Y69.971 E3.10941

G1 X102.515 Y69.972 E.01675

G1 X172.573 Y140.03 E3.10941

G1 X173.107 Y140.03 E.01675

G1 X103.049 Y69.972 E3.10941

G1 X103.582 Y69.972 E.01675

M73 P5 R188

G1 X173.525 Y139.914 E3.10427

G1 X173.53 Y139.385 E.0166

G1 X104.116 Y69.972 E3.0808

G1 X104.65 Y69.972 E.01675

G1 X173.53 Y138.852 E3.05711

G1 X173.53 Y138.318 E.01675

G1 X105.184 Y69.972 E3.03342

G1 X105.718 Y69.972 E.01675

G1 X173.53 Y137.784 E3.00973

G1 X173.53 Y137.25 E.01675

G1 X106.251 Y69.972 E2.98603

G1 X106.785 Y69.972 E.01675

G1 X173.53 Y136.717 E2.96234

G1 X173.53 Y136.183 E.01675

G1 X107.319 Y69.972 E2.93865

G1 X107.853 Y69.972 E.01675

G1 X173.53 Y135.649 E2.91496

G1 X173.53 Y135.115 E.01675

G1 X108.387 Y69.972 E2.89127

G1 X108.92 Y69.972 E.01675

G1 X173.53 Y134.582 E2.86758

G1 X173.53 Y134.048 E.01675

G1 X109.454 Y69.972 E2.84388

G1 X109.988 Y69.972 E.01675

G1 X173.53 Y133.514 E2.82019

G1 X173.53 Y132.98 E.01675

M73 P5 R187

G1 X110.522 Y69.972 E2.7965

G1 X111.056 Y69.972 E.01675

G1 X173.53 Y132.446 E2.77281

G1 X173.53 Y131.913 E.01675

G1 X111.589 Y69.972 E2.74912

G1 X112.123 Y69.972 E.01675

G1 X173.53 Y131.379 E2.72543

G1 X173.53 Y130.845 E.01675

M73 P6 R187

G1 X112.657 Y69.972 E2.70173

G1 X113.191 Y69.972 E.01675

G1 X173.53 Y130.311 E2.67804

G1 X173.53 Y129.778 E.01675

G1 X113.725 Y69.972 E2.65435

G1 X114.258 Y69.972 E.01675

G1 X173.53 Y129.244 E2.63066

G1 X173.53 Y128.71 E.01675

G1 X114.792 Y69.972 E2.60697

G1 X115.326 Y69.972 E.01675

G1 X173.53 Y128.176 E2.58328

G1 X173.53 Y127.643 E.01675

G1 X115.86 Y69.972 E2.55958

G1 X116.394 Y69.972 E.01675

G1 X173.53 Y127.109 E2.53589

G1 X173.53 Y126.575 E.01675

G1 X116.927 Y69.972 E2.5122

G1 X117.461 Y69.972 E.01675

G1 X173.53 Y126.041 E2.48851

G1 X173.53 Y125.507 E.01675

M73 P6 R186

G1 X117.995 Y69.972 E2.46482

