; generated by PrusaSlicer 2.5.0-alpha2+linux-x64-GTK3 on 2022-08-28 at 15:58:34 UTC

; 

; external perimeters extrusion width = 0.45mm
; perimeters extrusion width = 0.45mm
; infill extrusion width = 0.45mm
; solid infill extrusion width = 0.45mm
; top infill extrusion width = 0.40mm
; support material extrusion width = 0.35mm
; first layer extrusion width = 0.42mm

M73 P0 R327
M201 X9000 Y9000 Z500 E10000 ; sets maximum accelerations, mm/sec^2
M203 X500 Y500 Z12 E120 ; sets maximum feedrates, mm / sec
M204 P2000 R1500 T2000 ; sets acceleration (P, T) and retract acceleration (R), mm/sec^2
M205 X10.00 Y10.00 Z0.20 E4.50 ; sets the jerk limits, mm/sec
M205 S0 T0 ; sets the minimum extruding and travel feed rate, mm/sec
M107
;TYPE:Custom
M862.3 P "MK2.5" ; printer model check
M862.1 P0.4 ; nozzle diameter check
M115 U3.11.0 ; tell printer latest fw version
G90 ; use absolute coordinates
M83 ; extruder relative mode
M104 S215 ; set extruder temp
M140 S60 ; set bed temp
M190 S60 ; wait for bed temp
M109 S215 ; wait for extruder temp
G28 W ; home all without mesh bed level
G80 ; mesh bed leveling
G1 Z0.2 F720
G1 Y-3 F1000 ; go outside print area
G92 E0
G1 X60 E9 F1000 ; intro line
G1 X100 E12.5 F1000 ; intro line
G92 E0
G21 ; set units to millimeters
G90 ; use absolute coordinates
M83 ; use relative distances for extrusion
M900 K0.05 ; Filament gcode LA 1.5
M900 K30 ; Filament gcode LA 1.0
M107
;LAYER_CHANGE
;Z:0.2
;HEIGHT:0.2
;BEFORE_LAYER_CHANGE
G92 E0.0
;0.2


G1 E-.8 F2100
G1 Z.4 F720
;AFTER_LAYER_CHANGE
;0.2
G1 X85.759 Y64.713 F10800
G1 Z.2 F720
M73 P0 R326
G1 E.8 F2100
M204 S800
;TYPE:Skirt/Brim
;WIDTH:0.42
G1 F1200
G1 X86.759 Y63.714 E.04433
G1 X88.44 Y63.017 E.05704
G1 X183.441 Y63.017 E2.97868
G1 X185.121 Y63.714 E.05704
G1 X186.121 Y64.713 E.04433
G1 X186.719 Y65.716 E.03661
G1 X188.668 Y72.272 E.21443
G1 X188.816 Y73.384 E.0352
G1 X188.817 Y143.394 E2.1951
G1 X188.668 Y144.517 E.03551
G1 X186.719 Y151.072 E.21443
G1 X186.122 Y152.074 E.03659
G1 X185.121 Y153.075 E.04435
G1 X183.441 Y153.771 E.05704
G1 X88.44 Y153.771 E2.97868
G1 X86.759 Y153.075 E.05704
G1 X85.759 Y152.075 E.04433
G1 X85.162 Y151.072 E.03661
G1 X83.212 Y144.517 E.21443
G1 X83.063 Y143.394 E.03551
G1 X83.063 Y73.394 E2.1948
G1 X83.212 Y72.272 E.03551
G1 X85.162 Y65.716 E.21443
G1 X85.729 Y64.765 E.03473
M204 S1000
; printing object caixa_cartas_mini.stl id:0 copy 0
;WIPE_START
G1 F8640
G1 X86.759 Y63.714 E-.33989
G1 X88.44 Y63.017 E-.42009
G1 X88.44 Y63.017 E-.00002
;WIPE_END
G1 E-.04 F2100
G1 Z.6 F720
G1 X184.513 Y72.929 F10800
G1 Z.2 F720
G1 E.8 F2100
M204 S800
;TYPE:Support material
G1 F1200
G1 X184.643 Y72.973 E.00431
G1 X184.806 Y73.103 E.00653
G1 X184.895 Y73.29 E.00651
G1 X184.91 Y73.421 E.00415
G1 X184.91 Y143.367 E2.19309
G1 X184.895 Y143.498 E.00415
G1 X184.861 Y143.597 E.00328
G1 X184.732 Y143.759 E.00649
G1 X184.643 Y143.815 E.0033
G1 X184.359 Y143.912 E.0094
G1 X87.522 Y143.912 E3.03627
G1 X87.238 Y143.814 E.00941
G1 X87.075 Y143.685 E.00652
G1 X86.985 Y143.498 E.00651
G1 X86.97 Y143.367 E.00414
G1 X86.97 Y73.421 E2.19309
G1 X86.985 Y73.29 E.00415
G1 X87.019 Y73.192 E.00326
G1 X87.149 Y73.029 E.00654
G1 X87.237 Y72.974 E.00325
G1 X87.522 Y72.876 E.00942
G1 X184.359 Y72.875 E3.03627
G1 X184.459 Y72.91 E.00332
M204 S1000
G1 X184.542 Y143.67 F10800
M204 S800
G1 F1200
G1 X184.542 Y73.321 E2.20577
G1 X184.519 Y73.296 E.00105
G1 X184.302 Y73.215 E.00728
G1 X184.123 Y73.215 E.00561
G1 X184.123 Y143.573 E2.20602
G1 X183.704 Y143.573 E.01314
G1 X183.704 Y73.215 E2.20602
G1 X183.285 Y73.215 E.01314
G1 X183.285 Y143.573 E2.20602
G1 X182.866 Y143.573 E.01314
G1 X182.866 Y73.215 E2.20602
G1 X182.447 Y73.215 E.01314
G1 X182.447 Y143.573 E2.20602
G1 X182.028 Y143.573 E.01314
G1 X182.028 Y73.215 E2.20602
G1 X181.609 Y73.215 E.01314
M73 P0 R325
G1 X181.609 Y143.573 E2.20602
G1 X181.19 Y143.573 E.01314
G1 X181.19 Y73.215 E2.20602
G1 X180.771 Y73.215 E.01314
G1 X180.771 Y143.573 E2.20602
G1 X180.352 Y143.573 E.01314
G1 X180.352 Y73.215 E2.20602
G1 X179.933 Y73.215 E.01314
G1 X179.933 Y143.573 E2.20602
G1 X179.514 Y143.573 E.01314
G1 X179.514 Y73.215 E2.20602
G1 X179.095 Y73.215 E.01314
G1 X179.095 Y143.573 E2.20602
G1 X178.676 Y143.573 E.01314
G1 X178.676 Y73.215 E2.20602
G1 X178.257 Y73.215 E.01314
G1 X178.257 Y143.573 E2.20602
G1 X177.838 Y143.573 E.01314
G1 X177.838 Y73.215 E2.20602
G1 X177.419 Y73.215 E.01314
G1 X177.419 Y143.573 E2.20602
G1 X177 Y143.573 E.01314
G1 X177 Y73.215 E2.20602
G1 X176.581 Y73.215 E.01314
G1 X176.581 Y143.573 E2.20602
G1 X176.162 Y143.573 E.01314
G1 X176.162 Y73.215 E2.20602
G1 X175.743 Y73.215 E.01314
G1 X175.743 Y143.573 E2.20602
G1 X175.324 Y143.573 E.01314
G1 X175.324 Y73.215 E2.20602
G1 X174.905 Y73.215 E.01314
G1 X174.905 Y143.573 E2.20602
G1 X174.486 Y143.573 E.01314
M73 P0 R324
G1 X174.486 Y73.215 E2.20602
G1 X174.067 Y73.215 E.01314
G1 X174.067 Y143.573 E2.20602
G1 X173.648 Y143.573 E.01314
G1 X173.648 Y73.215 E2.20602
G1 X173.229 Y73.215 E.01314
G1 X173.229 Y143.573 E2.20602
G1 X172.81 Y143.573 E.01314
G1 X172.81 Y73.215 E2.20602
G1 X172.391 Y73.215 E.01314
G1 X172.391 Y143.573 E2.20602
G1 X171.972 Y143.573 E.01314
G1 X171.972 Y73.215 E2.20602
G1 X171.553 Y73.215 E.01314
G1 X171.553 Y143.573 E2.20602
G1 X171.134 Y143.573 E.01314
G1 X171.134 Y73.215 E2.20602
G1 X170.715 Y73.215 E.01314
G1 X170.715 Y143.573 E2.20602
G1 X170.296 Y143.573 E.01314
G1 X170.296 Y73.215 E2.20602
G1 X169.877 Y73.215 E.01314
G1 X169.877 Y143.573 E2.20602
G1 X169.458 Y143.573 E.01314
G1 X169.458 Y73.215 E2.20602
G1 X169.039 Y73.215 E.01314
G1 X169.039 Y143.573 E2.20602
G1 X168.62 Y143.573 E.01314
G1 X168.62 Y73.215 E2.20602
G1 X168.202 Y73.215 E.01314
G1 X168.202 Y143.573 E2.20602
G1 X167.783 Y143.573 E.01314
G1 X167.783 Y73.215 E2.20602
G1 X167.364 Y73.215 E.01314
M73 P0 R323
G1 X167.364 Y143.573 E2.20602
G1 X166.945 Y143.573 E.01314
G1 X166.945 Y73.215 E2.20602
G1 X166.526 Y73.215 E.01314
M73 P1 R323
G1 X166.526 Y143.573 E2.20602
G1 X166.107 Y143.573 E.01314
G1 X166.107 Y73.215 E2.20602
G1 X165.688 Y73.215 E.01314
G1 X165.688 Y143.573 E2.20602
G1 X165.269 Y143.573 E.01314
G1 X165.269 Y73.215 E2.20602
G1 X164.85 Y73.215 E.01314
G1 X164.85 Y143.573 E2.20602
G1 X164.431 Y143.573 E.01314
G1 X164.431 Y73.215 E2.20602
G1 X164.012 Y73.215 E.01314
G1 X164.012 Y143.573 E2.20602
G1 X163.593 Y143.573 E.01314
G1 X163.593 Y73.215 E2.20602
G1 X163.174 Y73.215 E.01314
G1 X163.174 Y143.573 E2.20602
G1 X162.755 Y143.573 E.01314
G1 X162.755 Y73.215 E2.20602
G1 X162.336 Y73.215 E.01314
G1 X162.336 Y143.573 E2.20602
G1 X161.917 Y143.573 E.01314
G1 X161.917 Y73.215 E2.20602
G1 X161.498 Y73.215 E.01314
G1 X161.498 Y143.573 E2.20602
G1 X161.079 Y143.573 E.01314
G1 X161.079 Y73.215 E2.20602
G1 X160.66 Y73.215 E.01314
M73 P1 R322
G1 X160.66 Y143.573 E2.20602
G1 X160.241 Y143.573 E.01314
G1 X160.241 Y73.215 E2.20602
G1 X159.822 Y73.215 E.01314
G1 X159.822 Y143.573 E2.20602
G1 X159.403 Y143.573 E.01314
G1 X159.403 Y73.215 E2.20602
G1 X158.984 Y73.215 E.01314
G1 X158.984 Y143.573 E2.20602
G1 X158.565 Y143.573 E.01314
G1 X158.565 Y73.215 E2.20602
G1 X158.146 Y73.215 E.01314
G1 X158.146 Y143.573 E2.20602
G1 X157.727 Y143.573 E.01314
G1 X157.727 Y73.215 E2.20602
G1 X157.308 Y73.215 E.01314
G1 X157.308 Y143.573 E2.20602
G1 X156.889 Y143.573 E.01314
G1 X156.889 Y73.215 E2.20602
G1 X156.47 Y73.215 E.01314
G1 X156.47 Y143.573 E2.20602
G1 X156.051 Y143.573 E.01314
G1 X156.051 Y73.215 E2.20602
G1 X155.632 Y73.215 E.01314
G1 X155.632 Y143.573 E2.20602
G1 X155.213 Y143.573 E.01314
G1 X155.213 Y73.215 E2.20602
G1 X154.794 Y73.215 E.01314
G1 X154.794 Y143.573 E2.20602
G1 X154.375 Y143.573 E.01314
G1 X154.375 Y73.215 E2.20602
G1 X153.956 Y73.215 E.01314
G1 X153.956 Y143.573 E2.20602
G1 X153.537 Y143.573 E.01314
M73 P1 R321
G1 X153.537 Y73.215 E2.20602
G1 X153.118 Y73.215 E.01314
G1 X153.118 Y143.573 E2.20602
G1 X152.699 Y143.573 E.01314
G1 X152.699 Y73.215 E2.20602
G1 X152.28 Y73.215 E.01314
G1 X152.28 Y143.573 E2.20602
G1 X151.861 Y143.573 E.01314
G1 X151.861 Y73.215 E2.20602
G1 X151.442 Y73.215 E.01314
G1 X151.442 Y143.573 E2.20602
G1 X151.023 Y143.573 E.01314
G1 X151.023 Y73.215 E2.20602
G1 X150.604 Y73.215 E.01314
G1 X150.604 Y143.573 E2.20602
G1 X150.186 Y143.573 E.01314
G1 X150.186 Y73.215 E2.20602
G1 X149.767 Y73.215 E.01314
G1 X149.767 Y143.573 E2.20602
G1 X149.348 Y143.573 E.01314
G1 X149.348 Y73.215 E2.20602
G1 X148.929 Y73.215 E.01314
G1 X148.929 Y143.573 E2.20602
G1 X148.51 Y143.573 E.01314
G1 X148.51 Y73.215 E2.20602
G1 X148.091 Y73.215 E.01314
G1 X148.091 Y143.573 E2.20602
G1 X147.672 Y143.573 E.01314
G1 X147.672 Y73.215 E2.20602
G1 X147.253 Y73.215 E.01314
G1 X147.253 Y143.573 E2.20602
G1 X146.834 Y143.573 E.01314
G1 X146.834 Y73.215 E2.20602
G1 X146.415 Y73.215 E.01314
M73 P1 R320
G1 X146.415 Y143.573 E2.20602
G1 X145.996 Y143.573 E.01314
G1 X145.996 Y73.215 E2.20602
G1 X145.577 Y73.215 E.01314
G1 X145.577 Y143.573 E2.20602
G1 X145.158 Y143.573 E.01314
G1 X145.158 Y73.215 E2.20602
G1 X144.739 Y73.215 E.01314
G1 X144.739 Y143.573 E2.20602
G1 X144.32 Y143.573 E.01314
G1 X144.32 Y73.215 E2.20602
G1 X143.901 Y73.215 E.01314
G1 X143.901 Y143.573 E2.20602
G1 X143.482 Y143.573 E.01314
G1 X143.482 Y73.215 E2.20602
G1 X143.063 Y73.215 E.01314
M73 P2 R320
G1 X143.063 Y143.573 E2.20602
G1 X142.644 Y143.573 E.01314
G1 X142.644 Y73.215 E2.20602
G1 X142.225 Y73.215 E.01314
G1 X142.225 Y143.573 E2.20602
G1 X141.806 Y143.573 E.01314
G1 X141.806 Y73.215 E2.20602
G1 X141.387 Y73.215 E.01314
G1 X141.387 Y143.573 E2.20602
G1 X140.968 Y143.573 E.01314
G1 X140.968 Y73.215 E2.20602
G1 X140.549 Y73.215 E.01314
G1 X140.549 Y143.573 E2.20602
G1 X140.13 Y143.573 E.01314
G1 X140.13 Y73.215 E2.20602
G1 X139.711 Y73.215 E.01314
G1 X139.711 Y143.573 E2.20602
G1 X139.292 Y143.573 E.01314
M73 P2 R319
G1 X139.292 Y73.215 E2.20602
G1 X138.873 Y73.215 E.01314
G1 X138.873 Y143.573 E2.20602
G1 X138.454 Y143.573 E.01314
G1 X138.454 Y73.215 E2.20602
G1 X138.035 Y73.215 E.01314
G1 X138.035 Y143.573 E2.20602
G1 X137.616 Y143.573 E.01314
G1 X137.616 Y73.215 E2.20602
G1 X137.197 Y73.215 E.01314
G1 X137.197 Y143.573 E2.20602
G1 X136.778 Y143.573 E.01314
G1 X136.778 Y73.215 E2.20602
G1 X136.359 Y73.215 E.01314
G1 X136.359 Y143.573 E2.20602
G1 X135.94 Y143.573 E.01314
G1 X135.94 Y73.215 E2.20602
G1 X135.521 Y73.215 E.01314
G1 X135.521 Y143.573 E2.20602
G1 X135.102 Y143.573 E.01314
G1 X135.102 Y73.215 E2.20602
G1 X134.683 Y73.215 E.01314
G1 X134.683 Y143.573 E2.20602
G1 X134.264 Y143.573 E.01314
G1 X134.264 Y73.215 E2.20602
G1 X133.845 Y73.215 E.01314
G1 X133.845 Y143.573 E2.20602
G1 X133.426 Y143.573 E.01314
G1 X133.426 Y73.215 E2.20602
G1 X133.007 Y73.215 E.01314
G1 X133.007 Y143.573 E2.20602
G1 X132.588 Y143.573 E.01314
G1 X132.588 Y73.215 E2.20602
G1 X132.17 Y73.215 E.01314
M73 P2 R318
G1 X132.169 Y143.573 E2.20602
G1 X131.751 Y143.573 E.01314
G1 X131.751 Y73.215 E2.20602
G1 X131.332 Y73.215 E.01314
G1 X131.332 Y143.573 E2.20602
G1 X130.913 Y143.573 E.01314
G1 X130.913 Y73.215 E2.20602
G1 X130.494 Y73.215 E.01314
G1 X130.494 Y143.573 E2.20602
G1 X130.075 Y143.573 E.01314
G1 X130.075 Y73.215 E2.20602
G1 X129.656 Y73.215 E.01314
G1 X129.656 Y143.573 E2.20602
G1 X129.237 Y143.573 E.01314
G1 X129.237 Y73.215 E2.20602
G1 X128.818 Y73.215 E.01314
G1 X128.818 Y143.573 E2.20602
G1 X128.399 Y143.573 E.01314
G1 X128.399 Y73.215 E2.20602
G1 X127.98 Y73.215 E.01314
G1 X127.98 Y143.573 E2.20602
G1 X127.561 Y143.573 E.01314
G1 X127.561 Y73.215 E2.20602
G1 X127.142 Y73.215 E.01314
G1 X127.142 Y143.573 E2.20602
G1 X126.723 Y143.573 E.01314
G1 X126.723 Y73.215 E2.20602
G1 X126.304 Y73.215 E.01314
G1 X126.304 Y143.573 E2.20602
G1 X125.885 Y143.573 E.01314
G1 X125.885 Y73.215 E2.20602
G1 X125.466 Y73.215 E.01314
G1 X125.466 Y143.573 E2.20602
G1 X125.047 Y143.573 E.01314
M73 P2 R317
G1 X125.047 Y73.215 E2.20602
G1 X124.628 Y73.215 E.01314
G1 X124.628 Y143.573 E2.20602
G1 X124.209 Y143.573 E.01314
G1 X124.209 Y73.215 E2.20602
G1 X123.79 Y73.215 E.01314
G1 X123.79 Y143.573 E2.20602
G1 X123.371 Y143.573 E.01314
G1 X123.371 Y73.215 E2.20602
G1 X122.952 Y73.215 E.01314
G1 X122.952 Y143.573 E2.20602
G1 X122.533 Y143.573 E.01314
G1 X122.533 Y73.215 E2.20602
G1 X122.114 Y73.215 E.01314
G1 X122.114 Y143.573 E2.20602
G1 X121.695 Y143.573 E.01314
G1 X121.695 Y73.215 E2.20602
G1 X121.276 Y73.215 E.01314
G1 X121.276 Y143.573 E2.20602
G1 X120.857 Y143.573 E.01314
G1 X120.857 Y73.215 E2.20602
G1 X120.438 Y73.215 E.01314
G1 X120.438 Y143.573 E2.20602
G1 X120.019 Y143.573 E.01314
M73 P3 R317
G1 X120.019 Y73.215 E2.20602
G1 X119.6 Y73.215 E.01314
G1 X119.6 Y143.573 E2.20602
G1 X119.181 Y143.573 E.01314
G1 X119.181 Y73.215 E2.20602
G1 X118.762 Y73.215 E.01314
G1 X118.762 Y143.573 E2.20602
G1 X118.343 Y143.573 E.01314
G1 X118.343 Y73.215 E2.20602
G1 X117.924 Y73.215 E.01314
M73 P3 R316
G1 X117.924 Y143.573 E2.20602
G1 X117.505 Y143.573 E.01314
G1 X117.505 Y73.215 E2.20602
G1 X117.086 Y73.215 E.01314
G1 X117.086 Y143.573 E2.20602
G1 X116.667 Y143.573 E.01314
G1 X116.667 Y73.215 E2.20602
G1 X116.248 Y73.215 E.01314
G1 X116.248 Y143.573 E2.20602
G1 X115.829 Y143.573 E.01314
G1 X115.829 Y73.215 E2.20602
G1 X115.41 Y73.215 E.01314
G1 X115.41 Y143.573 E2.20602
G1 X114.991 Y143.573 E.01314
G1 X114.991 Y73.215 E2.20602
G1 X114.572 Y73.215 E.01314
G1 X114.572 Y143.573 E2.20602
G1 X114.153 Y143.573 E.01314
G1 X114.153 Y73.215 E2.20602
G1 X113.735 Y73.215 E.01314
G1 X113.735 Y143.573 E2.20602
G1 X113.316 Y143.573 E.01314
G1 X113.316 Y73.215 E2.20602
G1 X112.897 Y73.215 E.01314
G1 X112.897 Y143.573 E2.20602
G1 X112.478 Y143.573 E.01314
G1 X112.478 Y73.215 E2.20602
G1 X112.059 Y73.215 E.01314
G1 X112.059 Y143.573 E2.20602
G1 X111.64 Y143.573 E.01314
G1 X111.64 Y73.215 E2.20602
G1 X111.221 Y73.215 E.01314
G1 X111.221 Y143.573 E2.20602
G1 X110.802 Y143.573 E.01314
M73 P3 R315
G1 X110.802 Y73.215 E2.20602
G1 X110.383 Y73.215 E.01314
G1 X110.383 Y143.573 E2.20602
G1 X109.964 Y143.573 E.01314
G1 X109.964 Y73.215 E2.20602
G1 X109.545 Y73.215 E.01314
G1 X109.545 Y143.573 E2.20602
G1 X109.126 Y143.573 E.01314
G1 X109.126 Y73.215 E2.20602
G1 X108.707 Y73.215 E.01314
G1 X108.707 Y143.573 E2.20602
G1 X108.288 Y143.573 E.01314
G1 X108.288 Y73.215 E2.20602
G1 X107.869 Y73.215 E.01314
G1 X107.869 Y143.573 E2.20602
G1 X107.45 Y143.573 E.01314
G1 X107.45 Y73.215 E2.20602
G1 X107.031 Y73.215 E.01314
G1 X107.031 Y143.573 E2.20602
G1 X106.612 Y143.573 E.01314
G1 X106.612 Y73.215 E2.20602
G1 X106.193 Y73.215 E.01314
G1 X106.193 Y143.573 E2.20602
G1 X105.774 Y143.573 E.01314
G1 X105.774 Y73.215 E2.20602
G1 X105.355 Y73.215 E.01314
G1 X105.355 Y143.573 E2.20602
G1 X104.936 Y143.573 E.01314
G1 X104.936 Y73.215 E2.20602
G1 X104.517 Y73.215 E.01314
G1 X104.517 Y143.573 E2.20602
G1 X104.098 Y143.573 E.01314
G1 X104.098 Y73.215 E2.20602
G1 X103.679 Y73.215 E.01314
M73 P3 R314
G1 X103.679 Y143.573 E2.20602
G1 X103.26 Y143.573 E.01314
G1 X103.26 Y73.215 E2.20602
G1 X102.841 Y73.215 E.01314
G1 X102.841 Y143.573 E2.20602
G1 X102.422 Y143.573 E.01314
G1 X102.422 Y73.215 E2.20602
G1 X102.003 Y73.215 E.01314
G1 X102.003 Y143.573 E2.20602
G1 X101.584 Y143.573 E.01314
G1 X101.584 Y73.215 E2.20602
G1 X101.165 Y73.215 E.01314
G1 X101.165 Y143.573 E2.20602
G1 X100.746 Y143.573 E.01314
G1 X100.746 Y73.215 E2.20601
G1 X100.327 Y73.215 E.01314
G1 X100.327 Y143.573 E2.20601
G1 X99.908 Y143.573 E.01314
G1 X99.908 Y73.215 E2.20601
G1 X99.489 Y73.215 E.01314
G1 X99.489 Y143.573 E2.20601
G1 X99.07 Y143.573 E.01314
G1 X99.07 Y73.215 E2.20601
G1 X98.651 Y73.215 E.01314
G1 X98.651 Y143.573 E2.20601
G1 X98.232 Y143.573 E.01314
G1 X98.232 Y73.215 E2.20601
G1 X97.813 Y73.215 E.01314
G1 X97.813 Y143.573 E2.20601
G1 X97.394 Y143.573 E.01314
G1 X97.394 Y73.215 E2.20601
G1 X96.975 Y73.215 E.01314
M73 P4 R314
G1 X96.975 Y143.573 E2.20601
G1 X96.556 Y143.573 E.01314
M73 P4 R313
G1 X96.556 Y73.215 E2.20601
G1 X96.137 Y73.215 E.01314
G1 X96.137 Y143.573 E2.20601
G1 X95.718 Y143.573 E.01314
G1 X95.719 Y73.215 E2.20601
G1 X95.3 Y73.215 E.01314
G1 X95.3 Y143.573 E2.20601
G1 X94.881 Y143.573 E.01314
G1 X94.881 Y73.215 E2.20601
G1 X94.462 Y73.215 E.01314
G1 X94.462 Y143.573 E2.20601
