; generated by PrusaSlicer 2.6.0-alpha6+linux-x64-GTK3 on 2023-05-08 at 03:33:54 UTC

; 

; external perimeters extrusion width = 0.45mm
; perimeters extrusion width = 0.45mm
; infill extrusion width = 0.45mm
; solid infill extrusion width = 0.45mm
; top infill extrusion width = 0.40mm
; first layer extrusion width = 0.42mm

M73 P0 R200
M201 X9000 Y9000 Z500 E10000 ; sets maximum accelerations, mm/sec^2
M203 X500 Y500 Z12 E120 ; sets maximum feedrates, mm / sec
M204 S2000 T1500 ; sets acceleration (S) and retract acceleration (R), mm/sec^2
M205 X10.00 Y10.00 Z0.20 E4.50 ; sets the jerk limits, mm/sec
M205 S0 T0 ; sets the minimum extruding and travel feed rate, mm/sec
;TYPE:Custom
M862.3 P "MK2.5" ; printer model check
M862.1 P0.4 ; nozzle diameter check
M115 U3.11.0 ; tell printer latest fw version
G90 ; use absolute coordinates
M83 ; extruder relative mode
M104 S215 ; set extruder temp
M140 S60 ; set bed temp
M190 S60 ; wait for bed temp
M109 S215 ; wait for extruder temp
G28 W ; home all without mesh bed level
G80 ; mesh bed leveling

G1 Z0.2 F720
G1 Y-3 F1000 ; go outside print area
G92 E0
G1 X60 E9 F1000 ; intro line
G1 X100 E12.5 F1000 ; intro line

G92 E0
G21 ; set units to millimeters
G90 ; use absolute coordinates
M83 ; use relative distances for extrusion
M900 K0.05 ; Filament gcode LA 1.5
M900 K30 ; Filament gcode LA 1.0
M107
;LAYER_CHANGE
;Z:0.2
;HEIGHT:0.2
;BEFORE_LAYER_CHANGE
G92 E0.0
;0.2


M73 P0 R199
G1 E-.8 F2100
G1 Z.4 F720
;AFTER_LAYER_CHANGE
;0.2
;CURRENT_Z: 0.2
G1 X73.463 Y67.618 F10800
G1 Z.2 F720
G1 E.8 F2100
M204 S800
;TYPE:Skirt/Brim
;WIDTH:0.42
G1 F1200
G1 X74.118 Y66.964 E.02902
G1 X74.605 Y66.638 E.01837
G1 X75.462 Y66.283 E.02908
G1 X76.5 Y66.123 E.03293
G1 X173.963 Y66.169 E3.05588
G1 X174.537 Y66.283 E.01835
G1 X175.395 Y66.638 E.02911
G1 X175.882 Y66.963 E.01836
G1 X176.537 Y67.618 E.02904
G1 X176.862 Y68.105 E.01836
G1 X177.217 Y68.963 E.02911
G1 X177.377 Y70 E.0329
G1 X177.377 Y140 E2.1948
G1 X177.217 Y141.038 E.03293
G1 X176.862 Y141.895 E.02908
G1 X176.537 Y142.382 E.01836
G1 X175.882 Y143.036 E.02902
G1 X175.395 Y143.362 E.01837
G1 X174.538 Y143.717 E.02908
G1 X173.5 Y143.877 E.03293
G1 X76.5 Y143.877 E3.04137
G1 X75.463 Y143.717 E.0329
G1 X74.605 Y143.362 E.02911
G1 X74.118 Y143.036 E.01837
G1 X73.463 Y142.382 E.02902
G1 X73.138 Y141.895 E.01836
G1 X72.783 Y141.038 E.02908
G1 X72.623 Y140 E.03293
G1 X72.623 Y70 E2.1948
G1 X72.783 Y68.963 E.0329
G1 X73.138 Y68.105 E.02911
G1 X73.43 Y67.668 E.01648
M204 S1000
; printing object caixa_dados.stl id:0 copy 0
;WIPE_START
G1 F8640
G1 X74.118 Y66.964 E-.22729
G1 X74.605 Y66.638 E-.13532
G1 X75.462 Y66.283 E-.21419
G1 X76.417 Y66.136 E-.2232
;WIPE_END
G1 Z.6 F720
G1 X76.284 Y140.199 F10800
G1 Z.2 F720
G1 E.8 F2100
M204 S800
;TYPE:Perimeter
;WIDTH:0.419999
G1 F1200
G1 X76.187 Y139.938 E.00873
G1 X76.187 Y70.126 E2.1889
G1 X76.212 Y69.963 E.00517
G1 X76.306 Y69.775 E.00659
G1 X76.562 Y69.687 E.00849
G1 X173.374 Y69.687 E3.03547
G1 X173.537 Y69.712 E.00517
G1 X173.725 Y69.807 E.0066
G1 X173.813 Y70.063 E.00849
G1 X173.813 Y139.874 E2.18887
G1 X173.788 Y140.038 E.0052
G1 X173.694 Y140.225 E.00656
G1 X173.438 Y140.313 E.00849
G1 X76.625 Y140.313 E3.0355
G1 X76.464 Y140.288 E.00511
G1 X76.338 Y140.226 E.0044
M204 S1000
G1 X76.136 Y140.562 F10800
M204 S800
;TYPE:External perimeter
G1 F1200
G1 X75.982 Y140.445 E.00606
G1 X75.842 Y140.183 E.00931
G1 X75.81 Y139.965 E.00691
G1 X75.81 Y70.126 E2.18975
G1 X75.879 Y69.715 E.01307
G1 X76.056 Y69.482 E.00917
G1 X76.317 Y69.342 E.00929
G1 X76.535 Y69.31 E.00691
G1 X173.374 Y69.31 E3.03631
G1 X173.785 Y69.379 E.01307
G1 X174.019 Y69.556 E.0092
G1 X174.158 Y69.817 E.00927
G1 X174.19 Y70.035 E.00691
G1 X174.19 Y139.874 E2.18975
G1 X174.121 Y140.285 E.01307
G1 X173.944 Y140.519 E.0092
G1 X173.683 Y140.658 E.00927
G1 X173.465 Y140.69 E.00691
G1 X76.625 Y140.69 E3.03635
G1 X76.215 Y140.621 E.01304
G1 X76.184 Y140.598 E.00121
M204 S1000
G1 X76.135 Y140.368 F10800
;WIPE_START
G1 F8640
G1 X75.982 Y140.445 E-.05851
G1 X75.842 Y140.183 E-.06859
G1 X75.81 Y139.965 E-.05088
G1 X75.81 Y137.271 E-.62202
;WIPE_END
G1 Z.6 F720
G1 X173.688 Y70.712 F10800
G1 Z.2 F720
G1 E.8 F2100
M204 S800
;TYPE:Solid infill
;WIDTH:0.420296
G1 F1200
G1 X172.946 Y69.97 E.03293
G1 X172.413 Y69.97 E.01672
G1 X173.519 Y71.076 E.04908
G1 X173.519 Y71.61 E.01676
G1 X171.879 Y69.97 E.07278
G1 X171.345 Y69.97 E.01676
G1 X173.519 Y72.144 E.09647
G1 X173.519 Y72.677 E.01672
G1 X170.812 Y69.97 E.12013
G1 X170.278 Y69.97 E.01676
G1 X173.519 Y73.211 E.14382
G1 X173.519 Y73.745 E.01676
G1 X169.744 Y69.97 E.16752
G1 X169.211 Y69.97 E.01672
G1 X173.519 Y74.279 E.1912
G1 X173.519 Y74.812 E.01672
G1 X168.677 Y69.97 E.21487
G1 X168.143 Y69.97 E.01676
G1 X173.519 Y75.346 E.23857
G1 X173.519 Y75.88 E.01676
G1 X167.61 Y69.97 E.26224
G1 X167.076 Y69.97 E.01676
M73 P0 R198
G1 X173.52 Y76.414 E.28596
G1 X173.52 Y76.948 E.01676
G1 X166.542 Y69.97 E.30966
G1 X166.008 Y69.97 E.01676
G1 X173.52 Y77.481 E.33333
G1 X173.52 Y78.015 E.01676
G1 X165.475 Y69.97 E.35701
G1 X164.941 Y69.97 E.01676
G1 X173.52 Y78.549 E.38071
G1 X173.52 Y79.083 E.01676
G1 X164.407 Y69.97 E.4044
G1 X163.874 Y69.97 E.01672
G1 X173.52 Y79.617 E.42808
G1 X173.52 Y80.15 E.01672
G1 X163.34 Y69.97 E.45175
G1 X162.806 Y69.97 E.01676
G1 X173.52 Y80.684 E.47545
G1 X173.52 Y81.218 E.01676
G1 X162.273 Y69.97 E.49912
G1 X161.739 Y69.97 E.01676
G1 X173.52 Y81.752 E.52282
G1 X173.521 Y82.285 E.01673
G1 X161.205 Y69.97 E.54652
G1 X160.672 Y69.97 E.01672
G1 X173.521 Y82.819 E.57019
G1 X173.521 Y83.353 E.01676
G1 X160.138 Y69.97 E.59389
G1 X159.604 Y69.97 E.01676
G1 X173.521 Y83.887 E.61759
G1 X173.521 Y84.421 E.01676
G1 X159.07 Y69.97 E.64129
G1 X158.537 Y69.97 E.01672
G1 X173.521 Y84.954 E.66494
G1 X173.521 Y85.488 E.01676
G1 X158.003 Y69.97 E.68863
G1 X157.469 Y69.97 E.01676
G1 X173.521 Y86.022 E.71233
G1 X173.521 Y86.556 E.01676
G1 X156.936 Y69.97 E.73601
G1 X156.402 Y69.97 E.01676
G1 X173.521 Y87.089 E.75968
G1 X173.521 Y87.623 E.01676
G1 X155.868 Y69.97 E.78338
G1 X155.335 Y69.97 E.01672
G1 X173.522 Y88.157 E.80708
G1 X173.522 Y88.691 E.01676
G1 X154.801 Y69.97 E.83077
G1 X154.267 Y69.97 E.01676
G1 X173.522 Y89.225 E.85447
G1 X173.522 Y89.758 E.01672
G1 X153.734 Y69.97 E.87812
G1 X153.2 Y69.97 E.01676
G1 X173.522 Y90.292 E.90182
G1 X173.522 Y90.826 E.01676
G1 X152.666 Y69.97 E.92552
G1 X152.132 Y69.97 E.01676
G1 X173.522 Y91.36 E.94921
G1 X173.522 Y91.893 E.01672
G1 X151.599 Y69.97 E.97287
G1 X151.065 Y69.97 E.01676
G1 X173.522 Y92.427 E.99656
G1 X173.522 Y92.961 E.01676
G1 X150.531 Y69.97 E1.02026
G1 X149.998 Y69.97 E.01672
G1 X173.522 Y93.495 E1.04394
G1 X173.522 Y94.029 E.01676
G1 X149.464 Y69.97 E1.06763
G1 X148.93 Y69.97 E.01676
G1 X173.523 Y94.562 E1.09133
G1 X173.523 Y95.096 E.01676
G1 X148.397 Y69.97 E1.115
G1 X147.863 Y69.97 E.01676
G1 X173.523 Y95.63 E1.1387
G1 X173.523 Y96.164 E.01676
G1 X147.329 Y69.97 E1.1624
G1 X146.796 Y69.97 E.01672
G1 X173.523 Y96.697 E1.18605
G1 X173.523 Y97.231 E.01676
G1 X146.262 Y69.97 E1.20975
G1 X145.728 Y69.97 E.01676
G1 X173.523 Y97.765 E1.23345
G1 X173.523 Y98.299 E.01676
G1 X145.195 Y69.97 E1.25712
G1 X144.661 Y69.97 E.01676
G1 X173.523 Y98.833 E1.28082
G1 X173.523 Y99.366 E.01672
G1 X144.127 Y69.97 E1.30449
G1 X143.593 Y69.97 E.01676
M73 P1 R198
G1 X173.523 Y99.9 E1.32819
G1 X173.524 Y100.434 E.01676
G1 X143.06 Y69.97 E1.35189
G1 X142.526 Y69.97 E.01676
M73 P1 R197
G1 X173.524 Y100.968 E1.37558
G1 X173.524 Y101.501 E.01672
G1 X141.992 Y69.97 E1.39926
G1 X141.459 Y69.97 E.01672
G1 X173.524 Y102.035 E1.42293
G1 X173.524 Y102.569 E.01676
G1 X140.925 Y69.97 E1.44663
G1 X140.391 Y69.97 E.01676
G1 X173.524 Y103.103 E1.47033
G1 X173.524 Y103.637 E.01676
G1 X139.858 Y69.97 E1.494
G1 X139.324 Y69.97 E.01676
G1 X173.524 Y104.17 E1.51768
G1 X173.524 Y104.704 E.01676
G1 X138.79 Y69.97 E1.54137
G1 X138.257 Y69.97 E.01672
G1 X173.524 Y105.238 E1.56505
G1 X173.524 Y105.772 E.01676
G1 X137.723 Y69.97 E1.58875
G1 X137.189 Y69.97 E.01676
G1 X173.525 Y106.305 E1.61244
G1 X173.525 Y106.839 E.01676
G1 X136.655 Y69.97 E1.63614
G1 X136.122 Y69.97 E.01672
G1 X173.525 Y107.373 E1.65982
G1 X173.525 Y107.907 E.01676
G1 X135.588 Y69.97 E1.68351
G1 X135.054 Y69.97 E.01676
G1 X173.525 Y108.441 E1.70721
G1 X173.525 Y108.974 E.01672
G1 X134.521 Y69.97 E1.73086
G1 X133.987 Y69.97 E.01676
G1 X173.525 Y109.508 E1.75456
G1 X173.525 Y110.042 E.01676
G1 X133.453 Y69.97 E1.77826
G1 X132.92 Y69.97 E.01672
G1 X173.525 Y110.576 E1.80193
G1 X173.525 Y111.109 E.01672
G1 X132.386 Y69.97 E1.82561
G1 X131.852 Y69.97 E.01676
G1 X173.525 Y111.643 E1.8493
G1 X173.525 Y112.177 E.01676
G1 X131.319 Y69.97 E1.87298
G1 X130.785 Y69.97 E.01676
G1 X173.526 Y112.711 E1.8967
G1 X173.526 Y113.245 E.01676
M73 P1 R196
G1 X130.251 Y69.97 E1.92039
G1 X129.717 Y69.97 E.01676
G1 X173.526 Y113.778 E1.94407
G1 X173.526 Y114.312 E.01676
G1 X129.184 Y69.97 E1.96774
G1 X128.65 Y69.97 E.01676
G1 X173.526 Y114.846 E1.99144
G1 X173.526 Y115.38 E.01676
G1 X128.116 Y69.97 E2.01514
G1 X127.583 Y69.97 E.01672
G1 X173.526 Y115.913 E2.03879
G1 X173.526 Y116.447 E.01676
G1 X127.049 Y69.97 E2.06249
G1 X126.515 Y69.97 E.01676
G1 X173.526 Y116.981 E2.08618
G1 X173.526 Y117.515 E.01676
G1 X125.982 Y69.97 E2.10986
G1 X125.448 Y69.97 E.01676
G1 X173.526 Y118.049 E2.13356
G1 X173.527 Y118.582 E.01673
G1 X124.914 Y69.97 E2.15725
G1 X124.381 Y69.97 E.01672
G1 X173.527 Y119.116 E2.18093
G1 X173.527 Y119.65 E.01676
G1 X123.847 Y69.97 E2.20463
G1 X123.313 Y69.97 E.01676
G1 X173.527 Y120.184 E2.22832
G1 X173.527 Y120.717 E.01672
G1 X122.78 Y69.97 E2.25198
G1 X122.246 Y69.97 E.01676
G1 X173.527 Y121.251 E2.27567
G1 X173.527 Y121.785 E.01676
G1 X121.712 Y69.97 E2.29937
G1 X121.178 Y69.97 E.01676
M73 P2 R195
G1 X173.527 Y122.319 E2.32307
G1 X173.527 Y122.853 E.01676
G1 X120.645 Y69.97 E2.34674
G1 X120.111 Y69.97 E.01676
G1 X173.527 Y123.386 E2.37042
G1 X173.527 Y123.92 E.01676
G1 X119.577 Y69.97 E2.39411
G1 X119.044 Y69.97 E.01672
G1 X173.528 Y124.454 E2.41781
G1 X173.528 Y124.988 E.01676
G1 X118.51 Y69.97 E2.44151
G1 X117.976 Y69.97 E.01676
G1 X173.528 Y125.521 E2.46518
G1 X173.528 Y126.055 E.01676
G1 X117.443 Y69.97 E2.48886
G1 X116.909 Y69.97 E.01676
G1 X173.528 Y126.589 E2.51255
G1 X173.528 Y127.123 E.01676
G1 X116.375 Y69.97 E2.53625
G1 X115.842 Y69.97 E.01672
G1 X173.528 Y127.657 E2.55993
G1 X173.528 Y128.19 E.01672
G1 X115.308 Y69.97 E2.5836
G1 X114.774 Y69.97 E.01676
G1 X173.528 Y128.724 E2.6073
G1 X173.528 Y129.258 E.01676
G1 X114.24 Y69.97 E2.631
G1 X113.707 Y69.97 E.01672
G1 X173.528 Y129.792 E2.65467
G1 X173.529 Y130.326 E.01676
M73 P2 R194
G1 X113.173 Y69.97 E2.67839
G1 X112.639 Y69.97 E.01676
G1 X173.529 Y130.859 E2.70206
G1 X173.529 Y131.393 E.01676
G1 X112.106 Y69.97 E2.72574
G1 X111.572 Y69.97 E.01676
G1 X173.529 Y131.927 E2.74944
G1 X173.529 Y132.461 E.01676
G1 X111.038 Y69.97 E2.77313
G1 X110.505 Y69.97 E.01672
G1 X173.529 Y132.994 E2.79679
G1 X173.529 Y133.528 E.01676
G1 X109.971 Y69.97 E2.82048
G1 X109.437 Y69.97 E.01676
G1 X173.529 Y134.062 E2.84418
G1 X173.529 Y134.596 E.01676
G1 X108.904 Y69.97 E2.86786
G1 X108.37 Y69.97 E.01676
G1 X173.529 Y135.13 E2.89155
G1 X173.529 Y135.663 E.01672
G1 X107.836 Y69.97 E2.91523
G1 X107.303 Y69.97 E.01672
G1 X173.529 Y136.197 E2.9389
G1 X173.53 Y136.731 E.01676
G1 X106.769 Y69.97 E2.96262
G1 X106.235 Y69.97 E.01676
M73 P3 R194
G1 X173.53 Y137.265 E2.98632
G1 X173.53 Y137.798 E.01672
M73 P3 R193
G1 X105.701 Y69.97 E3.00999
G1 X105.168 Y69.97 E.01672
G1 X173.53 Y138.332 E3.03367
G1 X173.53 Y138.866 E.01676
G1 X104.634 Y69.97 E3.05737
G1 X104.1 Y69.97 E.01676
G1 X173.53 Y139.4 E3.08106
G1 X173.523 Y139.926 E.01651
G1 X103.567 Y69.97 E3.1044
G1 X103.033 Y69.97 E.01676
G1 X173.093 Y140.03 E3.10902
G1 X172.559 Y140.03 E.01676
G1 X102.499 Y69.97 E3.10902
G1 X101.966 Y69.97 E.01672
G1 X172.025 Y140.03 E3.109
G1 X171.492 Y140.03 E.01672
G1 X101.432 Y69.97 E3.10902
G1 X100.898 Y69.97 E.01676
G1 X170.958 Y140.03 E3.10902
G1 X170.424 Y140.03 E.01676
G1 X100.365 Y69.97 E3.109
G1 X99.831 Y69.97 E.01676
G1 X169.891 Y140.03 E3.10902
G1 X169.357 Y140.03 E.01676
M73 P3 R192
G1 X99.297 Y69.97 E3.10902
G1 X98.763 Y69.97 E.01676
G1 X168.823 Y140.03 E3.10902
G1 X168.29 Y140.03 E.01672
G1 X98.23 Y69.97 E3.10902
G1 X97.696 Y69.97 E.01676
G1 X167.756 Y140.03 E3.10902
G1 X167.222 Y140.03 E.01676
G1 X97.162 Y69.97 E3.10902
G1 X96.629 Y69.97 E.01672
G1 X166.689 Y140.03 E3.10902
G1 X166.155 Y140.03 E.01676
G1 X96.095 Y69.97 E3.10902
G1 X95.561 Y69.97 E.01676
G1 X165.621 Y140.03 E3.10902
G1 X165.087 Y140.03 E.01676
G1 X95.028 Y69.97 E3.109
G1 X94.494 Y69.97 E.01676
G1 X164.554 Y140.03 E3.10902
G1 X164.02 Y140.03 E.01676
G1 X93.96 Y69.97 E3.10902
G1 X93.427 Y69.97 E.01672
M73 P4 R192
G1 X163.486 Y140.03 E3.109
G1 X162.953 Y140.03 E.01672
M73 P4 R191
G1 X92.893 Y69.97 E3.10902
G1 X92.359 Y69.97 E.01676
G1 X162.419 Y140.03 E3.10902
G1 X161.885 Y140.03 E.01676
G1 X91.825 Y69.97 E3.10902
G1 X91.292 Y69.97 E.01672
G1 X161.352 Y140.03 E3.10902
G1 X160.818 Y140.03 E.01676
G1 X90.758 Y69.97 E3.10902
G1 X90.224 Y69.97 E.01676
G1 X160.284 Y140.03 E3.10902
G1 X159.751 Y140.03 E.01672
G1 X89.691 Y69.97 E3.10902
G1 X89.157 Y69.97 E.01676
G1 X159.217 Y140.03 E3.10902
G1 X158.683 Y140.03 E.01676
G1 X88.623 Y69.97 E3.10902
G1 X88.09 Y69.97 E.01672
G1 X158.149 Y140.03 E3.109
G1 X157.616 Y140.03 E.01672
G1 X87.556 Y69.97 E3.10902
G1 X87.022 Y69.97 E.01676
G1 X157.082 Y140.03 E3.10902
G1 X156.548 Y140.03 E.01676
M73 P4 R190
G1 X86.489 Y69.97 E3.109
G1 X85.955 Y69.97 E.01676
G1 X156.015 Y140.03 E3.10902
G1 X155.481 Y140.03 E.01676
G1 X85.421 Y69.97 E3.10902
G1 X84.888 Y69.97 E.01672
G1 X154.947 Y140.03 E3.109
G1 X154.414 Y140.03 E.01672
G1 X84.354 Y69.97 E3.10902
G1 X83.82 Y69.97 E.01676
G1 X153.88 Y140.03 E3.10902
G1 X153.346 Y140.03 E.01676
G1 X83.286 Y69.97 E3.10902
G1 X82.753 Y69.97 E.01672
G1 X152.813 Y140.03 E3.10902
G1 X152.279 Y140.03 E.01676
G1 X82.219 Y69.97 E3.10902
G1 X81.685 Y69.97 E.01676
G1 X151.745 Y140.03 E3.10902
G1 X151.211 Y140.03 E.01676
G1 X81.152 Y69.97 E3.109
G1 X80.618 Y69.97 E.01676
M73 P5 R190
G1 X150.678 Y140.03 E3.10902
G1 X150.144 Y140.03 E.01676
M73 P5 R189
G1 X80.084 Y69.97 E3.10902
G1 X79.551 Y69.97 E.01672
G1 X149.61 Y140.03 E3.109
G1 X149.077 Y140.03 E.01672
G1 X79.017 Y69.97 E3.10902
G1 X78.483 Y69.97 E.01676
G1 X148.543 Y140.03 E3.10902
G1 X148.009 Y140.03 E.01676
G1 X77.95 Y69.97 E3.109
G1 X77.416 Y69.97 E.01676
G1 X147.476 Y140.03 E3.10902
G1 X146.942 Y140.03 E.01676
G1 X76.882 Y69.97 E3.10902
G1 X76.583 Y69.97 E.00938
G1 X76.494 Y69.996 E.00291
G1 X76.473 Y70.095 E.00318
G1 X146.408 Y140.03 E3.10347
G1 X145.875 Y140.03 E.01672
G1 X76.47 Y70.625 E3.07995
G1 X76.47 Y71.159 E.01676
G1 X145.341 Y140.03 E3.05626
G1 X144.807 Y140.03 E.01676
G1 X76.47 Y71.693 E3.03256
G1 X76.47 Y72.226 E.01672
G1 X144.274 Y140.03 E3.00891
G1 X143.74 Y140.03 E.01676
M73 P5 R188
G1 X76.47 Y72.76 E2.98521
G1 X76.47 Y73.294 E.01676
G1 X143.206 Y140.03 E2.96151
G1 X142.672 Y140.03 E.01676
G1 X76.47 Y73.827 E2.93784
G1 X76.47 Y74.361 E.01676
G1 X142.139 Y140.03 E2.91416
G1 X141.605 Y140.03 E.01676
G1 X76.47 Y74.895 E2.89046
G1 X76.47 Y75.428 E.01672
G1 X141.071 Y140.03 E2.86679
G1 X140.538 Y140.03 E.01672
G1 X76.47 Y75.962 E2.84312
G1 X76.47 Y76.496 E.01676
G1 X140.004 Y140.03 E2.81942
G1 X139.47 Y140.03 E.01676
G1 X76.47 Y77.029 E2.79574
G1 X76.47 Y77.563 E.01676
G1 X138.937 Y140.03 E2.77207
G1 X138.403 Y140.03 E.01676
G1 X76.47 Y78.097 E2.74837
G1 X76.47 Y78.631 E.01676
G1 X137.869 Y140.03 E2.72467
G1 X137.336 Y140.03 E.01672
M73 P6 R188
G1 X76.47 Y79.164 E2.70102
G1 X76.47 Y79.698 E.01676
M73 P6 R187
G1 X136.802 Y140.03 E2.67732
G1 X136.268 Y140.03 E.01676
G1 X76.47 Y80.232 E2.65363
G1 X76.47 Y80.765 E.01672
G1 X135.734 Y140.03 E2.62995
G1 X135.201 Y140.03 E.01672
G1 X76.47 Y81.299 E2.60628
G1 X76.47 Y81.833 E.01676
G1 X134.667 Y140.03 E2.58258
G1 X134.133 Y140.03 E.01676
G1 X76.47 Y82.366 E2.55891
G1 X76.47 Y82.9 E.01676
G1 X133.6 Y140.03 E2.53523
G1 X133.066 Y140.03 E.01676
G1 X76.47 Y83.434 E2.51153
G1 X76.47 Y83.967 E.01672
G1 X132.532 Y140.03 E2.48786
G1 X131.999 Y140.03 E.01672
G1 X76.47 Y84.501 E2.46418
