; generated by PrusaSlicer 2.5.0+linux-x64-GTK3 on 2022-09-09 at 20:22:24 UTC

; 

; external perimeters extrusion width = 0.45mm
; perimeters extrusion width = 0.45mm
; infill extrusion width = 0.45mm
; solid infill extrusion width = 0.45mm
; top infill extrusion width = 0.40mm
; first layer extrusion width = 0.42mm

M73 P0 R204
M201 X9000 Y9000 Z500 E10000 ; sets maximum accelerations, mm/sec^2
M203 X500 Y500 Z12 E120 ; sets maximum feedrates, mm / sec
M204 P2000 R1500 T2000 ; sets acceleration (P, T) and retract acceleration (R), mm/sec^2
M205 X10.00 Y10.00 Z0.20 E4.50 ; sets the jerk limits, mm/sec
M205 S0 T0 ; sets the minimum extruding and travel feed rate, mm/sec
M107
;TYPE:Custom
M862.3 P "MK2.5" ; printer model check
M862.1 P0.4 ; nozzle diameter check
M115 U3.11.0 ; tell printer latest fw version
G90 ; use absolute coordinates
M83 ; extruder relative mode
M104 S215 ; set extruder temp
M140 S60 ; set bed temp
M190 S60 ; wait for bed temp
M109 S215 ; wait for extruder temp
G28 W ; home all without mesh bed level
G80 ; mesh bed leveling

G1 Z0.2 F720
G1 Y-3 F1000 ; go outside print area
G92 E0
G1 X60 E9 F1000 ; intro line
G1 X100 E12.5 F1000 ; intro line

G92 E0
G21 ; set units to millimeters
G90 ; use absolute coordinates
M83 ; use relative distances for extrusion
M900 K0.05 ; Filament gcode LA 1.5
M900 K30 ; Filament gcode LA 1.0
M107
;LAYER_CHANGE
;Z:0.2
;HEIGHT:0.2
;BEFORE_LAYER_CHANGE
G92 E0.0
;0.2


G1 E-.8 F2100
G1 Z.4 F720
;AFTER_LAYER_CHANGE
;0.2
;CURRENT_Z: 0.2
G1 X73.463 Y67.618 F10800
G1 Z.2 F720
G1 E.8 F2100
M204 S800
;TYPE:Skirt/Brim
;WIDTH:0.42
G1 F1200
G1 X74.118 Y66.964 E.02904
G1 X74.605 Y66.638 E.01835
G1 X75.462 Y66.283 E.02911
G1 X76.5 Y66.123 E.03292
G1 X173.963 Y66.169 E3.05589
G1 X174.537 Y66.283 E.01836
G1 X175.395 Y66.638 E.02911
G1 X175.882 Y66.963 E.01835
G1 X176.537 Y67.618 E.02904
G1 X176.862 Y68.105 E.01835
G1 X177.217 Y68.963 E.02911
G1 X177.377 Y70 E.03292
G1 X177.377 Y140 E2.1948
G1 X177.217 Y141.038 E.03291
G1 X176.862 Y141.895 E.0291
G1 X176.537 Y142.382 E.01835
G1 X175.882 Y143.036 E.02904
G1 X175.395 Y143.362 E.01835
G1 X174.538 Y143.717 E.02912
G1 X173.5 Y143.877 E.03292
G1 X76.5 Y143.877 E3.04136
G1 X75.463 Y143.717 E.03291
G1 X74.605 Y143.362 E.02911
G1 X74.118 Y143.036 E.01835
G1 X73.463 Y142.382 E.02904
G1 X73.138 Y141.895 E.01835
G1 X72.783 Y141.038 E.0291
G1 X72.623 Y140 E.03291
G1 X72.623 Y70 E2.1948
G1 X72.783 Y68.963 E.03292
G1 X73.138 Y68.105 E.02911
G1 X73.43 Y67.668 E.01647
M204 S1000
; printing object caixa_dados.stl id:0 copy 0
;WIPE_START
G1 F8640
G1 X74.118 Y66.964 E-.22744
G1 X74.605 Y66.638 E-.13512
G1 X75.462 Y66.283 E-.2144
G1 X76.246 Y66.162 E-.18303
;WIPE_END
G1 E-.04 F2100
G1 Z.6 F720
G1 X76.284 Y140.199 F10800
G1 Z.2 F720
G1 E.8 F2100
M204 S800
;TYPE:Perimeter
;WIDTH:0.419999
G1 F1200
G1 X76.187 Y139.938 E.00872
G1 X76.187 Y70.08 E2.19033
G1 X76.212 Y69.963 E.00375
G1 X76.306 Y69.775 E.0066
G1 X76.562 Y69.687 E.00849
G1 X173.373 Y69.687 E3.03544
G1 X173.537 Y69.712 E.00518
G1 X173.725 Y69.807 E.0066
G1 X173.813 Y70.063 E.00849
G1 X173.813 Y139.874 E2.1889
G1 X173.788 Y140.038 E.00518
G1 X173.694 Y140.225 E.00658
G1 X173.438 Y140.313 E.00849
G1 X76.625 Y140.313 E3.03548
G1 X76.464 Y140.288 E.00513
M73 P0 R203
G1 X76.338 Y140.226 E.00441
M204 S1000
G1 X76.136 Y140.562 F10800
M204 S800
;TYPE:External perimeter
G1 F1200
G1 X75.982 Y140.445 E.00608
G1 X75.842 Y140.183 E.00931
G1 X75.81 Y139.965 E.00689
G1 X75.81 Y70.041 E2.19242
G1 X75.879 Y69.715 E.01045
G1 X76.056 Y69.482 E.00918
G1 X76.317 Y69.342 E.00929
G1 X76.535 Y69.31 E.00691
G1 X173.373 Y69.31 E3.0363
G1 X173.785 Y69.379 E.01307
G1 X174.019 Y69.556 E.0092
G1 X174.158 Y69.817 E.00929
G1 X174.19 Y70.035 E.00691
G1 X174.19 Y139.874 E2.18976
G1 X174.121 Y140.285 E.01306
G1 X173.944 Y140.519 E.00919
G1 X173.683 Y140.658 E.00927
G1 X173.465 Y140.69 E.00692
G1 X76.625 Y140.69 E3.03634
G1 X76.215 Y140.621 E.01306
G1 X76.184 Y140.598 E.0012
M204 S1000
G1 X76.135 Y140.368 F10800
;WIPE_START
G1 F8640
G1 X75.982 Y140.445 E-.05864
G1 X75.842 Y140.183 E-.06856
G1 X75.81 Y139.965 E-.05074
G1 X75.81 Y137.445 E-.58205
;WIPE_END
G1 E-.04 F2100
G1 Z.6 F720
G1 X173.7 Y70.699 F10800
G1 Z.2 F720
G1 E.8 F2100
M204 S800
;TYPE:Solid infill
;WIDTH:0.420352
G1 F1200
G1 X172.976 Y69.975 E.03211
G1 X172.443 Y69.975 E.01675
G1 X173.53 Y71.063 E.04827
G1 X173.53 Y71.597 E.01675
G1 X171.909 Y69.975 E.07196
G1 X171.375 Y69.975 E.01675
G1 X173.53 Y72.13 E.09565
G1 X173.53 Y72.664 E.01675
G1 X170.841 Y69.975 E.11934
G1 X170.307 Y69.975 E.01675
G1 X173.53 Y73.198 E.14303
G1 X173.53 Y73.732 E.01675
G1 X169.774 Y69.975 E.16673
G1 X169.24 Y69.975 E.01675
G1 X173.53 Y74.266 E.19042
G1 X173.53 Y74.799 E.01675
G1 X168.706 Y69.975 E.21411
G1 X168.172 Y69.975 E.01675
G1 X173.53 Y75.333 E.2378
G1 X173.53 Y75.867 E.01675
G1 X167.638 Y69.975 E.26149
G1 X167.105 Y69.975 E.01675
G1 X173.53 Y76.401 E.28518
G1 X173.53 Y76.934 E.01675
G1 X166.571 Y69.975 E.30888
G1 X166.037 Y69.975 E.01675
G1 X173.53 Y77.468 E.33257
G1 X173.53 Y78.002 E.01675
G1 X165.503 Y69.975 E.35626
G1 X164.969 Y69.975 E.01675
G1 X173.53 Y78.536 E.37995
G1 X173.53 Y79.069 E.01675
G1 X164.436 Y69.975 E.40364
G1 X163.902 Y69.975 E.01675
G1 X173.53 Y79.603 E.42733
G1 X173.53 Y80.137 E.01675
G1 X163.368 Y69.975 E.45103
G1 X162.834 Y69.975 E.01675
G1 X173.53 Y80.671 E.47472
G1 X173.53 Y81.205 E.01675
G1 X162.3 Y69.975 E.49841
G1 X161.767 Y69.975 E.01675
G1 X173.53 Y81.738 E.5221
G1 X173.53 Y82.272 E.01675
G1 X161.233 Y69.975 E.54579
G1 X160.699 Y69.975 E.01675
G1 X173.53 Y82.806 E.56948
G1 X173.53 Y83.34 E.01675
G1 X160.165 Y69.975 E.59318
G1 X159.631 Y69.975 E.01675
G1 X173.53 Y83.873 E.61687
G1 X173.53 Y84.407 E.01675
G1 X159.098 Y69.975 E.64056
G1 X158.564 Y69.975 E.01675
G1 X173.53 Y84.941 E.66425
G1 X173.53 Y85.475 E.01675
G1 X158.03 Y69.975 E.68794
G1 X157.496 Y69.975 E.01675
G1 X173.53 Y86.008 E.71163
G1 X173.53 Y86.542 E.01675
G1 X156.962 Y69.975 E.73533
G1 X156.429 Y69.975 E.01675
G1 X173.53 Y87.076 E.75902
G1 X173.53 Y87.61 E.01675
G1 X155.895 Y69.974 E.78271
G1 X155.361 Y69.974 E.01675
G1 X173.53 Y88.144 E.8064
G1 X173.53 Y88.677 E.01675
G1 X154.827 Y69.974 E.83009
G1 X154.293 Y69.974 E.01675
G1 X173.53 Y89.211 E.85378
G1 X173.53 Y89.745 E.01675
G1 X153.76 Y69.974 E.87748
G1 X153.226 Y69.974 E.01675
G1 X173.53 Y90.279 E.90117
G1 X173.53 Y90.812 E.01675
G1 X152.692 Y69.974 E.92486
G1 X152.158 Y69.974 E.01675
G1 X173.53 Y91.346 E.94855
G1 X173.53 Y91.88 E.01675
G1 X151.624 Y69.974 E.97224
G1 X151.091 Y69.974 E.01675
G1 X173.53 Y92.414 E.99593
G1 X173.53 Y92.947 E.01675
G1 X150.557 Y69.974 E1.01963
G1 X150.023 Y69.974 E.01675
G1 X173.53 Y93.481 E1.04332
G1 X173.53 Y94.015 E.01675
M73 P0 R202
G1 X149.489 Y69.974 E1.06701
G1 X148.955 Y69.974 E.01675
G1 X173.53 Y94.549 E1.0907
G1 X173.53 Y95.083 E.01675
G1 X148.422 Y69.974 E1.11439
G1 X147.888 Y69.974 E.01675
G1 X173.53 Y95.616 E1.13808
G1 X173.53 Y96.15 E.01675
G1 X147.354 Y69.974 E1.16178
G1 X146.82 Y69.974 E.01675
G1 X173.53 Y96.684 E1.18547
G1 X173.53 Y97.218 E.01675
G1 X146.286 Y69.974 E1.20916
G1 X145.753 Y69.974 E.01675
G1 X173.53 Y97.751 E1.23285
G1 X173.53 Y98.285 E.01675
G1 X145.219 Y69.974 E1.25654
G1 X144.685 Y69.974 E.01675
G1 X173.53 Y98.819 E1.28023
G1 X173.53 Y99.353 E.01675
G1 X144.151 Y69.974 E1.30393
G1 X143.617 Y69.974 E.01675
G1 X173.53 Y99.886 E1.32762
G1 X173.53 Y100.42 E.01675
G1 X143.084 Y69.974 E1.35131
G1 X142.55 Y69.974 E.01675
M73 P1 R202
G1 X173.53 Y100.954 E1.375
G1 X173.53 Y101.488 E.01675
G1 X142.016 Y69.974 E1.39869
G1 X141.482 Y69.974 E.01675
G1 X173.53 Y102.022 E1.42238
G1 X173.53 Y102.555 E.01675
G1 X140.948 Y69.974 E1.44608
G1 X140.415 Y69.974 E.01675
G1 X173.53 Y103.089 E1.46977
G1 X173.53 Y103.623 E.01675
G1 X139.881 Y69.974 E1.49346
G1 X139.347 Y69.974 E.01675
G1 X173.53 Y104.157 E1.51715
G1 X173.53 Y104.69 E.01675
G1 X138.813 Y69.974 E1.54084
G1 X138.279 Y69.974 E.01675
G1 X173.53 Y105.224 E1.56453
G1 X173.53 Y105.758 E.01675
G1 X137.746 Y69.973 E1.58823
G1 X137.212 Y69.973 E.01675
G1 X173.53 Y106.292 E1.61192
G1 X173.53 Y106.825 E.01675
G1 X136.678 Y69.973 E1.63561
G1 X136.144 Y69.973 E.01675
G1 X173.53 Y107.359 E1.6593
G1 X173.53 Y107.893 E.01675
G1 X135.61 Y69.973 E1.68299
G1 X135.077 Y69.973 E.01675
M73 P1 R201
G1 X173.53 Y108.427 E1.70668
G1 X173.53 Y108.961 E.01675
G1 X134.543 Y69.973 E1.73038
G1 X134.009 Y69.973 E.01675
G1 X173.53 Y109.494 E1.75407
G1 X173.53 Y110.028 E.01675
G1 X133.475 Y69.973 E1.77776
G1 X132.941 Y69.973 E.01675
G1 X173.53 Y110.562 E1.80145
G1 X173.53 Y111.096 E.01675
G1 X132.408 Y69.973 E1.82514
G1 X131.874 Y69.973 E.01675
G1 X173.53 Y111.629 E1.84883
G1 X173.53 Y112.163 E.01675
G1 X131.34 Y69.973 E1.87253
G1 X130.806 Y69.973 E.01675
G1 X173.53 Y112.697 E1.89622
G1 X173.53 Y113.231 E.01675
G1 X130.272 Y69.973 E1.91991
G1 X129.739 Y69.973 E.01675
G1 X173.53 Y113.764 E1.9436
G1 X173.53 Y114.298 E.01675
G1 X129.205 Y69.973 E1.96729
G1 X128.671 Y69.973 E.01675
G1 X173.53 Y114.832 E1.99098
G1 X173.53 Y115.366 E.01675
G1 X128.137 Y69.973 E2.01468
G1 X127.603 Y69.973 E.01675
G1 X173.53 Y115.9 E2.03837
G1 X173.53 Y116.433 E.01675
G1 X127.07 Y69.973 E2.06206
G1 X126.536 Y69.973 E.01675
G1 X173.53 Y116.967 E2.08575
G1 X173.53 Y117.501 E.01675
G1 X126.002 Y69.973 E2.10944
G1 X125.468 Y69.973 E.01675
G1 X173.53 Y118.035 E2.13313
G1 X173.53 Y118.568 E.01675
M73 P1 R200
G1 X124.934 Y69.973 E2.15683
G1 X124.401 Y69.973 E.01675
G1 X173.53 Y119.102 E2.18052
G1 X173.53 Y119.636 E.01675
G1 X123.867 Y69.973 E2.20421
G1 X123.333 Y69.973 E.01675
G1 X173.53 Y120.17 E2.2279
G1 X173.53 Y120.703 E.01675
G1 X122.799 Y69.973 E2.25159
G1 X122.265 Y69.973 E.01675
G1 X173.53 Y121.237 E2.27528
G1 X173.53 Y121.771 E.01675
G1 X121.732 Y69.973 E2.29898
G1 X121.198 Y69.973 E.01675
G1 X173.53 Y122.305 E2.32267
G1 X173.53 Y122.839 E.01675
M73 P2 R200
G1 X120.664 Y69.973 E2.34636
G1 X120.13 Y69.972 E.01675
G1 X173.53 Y123.372 E2.37005
G1 X173.53 Y123.906 E.01675
G1 X119.596 Y69.972 E2.39374
G1 X119.063 Y69.972 E.01675
G1 X173.53 Y124.44 E2.41743
G1 X173.53 Y124.974 E.01675
G1 X118.529 Y69.972 E2.44113
G1 X117.995 Y69.972 E.01675
G1 X173.53 Y125.507 E2.46482
G1 X173.53 Y126.041 E.01675
G1 X117.461 Y69.972 E2.48851
G1 X116.927 Y69.972 E.01675
G1 X173.53 Y126.575 E2.5122
G1 X173.53 Y127.109 E.01675
M73 P2 R199
G1 X116.394 Y69.972 E2.53589
G1 X115.86 Y69.972 E.01675
G1 X173.53 Y127.643 E2.55958
G1 X173.53 Y128.176 E.01675
G1 X115.326 Y69.972 E2.58328
G1 X114.792 Y69.972 E.01675
G1 X173.53 Y128.71 E2.60697
G1 X173.53 Y129.244 E.01675
G1 X114.258 Y69.972 E2.63066
G1 X113.725 Y69.972 E.01675
G1 X173.53 Y129.778 E2.65435
G1 X173.53 Y130.311 E.01675
G1 X113.191 Y69.972 E2.67804
G1 X112.657 Y69.972 E.01675
G1 X173.53 Y130.845 E2.70173
G1 X173.53 Y131.379 E.01675
G1 X112.123 Y69.972 E2.72543
G1 X111.589 Y69.972 E.01675
G1 X173.53 Y131.913 E2.74912
G1 X173.53 Y132.446 E.01675
G1 X111.056 Y69.972 E2.77281
G1 X110.522 Y69.972 E.01675
G1 X173.53 Y132.98 E2.7965
G1 X173.53 Y133.514 E.01675
G1 X109.988 Y69.972 E2.82019
G1 X109.454 Y69.972 E.01675
G1 X173.53 Y134.048 E2.84388
G1 X173.53 Y134.582 E.01675
M73 P2 R198
G1 X108.92 Y69.972 E2.86758
G1 X108.387 Y69.972 E.01675
G1 X173.53 Y135.115 E2.89127
G1 X173.53 Y135.649 E.01675
G1 X107.853 Y69.972 E2.91496
G1 X107.319 Y69.972 E.01675
G1 X173.53 Y136.183 E2.93865
G1 X173.53 Y136.717 E.01675
G1 X106.785 Y69.972 E2.96234
G1 X106.251 Y69.972 E.01675
G1 X173.53 Y137.25 E2.98603
G1 X173.53 Y137.784 E.01675
G1 X105.718 Y69.972 E3.00973
G1 X105.184 Y69.972 E.01675
M73 P3 R198
G1 X173.53 Y138.318 E3.03342
G1 X173.53 Y138.852 E.01675
G1 X104.65 Y69.972 E3.05711
G1 X104.116 Y69.972 E.01675
G1 X173.53 Y139.385 E3.0808
G1 X173.525 Y139.914 E.0166
G1 X103.582 Y69.972 E3.10427
G1 X103.049 Y69.972 E.01675
G1 X173.107 Y140.03 E3.10941
G1 X172.573 Y140.03 E.01675
G1 X102.515 Y69.972 E3.10941
G1 X101.981 Y69.971 E.01675
M73 P3 R197
G1 X172.04 Y140.03 E3.10941
G1 X171.506 Y140.03 E.01675
G1 X101.447 Y69.971 E3.10941
G1 X100.913 Y69.971 E.01675
G1 X170.972 Y140.03 E3.10941
G1 X170.438 Y140.03 E.01675
G1 X100.38 Y69.971 E3.10941
G1 X99.846 Y69.971 E.01675
G1 X169.904 Y140.03 E3.10942
G1 X169.371 Y140.03 E.01675
G1 X99.312 Y69.971 E3.10942
G1 X98.778 Y69.971 E.01675
G1 X168.837 Y140.03 E3.10942
G1 X168.303 Y140.03 E.01675
G1 X98.245 Y69.971 E3.10942
G1 X97.711 Y69.971 E.01675
G1 X167.769 Y140.03 E3.10942
G1 X167.236 Y140.03 E.01675
G1 X97.177 Y69.971 E3.10942
G1 X96.643 Y69.971 E.01675
G1 X166.702 Y140.03 E3.10942
G1 X166.168 Y140.03 E.01675
G1 X96.109 Y69.971 E3.10943
G1 X95.576 Y69.971 E.01675
M73 P3 R196
G1 X165.634 Y140.03 E3.10943
G1 X165.101 Y140.03 E.01675
G1 X95.042 Y69.971 E3.10943
G1 X94.508 Y69.971 E.01675
G1 X164.567 Y140.03 E3.10943
G1 X164.033 Y140.03 E.01675
G1 X93.974 Y69.971 E3.10943
G1 X93.44 Y69.971 E.01675
G1 X163.499 Y140.03 E3.10943
G1 X162.965 Y140.03 E.01675
G1 X92.907 Y69.971 E3.10943
G1 X92.373 Y69.971 E.01675
M73 P4 R196
G1 X162.432 Y140.03 E3.10943
G1 X161.898 Y140.03 E.01675
G1 X91.839 Y69.971 E3.10944
G1 X91.305 Y69.971 E.01675
G1 X161.364 Y140.03 E3.10944
G1 X160.83 Y140.03 E.01675
G1 X90.771 Y69.971 E3.10944
G1 X90.238 Y69.971 E.01675
G1 X160.297 Y140.03 E3.10944
G1 X159.763 Y140.03 E.01675
G1 X89.704 Y69.971 E3.10944
G1 X89.17 Y69.971 E.01675
M73 P4 R195
G1 X159.229 Y140.03 E3.10944
G1 X158.695 Y140.03 E.01675
G1 X88.636 Y69.971 E3.10944
G1 X88.102 Y69.971 E.01675
G1 X158.162 Y140.03 E3.10945
G1 X157.628 Y140.03 E.01675
G1 X87.569 Y69.971 E3.10945
G1 X87.035 Y69.971 E.01675
G1 X157.094 Y140.03 E3.10945
G1 X156.56 Y140.03 E.01675
G1 X86.501 Y69.971 E3.10945
G1 X85.967 Y69.971 E.01675
G1 X156.026 Y140.03 E3.10945
G1 X155.493 Y140.03 E.01675
G1 X85.433 Y69.971 E3.10945
G1 X84.9 Y69.971 E.01675
G1 X154.959 Y140.03 E3.10945
G1 X154.425 Y140.03 E.01675
G1 X84.366 Y69.971 E3.10945
G1 X83.832 Y69.97 E.01675
G1 X153.891 Y140.03 E3.10946
G1 X153.358 Y140.03 E.01675
G1 X83.298 Y69.97 E3.10946
G1 X82.764 Y69.97 E.01675
M73 P4 R194
G1 X152.824 Y140.03 E3.10946
G1 X152.29 Y140.03 E.01675
G1 X82.231 Y69.97 E3.10946
G1 X81.697 Y69.97 E.01675
G1 X151.756 Y140.03 E3.10946
G1 X151.223 Y140.03 E.01675
G1 X81.163 Y69.97 E3.10946
G1 X80.629 Y69.97 E.01675
G1 X150.689 Y140.03 E3.10946
G1 X150.155 Y140.03 E.01675
G1 X80.095 Y69.97 E3.10946
G1 X79.562 Y69.97 E.01675
G1 X149.621 Y140.03 E3.10947
G1 X149.087 Y140.03 E.01675
M73 P5 R194
G1 X79.028 Y69.97 E3.10947
G1 X78.494 Y69.97 E.01675
G1 X148.554 Y140.03 E3.10947
G1 X148.02 Y140.03 E.01675
G1 X77.96 Y69.97 E3.10947
G1 X77.426 Y69.97 E.01675
G1 X147.486 Y140.03 E3.10947
G1 X146.952 Y140.03 E.01675
G1 X76.893 Y69.97 E3.10947
G1 X76.583 Y69.97 E.00972
M73 P5 R193
G1 X76.494 Y69.996 E.0029
G1 X76.475 Y70.086 E.00291
G1 X146.419 Y140.03 E3.10432
G1 X145.885 Y140.03 E.01675
G1 X76.47 Y70.615 E3.08085
G1 X76.47 Y71.149 E.01675
G1 X145.351 Y140.03 E3.05716
G1 X144.817 Y140.03 E.01675
G1 X76.47 Y71.683 E3.03347
G1 X76.47 Y72.216 E.01675
G1 X144.284 Y140.03 E3.00978
G1 X143.75 Y140.03 E.01675
G1 X76.47 Y72.75 E2.98609
G1 X76.47 Y73.284 E.01675
G1 X143.216 Y140.03 E2.9624
G1 X142.682 Y140.03 E.01675
G1 X76.47 Y73.818 E2.93871
G1 X76.47 Y74.351 E.01675
G1 X142.148 Y140.03 E2.91502
G1 X141.615 Y140.03 E.01675
G1 X76.47 Y74.885 E2.89133
G1 X76.47 Y75.419 E.01675
G1 X141.081 Y140.03 E2.86764
G1 X140.547 Y140.03 E.01675
G1 X76.47 Y75.953 E2.84395
G1 X76.47 Y76.486 E.01675
M73 P5 R192
G1 X140.013 Y140.03 E2.82026
G1 X139.48 Y140.03 E.01675
G1 X76.47 Y77.02 E2.79657
G1 X76.47 Y77.554 E.01675
G1 X138.946 Y140.03 E2.77288
G1 X138.412 Y140.03 E.01675
G1 X76.47 Y78.088 E2.74919
G1 X76.47 Y78.622 E.01675
G1 X137.878 Y140.03 E2.7255
G1 X137.345 Y140.03 E.01675
G1 X76.47 Y79.155 E2.70181
G1 X76.47 Y79.689 E.01675
G1 X136.811 Y140.03 E2.67811
G1 X136.277 Y140.03 E.01675
G1 X76.47 Y80.223 E2.65442
G1 X76.47 Y80.757 E.01675
G1 X135.743 Y140.03 E2.63073
G1 X135.209 Y140.03 E.01675
M73 P6 R192
G1 X76.47 Y81.29 E2.60704
G1 X76.47 Y81.824 E.01675
G1 X134.676 Y140.03 E2.58335
G1 X134.142 Y140.03 E.01675
G1 X76.47 Y82.358 E2.55966
G1 X76.47 Y82.892 E.01675
G1 X133.608 Y140.03 E2.53597
G1 X133.074 Y140.03 E.01675
