; generated by PrusaSlicer 2.6.0-alpha6+linux-x64-GTK3 on 2023-05-08 at 03:33:59 UTC

; 

; external perimeters extrusion width = 0.45mm
; perimeters extrusion width = 0.45mm
; infill extrusion width = 0.45mm
; solid infill extrusion width = 0.45mm
; top infill extrusion width = 0.40mm
; first layer extrusion width = 0.42mm

M73 P0 R57
M201 X9000 Y9000 Z500 E10000 ; sets maximum accelerations, mm/sec^2
M203 X500 Y500 Z12 E120 ; sets maximum feedrates, mm / sec
M204 S2000 T1500 ; sets acceleration (S) and retract acceleration (R), mm/sec^2
M205 X10.00 Y10.00 Z0.20 E4.50 ; sets the jerk limits, mm/sec
M205 S0 T0 ; sets the minimum extruding and travel feed rate, mm/sec
;TYPE:Custom
M862.3 P "MK2.5" ; printer model check
M862.1 P0.4 ; nozzle diameter check
M115 U3.11.0 ; tell printer latest fw version
G90 ; use absolute coordinates
M83 ; extruder relative mode
M104 S215 ; set extruder temp
M140 S60 ; set bed temp
M190 S60 ; wait for bed temp
M109 S215 ; wait for extruder temp
G28 W ; home all without mesh bed level
G80 ; mesh bed leveling

G1 Z0.2 F720
G1 Y-3 F1000 ; go outside print area
G92 E0
G1 X60 E9 F1000 ; intro line
G1 X100 E12.5 F1000 ; intro line

G92 E0
G21 ; set units to millimeters
G90 ; use absolute coordinates
M83 ; use relative distances for extrusion
M900 K0.05 ; Filament gcode LA 1.5
M900 K30 ; Filament gcode LA 1.0
M107
;LAYER_CHANGE
;Z:0.2
;HEIGHT:0.2
;BEFORE_LAYER_CHANGE
G92 E0.0
;0.2


G1 E-.8 F2100
G1 Z.4 F720
;AFTER_LAYER_CHANGE
;0.2
;CURRENT_Z: 0.2
G1 X107.934 Y71.98 F10800
G1 Z.2 F720
G1 E.8 F2100
M204 S800
;TYPE:Skirt/Brim
;WIDTH:0.42
G1 F1200
G1 X108.219 Y71.553 E.0161
G1 X108.896 Y70.979 E.02783
G1 X109.393 Y70.754 E.01711
G1 X110.2 Y70.623 E.02563
G1 X140.039 Y70.635 E.93558
G1 X140.996 Y70.919 E.0313
G1 X141.781 Y71.553 E.03164
G1 X142.258 Y72.429 E.03127
G1 X142.377 Y73.2 E.02446
G1 X142.377 Y136.8 E1.99413
G1 X142.273 Y137.522 E.02287
G1 X142.082 Y137.996 E.01602
G1 X141.781 Y138.447 E.017
G1 X141.031 Y139.063 E.03043
G1 X140.526 Y139.272 E.01714
G1 X139.8 Y139.377 E.023
G1 X110.2 Y139.377 E.92809
G1 X109.474 Y139.272 E.023
G1 X109.004 Y139.081 E.01591
G1 X108.553 Y138.781 E.01698
G1 X107.937 Y138.031 E.03043
G1 X107.73 Y137.533 E.01691
G1 X107.623 Y136.8 E.02323
G1 X107.623 Y73.2 E1.99413
G1 X107.73 Y72.467 E.02323
G1 X107.906 Y72.033 E.01468
M204 S1000
; printing object cx_token2.stl id:0 copy 0
;WIPE_START
G1 F8640
G1 X108.219 Y71.553 E-.13232
G1 X108.896 Y70.979 E-.20495
G1 X109.394 Y70.754 E-.12618
G1 X110.2 Y70.623 E-.18855
G1 X110.841 Y70.623 E-.148
;WIPE_END
G1 Z.6 F720
G1 X139.185 Y73.815 F10800
G1 Z.2 F720
G1 E.8 F2100
M204 S800
;TYPE:Perimeter
;WIDTH:0.419999
G1 F1200
G1 X139.185 Y136.185 E1.95556
G1 X110.815 Y136.185 E.88952
G1 X110.815 Y73.815 E1.95556
G1 X139.125 Y73.815 E.88764
M204 S1000
M73 P0 R56
G1 X139.562 Y73.438 F10800
M204 S800
;TYPE:External perimeter
G1 F1200
G1 X139.562 Y136.562 E1.97921
G1 X110.438 Y136.562 E.91316
G1 X110.438 Y73.438 E1.97921
G1 X139.502 Y73.438 E.91128
M204 S1000
M73 P1 R56
G1 X139.505 Y73.834 F10800
;WIPE_START
G1 F8640
G1 X139.505 Y76.903 E-.8
;WIPE_END
G1 Z.6 F720
G1 X139.072 Y74.692 F10800
G1 Z.2 F720
G1 E.8 F2100
M204 S800
;TYPE:Solid infill
;WIDTH:0.421007
G1 F1200
G1 X138.477 Y74.098 E.02643
G1 X137.943 Y74.098 E.01679
G1 X138.902 Y75.057 E.04264
G1 X138.902 Y75.592 E.01682
G1 X137.408 Y74.098 E.06642
G1 X136.873 Y74.098 E.01682
G1 X138.902 Y76.127 E.09021
G1 X138.902 Y76.662 E.01682
G1 X136.339 Y74.098 E.11397
G1 X135.804 Y74.098 E.01682
G1 X138.902 Y77.196 E.13774
G1 X138.902 Y77.731 E.01682
G1 X135.269 Y74.098 E.16152
G1 X134.735 Y74.098 E.01679
G1 X138.902 Y78.266 E.18529
G1 X138.902 Y78.8 E.01679
G1 X134.2 Y74.098 E.20905
G1 X133.665 Y74.098 E.01682
G1 X138.902 Y79.335 E.23284
G1 X138.902 Y79.87 E.01682
G1 X133.13 Y74.098 E.25662
G1 X132.596 Y74.098 E.01679
G1 X138.902 Y80.404 E.28037
G1 X138.902 Y80.939 E.01682
G1 X132.061 Y74.098 E.30415
G1 X131.526 Y74.098 E.01682
G1 X138.902 Y81.474 E.32794
G1 X138.902 Y82.008 E.01679
G1 X130.992 Y74.098 E.35168
G1 X130.457 Y74.098 E.01682
G1 X138.902 Y82.543 E.37547
G1 X138.902 Y83.078 E.01682
G1 X129.922 Y74.098 E.39925
G1 X129.388 Y74.098 E.01679
G1 X138.902 Y83.613 E.42302
G1 X138.902 Y84.147 E.01679
G1 X128.853 Y74.098 E.44678
G1 X128.318 Y74.098 E.01682
G1 X138.902 Y84.682 E.47057
G1 X138.902 Y85.217 E.01682
G1 X127.784 Y74.098 E.49433
G1 X127.249 Y74.098 E.01682
G1 X138.902 Y85.751 E.51809
G1 X138.902 Y86.286 E.01682
G1 X126.714 Y74.098 E.54188
G1 X126.179 Y74.098 E.01682
G1 X138.902 Y86.821 E.56567
G1 X138.902 Y87.355 E.01679
G1 X125.645 Y74.098 E.58941
G1 X125.11 Y74.098 E.01682
G1 X138.902 Y87.89 E.61319
G1 X138.902 Y88.425 E.01682
G1 X124.575 Y74.098 E.63698
G1 X124.041 Y74.098 E.01679
G1 X138.902 Y88.96 E.66074
G1 X138.902 Y89.494 E.01679
G1 X123.506 Y74.098 E.68451
G1 X122.971 Y74.098 E.01682
G1 X138.902 Y90.029 E.70829
G1 X138.902 Y90.564 E.01682
G1 X122.437 Y74.098 E.73206
G1 X121.902 Y74.098 E.01682
G1 X138.902 Y91.098 E.75582
G1 X138.902 Y91.633 E.01682
G1 X121.367 Y74.098 E.77961
G1 X120.832 Y74.098 E.01682
G1 X138.902 Y92.168 E.80339
G1 X138.902 Y92.702 E.01679
G1 X120.298 Y74.098 E.82714
G1 X119.763 Y74.098 E.01682
G1 X138.902 Y93.237 E.85092
G1 X138.902 Y93.772 E.01682
G1 X119.228 Y74.098 E.87471
G1 X118.694 Y74.098 E.01679
G1 X138.902 Y94.306 E.89845
G1 X138.902 Y94.841 E.01682
G1 X118.159 Y74.098 E.92224
G1 X117.624 Y74.098 E.01682
G1 X138.902 Y95.376 E.94602
G1 X138.902 Y95.911 E.01682
G1 X117.09 Y74.098 E.96979
G1 X116.555 Y74.098 E.01682
M73 P2 R56
G1 X138.902 Y96.445 E.99355
G1 X138.902 Y96.98 E.01682
G1 X116.02 Y74.098 E1.01734
G1 X115.486 Y74.098 E.01679
G1 X138.902 Y97.515 E1.0411
G1 X138.902 Y98.049 E.01679
G1 X114.951 Y74.098 E1.06486
G1 X114.416 Y74.098 E.01682
G1 X138.902 Y98.584 E1.08865
G1 X138.902 Y99.119 E.01682
G1 X113.881 Y74.098 E1.11244
G1 X113.347 Y74.098 E.01679
G1 X138.902 Y99.653 E1.13618
G1 X138.902 Y100.188 E.01682
G1 X112.812 Y74.098 E1.15996
G1 X112.277 Y74.098 E.01682
M73 P2 R55
G1 X138.902 Y100.723 E1.18375
G1 X138.902 Y101.258 E.01682
G1 X111.743 Y74.098 E1.20752
G1 X111.208 Y74.098 E.01682
G1 X138.902 Y101.792 E1.23128
G1 X138.902 Y102.327 E.01682
G1 X111.098 Y74.522 E1.23619
G1 X111.098 Y75.057 E.01682
G1 X138.902 Y102.862 E1.23619
G1 X138.902 Y103.396 E.01679
G1 X111.098 Y75.591 E1.23619
G1 X111.098 Y76.126 E.01682
G1 X138.902 Y103.931 E1.23619
G1 X138.902 Y104.466 E.01682
G1 X111.098 Y76.661 E1.23619
G1 X111.098 Y77.195 E.01679
G1 X138.902 Y105 E1.23619
G1 X138.902 Y105.535 E.01682
G1 X111.098 Y77.73 E1.23619
G1 X111.098 Y78.265 E.01682
M73 P3 R55
G1 X138.902 Y106.07 E1.23619
G1 X138.902 Y106.604 E.01679
G1 X111.098 Y78.8 E1.23617
G1 X111.098 Y79.334 E.01679
G1 X138.902 Y107.139 E1.23619
G1 X138.902 Y107.674 E.01682
G1 X111.098 Y79.869 E1.23619
G1 X111.098 Y80.404 E.01682
G1 X138.902 Y108.209 E1.23619
G1 X138.902 Y108.743 E.01679
G1 X111.098 Y80.938 E1.23619
G1 X111.098 Y81.473 E.01682
G1 X138.902 Y109.278 E1.23619
G1 X138.902 Y109.813 E.01682
G1 X111.098 Y82.008 E1.23619
G1 X111.098 Y82.542 E.01679
G1 X138.902 Y110.347 E1.23619
G1 X138.902 Y110.882 E.01682
G1 X111.098 Y83.077 E1.23619
G1 X111.098 Y83.612 E.01682
G1 X138.902 Y111.417 E1.23619
G1 X138.902 Y111.951 E.01679
G1 X111.098 Y84.147 E1.23617
G1 X111.098 Y84.681 E.01679
G1 X138.902 Y112.486 E1.23619
G1 X138.902 Y113.021 E.01682
G1 X111.098 Y85.216 E1.23619
G1 X111.098 Y85.751 E.01682
G1 X138.902 Y113.556 E1.23619
G1 X138.902 Y114.09 E.01679
G1 X111.098 Y86.285 E1.23619
G1 X111.098 Y86.82 E.01682
G1 X138.902 Y114.625 E1.23619
G1 X138.902 Y115.16 E.01682
M73 P4 R55
G1 X111.098 Y87.355 E1.23619
G1 X111.098 Y87.889 E.01679
G1 X138.902 Y115.694 E1.23619
G1 X138.902 Y116.229 E.01682
G1 X111.098 Y88.424 E1.23619
G1 X111.098 Y88.959 E.01682
M73 P4 R54
G1 X138.902 Y116.764 E1.23619
G1 X138.902 Y117.298 E.01679
G1 X111.098 Y89.493 E1.23619
G1 X111.098 Y90.028 E.01682
G1 X138.902 Y117.833 E1.23619
G1 X138.902 Y118.368 E.01682
G1 X111.098 Y90.563 E1.23619
G1 X111.098 Y91.098 E.01682
G1 X138.902 Y118.902 E1.23617
G1 X138.902 Y119.437 E.01682
G1 X111.098 Y91.632 E1.23619
G1 X111.098 Y92.167 E.01682
G1 X138.902 Y119.972 E1.23619
G1 X138.902 Y120.507 E.01682
G1 X111.098 Y92.702 E1.23619
G1 X111.098 Y93.236 E.01679
G1 X138.902 Y121.041 E1.23619
G1 X138.902 Y121.576 E.01682
G1 X111.098 Y93.771 E1.23619
G1 X111.098 Y94.306 E.01682
G1 X138.902 Y122.111 E1.23619
G1 X138.902 Y122.645 E.01679
G1 X111.098 Y94.84 E1.23619
G1 X111.098 Y95.375 E.01682
G1 X138.902 Y123.18 E1.23619
G1 X138.902 Y123.715 E.01682
G1 X111.098 Y95.91 E1.23619
G1 X111.098 Y96.445 E.01682
G1 X138.902 Y124.249 E1.23617
G1 X138.902 Y124.784 E.01682
M73 P5 R54
G1 X111.098 Y96.979 E1.23619
G1 X111.098 Y97.514 E.01682
G1 X138.902 Y125.319 E1.23619
G1 X138.902 Y125.854 E.01682
G1 X111.098 Y98.049 E1.23619
G1 X111.098 Y98.583 E.01679
G1 X138.902 Y126.388 E1.23619
G1 X138.902 Y126.923 E.01682
G1 X111.098 Y99.118 E1.23619
G1 X111.098 Y99.653 E.01682
G1 X138.902 Y127.458 E1.23619
G1 X138.902 Y127.992 E.01679
G1 X111.098 Y100.187 E1.23619
G1 X111.098 Y100.722 E.01682
G1 X138.902 Y128.527 E1.23619
G1 X138.902 Y129.062 E.01682
G1 X111.098 Y101.257 E1.23619
G1 X111.098 Y101.791 E.01679
G1 X138.902 Y129.596 E1.23619
G1 X138.902 Y130.131 E.01682
G1 X111.098 Y102.326 E1.23619
G1 X111.098 Y102.861 E.01682
G1 X138.902 Y130.666 E1.23619
G1 X138.902 Y131.2 E.01679
G1 X111.098 Y103.396 E1.23617
G1 X111.098 Y103.93 E.01679
G1 X138.902 Y131.735 E1.23619
G1 X138.902 Y132.27 E.01682
G1 X111.098 Y104.465 E1.23619
G1 X111.098 Y105 E.01682
M73 P5 R53
G1 X138.902 Y132.805 E1.23619
G1 X138.902 Y133.339 E.01679
G1 X111.098 Y105.534 E1.23619
G1 X111.098 Y106.069 E.01682
M73 P6 R53
G1 X138.902 Y133.874 E1.23619
G1 X138.902 Y134.409 E.01682
G1 X111.098 Y106.604 E1.23619
G1 X111.098 Y107.138 E.01679
G1 X138.902 Y134.943 E1.23619
G1 X138.902 Y135.478 E.01682
G1 X111.098 Y107.673 E1.23619
G1 X111.098 Y108.208 E.01682
G1 X138.792 Y135.902 E1.23128
G1 X138.257 Y135.902 E.01682
G1 X111.098 Y108.743 E1.20749
G1 X111.098 Y109.277 E.01679
G1 X137.723 Y135.902 E1.18375
G1 X137.188 Y135.902 E.01682
G1 X111.098 Y109.812 E1.15996
G1 X111.098 Y110.347 E.01682
G1 X136.653 Y135.902 E1.13618
G1 X136.119 Y135.902 E.01679
G1 X111.098 Y110.881 E1.11244
G1 X111.098 Y111.416 E.01682
G1 X135.584 Y135.902 E1.08865
G1 X135.049 Y135.902 E.01682
G1 X111.098 Y111.951 E1.06486
G1 X111.098 Y112.485 E.01679
G1 X134.514 Y135.902 E1.0411
G1 X133.98 Y135.902 E.01679
G1 X111.098 Y113.02 E1.01734
G1 X111.098 Y113.555 E.01682
G1 X133.445 Y135.902 E.99355
G1 X132.91 Y135.902 E.01682
G1 X111.098 Y114.089 E.96979
G1 X111.098 Y114.624 E.01682
G1 X132.376 Y135.902 E.94602
G1 X131.841 Y135.902 E.01682
G1 X111.098 Y115.159 E.92224
G1 X111.098 Y115.694 E.01682
G1 X131.306 Y135.902 E.89845
G1 X130.772 Y135.902 E.01679
M73 P7 R53
G1 X111.098 Y116.228 E.87471
G1 X111.098 Y116.763 E.01682
G1 X130.237 Y135.902 E.85092
G1 X129.702 Y135.902 E.01682
G1 X111.098 Y117.298 E.82714
G1 X111.098 Y117.832 E.01679
G1 X129.168 Y135.902 E.80339
G1 X128.633 Y135.902 E.01682
G1 X111.098 Y118.367 E.77961
G1 X111.098 Y118.902 E.01682
G1 X128.098 Y135.902 E.75582
G1 X127.563 Y135.902 E.01682
G1 X111.098 Y119.436 E.73206
G1 X111.098 Y119.971 E.01682
G1 X127.029 Y135.902 E.70829
G1 X126.494 Y135.902 E.01682
G1 X111.098 Y120.506 E.68451
G1 X111.098 Y121.041 E.01682
G1 X125.959 Y135.902 E.66072
G1 X125.425 Y135.902 E.01679
G1 X111.098 Y121.575 E.63698
G1 X111.098 Y122.11 E.01682
G1 X124.89 Y135.902 E.61319
G1 X124.355 Y135.902 E.01682
G1 X111.098 Y122.645 E.58941
G1 X111.098 Y123.179 E.01679
G1 X123.821 Y135.902 E.56567
G1 X123.286 Y135.902 E.01682
G1 X111.098 Y123.714 E.54188
G1 X111.098 Y124.249 E.01682
G1 X122.751 Y135.902 E.51809
G1 X122.216 Y135.902 E.01682
G1 X111.098 Y124.783 E.49433
G1 X111.098 Y125.318 E.01682
G1 X121.682 Y135.902 E.47057
G1 X121.147 Y135.902 E.01682
G1 X111.098 Y125.853 E.44678
G1 X111.098 Y126.387 E.01679
G1 X120.612 Y135.902 E.42302
G1 X120.078 Y135.902 E.01679
M73 P7 R52
G1 X111.098 Y126.922 E.39925
G1 X111.098 Y127.457 E.01682
G1 X119.543 Y135.902 E.37547
G1 X119.008 Y135.902 E.01682
G1 X111.098 Y127.992 E.35168
G1 X111.098 Y128.526 E.01679
G1 X118.474 Y135.902 E.32794
G1 X117.939 Y135.902 E.01682
G1 X111.098 Y129.061 E.30415
G1 X111.098 Y129.596 E.01682
G1 X117.404 Y135.902 E.28037
G1 X116.87 Y135.902 E.01679
G1 X111.098 Y130.13 E.25662
G1 X111.098 Y130.665 E.01682
G1 X116.335 Y135.902 E.23284
G1 X115.8 Y135.902 E.01682
G1 X111.098 Y131.2 E.20905
G1 X111.098 Y131.734 E.01679
G1 X115.265 Y135.902 E.18529
G1 X114.731 Y135.902 E.01679
G1 X111.098 Y132.269 E.16152
G1 X111.098 Y132.804 E.01682
G1 X114.196 Y135.902 E.13774
G1 X113.661 Y135.902 E.01682
G1 X111.098 Y133.339 E.11395
G1 X111.098 Y133.873 E.01679
G1 X113.127 Y135.902 E.09021
G1 X112.592 Y135.902 E.01682
G1 X111.098 Y134.408 E.06642
G1 X111.098 Y134.943 E.01682
G1 X112.057 Y135.902 E.04264
G1 X111.523 Y135.902 E.01679
G1 X110.928 Y135.308 E.02643
M204 S1000
; stop printing object cx_token2.stl id:0 copy 0
M106 S84.15
;LAYER_CHANGE
;Z:0.4
;HEIGHT:0.2
;BEFORE_LAYER_CHANGE
G92 E0.0
;0.4


;WIPE_START
G1 F8640
G1 X111.523 Y135.902 E-.19413
G1 X112.057 Y135.902 E-.1233
G1 X111.098 Y134.943 E-.31316
G1 X111.098 Y134.408 E-.12353
G1 X111.239 Y134.549 E-.04588
;WIPE_END
G1 Z.6 F720
;AFTER_LAYER_CHANGE
;0.4
;CURRENT_Z: 0.4
M104 S210 ; set temperature
G1 X107.623 Y134.549 F10800
G1 Z.4 F720
G1 E.8 F2100
;TYPE:Skirt/Brim
;WIDTH:0.42
G1 F3000
G1 X107.623 Y73.2 E1.92355
G1 X107.73 Y72.467 E.02323
G1 X107.918 Y72.004 E.01567
G1 X108.219 Y71.553 E.017
G1 X108.896 Y70.979 E.02783
G1 X109.393 Y70.754 E.01711
G1 X110.2 Y70.623 E.02563
G1 X140.039 Y70.635 E.93558
G1 X140.996 Y70.919 E.0313
G1 X141.781 Y71.553 E.03164
G1 X142.258 Y72.429 E.03127
G1 X142.377 Y73.2 E.02446
G1 X142.377 Y136.8 E1.99413
G1 X142.273 Y137.522 E.02287
G1 X142.082 Y137.996 E.01602
G1 X141.781 Y138.447 E.017
G1 X141.031 Y139.063 E.03043
G1 X140.526 Y139.272 E.01714
G1 X139.8 Y139.377 E.023
G1 X110.2 Y139.377 E.92809
G1 X109.474 Y139.272 E.023
G1 X109.004 Y139.081 E.01591
G1 X108.553 Y138.781 E.01698
G1 X107.937 Y138.031 E.03043
G1 X107.73 Y137.533 E.01691
G1 X107.623 Y136.8 E.02323
G1 X107.623 Y134.609 E.0687
; printing object cx_token2.stl id:0 copy 0
;WIPE_START
G1 F8640
G1 X107.623 Y131.144 E-.8
;WIPE_END
G1 Z.8 F720
G1 X139.368 Y73.635 F10800
G1 Z.4 F720
G1 E.8 F2100
M204 S800
;TYPE:Perimeter
;WIDTH:0.449999
G1 F3000
G1 X139.368 Y136.368 E2.12343
G1 X110.632 Y136.368 E.97268
M73 P8 R52
G1 X110.632 Y73.632 E2.12354
G1 X139.308 Y73.635 E.97065
M204 S1000
G1 X139.748 Y73.228 F10800
M204 S800
;TYPE:External perimeter
G1 F2400
G1 X139.775 Y73.242 E.00103
G1 X139.775 Y136.737 E2.14923
G1 X139.76 Y136.775 E.00138
G1 X110.262 Y136.775 E.99847
G1 X110.225 Y136.76 E.00135
G1 X110.225 Y73.253 E2.14963
G1 X110.24 Y73.225 E.00108
G1 X139.688 Y73.228 E.99678
M204 S1000
G1 X139.754 Y73.258 F10800
;WIPE_START
G1 F8640
G1 X139.775 Y73.242 E-.02035
G1 X139.775 Y76.619 E-.77965
;WIPE_END
G1 Z.8 F720
G1 X138.422 Y136.246 F10800
G1 Z.4 F720
G1 E.8 F2100
M204 S2000
;TYPE:Solid infill
;WIDTH:0.450468
G1 F3000
G1 X139.063 Y135.605 E.03072
G1 X139.063 Y135.029 E.01952
G1 X138.029 Y136.063 E.04955
G1 X137.453 Y136.063 E.01952
G1 X139.063 Y134.452 E.07718
G1 X139.063 Y133.876 E.01952
G1 X136.876 Y136.063 E.10481
G1 X136.3 Y136.063 E.01952
G1 X139.063 Y133.3 E.13242
G1 X139.063 Y132.723 E.01955
G1 X135.723 Y136.063 E.16007
G1 X135.147 Y136.063 E.01952
G1 X139.063 Y132.147 E.18767
G1 X139.063 Y131.571 E.01952
G1 X134.571 Y136.063 E.21528
G1 X133.994 Y136.063 E.01955
G1 X139.063 Y130.994 E.24293
G1 X139.063 Y130.418 E.01952
G1 X133.418 Y136.063 E.27053
G1 X132.842 Y136.063 E.01952
G1 X139.063 Y129.842 E.29814
G1 X139.063 Y129.265 E.01955
G1 X132.265 Y136.063 E.32579
G1 X131.689 Y136.063 E.01952
G1 X139.063 Y128.689 E.3534
G1 X139.063 Y128.112 E.01955
G1 X131.113 Y136.063 E.38102
G1 X130.536 Y136.063 E.01955
G1 X139.063 Y127.536 E.40865
G1 X139.063 Y126.96 E.01952
G1 X129.96 Y136.063 E.43626
G1 X129.383 Y136.063 E.01955
G1 X139.063 Y126.383 E.46391
G1 X139.063 Y125.807 E.01952
