; generated by PrusaSlicer 2.8.0 on 2024-09-21 at 14:29:46 UTC

; 

; external perimeters extrusion width = 0.45mm
; perimeters extrusion width = 0.45mm
; infill extrusion width = 0.45mm
; solid infill extrusion width = 0.45mm
; top infill extrusion width = 0.40mm
; first layer extrusion width = 0.42mm

M73 P0 R77
M201 X9000 Y9000 Z500 E10000 ; sets maximum accelerations, mm/sec^2
M203 X500 Y500 Z12 E120 ; sets maximum feedrates, mm / sec
M204 S2000 T1500 ; sets acceleration (S) and retract acceleration (R), mm/sec^2
M205 X10.00 Y10.00 Z0.20 E4.50 ; sets the jerk limits, mm/sec
M205 S0 T0 ; sets the minimum extruding and travel feed rate, mm/sec

; printing object cx_token.stl id:0 copy 0
; stop printing object cx_token.stl id:0 copy 0

;TYPE:Custom
M862.3 P "MK2.5" ; printer model check
M862.1 P0.4 ; nozzle diameter check
M115 U3.11.0 ; tell printer latest fw version
G90 ; use absolute coordinates
M83 ; extruder relative mode
M104 S215 ; set extruder temp
M140 S60 ; set bed temp
M190 S60 ; wait for bed temp
M109 S215 ; wait for extruder temp
G28 W ; home all without mesh bed level
G80 ; mesh bed leveling

G1 Z0.2 F720
G1 Y-3 F1000 ; go outside print area
G92 E0
G1 X60 E9 F1000 ; intro line
G1 X100 E12.5 F1000 ; intro line

G92 E0
G21 ; set units to millimeters
G90 ; use absolute coordinates
M83 ; use relative distances for extrusion
M900 K0.05 ; Filament gcode LA 1.5
M900 K30 ; Filament gcode LA 1.0
M107
;LAYER_CHANGE
;Z:0.2
;HEIGHT:0.2
G1 E-.8 F2100
G1 Z.6 F720
G1 X108.176 Y72.102 F10800
G1 Z.2 F720
G1 E.8 F2100
M204 S800
;TYPE:Skirt/Brim
;WIDTH:0.42
G1 F1200
G1 X108.426 Y71.728 E.01411
G1 X109.139 Y71.141 E.02896
G1 X109.688 Y70.913 E.01864
G1 X110.4 Y70.811 E.02255
G1 X139.817 Y70.822 E.92235
G1 X140.312 Y70.913 E.01578
G1 X140.792 Y71.104 E.0162
G1 X141.574 Y71.728 E.03137
G1 X142.063 Y72.61 E.03162
G1 X142.189 Y73.4 E.02508
G1 X142.189 Y136.6 E1.98159
G1 X142.086 Y137.315 E.02265
G1 X141.903 Y137.779 E.01564
G1 X141.574 Y138.272 E.01858
G1 X140.861 Y138.859 E.02896
G1 X140.312 Y139.087 E.01864
G1 X139.6 Y139.189 E.02255
G1 X110.4 Y139.189 E.91555
G1 X109.688 Y139.087 E.02255
G1 X109.208 Y138.896 E.0162
G1 X108.734 Y138.579 E.01788
G1 X108.134 Y137.848 E.02965
G1 X107.914 Y137.315 E.01808
G1 X107.812 Y136.6 E.02265
G1 X107.812 Y73.4 E1.98159
G1 X107.914 Y72.685 E.02265
M73 P0 R76
G1 X108.097 Y72.221 E.01564
G1 X108.143 Y72.152 E.0026
M204 S1000
;WIPE_START
G1 F8640
G1 X108.176 Y72.102 E-.01383
G1 X108.426 Y71.728 E-.10387
G1 X109.139 Y71.141 E-.21325
G1 X109.688 Y70.913 E-.13726
G1 X110.4 Y70.811 E-.16608
G1 X111.118 Y70.811 E-.16571
;WIPE_END
G1 Z.6 F720
; printing object cx_token.stl id:0 copy 0
G1 X139.075 Y74.039 F10800
G1 Z.2 F720
G1 E.8 F2100
M204 S800
;TYPE:Perimeter
;WIDTH:0.419999
G1 F1200
G1 X139.066 Y136.075 E1.94509
G1 X110.925 Y136.066 E.88234
G1 X110.934 Y73.925 E1.94838
G1 X139.075 Y73.934 E.88234
G1 X139.075 Y73.979 E.00141
M204 S1000
G1 X139.075 Y73.979 F10800
G1 X139.452 Y73.574
M204 S800
;TYPE:External perimeter
G1 F1200
G1 X139.443 Y136.452 E1.97149
G1 X110.548 Y136.443 E.90598
G1 X110.557 Y73.548 E1.97203
G1 X139.409 Y73.557 E.90463
M204 S1000
;WIPE_START
G1 F8640
G1 X139.452 Y73.574 E-.01068
G1 X139.451 Y76.992 E-.78932
;WIPE_END
G1 Z.6 F720
G1 X138.196 Y74.047 F10800
G1 Z.2 F720
G1 E.8 F2100
M204 S800
;TYPE:Solid infill
;WIDTH:0.421326
G1 F1200
G1 X138.792 Y74.642 E.0265
G1 X138.792 Y75.177 E.01683
G1 X137.831 Y74.216 E.04276
G1 X137.295 Y74.216 E.01687
G1 X138.792 Y75.712 E.06659
G1 X138.792 Y76.247 E.01683
G1 X136.76 Y74.216 E.0904
G1 X136.225 Y74.216 E.01683
G1 X138.792 Y76.783 E.11423
G1 X138.791 Y77.318 E.01683
G1 X135.689 Y74.216 E.13803
G1 X135.154 Y74.215 E.01683
G1 X138.791 Y77.853 E.16186
G1 X138.791 Y78.388 E.01683
G1 X134.619 Y74.215 E.18567
G1 X134.084 Y74.215 E.01683
G1 X138.791 Y78.923 E.20947
G1 X138.791 Y79.458 E.01683
G1 X133.548 Y74.215 E.2333
G1 X133.013 Y74.215 E.01683
G1 X138.791 Y79.993 E.25711
G1 X138.791 Y80.528 E.01683
G1 X132.478 Y74.215 E.28091
G1 X131.942 Y74.214 E.01687
G1 X138.791 Y81.063 E.30476
G1 X138.791 Y81.598 E.01683
G1 X131.407 Y74.214 E.32857
G1 X130.872 Y74.214 E.01683
G1 X138.791 Y82.133 E.35238
G1 X138.791 Y82.668 E.01683
G1 X130.336 Y74.214 E.37621
G1 X129.801 Y74.214 E.01683
G1 X138.791 Y83.203 E.40001
G1 X138.791 Y83.738 E.01683
G1 X129.266 Y74.214 E.42382
G1 X128.73 Y74.213 E.01687
G1 X138.79 Y84.273 E.44765
G1 X138.79 Y84.809 E.01687
G1 X128.195 Y74.213 E.47147
G1 X127.66 Y74.213 E.01683
G1 X138.79 Y85.344 E.49528
G1 X138.79 Y85.879 E.01683
G1 X127.124 Y74.213 E.51911
G1 X126.589 Y74.213 E.01683
G1 X138.79 Y86.414 E.54292
M73 P1 R76
G1 X138.79 Y86.949 E.01683
G1 X126.054 Y74.213 E.56672
G1 X125.519 Y74.212 E.01683
G1 X138.79 Y87.484 E.59055
G1 X138.79 Y88.019 E.01683
G1 X124.983 Y74.212 E.61438
G1 X124.448 Y74.212 E.01683
G1 X138.79 Y88.554 E.63819
G1 X138.79 Y89.089 E.01683
G1 X123.913 Y74.212 E.66199
G1 X123.377 Y74.212 E.01687
G1 X138.79 Y89.624 E.68582
G1 X138.79 Y90.159 E.01683
G1 X122.842 Y74.212 E.70963
G1 X122.307 Y74.211 E.01683
G1 X138.79 Y90.694 E.73345
G1 X138.789 Y91.229 E.01683
G1 X121.771 Y74.211 E.75726
G1 X121.236 Y74.211 E.01683
G1 X138.789 Y91.764 E.78107
G1 X138.789 Y92.3 E.01687
G1 X120.701 Y74.211 E.8049
G1 X120.165 Y74.211 E.01687
G1 X138.789 Y92.835 E.82872
G1 X138.789 Y93.37 E.01683
G1 X119.63 Y74.211 E.85253
G1 X119.095 Y74.21 E.01683
G1 X138.789 Y93.905 E.87636
G1 X138.789 Y94.44 E.01683
G1 X118.559 Y74.21 E.90019
G1 X118.024 Y74.21 E.01683
G1 X138.789 Y94.975 E.92399
G1 X138.789 Y95.51 E.01683
G1 X117.489 Y74.21 E.9478
G1 X116.954 Y74.21 E.01683
G1 X138.789 Y96.045 E.97161
G1 X138.789 Y96.58 E.01683
G1 X116.418 Y74.21 E.99543
G1 X115.883 Y74.209 E.01683
G1 X138.789 Y97.115 E1.01926
G1 X138.789 Y97.65 E.01683
G1 X115.348 Y74.209 E1.04307
G1 X114.812 Y74.209 E.01687
G1 X138.788 Y98.185 E1.06688
G1 X138.788 Y98.72 E.01683
M73 P1 R75
G1 X114.277 Y74.209 E1.09068
G1 X113.742 Y74.209 E.01683
G1 X138.788 Y99.255 E1.11449
G1 X138.788 Y99.79 E.01683
G1 X113.206 Y74.209 E1.13832
G1 X112.671 Y74.208 E.01683
G1 X138.788 Y100.326 E1.16217
G1 X138.788 Y100.861 E.01683
G1 X112.136 Y74.208 E1.18597
G1 X111.6 Y74.208 E.01687
G1 X138.788 Y101.396 E1.2098
G1 X138.788 Y101.931 E.01683
G1 X111.217 Y74.36 E1.22684
G1 X111.217 Y74.895 E.01683
G1 X138.788 Y102.466 E1.22684
G1 X138.788 Y103.001 E.01683
G1 X111.217 Y75.43 E1.22684
G1 X111.217 Y75.965 E.01683
M73 P2 R75
G1 X138.788 Y103.536 E1.22684
G1 X138.788 Y104.071 E.01683
G1 X111.217 Y76.5 E1.22684
G1 X111.217 Y77.035 E.01683
G1 X138.788 Y104.606 E1.22684
G1 X138.787 Y105.141 E.01683
G1 X111.217 Y77.57 E1.22682
G1 X111.216 Y78.105 E.01683
G1 X138.787 Y105.676 E1.22684
G1 X138.787 Y106.211 E.01683
G1 X111.216 Y78.64 E1.22684
G1 X111.216 Y79.175 E.01683
G1 X138.787 Y106.746 E1.22684
G1 X138.787 Y107.281 E.01683
G1 X111.216 Y79.711 E1.22682
G1 X111.216 Y80.246 E.01683
G1 X138.787 Y107.817 E1.22684
G1 X138.787 Y108.352 E.01683
G1 X111.216 Y80.781 E1.22684
G1 X111.216 Y81.316 E.01683
G1 X138.787 Y108.887 E1.22684
G1 X138.787 Y109.422 E.01683
G1 X111.216 Y81.851 E1.22684
G1 X111.216 Y82.386 E.01683
G1 X138.787 Y109.957 E1.22684
G1 X138.787 Y110.492 E.01683
G1 X111.216 Y82.921 E1.22684
G1 X111.216 Y83.456 E.01683
G1 X138.787 Y111.027 E1.22684
G1 X138.787 Y111.562 E.01683
G1 X111.216 Y83.991 E1.22684
G1 X111.216 Y84.526 E.01683
G1 X138.786 Y112.097 E1.22682
G1 X138.786 Y112.632 E.01683
G1 X111.215 Y85.061 E1.22684
G1 X111.215 Y85.596 E.01683
G1 X138.786 Y113.167 E1.22684
G1 X138.786 Y113.702 E.01683
G1 X111.215 Y86.131 E1.22684
G1 X111.215 Y86.666 E.01683
G1 X138.786 Y114.237 E1.22684
G1 X138.786 Y114.772 E.01683
G1 X111.215 Y87.202 E1.22682
G1 X111.215 Y87.737 E.01683
M73 P2 R74
G1 X138.786 Y115.308 E1.22684
G1 X138.786 Y115.843 E.01683
M73 P3 R74
G1 X111.215 Y88.272 E1.22684
G1 X111.215 Y88.807 E.01683
G1 X138.786 Y116.378 E1.22684
G1 X138.786 Y116.913 E.01683
G1 X111.215 Y89.342 E1.22684
G1 X111.215 Y89.877 E.01683
G1 X138.786 Y117.448 E1.22684
G1 X138.786 Y117.983 E.01683
G1 X111.215 Y90.412 E1.22684
G1 X111.215 Y90.947 E.01683
G1 X138.786 Y118.518 E1.22684
G1 X138.785 Y119.053 E.01683
G1 X111.215 Y91.482 E1.22682
G1 X111.214 Y92.017 E.01683
G1 X138.785 Y119.588 E1.22684
G1 X138.785 Y120.123 E.01683
G1 X111.214 Y92.552 E1.22684
G1 X111.214 Y93.087 E.01683
G1 X138.785 Y120.658 E1.22684
G1 X138.785 Y121.193 E.01683
G1 X111.214 Y93.622 E1.22684
G1 X111.214 Y94.157 E.01683
G1 X138.785 Y121.728 E1.22684
G1 X138.785 Y122.263 E.01683
G1 X111.214 Y94.692 E1.22684
G1 X111.214 Y95.228 E.01687
G1 X138.785 Y122.798 E1.22682
G1 X138.785 Y123.334 E.01687
G1 X111.214 Y95.763 E1.22684
G1 X111.214 Y96.298 E.01683
G1 X138.785 Y123.869 E1.22684
G1 X138.785 Y124.404 E.01683
G1 X111.214 Y96.833 E1.22684
G1 X111.214 Y97.368 E.01683
G1 X138.785 Y124.939 E1.22684
G1 X138.785 Y125.474 E.01683
G1 X111.214 Y97.903 E1.22684
G1 X111.213 Y98.438 E.01683
G1 X138.784 Y126.009 E1.22684
G1 X138.784 Y126.544 E.01683
G1 X111.213 Y98.973 E1.22684
G1 X111.213 Y99.508 E.01683
G1 X138.784 Y127.079 E1.22684
G1 X138.784 Y127.614 E.01683
G1 X111.213 Y100.043 E1.22684
G1 X111.213 Y100.578 E.01683
G1 X138.784 Y128.149 E1.22684
G1 X138.784 Y128.684 E.01683
M73 P4 R74
G1 X111.213 Y101.113 E1.22684
G1 X111.213 Y101.648 E.01683
G1 X138.784 Y129.219 E1.22684
G1 X138.784 Y129.754 E.01683
G1 X111.213 Y102.183 E1.22684
G1 X111.213 Y102.719 E.01687
G1 X138.784 Y130.289 E1.22682
G1 X138.784 Y130.825 E.01687
G1 X111.213 Y103.254 E1.22684
G1 X111.213 Y103.789 E.01683
M73 P4 R73
G1 X138.784 Y131.36 E1.22684
G1 X138.784 Y131.895 E.01683
G1 X111.213 Y104.324 E1.22684
G1 X111.213 Y104.859 E.01683
G1 X138.783 Y132.43 E1.22682
G1 X138.783 Y132.965 E.01683
G1 X111.212 Y105.394 E1.22684
G1 X111.212 Y105.929 E.01683
G1 X138.783 Y133.5 E1.22684
G1 X138.783 Y134.035 E.01683
G1 X111.212 Y106.464 E1.22684
G1 X111.212 Y106.999 E.01683
G1 X138.783 Y134.57 E1.22684
G1 X138.783 Y135.105 E.01683
G1 X111.212 Y107.534 E1.22684
G1 X111.212 Y108.069 E.01683
G1 X138.783 Y135.64 E1.22684
G1 X138.783 Y135.792 E.00478
G1 X138.4 Y135.792 E.01205
G1 X111.212 Y108.604 E1.2098
G1 X111.212 Y109.139 E.01683
G1 X137.864 Y135.792 E1.18597
G1 X137.329 Y135.792 E.01683
G1 X111.212 Y109.674 E1.16217
G1 X111.212 Y110.209 E.01683
G1 X136.794 Y135.791 E1.13834
G1 X136.258 Y135.791 E.01687
G1 X111.212 Y110.745 E1.11449
G1 X111.212 Y111.28 E.01683
G1 X135.723 Y135.791 E1.09068
G1 X135.188 Y135.791 E.01683
G1 X111.212 Y111.815 E1.06688
G1 X111.211 Y112.35 E.01683
G1 X134.652 Y135.791 E1.04307
G1 X134.117 Y135.791 E.01683
G1 X111.211 Y112.885 E1.01926
G1 X111.211 Y113.42 E.01683
G1 X133.582 Y135.79 E.99543
G1 X133.046 Y135.79 E.01687
M73 P5 R73
G1 X111.211 Y113.955 E.97161
G1 X111.211 Y114.49 E.01683
G1 X132.511 Y135.79 E.9478
G1 X131.976 Y135.79 E.01683
G1 X111.211 Y115.025 E.92399
G1 X111.211 Y115.56 E.01683
G1 X131.441 Y135.79 E.90019
G1 X130.905 Y135.79 E.01687
G1 X111.211 Y116.095 E.87636
G1 X111.211 Y116.63 E.01683
G1 X130.37 Y135.789 E.85253
G1 X129.835 Y135.789 E.01683
G1 X111.211 Y117.165 E.82872
G1 X111.211 Y117.7 E.01683
G1 X129.299 Y135.789 E.8049
G1 X128.764 Y135.789 E.01683
G1 X111.211 Y118.236 E.78107
G1 X111.211 Y118.771 E.01683
G1 X128.229 Y135.789 E.75726
G1 X127.693 Y135.789 E.01687
G1 X111.21 Y119.306 E.73345
G1 X111.21 Y119.841 E.01683
G1 X127.158 Y135.788 E.70963
G1 X126.623 Y135.788 E.01683
G1 X111.21 Y120.376 E.68582
G1 X111.21 Y120.911 E.01683
G1 X126.087 Y135.788 E.66199
G1 X125.552 Y135.788 E.01683
G1 X111.21 Y121.446 E.63819
G1 X111.21 Y121.981 E.01683
G1 X125.017 Y135.788 E.61438
G1 X124.481 Y135.788 E.01687
G1 X111.21 Y122.516 E.59055
G1 X111.21 Y123.051 E.01683
G1 X123.946 Y135.787 E.56672
G1 X123.411 Y135.787 E.01683
G1 X111.21 Y123.586 E.54292
G1 X111.21 Y124.121 E.01683
G1 X122.876 Y135.787 E.51911
G1 X122.34 Y135.787 E.01687
M73 P5 R72
G1 X111.21 Y124.656 E.49528
G1 X111.21 Y125.191 E.01683
G1 X121.805 Y135.787 E.47147
G1 X121.27 Y135.787 E.01683
G1 X111.21 Y125.727 E.44765
G1 X111.209 Y126.262 E.01683
G1 X120.734 Y135.786 E.42382
G1 X120.199 Y135.786 E.01683
G1 X111.209 Y126.797 E.40001
G1 X111.209 Y127.332 E.01683
G1 X119.664 Y135.786 E.37621
G1 X119.128 Y135.786 E.01687
G1 X111.209 Y127.867 E.35238
G1 X111.209 Y128.402 E.01683
G1 X118.593 Y135.786 E.32857
G1 X118.058 Y135.786 E.01683
G1 X111.209 Y128.937 E.30476
G1 X111.209 Y129.472 E.01683
G1 X117.522 Y135.785 E.28091
G1 X116.987 Y135.785 E.01683
G1 X111.209 Y130.007 E.25711
G1 X111.209 Y130.542 E.01683
G1 X116.452 Y135.785 E.2333
G1 X115.916 Y135.785 E.01687
G1 X111.209 Y131.077 E.20947
G1 X111.209 Y131.612 E.01683
G1 X115.381 Y135.785 E.18567
G1 X114.846 Y135.785 E.01683
G1 X111.209 Y132.147 E.16186
G1 X111.209 Y132.682 E.01683
G1 X114.311 Y135.784 E.13803
G1 X113.775 Y135.784 E.01687
G1 X111.208 Y133.217 E.11423
G1 X111.208 Y133.753 E.01687
G1 X113.24 Y135.784 E.0904
G1 X112.705 Y135.784 E.01683
G1 X111.208 Y134.288 E.06659
G1 X111.208 Y134.823 E.01683
G1 X112.169 Y135.784 E.04276
G1 X111.634 Y135.784 E.01683
G1 X111.038 Y135.188 E.02652
M204 S1000
M106 S84.15
;LAYER_CHANGE
;Z:0.4
;HEIGHT:0.2
;BEFORE_LAYER_CHANGE
G92 E0.0
;0.4


;WIPE_START
G1 F8640
G1 X111.634 Y135.784 E-.19462
G1 X112.169 Y135.784 E-.12353
G1 X111.208 Y134.823 E-.31381
G1 X111.208 Y134.288 E-.12353
G1 X111.344 Y134.424 E-.04451
;WIPE_END
G1 Z.4 F720
;AFTER_LAYER_CHANGE
;0.4
;CURRENT_Z: 0.4
M104 S210 ; set temperature
; stop printing object cx_token.stl id:0 copy 0
G1 Z.8
G1 X107.812 Y134.424 F10800
G1 Z.4 F720
G1 E.8 F2100
;TYPE:Skirt/Brim
;WIDTH:0.42
G1 F3000
G1 X107.812 Y73.4 E1.91336
G1 X107.914 Y72.685 E.02265
G1 X108.097 Y72.221 E.01564
G1 X108.426 Y71.728 E.01858
G1 X109.139 Y71.141 E.02896
G1 X109.688 Y70.913 E.01864
G1 X110.4 Y70.811 E.02255
G1 X139.817 Y70.822 E.92235
G1 X140.312 Y70.913 E.01578
G1 X140.792 Y71.104 E.0162
G1 X141.574 Y71.728 E.03137
G1 X142.063 Y72.61 E.03162
G1 X142.189 Y73.4 E.02508
G1 X142.189 Y136.6 E1.98159
G1 X142.086 Y137.315 E.02265
G1 X141.903 Y137.779 E.01564
G1 X141.574 Y138.272 E.01858
G1 X140.861 Y138.859 E.02896
G1 X140.312 Y139.087 E.01864
G1 X139.6 Y139.189 E.02255
G1 X110.4 Y139.189 E.91555
G1 X109.688 Y139.087 E.02255
G1 X109.208 Y138.896 E.0162
G1 X108.734 Y138.579 E.01788
G1 X108.134 Y137.848 E.02965
G1 X107.914 Y137.315 E.01808
G1 X107.812 Y136.6 E.02265
G1 X107.812 Y134.484 E.06635
;WIPE_START
G1 F8640
G1 X107.812 Y134.424 E-.01385
G1 X107.812 Y131.019 E-.78615
;WIPE_END
G1 Z.8 F720
; printing object cx_token.stl id:0 copy 0
G1 X139.354 Y73.72 F10800
G1 Z.4 F720
G1 E.8 F2100
M204 S800
;TYPE:Perimeter
;WIDTH:0.449999
G1 F3000
G1 X139.354 Y136.354 E2.12008
G1 X110.646 Y136.354 E.97173
G1 X110.646 Y73.646 E2.12259
G1 X139.354 Y73.653 E.97173
G1 X139.354 Y73.66 E.00024
M204 S1000
G1 X139.354 Y73.66 F10800
G1 X139.653 Y73.287
M204 S800
;TYPE:External perimeter
G1 F2400
G1 X139.712 Y73.306 E.0021
G1 X139.761 Y73.48 E.00612
G1 X139.761 Y136.519 E2.13379
G1 X139.706 Y136.711 E.00676
G1 X139.573 Y136.761 E.00481
G1 X110.452 Y136.761 E.98571
G1 X110.3 Y136.701 E.00553
G1 X110.239 Y136.573 E.0048
G1 X110.239 Y73.481 E2.13559
G1 X110.294 Y73.289 E.00676
M73 P6 R72
G1 X110.427 Y73.239 E.00481
G1 X139.527 Y73.246 E.985
G1 X139.596 Y73.269 E.00246
M204 S1000
;WIPE_START
G1 F8640
G1 X139.653 Y73.287 E-.0138
G1 X139.712 Y73.306 E-.01431
G1 X139.761 Y73.48 E-.04174
G1 X139.761 Y76.642 E-.73015
;WIPE_END
G1 Z.8 F720
G1 X111.062 Y73.985 F10800
G1 Z.4 F720
G1 E.8 F2100
M204 S2000
;TYPE:Solid infill
;WIDTH:0.54873
G1 F3000
G1 X111.017 Y73.94 E.00268
G1 X110.956 Y73.956 E.00265
G1 X110.94 Y74.017 E.00265
G1 X110.985 Y74.062 E.00268
G1 X111.046 Y74.046 E.00265
;WIDTH:0.449999
G1 X111.696 Y73.952 E.02223
G1 X110.885 Y74.769 E.03897
;WIDTH:0.41646
G1 X110.819 Y74.841 E.00303
;WIDTH:0.38292
G1 X110.748 Y74.822 E.00208
G1 X110.767 Y74.893 E.00208
G1 X110.808 Y74.882 E.0012
;WIDTH:0.449999
G1 X110.952 Y75.272 E.01407
G1 X112.271 Y73.952 E.06316
G1 X112.847 Y73.952 E.0195
G1 X110.952 Y75.847 E.09071
G1 X110.952 Y76.423 E.0195
G1 X113.423 Y73.952 E.11829
G1 X113.998 Y73.952 E.01946
G1 X110.952 Y76.999 E.14583
G1 X110.952 Y77.574 E.01946
G1 X114.574 Y73.953 E.17336
