; generated by PrusaSlicer 2.5.0-alpha2+linux-x64-GTK3 on 2022-08-29 at 00:56:12 UTC



; 



; external perimeters extrusion width = 0.45mm

; perimeters extrusion width = 0.45mm

; infill extrusion width = 0.45mm

; solid infill extrusion width = 0.45mm

; top infill extrusion width = 0.40mm

; first layer extrusion width = 0.42mm



M73 P0 R130

M107

;TYPE:Custom

M862.3 P "MK2.5" ; printer model check

M862.1 P0.4 ; nozzle diameter check

M115 U3.9.1 ; tell printer latest fw version

G90 ; use absolute coordinates

M83 ; extruder relative mode

M104 S215 ; set extruder temp

M140 S60 ; set bed temp

M190 S60 ; wait for bed temp

M109 S215 ; wait for extruder temp

G28 W ; home all without mesh bed level

G80 ; mesh bed leveling

G1 Y-3.0 F1000.0 ; go outside print area

G92 E0.0

G1 X60.0 E9.0 F1000.0 ; intro line

G1 X100.0 E12.5 F1000.0 ; intro line

G92 E0.0

G21 ; set units to millimeters

G90 ; use absolute coordinates

M83 ; use relative distances for extrusion

M900 K0.05 ; Filament gcode LA 1.5

M900 K30 ; Filament gcode LA 1.0

M107

;LAYER_CHANGE

;Z:0.2

;HEIGHT:0.2

;BEFORE_LAYER_CHANGE

G92 E0.0

;0.2





G1 E-.8 F2100

G1 Z.6 F10800

;AFTER_LAYER_CHANGE

;0.2

;CURRENT_Z: 0.2

G1 X105.537 Y69.816

G1 Z.2

G1 E.8 F2100

M204 S1000

;TYPE:Skirt/Brim

;WIDTH:0.42

G1 F1200

G1 X106.434 Y68.788 E.04278

G1 X107.7 Y68.423 E.0413

G1 X172.7 Y68.423 E2.03803

G1 X174.007 Y68.815 E.04278

G1 X174.884 Y69.861 E.04278

G1 X175.077 Y70.8 E.03008

G1 X175.077 Y139.2 E2.14461

G1 X174.686 Y140.507 E.04278

G1 X173.64 Y141.383 E.04278

G1 X172.7 Y141.577 E.03008

G1 X77.3 Y141.577 E2.9912

G1 X75.993 Y141.185 E.04278

G1 X75.117 Y140.139 E.04278

G1 X74.923 Y139.2 E.03008

G1 X74.923 Y137.6 E.05016

G1 X75.136 Y136.615 E.03159

G1 X105.512 Y69.87 E2.29927

;WIPE_START

G1 F8640

G1 X106.434 Y68.788 E-.32835

G1 X107.7 Y68.423 E-.30418

G1 X108.252 Y68.423 E-.12748

;WIPE_END

G1 E-.04 F2100

G1 Z.8 F10800

G1 X108.487 Y71.587

G1 Z.2

G1 E.8 F2100

;TYPE:Perimeter

;WIDTH:0.419999

G1 F1200

G1 X171.913 Y71.587 E1.98867

G1 X171.913 Y138.413 E2.09525

G1 X109.078 Y138.413 E1.97013

;WIDTH:0.454434

G1 X108.022 Y138.395 E.03615

G1 X108.487 Y137.821 E.02528

;WIDTH:0.419999

G1 X108.487 Y113.701 E.75628

G1 X108.487 Y110.44 E.10224

;WIDTH:0.457836

G1 X108.506 Y109.576 E.02982

;WIDTH:0.495673

G1 X108.525 Y108.712 E.03254

;WIDTH:0.533509

G1 X108.544 Y107.848 E.03526

;WIDTH:0.572792

G1 X108.564 Y107.668 E.00796

G1 X108.542 Y106.804 E.03808

;WIDTH:0.530427

G1 X108.521 Y105.94 E.03503

;WIDTH:0.488062

G1 X108.5 Y105.076 E.03199

;WIDTH:0.445697

G1 X108.5 Y104.924 E.00511

;WIDTH:0.488062

G1 X108.521 Y104.06 E.03199

;WIDTH:0.530427

G1 X108.542 Y103.196 E.03503

;WIDTH:0.572792

G1 X108.564 Y102.332 E.03808

G1 X108.546 Y102.242 E.00403

;WIDTH:0.538308

G1 X108.529 Y102.152 E.00377

;WIDTH:0.503823

G1 X108.508 Y100.856 E.04968

;WIDTH:0.461911

G1 X108.487 Y99.56 E.04516

;WIDTH:0.419999

G1 X108.487 Y71.647 E.87518

G1 X108.11 Y71.21 F10800

;TYPE:External perimeter

M73 P0 R129

G1 F1200

G1 X172.29 Y71.21 E2.01231

G1 X172.29 Y138.79 E2.1189

G1 X77.71 Y138.79 E2.96549

G1 X77.71 Y138.4 E.01223

G1 X77.71 Y138.01 E.01223

G1 X107.922 Y138.01 E.94726

G1 X108.11 Y137.821 E.00836

G1 X108.11 Y113.701 E.75628

G1 X108.11 Y110.44 E.10224

G1 X108.11 Y107.848 E.08128

G1 X108.11 Y102.332 E.17295

G1 X108.11 Y102.152 E.00563

G1 X108.11 Y99.56 E.08128

G1 X108.11 Y71.27 E.887

;WIPE_START

G1 F8640

G1 X111.402 Y71.267 E-.76

;WIPE_END

G1 E-.04 F2100

G1 Z.8 F10800

G1 X108.022 Y138.395

G1 Z.2

G1 E.8 F2100

;TYPE:Perimeter

;WIDTH:0.454434

G1 F1200

G1 X107.922 Y138.4 E.00345

;WIDTH:0.445668

G1 X78.1 Y138.4 E.99869

;WIPE_START

G1 F8640

G1 X81.391 Y138.4 E-.76

;WIPE_END

G1 E-.04 F2100

G1 Z.8 F10800

G1 X109.862 Y109.98

G1 Z.2

G1 E.8 F2100

;WIDTH:0.457836

G1 F1200

G1 X109.673 Y109.403 E.02096

;WIDTH:0.495673

G1 X109.404 Y108.581 E.03254

;WIDTH:0.533509

G1 X109.136 Y107.76 E.03526

;WIDTH:0.572792

G1 X109.092 Y107.642 E.00553

G1 X109.029 Y106.78 E.03808

;WIDTH:0.530427

G1 X108.965 Y105.918 E.03503

;WIDTH:0.488062

G1 X108.902 Y105.057 E.03199

;WIDTH:0.445697

G1 X108.902 Y104.943 E.00379

;WIDTH:0.488062

G1 X108.965 Y104.082 E.03199

;WIDTH:0.530427

G1 X109.029 Y103.22 E.03503

;WIDTH:0.572792

G1 X109.092 Y102.358 E.03808

G1 X109.121 Y102.301 E.0028

;WIDTH:0.538308

G1 X109.15 Y102.244 E.00262

;WIDTH:0.503823

G1 X109.546 Y101.01 E.04968

;WIDTH:0.461911

G1 X109.942 Y99.776 E.04516

;WIDTH:0.419999

G1 X109.985 Y99.673 E.00348

G1 X111.207 Y97.387 E.08129

G1 X111.269 Y97.295 E.00348

G1 X112.913 Y95.292 E.08126

G1 X112.991 Y95.213 E.00347

G1 X114.995 Y93.569 E.08126

G1 X115.087 Y93.507 E.00348

G1 X117.373 Y92.285 E.08129

G1 X117.476 Y92.243 E.00348

G1 X119.956 Y91.49 E.08128

G1 X120.065 Y91.468 E.00348

G1 X122.644 Y91.215 E.08126

G1 X122.755 Y91.215 E.00347

G1 X125.334 Y91.468 E.08126

G1 X125.443 Y91.49 E.00348

G1 X127.924 Y92.243 E.08128

G1 X128.026 Y92.285 E.00348

G1 X130.313 Y93.507 E.08129

G1 X130.405 Y93.569 E.00348

G1 X132.408 Y95.213 E.08126

G1 X132.486 Y95.292 E.00347

G1 X134.131 Y97.295 E.08126

G1 X134.192 Y97.387 E.00348

G1 X135.415 Y99.673 E.08129

G1 X135.457 Y99.776 E.00348

G1 X136.21 Y102.256 E.08128

G1 X136.231 Y102.365 E.00348

G1 X136.485 Y104.945 E.08126

G1 X136.485 Y105.055 E.00347

G1 X136.231 Y107.635 E.08126

G1 X136.21 Y107.744 E.00348

G1 X135.457 Y110.224 E.08128

G1 X135.415 Y110.327 E.00348

G1 X134.192 Y112.613 E.08129

G1 X134.131 Y112.705 E.00348

G1 X132.486 Y114.708 E.08126

G1 X132.408 Y114.787 E.00347

G1 X130.405 Y116.431 E.08126

G1 X130.313 Y116.493 E.00348

G1 X128.026 Y117.715 E.08129

G1 X127.924 Y117.757 E.00348

G1 X125.443 Y118.51 E.08128

G1 X125.334 Y118.532 E.00348

G1 X122.755 Y118.785 E.08126

G1 X122.644 Y118.785 E.00347

G1 X120.065 Y118.532 E.08126

G1 X119.956 Y118.51 E.00348

G1 X117.476 Y117.757 E.08128

G1 X117.373 Y117.715 E.00348

G1 X115.087 Y116.493 E.08129

G1 X114.995 Y116.431 E.00348

G1 X112.991 Y114.787 E.08126

G1 X112.913 Y114.708 E.00347

G1 X111.269 Y112.705 E.08126

G1 X111.207 Y112.613 E.00348

G1 X109.985 Y110.327 E.08129

G1 X109.942 Y110.224 E.00348

;WIDTH:0.457836

G1 X109.881 Y110.037 E.00678

G1 X110.303 Y110.115 F10800

;TYPE:External perimeter

;WIDTH:0.419999

G1 F1200

G1 X109.551 Y107.634 E.08128

G1 X109.543 Y107.598 E.00116

G1 X109.29 Y105.018 E.08126

G1 X109.29 Y104.982 E.00116

G1 X109.543 Y102.402 E.08126

G1 X109.551 Y102.366 E.00116

G1 X110.303 Y99.885 E.08128

G1 X110.317 Y99.851 E.00116

G1 X111.54 Y97.565 E.08129

G1 X111.56 Y97.534 E.00116

G1 X113.205 Y95.531 E.08126

G1 X113.231 Y95.505 E.00116

G1 X115.234 Y93.86 E.08126

G1 X115.265 Y93.84 E.00116

G1 X117.551 Y92.618 E.08129

G1 X117.585 Y92.603 E.00116

G1 X120.066 Y91.851 E.08128

G1 X120.102 Y91.844 E.00116

G1 X122.681 Y91.59 E.08126

G1 X122.718 Y91.59 E.00116

G1 X125.298 Y91.844 E.08126

G1 X125.334 Y91.851 E.00116

G1 X127.814 Y92.603 E.08128

G1 X127.849 Y92.618 E.00116

G1 X130.135 Y93.84 E.08129

G1 X130.166 Y93.86 E.00116

G1 X132.169 Y95.505 E.08126

G1 X132.195 Y95.531 E.00116

G1 X133.839 Y97.534 E.08126

G1 X133.86 Y97.565 E.00116

G1 X135.082 Y99.851 E.08129

G1 X135.096 Y99.885 E.00116

G1 X135.849 Y102.366 E.08128

G1 X135.856 Y102.402 E.00116

G1 X136.11 Y104.982 E.08126

G1 X136.11 Y105.018 E.00116

G1 X135.856 Y107.598 E.08126

G1 X135.849 Y107.634 E.00116

G1 X135.096 Y110.115 E.08128

G1 X135.082 Y110.149 E.00116

G1 X133.86 Y112.435 E.08129

G1 X133.839 Y112.466 E.00116

G1 X132.195 Y114.469 E.08126

G1 X132.169 Y114.495 E.00116

G1 X130.166 Y116.14 E.08126

G1 X130.135 Y116.16 E.00116

G1 X127.849 Y117.382 E.08129

G1 X127.814 Y117.397 E.00116

G1 X125.334 Y118.149 E.08128

G1 X125.298 Y118.156 E.00116

G1 X122.718 Y118.41 E.08126

G1 X122.681 Y118.41 E.00116

G1 X120.102 Y118.156 E.08126

G1 X120.066 Y118.149 E.00116

G1 X117.585 Y117.397 E.08128

G1 X117.551 Y117.382 E.00116

G1 X115.265 Y116.16 E.08129

G1 X115.234 Y116.14 E.00116

G1 X113.231 Y114.495 E.08126

G1 X113.205 Y114.469 E.00116

G1 X111.56 Y112.466 E.08126

G1 X111.54 Y112.435 E.00116

G1 X110.328 Y110.169 E.08057

;WIPE_START

G1 F8640

G1 X109.551 Y107.634 E-.61226

;WIPE_END

G1 E-.18774 F2100

G1 Z.8 F10800

G1 X109.323 Y108.796

G1 Z.2

G1 E.8 F2100

;TYPE:Solid infill

;WIDTH:0.420585

G1 F1200

G1 X108.862 Y108.335 E.02048

G1 X108.84 Y108.846 E.01608

G1 X109.338 Y109.345 E.02214

G1 X109.632 Y110.173 E.0276

G1 X108.817 Y109.358 E.03619

G1 X108.795 Y109.87 E.01608

G1 X110.138 Y111.212 E.05963

G1 X110.751 Y112.36 E.04087

G1 X108.773 Y110.381 E.08787

G1 X108.77 Y110.913 E.01669

G1 X135.987 Y138.13 E1.20872

G1 X135.453 Y138.13 E.01677

G1 X108.77 Y111.447 E1.185

G1 X108.77 Y111.981 E.01677

G1 X134.919 Y138.13 E1.16128

G1 X134.385 Y138.13 E.01677

G1 X108.77 Y112.515 E1.13756

G1 X108.77 Y113.049 E.01677

G1 X133.85 Y138.13 E1.11384

G1 X133.316 Y138.13 E.01677

G1 X108.77 Y113.583 E1.09012

G1 X108.77 Y114.118 E.01677

G1 X132.782 Y138.13 E1.0664

G1 X132.248 Y138.13 E.01677

G1 X108.77 Y114.652 E1.04268

G1 X108.77 Y115.186 E.01677

M73 P1 R129

G1 X131.714 Y138.13 E1.01896

G1 X131.18 Y138.13 E.01677

G1 X108.77 Y115.72 E.99524

G1 X108.77 Y116.254 E.01677

G1 X130.646 Y138.13 E.97152

G1 X130.112 Y138.13 E.01677

G1 X108.77 Y116.788 E.9478

G1 X108.77 Y117.322 E.01677

G1 X129.578 Y138.13 E.92408

G1 X129.044 Y138.13 E.01677

G1 X108.77 Y117.856 E.90036

G1 X108.77 Y118.39 E.01677

G1 X128.509 Y138.13 E.87664

G1 X127.975 Y138.13 E.01677

G1 X108.77 Y118.924 E.85292

G1 X108.77 Y119.459 E.01677

G1 X127.441 Y138.13 E.8292

G1 X126.907 Y138.13 E.01677

G1 X108.77 Y119.993 E.80548

G1 X108.77 Y120.527 E.01677

G1 X126.373 Y138.13 E.78176

G1 X125.839 Y138.13 E.01677

G1 X108.77 Y121.061 E.75804

G1 X108.77 Y121.595 E.01677

M73 P1 R128

G1 X125.305 Y138.13 E.73432

G1 X124.771 Y138.13 E.01677

G1 X108.77 Y122.129 E.7106

G1 X108.77 Y122.663 E.01677

G1 X124.237 Y138.13 E.68688

G1 X123.703 Y138.13 E.01677

G1 X108.77 Y123.197 E.66316

G1 X108.77 Y123.731 E.01677

G1 X123.168 Y138.13 E.63944

G1 X122.634 Y138.13 E.01677

G1 X108.77 Y124.265 E.61573

G1 X108.77 Y124.799 E.01677

G1 X122.1 Y138.13 E.59201

G1 X121.566 Y138.13 E.01677

G1 X108.77 Y125.334 E.56829

G1 X108.77 Y125.868 E.01677

G1 X121.032 Y138.13 E.54457

G1 X120.498 Y138.13 E.01677

G1 X108.77 Y126.402 E.52085

G1 X108.77 Y126.936 E.01677

G1 X119.964 Y138.13 E.49713

G1 X119.43 Y138.13 E.01677

G1 X108.77 Y127.47 E.47341

G1 X108.77 Y128.004 E.01677

G1 X118.896 Y138.13 E.44969

G1 X118.362 Y138.13 E.01677

G1 X108.77 Y128.538 E.42597

G1 X108.77 Y129.072 E.01677

G1 X117.827 Y138.13 E.40225

G1 X117.293 Y138.13 E.01677

G1 X108.77 Y129.606 E.37853

G1 X108.77 Y130.14 E.01677

G1 X116.759 Y138.13 E.35481

G1 X116.225 Y138.13 E.01677

G1 X108.77 Y130.675 E.33109

G1 X108.77 Y131.209 E.01677

G1 X115.691 Y138.13 E.30737

G1 X115.157 Y138.13 E.01677

G1 X108.77 Y131.743 E.28365

G1 X108.77 Y132.277 E.01677

G1 X114.623 Y138.13 E.25993

G1 X114.089 Y138.13 E.01677

G1 X108.77 Y132.811 E.23621

G1 X108.77 Y133.345 E.01677

G1 X113.555 Y138.13 E.21249

G1 X113.021 Y138.13 E.01677

G1 X108.77 Y133.879 E.18877

G1 X108.77 Y134.413 E.01677

G1 X112.486 Y138.13 E.16505

G1 X111.952 Y138.13 E.01677

G1 X108.77 Y134.947 E.14133

G1 X108.77 Y135.481 E.01677

G1 X111.418 Y138.13 E.11761

G1 X110.884 Y138.13 E.01677

G1 X108.77 Y136.016 E.09389

G1 X108.77 Y136.55 E.01677

G1 X110.35 Y138.13 E.07017

G1 X109.816 Y138.13 E.01677

G1 X108.77 Y137.084 E.04645

G1 X108.77 Y137.618 E.01677

G1 X109.282 Y138.13 E.02274

G1 X108.748 Y138.13 E.01677

G1 X108.514 Y137.896 E.01037

;WIPE_START

G1 F8640

G1 X108.748 Y138.13 E-.07626

G1 X109.282 Y138.13 E-.12332

G1 X108.77 Y137.618 E-.16717

G1 X108.77 Y137.084 E-.12332

G1 X109.597 Y137.91 E-.26992

;WIPE_END

G1 E-.04 F2100

G1 Z.8 F10800

G1 X171.8 Y134.954

G1 Z.2

G1 E.8 F2100

G1 F1200

G1 X134.826 Y97.979 E1.64205

G1 X135.438 Y99.126 E.04082

G1 X171.63 Y135.318 E1.60731

G1 X171.63 Y135.852 E.01677

G1 X135.834 Y100.056 E1.58972

G1 X136.066 Y100.822 E.02512

G1 X171.63 Y136.386 E1.57943

G1 X171.63 Y136.92 E.01677

G1 X136.297 Y101.588 E1.56914

G1 X136.51 Y102.334 E.02438

G1 X171.63 Y137.454 E1.5597

G1 X171.63 Y137.989 E.01677

G1 X136.568 Y102.926 E1.55713

G1 X136.626 Y103.518 E.01868

G1 X171.237 Y138.13 E1.53711

G1 X170.703 Y138.13 E.01677

G1 X136.684 Y104.11 E1.51082

G1 X136.742 Y104.702 E.01868

G1 X170.169 Y138.13 E1.48453

G1 X169.635 Y138.13 E.01677

G1 X136.747 Y105.242 E1.46057

G1 X136.7 Y105.728 E.01535

G1 X169.101 Y138.13 E1.43896

G1 X168.567 Y138.13 E.01677

G1 X136.652 Y106.215 E1.41736

G1 X136.604 Y106.701 E.01535

G1 X168.033 Y138.13 E1.39575

G1 X167.499 Y138.13 E.01677

G1 X136.557 Y107.188 E1.37414

G1 X136.509 Y107.674 E.01535

G1 X166.965 Y138.13 E1.35254

G1 X166.43 Y138.13 E.01677

M73 P1 R127

G1 X136.394 Y108.093 E1.33394

G1 X136.27 Y108.503 E.01345

M73 P2 R127

G1 X165.896 Y138.13 E1.31572

G1 X165.362 Y138.13 E.01677

G1 X136.146 Y108.913 E1.29751

G1 X136.022 Y109.323 E.01345

G1 X164.828 Y138.13 E1.2793

G1 X164.294 Y138.13 E.01677

G1 X135.898 Y109.734 E1.26109

G1 X135.774 Y110.144 E.01345

G1 X163.76 Y138.13 E1.24288

G1 X163.226 Y138.13 E.01677

G1 X135.623 Y110.527 E1.22584

G1 X135.437 Y110.875 E.01239

G1 X162.692 Y138.13 E1.21038

G1 X162.158 Y138.13 E.01677

G1 X135.251 Y111.224 E1.19492

G1 X135.065 Y111.572 E.01239

G1 X161.624 Y138.13 E1.17946

G1 X161.09 Y138.13 E.01677

G1 X134.879 Y111.92 E1.164

G1 X134.694 Y112.268 E.01239

G1 X160.555 Y138.13 E1.14854

G1 X160.021 Y138.13 E.01677

G1 X134.508 Y112.616 E1.13308

G1 X134.401 Y112.816 E.00713

G1 X134.298 Y112.941 E.00506

G1 X159.487 Y138.13 E1.11865

G1 X158.953 Y138.13 E.01677

G1 X134.058 Y113.234 E1.10562

G1 X133.817 Y113.528 E.01192

G1 X158.419 Y138.13 E1.0926

G1 X157.885 Y138.13 E.01677

G1 X133.576 Y113.821 E1.07957

G1 X133.335 Y114.114 E.01192

G1 X157.351 Y138.13 E1.06654

G1 X156.817 Y138.13 E.01677

G1 X133.095 Y114.408 E1.05351

G1 X132.854 Y114.701 E.01192

G1 X156.283 Y138.13 E1.04049

G1 X155.749 Y138.13 E.01677

G1 X132.605 Y114.986 E1.02783

G1 X132.311 Y115.227 E.01192

G1 X155.214 Y138.13 E1.01714

G1 X154.68 Y138.13 E.01677

G1 X132.018 Y115.467 E1.00646

G1 X131.724 Y115.708 E.01192

G1 X154.146 Y138.13 E.99578

G1 X153.612 Y138.13 E.01677

G1 X131.431 Y115.948 E.98509

G1 X131.137 Y116.189 E.01192

G1 X153.078 Y138.13 E.97441

G1 X152.544 Y138.13 E.01677

G1 X130.843 Y116.429 E.96373

G1 X130.55 Y116.67 E.01192

G1 X152.01 Y138.13 E.95305

G1 X151.476 Y138.13 E.01677

G1 X130.212 Y116.866 E.94435

G1 X129.863 Y117.052 E.01239

G1 X150.942 Y138.13 E.93609

G1 X150.408 Y138.13 E.01677

G1 X129.515 Y117.238 E.92783

G1 X129.167 Y117.424 E.01239

G1 X149.873 Y138.13 E.91956

G1 X149.339 Y138.13 E.01677

G1 X128.819 Y117.61 E.9113

G1 X128.471 Y117.796 E.01239

G1 X148.805 Y138.13 E.90304

G1 X148.271 Y138.13 E.01677

M73 P2 R126

G1 X128.123 Y117.982 E.89477

G1 X127.716 Y118.109 E.01339

G1 X147.737 Y138.13 E.88912

G1 X147.203 Y138.13 E.01677

G1 X127.307 Y118.234 E.8836

G1 X126.897 Y118.358 E.01345

G1 X146.669 Y138.13 E.87807

G1 X146.135 Y138.13 E.01677

G1 X126.487 Y118.483 E.87254

G1 X126.078 Y118.607 E.01345

G1 X145.601 Y138.13 E.86702

G1 X145.067 Y138.13 E.01677

G1 X125.668 Y118.731 E.86149

G1 X125.428 Y118.804 E.00788

G1 X125.227 Y118.824 E.00634

G1 X144.532 Y138.13 E.85737

G1 X143.998 Y138.13 E.01677

G1 X124.741 Y118.872 E.85523

G1 X124.255 Y118.921 E.01533

G1 X143.464 Y138.13 E.85309

G1 X142.93 Y138.13 E.01677

G1 X123.769 Y118.969 E.85095

G1 X123.283 Y119.017 E.01533

G1 X142.396 Y138.13 E.84881

G1 X141.862 Y138.13 E.01677

G1 X122.797 Y119.065 E.84667

G1 X122.621 Y119.067 E.00553

G1 X122.225 Y119.027 E.0125

G1 X141.328 Y138.13 E.84835

G1 X140.794 Y138.13 E.01677

M73 P3 R126

G1 X121.631 Y118.968 E.851

G1 X121.038 Y118.908 E.01874

G1 X140.26 Y138.13 E.85366

G1 X139.726 Y138.13 E.01677

