; generated by PrusaSlicer 2.6.0-alpha6+linux-x64-GTK3 on 2023-05-08 at 03:33:54 UTC

; 

; external perimeters extrusion width = 0.45mm
; perimeters extrusion width = 0.45mm
; infill extrusion width = 0.45mm
; solid infill extrusion width = 0.45mm
; top infill extrusion width = 0.40mm
; first layer extrusion width = 0.42mm

M73 P0 R57
M201 X9000 Y9000 Z500 E10000 ; sets maximum accelerations, mm/sec^2
M203 X500 Y500 Z12 E120 ; sets maximum feedrates, mm / sec
M204 S2000 T1500 ; sets acceleration (S) and retract acceleration (R), mm/sec^2
M205 X10.00 Y10.00 Z0.20 E4.50 ; sets the jerk limits, mm/sec
M205 S0 T0 ; sets the minimum extruding and travel feed rate, mm/sec
;TYPE:Custom
M862.3 P "MK2.5" ; printer model check
M862.1 P0.4 ; nozzle diameter check
M115 U3.11.0 ; tell printer latest fw version
G90 ; use absolute coordinates
M83 ; extruder relative mode
M104 S215 ; set extruder temp
M140 S60 ; set bed temp
M190 S60 ; wait for bed temp
M109 S215 ; wait for extruder temp
G28 W ; home all without mesh bed level
G80 ; mesh bed leveling

G1 Z0.2 F720
G1 Y-3 F1000 ; go outside print area
G92 E0
G1 X60 E9 F1000 ; intro line
G1 X100 E12.5 F1000 ; intro line

G92 E0
G21 ; set units to millimeters
G90 ; use absolute coordinates
M83 ; use relative distances for extrusion
M900 K0.05 ; Filament gcode LA 1.5
M900 K30 ; Filament gcode LA 1.0
M107
;LAYER_CHANGE
;Z:0.2
;HEIGHT:0.2
;BEFORE_LAYER_CHANGE
G92 E0.0
;0.2


G1 E-.8 F2100
G1 Z.4 F720
;AFTER_LAYER_CHANGE
;0.2
;CURRENT_Z: 0.2
G1 X89.403 Y56.57 F10800
G1 Z.2 F720
G1 E.8 F2100
M204 S800
;TYPE:Skirt/Brim
;WIDTH:0.42
G1 F1200
G1 X90.008 Y55.95 E.02716
G1 X90.596 Y55.589 E.02163
G1 X91.376 Y55.329 E.02578
G1 X92 Y55.261 E.01968
G1 X93 Y55.261 E.03135
G1 X94.048 Y55.505 E.03374
G1 X159.909 Y87.867 E2.30085
G1 X160.91 Y88.795 E.0428
G1 X161.238 Y90 E.03916
G1 X161.238 Y151.5 E1.92829
G1 X161.172 Y152.12 E.01955
G1 X160.911 Y152.904 E.02591
G1 X160.55 Y153.492 E.02163
G1 X159.931 Y154.097 E.02714
G1 X159.158 Y154.521 E.02764
G1 X158.312 Y154.718 E.02724
G1 X157 Y154.739 E.04114
G1 X155.952 Y154.495 E.03374
G1 X90.091 Y122.133 E2.30085
G1 X89.09 Y121.205 E.0428
G1 X88.762 Y120 E.03916
G1 X88.782 Y58.187 E1.9381
G1 X88.98 Y57.34 E.02727
G1 X89.374 Y56.622 E.02568
M204 S1000
; printing object divisorias.stl id:0 copy 0
;WIPE_START
G1 F8640
G1 X90.008 Y55.95 E-.21332
G1 X90.596 Y55.589 E-.15932
G1 X91.376 Y55.329 E-.18985
G1 X92 Y55.261 E-.14494
G1 X92.401 Y55.261 E-.09257
;WIPE_END
G1 Z.6 F720
G1 X93.026 Y90.787 F10800
G1 Z.2 F720
G1 E.8 F2100
M204 S800
;TYPE:Perimeter
;WIDTH:0.419999
G1 F1200
G1 X119.559 Y90.787 E.83192
;WIDTH:0.457876
G1 X120.424 Y90.806 E.02985
;WIDTH:0.495753
G1 X121.288 Y90.825 E.03254
;WIDTH:0.533629
G1 X122.152 Y90.844 E.03526
;WIDTH:0.573002
G1 X122.331 Y90.864 E.00794
G1 X123.195 Y90.842 E.03809
;WIDTH:0.530607
G1 X124.06 Y90.821 E.03509
;WIDTH:0.488211
G1 X124.924 Y90.8 E.032
;WIDTH:0.445815
G1 X125.076 Y90.8 E.00509
;WIDTH:0.488211
G1 X125.94 Y90.821 E.032
;WIDTH:0.530606
G1 X126.805 Y90.842 E.03509
;WIDTH:0.573001
G1 X127.669 Y90.864 E.03809
G1 X127.758 Y90.846 E.004
;WIDTH:0.538461
G1 X127.848 Y90.829 E.00377
;WIDTH:0.50392
G1 X129.144 Y90.808 E.04969
;WIDTH:0.46196
G1 X130.441 Y90.787 E.0452
;WIDTH:0.419999
G1 X157.641 Y90.787 E.85284
G1 X157.641 Y119.633 E.90444
G1 X157.221 Y119.213 E.01862
G1 X130.441 Y119.213 E.83967
;WIDTH:0.457876
G1 X129.576 Y119.194 E.02985
;WIDTH:0.495752
G1 X128.712 Y119.175 E.03254
;WIDTH:0.533628
G1 X127.848 Y119.156 E.03526
;WIDTH:0.573001
G1 X127.669 Y119.136 E.00794
G1 X126.805 Y119.158 E.03809
;WIDTH:0.530606
G1 X125.94 Y119.179 E.03509
;WIDTH:0.488211
G1 X125.076 Y119.2 E.032
;WIDTH:0.445816
G1 X124.924 Y119.2 E.00509
;WIDTH:0.488211
G1 X124.06 Y119.179 E.032
;WIDTH:0.530606
G1 X123.195 Y119.158 E.03509
;WIDTH:0.573001
G1 X122.331 Y119.136 E.03809
G1 X122.242 Y119.154 E.004
;WIDTH:0.538461
G1 X122.152 Y119.171 E.00377
;WIDTH:0.50392
G1 X120.856 Y119.192 E.04969
;WIDTH:0.46196
G1 X119.559 Y119.213 E.0452
;WIDTH:0.419999
G1 X92.359 Y119.213 E.85284
G1 X92.359 Y90.435 E.90231
G1 X92.779 Y90.787 E.01718
G1 X92.966 Y90.787 E.00586
M204 S1000
;WIPE_START
G1 F8640
G1 X96.431 Y90.787 E-.8
;WIPE_END
G1 Z.6 F720
G1 X119.706 Y117.728 F10800
G1 Z.2 F720
G1 E.8 F2100
M204 S800
G1 F1200
G1 X117.295 Y116.431 E.08584
G1 X115.292 Y114.787 E.08125
G1 X113.569 Y112.705 E.08473
G1 X112.243 Y110.225 E.08818
G1 X111.49 Y107.744 E.08129
G1 X111.215 Y105.055 E.08475
G1 X111.49 Y102.256 E.08818
G1 X112.243 Y99.775 E.08129
G1 X113.507 Y97.387 E.08472
G1 X115.213 Y95.292 E.08471
G1 X117.295 Y93.569 E.08473
G1 X119.775 Y92.243 E.08818
;WIDTH:0.457876
G1 X120.597 Y91.974 E.02984
;WIDTH:0.495753
G1 X121.418 Y91.705 E.03253
;WIDTH:0.533629
G1 X122.239 Y91.436 E.03525
;WIDTH:0.573002
G1 X122.357 Y91.392 E.00555
G1 X123.219 Y91.329 E.0381
;WIDTH:0.530607
G1 X124.081 Y91.266 E.03505
;WIDTH:0.488211
G1 X124.943 Y91.202 E.032
;WIDTH:0.445815
G1 X125.057 Y91.202 E.00382
;WIDTH:0.488211
G1 X125.919 Y91.266 E.032
;WIDTH:0.530606
G1 X126.781 Y91.329 E.03505
;WIDTH:0.573001
G1 X127.643 Y91.392 E.0381
G1 X127.699 Y91.421 E.00278
;WIDTH:0.538461
G1 X127.756 Y91.45 E.00264
;WIDTH:0.50392
G1 X128.99 Y91.846 E.04968
;WIDTH:0.46196
G1 X130.225 Y92.243 E.0452
;WIDTH:0.419999
G1 X132.705 Y93.569 E.08818
G1 X134.708 Y95.213 E.08125
G1 X136.431 Y97.295 E.08473
G1 X137.757 Y99.775 E.08818
G1 X138.51 Y102.256 E.08129
G1 X138.785 Y104.945 E.08475
M73 P1 R57
G1 X138.51 Y107.744 E.08818
G1 X137.757 Y110.225 E.08129
G1 X136.493 Y112.613 E.08472
G1 X134.787 Y114.708 E.08471
G1 X132.705 Y116.431 E.08473
G1 X130.225 Y117.757 E.08818
;WIDTH:0.457876
G1 X129.403 Y118.026 E.02984
;WIDTH:0.495752
G1 X128.582 Y118.295 E.03253
;WIDTH:0.533628
G1 X127.761 Y118.564 E.03525
;WIDTH:0.573001
G1 X127.643 Y118.608 E.00555
G1 X126.781 Y118.671 E.0381
;WIDTH:0.530606
G1 X125.919 Y118.734 E.03505
;WIDTH:0.488211
G1 X125.057 Y118.798 E.032
;WIDTH:0.445816
G1 X124.943 Y118.798 E.00382
;WIDTH:0.488211
G1 X124.081 Y118.734 E.032
;WIDTH:0.530606
G1 X123.219 Y118.671 E.03505
;WIDTH:0.573001
G1 X122.357 Y118.608 E.0381
G1 X122.301 Y118.579 E.00278
;WIDTH:0.538461
G1 X122.244 Y118.55 E.00264
;WIDTH:0.50392
G1 X121.01 Y118.154 E.04968
;WIDTH:0.46196
G1 X119.775 Y117.757 E.0452
;WIDTH:0.419999
G1 X119.761 Y117.751 E.00048
M204 S1000
G1 X119.837 Y117.375 F10800
M204 S800
;TYPE:External perimeter
G1 F1200
G1 X117.534 Y116.14 E.08194
G1 X115.505 Y114.469 E.08242
G1 X113.84 Y112.435 E.08242
G1 X112.604 Y110.115 E.08242
G1 X111.844 Y107.598 E.08244
G1 X111.59 Y104.982 E.08241
G1 X111.851 Y102.365 E.08246
G1 X112.618 Y99.851 E.08241
G1 X113.86 Y97.534 E.08243
G1 X115.531 Y95.505 E.08242
G1 X117.565 Y93.84 E.08242
G1 X119.885 Y92.604 E.08242
G1 X122.402 Y91.844 E.08244
G1 X125.018 Y91.59 E.08241
G1 X127.635 Y91.851 E.08246
G1 X130.149 Y92.618 E.08241
G1 X132.466 Y93.86 E.08243
G1 X134.495 Y95.531 E.08242
G1 X136.16 Y97.565 E.08242
G1 X137.396 Y99.885 E.08242
G1 X138.156 Y102.402 E.08244
G1 X138.41 Y104.982 E.08129
G1 X138.156 Y107.598 E.08241
G1 X137.396 Y110.115 E.08244
G1 X136.161 Y112.435 E.08241
G1 X134.495 Y114.469 E.08244
G1 X132.466 Y116.14 E.08242
G1 X130.149 Y117.382 E.08243
G1 X127.635 Y118.149 E.08241
G1 X125.018 Y118.41 E.08246
G1 X122.402 Y118.156 E.08241
G1 X119.892 Y117.398 E.08221
M204 S1000
G1 X119.519 Y117.618 F10800
;WIPE_START
G1 F8640
G1 X117.534 Y116.14 E-.61711
G1 X116.923 Y115.636 E-.18289
;WIPE_END
G1 Z.6 F720
G1 X92.779 Y90.41 F10800
G1 Z.2 F720
G1 E.8 F2100
M204 S800
G1 F1200
G1 X158.018 Y90.41 E2.04552
G1 X158.018 Y118.793 E.88993
;WIDTH:0.458523
G1 X157.999 Y119.122 E.01139
;WIDTH:0.497047
G1 X157.98 Y119.45 E.01241
;WIDTH:0.535571
G1 X157.96 Y119.778 E.01346
G1 X157.96 Y151.214 E1.28775
G1 X157.95 Y151.45 E.00968
G1 X157.468 Y151.46 E.01975
G1 X157.468 Y119.778 E1.29782
G1 X157.386 Y119.716 E.00421
;WIDTH:0.497047
M73 P1 R56
G1 X157.304 Y119.653 E.0039
;WIDTH:0.458523
G1 X157.221 Y119.59 E.0036
;WIDTH:0.419999
G1 X91.982 Y119.59 E2.04552
G1 X91.982 Y91.207 E.88993
;WIDTH:0.458524
G1 X92.001 Y90.878 E.01139
;WIDTH:0.497048
G1 X92.02 Y90.55 E.01241
;WIDTH:0.535572
G1 X92.04 Y90.222 E.01346
G1 X92.04 Y58.576 E1.29635
G1 X92.05 Y58.55 E.00114
G1 X92.532 Y58.54 E.01975
G1 X92.532 Y90.222 E1.29783
;WIDTH:0.539305
G1 X92.534 Y90.264 E.00174
G1 X92.616 Y90.313 E.00394
;WIDTH:0.499537
G1 X92.697 Y90.362 E.00359
;WIDTH:0.459768
G1 X92.727 Y90.379 E.0012
M204 S1000
;WIPE_START
G1 F8640
G1 X96.192 Y90.381 E-.8
;WIPE_END
G1 Z.6 F720
G1 X121.698 Y91.448 F10800
G1 Z.2 F720
G1 E.8 F2100
M204 S800
;TYPE:Solid infill
;WIDTH:0.420809
G1 F1200
G1 X121.401 Y91.151 E.0132
G1 X120.842 Y91.126 E.01758
G1 X121.171 Y91.455 E.01462
G1 X120.776 Y91.595 E.01317
G1 X120.283 Y91.102 E.02191
G1 X119.724 Y91.077 E.01758
G1 X120.382 Y91.736 E.02926
G1 X119.988 Y91.876 E.01314
G1 X119.182 Y91.07 E.03582
G1 X118.648 Y91.07 E.01678
G1 X119.593 Y92.016 E.04202
G1 X119.24 Y92.196 E.01245
G1 X118.113 Y91.07 E.05006
G1 X117.579 Y91.07 E.01678
G1 X118.891 Y92.382 E.0583
G1 X118.543 Y92.569 E.01241
G1 X117.045 Y91.07 E.06659
G1 X116.51 Y91.07 E.01681
G1 X118.195 Y92.755 E.07488
G1 X117.847 Y92.941 E.0124
G1 X115.976 Y91.07 E.08314
G1 X115.441 Y91.07 E.01681
G1 X117.498 Y93.127 E.09141
G1 X117.158 Y93.321 E.0123
G1 X114.907 Y91.07 E.10003
G1 X114.372 Y91.07 E.01681
G1 X116.861 Y93.559 E.1106
G1 X116.568 Y93.8 E.01192
G1 X113.838 Y91.07 E.12131
G1 X113.304 Y91.07 E.01678
G1 X116.274 Y94.041 E.132
G1 X115.981 Y94.282 E.01192
G1 X112.769 Y91.07 E.14273
G1 X112.235 Y91.07 E.01678
G1 X115.687 Y94.523 E.15342
G1 X115.394 Y94.764 E.01192
G1 X111.7 Y91.07 E.16415
G1 X111.166 Y91.07 E.01678
G1 X115.101 Y95.005 E.17486
G1 X114.85 Y95.289 E.01191
G1 X110.632 Y91.07 E.18746
G1 X110.097 Y91.07 E.01681
G1 X114.609 Y95.582 E.2005
G1 X114.368 Y95.875 E.01192
G1 X109.563 Y91.07 E.21352
G1 X109.028 Y91.07 E.01681
G1 X114.127 Y96.169 E.22658
G1 X113.886 Y96.462 E.01192
G1 X108.494 Y91.07 E.2396
G1 X107.959 Y91.07 E.01681
G1 X113.645 Y96.756 E.25267
G1 X113.404 Y97.049 E.01192
G1 X107.425 Y91.07 E.26569
G1 X106.891 Y91.07 E.01678
G1 X113.194 Y97.373 E.28009
G1 X113.008 Y97.721 E.0124
G1 X106.356 Y91.07 E.29557
G1 X105.822 Y91.07 E.01678
G1 X112.822 Y98.07 E.31106
G1 X112.635 Y98.418 E.01241
G1 X105.287 Y91.07 E.32652
G1 X104.753 Y91.07 E.01678
G1 X112.449 Y98.766 E.34199
G1 X112.263 Y99.115 E.01243
G1 X104.219 Y91.07 E.35747
G1 X103.684 Y91.07 E.01681
G1 X112.077 Y99.463 E.37296
G1 X111.974 Y99.689 E.0078
G1 X111.926 Y99.846 E.00516
G1 X103.15 Y91.07 E.38998
G1 X102.615 Y91.07 E.01681
G1 X111.802 Y100.257 E.40824
G1 X111.678 Y100.667 E.01346
G1 X102.081 Y91.07 E.42646
G1 X101.546 Y91.07 E.01681
M73 P2 R56
G1 X111.554 Y101.078 E.44472
G1 X111.43 Y101.488 E.01346
G1 X101.012 Y91.07 E.46294
G1 X100.478 Y91.07 E.01678
G1 X111.306 Y101.899 E.48118
G1 X111.193 Y102.319 E.01367
G1 X99.943 Y91.07 E.49989
G1 X99.409 Y91.07 E.01678
G1 X111.145 Y102.806 E.52151
G1 X111.097 Y103.292 E.01535
G1 X98.874 Y91.07 E.54313
G1 X98.34 Y91.07 E.01678
G1 X111.049 Y103.779 E.56475
G1 X111.001 Y104.266 E.01538
G1 X97.806 Y91.07 E.58637
G1 X97.271 Y91.07 E.01681
G1 X110.953 Y104.752 E.60799
G1 X110.929 Y105 E.00783
G1 X110.957 Y105.291 E.00919
G1 X96.737 Y91.07 E.63191
G1 X96.202 Y91.07 E.01681
G1 X111.016 Y105.883 E.65827
G1 X111.074 Y106.476 E.01872
G1 X95.668 Y91.07 E.68459
G1 X95.133 Y91.07 E.01681
G1 X111.132 Y107.069 E.71095
G1 X111.191 Y107.662 E.01873
G1 X94.599 Y91.07 E.7373
G1 X94.065 Y91.07 E.01678
G1 X111.398 Y108.403 E.77022
G1 X111.629 Y109.168 E.02511
G1 X93.53 Y91.07 E.80424
G1 X92.996 Y91.07 E.01678
G1 X111.86 Y109.934 E.83826
G1 X112.034 Y110.456 E.01729
G1 X112.247 Y110.856 E.01424
G1 X92.642 Y91.25 E.87121
G1 X92.642 Y91.785 E.01681
G1 X113.274 Y112.417 E.91682
M204 S1000
;WIPE_START
G1 F8640
G1 X110.824 Y109.967 E-.8
;WIPE_END
G1 Z.6 F720
G1 X121.429 Y118.434 F10800
G1 Z.2 F720
G1 E.8 F2100
M204 S800
G1 F1200
G1 X121.85 Y118.856 E.01873
G1 X121.333 Y118.873 E.01625
G1 X120.888 Y118.428 E.01977
G1 X120.075 Y118.149 E.02701
G1 X120.815 Y118.889 E.03288
G1 X120.297 Y118.906 E.01629
G1 X119.144 Y117.753 E.05124
G1 X117.996 Y117.139 E.04091
G1 X119.78 Y118.923 E.07928
G1 X119.253 Y118.93 E.01656
G1 X92.642 Y92.319 E1.18251
G1 X92.642 Y92.853 E.01678
G1 X118.718 Y118.93 E1.15876
G1 X118.184 Y118.93 E.01678
G1 X92.642 Y93.388 E1.13501
G1 X92.642 Y93.922 E.01678
G1 X117.649 Y118.93 E1.11125
G1 X117.115 Y118.93 E.01678
G1 X92.642 Y94.457 E1.0875
G1 X92.642 Y94.991 E.01678
G1 X116.581 Y118.93 E1.06377
G1 X116.046 Y118.93 E.01681
G1 X92.642 Y95.526 E1.04
G1 X92.642 Y96.06 E.01678
G1 X115.512 Y118.93 E1.01627
G1 X114.977 Y118.93 E.01681
M73 P3 R56
G1 X92.642 Y96.594 E.99252
G1 X92.642 Y97.129 E.01681
G1 X114.443 Y118.93 E.96877
G1 X113.908 Y118.93 E.01681
M73 P3 R55
G1 X92.642 Y97.663 E.94502
G1 X92.642 Y98.198 E.01681
G1 X113.374 Y118.93 E.92126
G1 X112.84 Y118.93 E.01678
G1 X92.642 Y98.732 E.89754
G1 X92.642 Y99.266 E.01678
G1 X112.305 Y118.93 E.87378
G1 X111.771 Y118.93 E.01678
G1 X92.642 Y99.801 E.85003
G1 X92.642 Y100.335 E.01678
G1 X111.236 Y118.93 E.82628
G1 X110.702 Y118.93 E.01678
G1 X92.642 Y100.87 E.80253
G1 X92.642 Y101.404 E.01678
G1 X110.168 Y118.93 E.7788
G1 X109.633 Y118.93 E.01681
G1 X92.642 Y101.939 E.75503
G1 X92.642 Y102.473 E.01678
G1 X109.099 Y118.93 E.7313
G1 X108.564 Y118.93 E.01681
G1 X92.642 Y103.007 E.70755
G1 X92.642 Y103.542 E.01681
G1 X108.03 Y118.93 E.68379
G1 X107.495 Y118.93 E.01681
G1 X92.642 Y104.076 E.66004
G1 X92.642 Y104.611 E.01681
G1 X106.961 Y118.93 E.63629
G1 X106.427 Y118.93 E.01678
G1 X92.642 Y105.145 E.61256
G1 X92.642 Y105.679 E.01678
G1 X105.892 Y118.93 E.58881
G1 X105.358 Y118.93 E.01678
G1 X92.642 Y106.214 E.56506
G1 X92.642 Y106.748 E.01678
G1 X104.823 Y118.93 E.54131
G1 X104.289 Y118.93 E.01678
G1 X92.642 Y107.283 E.51756
G1 X92.642 Y107.817 E.01678
G1 X103.755 Y118.93 E.49383
G1 X103.22 Y118.93 E.01681
G1 X92.642 Y108.352 E.47005
G1 X92.642 Y108.886 E.01678
G1 X102.686 Y118.93 E.44632
G1 X102.151 Y118.93 E.01681
G1 X92.642 Y109.42 E.42257
G1 X92.642 Y109.955 E.01681
G1 X101.617 Y118.93 E.39882
G1 X101.082 Y118.93 E.01681
G1 X92.642 Y110.489 E.37507
G1 X92.642 Y111.024 E.01681
G1 X100.548 Y118.93 E.35132
G1 X100.014 Y118.93 E.01678
G1 X92.642 Y111.558 E.32759
G1 X92.642 Y112.092 E.01678
G1 X99.479 Y118.93 E.30384
G1 X98.945 Y118.93 E.01678
G1 X92.642 Y112.627 E.28009
G1 X92.642 Y113.161 E.01678
G1 X98.41 Y118.93 E.25633
G1 X97.876 Y118.93 E.01678
G1 X92.642 Y113.696 E.23258
G1 X92.642 Y114.23 E.01678
G1 X97.342 Y118.93 E.20885
G1 X96.807 Y118.93 E.01681
M73 P4 R55
G1 X92.642 Y114.765 E.18508
G1 X92.642 Y115.299 E.01678
G1 X96.273 Y118.93 E.16135
G1 X95.738 Y118.93 E.01681
G1 X92.642 Y115.833 E.1376
G1 X92.642 Y116.368 E.01681
G1 X95.204 Y118.93 E.11385
G1 X94.669 Y118.93 E.01681
G1 X92.642 Y116.902 E.0901
G1 X92.642 Y117.437 E.01681
G1 X94.135 Y118.93 E.06634
G1 X93.601 Y118.93 E.01678
G1 X92.642 Y117.971 E.04261
G1 X92.642 Y118.505 E.01678
G1 X93.236 Y119.1 E.02642
M204 S1000
;WIPE_START
G1 F8640
G1 X92.642 Y118.505 E-.19413
G1 X92.642 Y117.971 E-.1233
G1 X93.601 Y118.93 E-.31316
G1 X94.135 Y118.93 E-.1233
G1 X93.994 Y118.789 E-.04611
;WIPE_END
G1 Z.6 F720
G1 X156.764 Y90.9 F10800
G1 Z.2 F720
G1 E.8 F2100
M204 S800
G1 F1200
G1 X157.358 Y91.495 E.02642
G1 X157.358 Y92.029 E.01678
G1 X156.399 Y91.07 E.04261
G1 X155.865 Y91.07 E.01678
G1 X157.358 Y92.563 E.06634
G1 X157.358 Y93.098 E.01681
G1 X155.33 Y91.07 E.09012
G1 X154.796 Y91.07 E.01678
G1 X157.358 Y93.632 E.11385
G1 X157.358 Y94.167 E.01681
G1 X154.262 Y91.07 E.1376
G1 X153.727 Y91.07 E.01681
G1 X157.358 Y94.701 E.16135
G1 X157.358 Y95.236 E.01681
G1 X153.193 Y91.07 E.1851
G1 X152.658 Y91.07 E.01681
G1 X157.358 Y95.77 E.20885
G1 X157.358 Y96.304 E.01678
G1 X152.124 Y91.07 E.23258
G1 X151.59 Y91.07 E.01678
G1 X157.358 Y96.839 E.25633
G1 X157.358 Y97.373 E.01678
G1 X151.055 Y91.07 E.28009
G1 X150.521 Y91.07 E.01678
G1 X157.358 Y97.908 E.30384
G1 X157.358 Y98.442 E.01678
G1 X149.986 Y91.07 E.32759
G1 X149.452 Y91.07 E.01678
G1 X157.358 Y98.976 E.35132
G1 X157.358 Y99.511 E.01681
G1 X148.917 Y91.07 E.37509
G1 X148.383 Y91.07 E.01678
