; generated by PrusaSlicer 2.8.0 on 2024-09-21 at 14:29:41 UTC

; 

; external perimeters extrusion width = 0.45mm
; perimeters extrusion width = 0.45mm
; infill extrusion width = 0.45mm
; solid infill extrusion width = 0.45mm
; top infill extrusion width = 0.40mm
; first layer extrusion width = 0.42mm

M73 P0 R58
M201 X9000 Y9000 Z500 E10000 ; sets maximum accelerations, mm/sec^2
M203 X500 Y500 Z12 E120 ; sets maximum feedrates, mm / sec
M204 S2000 T1500 ; sets acceleration (S) and retract acceleration (R), mm/sec^2
M205 X10.00 Y10.00 Z0.20 E4.50 ; sets the jerk limits, mm/sec
M205 S0 T0 ; sets the minimum extruding and travel feed rate, mm/sec

; printing object divisorias.stl id:0 copy 0
; stop printing object divisorias.stl id:0 copy 0

;TYPE:Custom
M862.3 P "MK2.5" ; printer model check
M862.1 P0.4 ; nozzle diameter check
M115 U3.11.0 ; tell printer latest fw version
G90 ; use absolute coordinates
M83 ; extruder relative mode
M104 S215 ; set extruder temp
M140 S60 ; set bed temp
M190 S60 ; wait for bed temp
M109 S215 ; wait for extruder temp
G28 W ; home all without mesh bed level
G80 ; mesh bed leveling

G1 Z0.2 F720
G1 Y-3 F1000 ; go outside print area
G92 E0
G1 X60 E9 F1000 ; intro line
G1 X100 E12.5 F1000 ; intro line

G92 E0
G21 ; set units to millimeters
G90 ; use absolute coordinates
M83 ; use relative distances for extrusion
M900 K0.05 ; Filament gcode LA 1.5
M900 K30 ; Filament gcode LA 1.0
M107
;LAYER_CHANGE
;Z:0.2
;HEIGHT:0.2
G1 E-.8 F2100
G1 Z.6 F720
G1 X89.552 Y56.685 F10800
G1 Z.2 F720
G1 E.8 F2100
M204 S800
;TYPE:Skirt/Brim
;WIDTH:0.42
G1 F1200
G1 X90.123 Y56.1 E.02563
G1 X90.682 Y55.757 E.02056
G1 X91.406 Y55.515 E.02394
G1 X92 Y55.45 E.01874
G1 X93 Y55.45 E.03135
G1 X93.965 Y55.674 E.03106
G1 X159.826 Y88.036 E2.30085
G1 X160.774 Y88.937 E.04101
G1 X161.05 Y90 E.03443
G1 X161.05 Y151.5 E1.92829
G1 X160.986 Y152.09 E.01861
G1 X160.743 Y152.818 E.02406
G1 X160.4 Y153.377 E.02056
G1 X159.815 Y153.948 E.02563
G1 X159.086 Y154.347 E.02606
G1 X158.288 Y154.531 E.02568
G1 X157 Y154.55 E.04039
G1 X156.035 Y154.326 E.03106
G1 X90.174 Y121.964 E2.30085
G1 X89.226 Y121.063 E.04101
G1 X88.95 Y120 E.03443
G1 X88.969 Y58.212 E1.93732
G1 X89.154 Y57.412 E.02575
G1 X89.523 Y56.737 E.02412
M204 S1000
;WIPE_START
G1 F8640
G1 X89.552 Y56.685 E-.01375
G1 X90.123 Y56.1 E-.18876
G1 X90.682 Y55.757 E-.15144
G1 X91.406 Y55.515 E-.17627
G1 X92 Y55.45 E-.13797
G1 X92.571 Y55.45 E-.13181
;WIPE_END
G1 Z.6 F720
; printing object divisorias.stl id:0 copy 0
G1 X115.256 Y95.257 F10800
G1 Z.2 F720
G1 E.8 F2100
M204 S800
;TYPE:Perimeter
;WIDTH:0.419999
G1 F1200
G1 X117.295 Y93.569 E.083
G1 X119.775 Y92.243 E.08818
;WIDTH:0.457876
G1 X120.597 Y91.974 E.02984
;WIDTH:0.495753
G1 X121.418 Y91.705 E.03253
;WIDTH:0.533629
G1 X122.239 Y91.436 E.03525
;WIDTH:0.573002
G1 X122.357 Y91.392 E.00555
G1 X123.219 Y91.329 E.0381
;WIDTH:0.530607
G1 X124.081 Y91.266 E.03505
;WIDTH:0.488211
G1 X124.943 Y91.202 E.032
;WIDTH:0.445815
G1 X125.057 Y91.202 E.00382
;WIDTH:0.488211
G1 X125.919 Y91.266 E.032
;WIDTH:0.530606
G1 X126.781 Y91.329 E.03505
;WIDTH:0.573001
G1 X127.643 Y91.392 E.0381
G1 X127.699 Y91.421 E.00278
;WIDTH:0.538461
G1 X127.756 Y91.45 E.00264
;WIDTH:0.50392
G1 X128.99 Y91.846 E.04968
;WIDTH:0.46196
G1 X130.225 Y92.243 E.0452
;WIDTH:0.419999
G1 X132.705 Y93.569 E.08818
G1 X134.787 Y95.292 E.08473
G1 X136.493 Y97.387 E.08471
G1 X137.757 Y99.775 E.08472
G1 X138.51 Y102.256 E.08129
M73 P0 R57
G1 X138.785 Y105.055 E.08818
G1 X138.51 Y107.744 E.08475
G1 X137.757 Y110.225 E.08129
G1 X136.431 Y112.705 E.08818
G1 X134.787 Y114.708 E.08125
G1 X132.705 Y116.431 E.08473
G1 X130.225 Y117.757 E.08818
;WIDTH:0.457876
G1 X129.403 Y118.026 E.02984
;WIDTH:0.495752
G1 X128.582 Y118.295 E.03253
;WIDTH:0.533628
G1 X127.761 Y118.564 E.03525
;WIDTH:0.573001
G1 X127.643 Y118.608 E.00555
G1 X126.781 Y118.671 E.0381
;WIDTH:0.530606
G1 X125.919 Y118.734 E.03505
;WIDTH:0.488211
G1 X125.057 Y118.798 E.032
;WIDTH:0.445816
G1 X124.943 Y118.798 E.00382
;WIDTH:0.488211
G1 X124.081 Y118.734 E.032
;WIDTH:0.530606
G1 X123.219 Y118.671 E.03505
;WIDTH:0.573001
G1 X122.357 Y118.608 E.0381
G1 X122.301 Y118.579 E.00278
;WIDTH:0.538461
G1 X122.244 Y118.55 E.00264
;WIDTH:0.50392
G1 X121.01 Y118.154 E.04968
;WIDTH:0.46196
G1 X119.775 Y117.757 E.0452
;WIDTH:0.419999
G1 X117.295 Y116.431 E.08818
G1 X115.292 Y114.787 E.08125
G1 X113.569 Y112.705 E.08473
G1 X112.243 Y110.225 E.08818
G1 X111.49 Y107.744 E.08129
G1 X111.215 Y105.055 E.08475
G1 X111.49 Y102.256 E.08818
G1 X112.243 Y99.775 E.08129
G1 X113.507 Y97.387 E.08472
G1 X115.21 Y95.295 E.08458
M204 S1000
G1 X115.21 Y95.295 F10800
G1 X115.519 Y95.519
M204 S800
;TYPE:External perimeter
G1 F1200
G1 X117.534 Y93.86 E.08184
G1 X119.851 Y92.618 E.08243
G1 X122.365 Y91.851 E.08241
G1 X124.982 Y91.59 E.08246
G1 X127.598 Y91.844 E.08241
G1 X130.115 Y92.604 E.08244
G1 X132.435 Y93.84 E.08242
G1 X134.469 Y95.505 E.08242
G1 X136.14 Y97.534 E.08242
G1 X137.382 Y99.851 E.08243
G1 X138.149 Y102.365 E.08241
G1 X138.41 Y104.982 E.08246
G1 X138.156 Y107.598 E.08241
G1 X137.396 Y110.115 E.08244
G1 X136.161 Y112.435 E.08241
G1 X134.495 Y114.469 E.08244
G1 X132.466 Y116.14 E.08242
G1 X130.149 Y117.382 E.08243
G1 X127.635 Y118.149 E.08241
G1 X125.018 Y118.41 E.08246
G1 X122.402 Y118.156 E.08241
G1 X119.885 Y117.396 E.08244
G1 X117.565 Y116.16 E.08242
G1 X115.531 Y114.495 E.08242
G1 X113.86 Y112.466 E.08242
G1 X112.618 Y110.149 E.08243
G1 X111.851 Y107.635 E.08241
G1 X111.59 Y105.018 E.08246
G1 X111.844 Y102.402 E.08241
G1 X112.604 Y99.885 E.08244
G1 X113.84 Y97.565 E.08242
G1 X115.478 Y95.563 E.0811
M204 S1000
;WIPE_START
G1 F8640
G1 X115.519 Y95.519 E-.01389
G1 X117.534 Y93.86 E-.60267
G1 X118.234 Y93.485 E-.18344
;WIPE_END
G1 Z.6 F720
G1 X112.258 Y90.787 F10800
G1 Z.2 F720
G1 E.8 F2100
M204 S800
;TYPE:Perimeter
G1 F1200
G1 X119.559 Y90.787 E.22892
;WIDTH:0.457876
G1 X120.424 Y90.806 E.02985
;WIDTH:0.495753
G1 X121.288 Y90.825 E.03254
;WIDTH:0.533629
G1 X122.152 Y90.844 E.03526
;WIDTH:0.573002
G1 X122.331 Y90.864 E.00794
G1 X123.195 Y90.842 E.03809
;WIDTH:0.530607
G1 X124.06 Y90.821 E.03509
;WIDTH:0.488211
G1 X124.924 Y90.8 E.032
;WIDTH:0.445815
G1 X125.076 Y90.8 E.00509
;WIDTH:0.488211
G1 X125.94 Y90.821 E.032
;WIDTH:0.530606
G1 X126.805 Y90.842 E.03509
;WIDTH:0.573001
G1 X127.669 Y90.864 E.03809
G1 X127.758 Y90.846 E.004
;WIDTH:0.538461
G1 X127.848 Y90.829 E.00377
;WIDTH:0.50392
G1 X129.144 Y90.808 E.04969
;WIDTH:0.46196
G1 X130.441 Y90.787 E.0452
;WIDTH:0.419999
G1 X157.641 Y90.787 E.85284
G1 X157.641 Y100.438 E.3026
G1 X157.641 Y119.633 E.60184
G1 X157.221 Y119.213 E.01862
G1 X130.441 Y119.213 E.83967
;WIDTH:0.457876
G1 X129.576 Y119.194 E.02985
M73 P1 R57
;WIDTH:0.495752
G1 X128.712 Y119.175 E.03254
;WIDTH:0.533628
G1 X127.848 Y119.156 E.03526
;WIDTH:0.573001
G1 X127.669 Y119.136 E.00794
G1 X126.805 Y119.158 E.03809
;WIDTH:0.530606
G1 X125.94 Y119.179 E.03509
;WIDTH:0.488211
G1 X125.076 Y119.2 E.032
;WIDTH:0.445816
G1 X124.924 Y119.2 E.00509
;WIDTH:0.488211
G1 X124.06 Y119.179 E.032
;WIDTH:0.530606
G1 X123.195 Y119.158 E.03509
;WIDTH:0.573001
G1 X122.331 Y119.136 E.03809
G1 X122.242 Y119.154 E.004
;WIDTH:0.538461
G1 X122.152 Y119.171 E.00377
;WIDTH:0.50392
G1 X120.856 Y119.192 E.04969
;WIDTH:0.46196
G1 X119.559 Y119.213 E.0452
;WIDTH:0.419999
G1 X92.359 Y119.213 E.85284
G1 X92.359 Y90.435 E.90231
G1 X92.779 Y90.787 E.01718
G1 X112.198 Y90.787 E.60887
M204 S1000
;WIPE_START
G1 F8640
G1 X112.258 Y90.787 E-.01385
G1 X115.663 Y90.787 E-.78615
;WIPE_END
G1 Z.6 F720
G1 X157.323 Y119.667 F10800
G1 Z.2 F720
G1 E.8 F2100
M204 S800
;TYPE:External perimeter
;WIDTH:0.497047
G1 F1200
G1 X157.304 Y119.653 E.00089
;WIDTH:0.458523
G1 X157.221 Y119.59 E.0036
;WIDTH:0.419999
G1 X91.982 Y119.59 E2.04552
G1 X91.982 Y91.207 E.88993
;WIDTH:0.458524
G1 X92.001 Y90.878 E.01139
;WIDTH:0.497048
G1 X92.02 Y90.55 E.01241
;WIDTH:0.535572
G1 X92.04 Y90.222 E.01346
G1 X92.04 Y58.786 E1.28775
G1 X92.05 Y58.55 E.00968
G1 X92.532 Y58.54 E.01975
G1 X92.532 Y90.222 E1.29783
;WIDTH:0.539305
G1 X92.534 Y90.264 E.00174
G1 X92.616 Y90.313 E.00394
;WIDTH:0.499537
G1 X92.697 Y90.362 E.00359
;WIDTH:0.459768
G1 X92.779 Y90.41 E.00329
;WIDTH:0.419999
G1 X158.018 Y90.41 E2.04552
G1 X158.018 Y100.438 E.31442
G1 X158.018 Y118.793 E.57551
;WIDTH:0.458523
G1 X157.999 Y119.122 E.01139
;WIDTH:0.497047
G1 X157.98 Y119.45 E.01241
;WIDTH:0.535571
G1 X157.96 Y119.778 E.01346
G1 X157.96 Y151.214 E1.28775
G1 X157.95 Y151.45 E.00968
G1 X157.468 Y151.46 E.01975
G1 X157.468 Y119.778 E1.29782
G1 X157.386 Y119.716 E.00421
;WIDTH:0.497047
G1 X157.37 Y119.704 E.00076
M204 S1000
;WIPE_START
G1 F8640
G1 X157.323 Y119.667 E-.01381
G1 X157.304 Y119.653 E-.00545
G1 X157.221 Y119.59 E-.02406
G1 X153.944 Y119.59 E-.75668
;WIPE_END
G1 Z.6 F720
G1 X156.764 Y90.9 F10800
G1 Z.2 F720
G1 E.8 F2100
M204 S800
;TYPE:Solid infill
;WIDTH:0.420809
G1 F1200
G1 X157.358 Y91.495 E.02642
G1 X157.358 Y92.029 E.01678
G1 X156.399 Y91.07 E.04261
G1 X155.865 Y91.07 E.01678
G1 X157.358 Y92.563 E.06634
G1 X157.358 Y93.098 E.01681
G1 X155.33 Y91.07 E.09012
G1 X154.796 Y91.07 E.01678
G1 X157.358 Y93.632 E.11385
G1 X157.358 Y94.167 E.01681
G1 X154.262 Y91.07 E.1376
G1 X153.727 Y91.07 E.01681
G1 X157.358 Y94.701 E.16135
G1 X157.358 Y95.236 E.01681
G1 X153.193 Y91.07 E.1851
G1 X152.658 Y91.07 E.01681
G1 X157.358 Y95.77 E.20885
G1 X157.358 Y96.304 E.01678
G1 X152.124 Y91.07 E.23258
G1 X151.59 Y91.07 E.01678
G1 X157.358 Y96.839 E.25633
G1 X157.358 Y97.373 E.01678
G1 X151.055 Y91.07 E.28009
G1 X150.521 Y91.07 E.01678
G1 X157.358 Y97.908 E.30384
G1 X157.358 Y98.442 E.01678
G1 X149.986 Y91.07 E.32759
G1 X149.452 Y91.07 E.01678
G1 X157.358 Y98.976 E.35132
G1 X157.358 Y99.511 E.01681
G1 X148.917 Y91.07 E.37509
G1 X148.383 Y91.07 E.01678
G1 X157.358 Y100.045 E.39882
G1 X157.358 Y100.58 E.01681
G1 X147.849 Y91.07 E.42257
G1 X147.314 Y91.07 E.01681
G1 X157.358 Y101.114 E.44632
G1 X157.358 Y101.648 E.01678
G1 X146.78 Y91.07 E.47005
G1 X146.245 Y91.07 E.01681
G1 X157.358 Y102.183 E.49383
G1 X157.358 Y102.717 E.01678
G1 X145.711 Y91.07 E.51756
G1 X145.177 Y91.07 E.01678
G1 X157.358 Y103.252 E.54131
G1 X157.358 Y103.786 E.01678
G1 X144.642 Y91.07 E.56506
G1 X144.108 Y91.07 E.01678
G1 X157.358 Y104.321 E.58881
G1 X157.358 Y104.855 E.01678
M73 P2 R57
G1 X143.573 Y91.07 E.61256
G1 X143.039 Y91.07 E.01678
G1 X157.358 Y105.389 E.63629
G1 X157.358 Y105.924 E.01681
G1 X142.504 Y91.07 E.66006
G1 X141.97 Y91.07 E.01678
G1 X157.358 Y106.458 E.68379
G1 X157.358 Y106.993 E.01681
G1 X141.436 Y91.07 E.70755
G1 X140.901 Y91.07 E.01681
G1 X157.358 Y107.527 E.7313
G1 X157.358 Y108.061 E.01678
G1 X140.367 Y91.07 E.75503
G1 X139.832 Y91.07 E.01681
G1 X157.358 Y108.596 E.7788
G1 X157.358 Y109.13 E.01678
G1 X139.298 Y91.07 E.80253
G1 X138.764 Y91.07 E.01678
G1 X157.358 Y109.665 E.82628
G1 X157.358 Y110.199 E.01678
G1 X138.229 Y91.07 E.85003
G1 X137.695 Y91.07 E.01678
M73 P2 R56
G1 X157.358 Y110.734 E.87378
G1 X157.358 Y111.268 E.01678
G1 X137.16 Y91.07 E.89754
G1 X136.626 Y91.07 E.01678
G1 X157.358 Y111.802 E.92126
G1 X157.358 Y112.337 E.01681
G1 X136.092 Y91.07 E.94502
G1 X135.557 Y91.07 E.01681
G1 X157.358 Y112.871 E.96877
G1 X157.358 Y113.406 E.01681
G1 X135.023 Y91.07 E.99252
G1 X134.488 Y91.07 E.01681
G1 X157.358 Y113.94 E1.01627
G1 X157.358 Y114.474 E.01678
G1 X133.954 Y91.07 E1.04
G1 X133.419 Y91.07 E.01681
G1 X157.358 Y115.009 E1.06377
G1 X157.358 Y115.543 E.01678
G1 X132.885 Y91.07 E1.0875
G1 X132.351 Y91.07 E.01678
G1 X157.358 Y116.078 E1.11125
G1 X157.358 Y116.612 E.01678
G1 X131.816 Y91.07 E1.13501
G1 X131.282 Y91.07 E.01678
G1 X157.358 Y117.147 E1.15876
G1 X157.358 Y117.681 E.01678
M73 P3 R56
G1 X130.747 Y91.07 E1.18251
G1 X130.22 Y91.077 E.01656
G1 X132.004 Y92.861 E.07928
G1 X130.856 Y92.247 E.04091
G1 X129.702 Y91.094 E.05126
G1 X129.185 Y91.111 E.01625
G1 X129.925 Y91.851 E.03288
G1 X129.112 Y91.572 E.02701
G1 X128.667 Y91.127 E.01977
G1 X128.149 Y91.144 E.01629
G1 X128.571 Y91.566 E.01875
M204 S1000
;WIPE_START
G1 F8640
G1 X128.149 Y91.144 E-.1378
G1 X128.667 Y91.127 E-.11967
G1 X129.112 Y91.572 E-.14531
G1 X129.925 Y91.851 E-.19847
G1 X129.316 Y91.242 E-.19875
;WIPE_END
G1 Z.6 F720
G1 X136.726 Y97.583 F10800
G1 Z.2 F720
G1 E.8 F2100
M204 S800
G1 F1200
G1 X157.358 Y118.215 E.91682
G1 X157.358 Y118.75 E.01681
G1 X137.753 Y99.144 E.87121
G1 X137.966 Y99.544 E.01424
G1 X138.14 Y100.066 E.01729
G1 X157.004 Y118.93 E.83826
G1 X156.47 Y118.93 E.01678
G1 X138.371 Y100.832 E.80424
G1 X138.602 Y101.597 E.02511
G1 X155.935 Y118.93 E.77022
G1 X155.401 Y118.93 E.01678
G1 X138.809 Y102.338 E.7373
G1 X138.868 Y102.931 E.01873
G1 X154.866 Y118.93 E.71092
G1 X154.332 Y118.93 E.01678
G1 X138.926 Y103.524 E.68459
G1 X138.984 Y104.117 E.01872
G1 X153.798 Y118.93 E.65827
G1 X153.263 Y118.93 E.01681
G1 X139.043 Y104.709 E.63191
G1 X139.071 Y105 E.00919
G1 X139.047 Y105.248 E.00783
G1 X152.729 Y118.93 E.60799
G1 X152.194 Y118.93 E.01681
G1 X138.999 Y105.734 E.58637
G1 X138.951 Y106.221 E.01538
G1 X151.66 Y118.93 E.56475
G1 X151.126 Y118.93 E.01678
G1 X138.903 Y106.708 E.54313
G1 X138.855 Y107.194 E.01535
G1 X150.591 Y118.93 E.52151
G1 X150.057 Y118.93 E.01678
G1 X138.807 Y107.681 E.49989
G1 X138.694 Y108.101 E.01367
G1 X149.522 Y118.93 E.48118
G1 X148.988 Y118.93 E.01678
G1 X138.57 Y108.512 E.46294
G1 X138.446 Y108.922 E.01346
G1 X148.453 Y118.93 E.4447
G1 X147.919 Y118.93 E.01678
G1 X138.322 Y109.333 E.42646
G1 X138.198 Y109.743 E.01346
G1 X147.385 Y118.93 E.40824
G1 X146.85 Y118.93 E.01681
G1 X138.074 Y110.154 E.38998
G1 X138.026 Y110.311 E.00516
G1 X137.923 Y110.537 E.0078
G1 X146.316 Y118.93 E.37296
G1 X145.781 Y118.93 E.01681
G1 X137.737 Y110.885 E.35747
G1 X137.551 Y111.234 E.01243
G1 X145.247 Y118.93 E.34199
G1 X144.713 Y118.93 E.01678
G1 X137.365 Y111.582 E.32652
G1 X137.178 Y111.93 E.01241
G1 X144.178 Y118.93 E.31106
G1 X143.644 Y118.93 E.01678
G1 X136.992 Y112.279 E.29557
G1 X136.806 Y112.627 E.0124
G1 X143.109 Y118.93 E.28009
G1 X142.575 Y118.93 E.01678
G1 X136.596 Y112.951 E.26569
G1 X136.355 Y113.244 E.01192
G1 X142.041 Y118.93 E.25267
G1 X141.506 Y118.93 E.01681
G1 X136.114 Y113.538 E.2396
G1 X135.873 Y113.831 E.01192
G1 X140.972 Y118.93 E.22658
G1 X140.437 Y118.93 E.01681
G1 X135.632 Y114.125 E.21352
G1 X135.391 Y114.418 E.01192
G1 X139.903 Y118.93 E.2005
G1 X139.368 Y118.93 E.01681
G1 X135.15 Y114.712 E.18743
G1 X134.899 Y114.995 E.01189
G1 X138.834 Y118.93 E.17486
G1 X138.3 Y118.93 E.01678
G1 X134.606 Y115.236 E.16415
G1 X134.313 Y115.477 E.01192
G1 X137.765 Y118.93 E.15342
G1 X137.231 Y118.93 E.01678
G1 X134.019 Y115.718 E.14273
G1 X133.726 Y115.959 E.01192
G1 X136.696 Y118.93 E.132
G1 X136.162 Y118.93 E.01678
G1 X133.432 Y116.2 E.12131
G1 X133.139 Y116.441 E.01192
G1 X135.628 Y118.93 E.1106
G1 X135.093 Y118.93 E.01681
G1 X132.842 Y116.679 E.10003
G1 X132.502 Y116.873 E.0123
G1 X134.559 Y118.93 E.09141
G1 X134.024 Y118.93 E.01681
G1 X132.153 Y117.059 E.08314
G1 X131.805 Y117.245 E.0124
G1 X133.49 Y118.93 E.07488
G1 X132.955 Y118.93 E.01681
G1 X131.457 Y117.431 E.06659
G1 X131.109 Y117.618 E.01241
G1 X132.421 Y118.93 E.0583
G1 X131.887 Y118.93 E.01678
G1 X130.76 Y117.804 E.05006
G1 X130.407 Y117.984 E.01245
G1 X131.352 Y118.93 E.04202
G1 X130.818 Y118.93 E.01678
G1 X130.012 Y118.124 E.03582
G1 X129.618 Y118.264 E.01314
G1 X130.276 Y118.923 E.02926
G1 X129.717 Y118.898 E.01758
G1 X129.223 Y118.405 E.02193
M73 P4 R56
G1 X128.829 Y118.545 E.01314
G1 X129.158 Y118.874 E.01462
G1 X128.599 Y118.849 E.01758
G1 X128.302 Y118.552 E.0132
M204 S1000
;WIPE_START
G1 F8640
G1 X128.599 Y118.849 E-.09698
G1 X129.158 Y118.874 E-.1292
G1 X128.829 Y118.545 E-.10743
G1 X129.223 Y118.405 E-.09655
G1 X129.717 Y118.898 E-.16115
G1 X130.276 Y118.923 E-.1292
G1 X130.033 Y118.68 E-.07949
;WIPE_END
G1 Z.6 F720
G1 X121.698 Y91.448 F10800
G1 Z.2 F720
G1 E.8 F2100
M204 S800
G1 F1200
G1 X121.401 Y91.151 E.0132
G1 X120.842 Y91.126 E.01758
G1 X121.171 Y91.455 E.01462
G1 X120.776 Y91.595 E.01317
G1 X120.283 Y91.102 E.02191
G1 X119.724 Y91.077 E.01758
G1 X120.382 Y91.736 E.02926
G1 X119.988 Y91.876 E.01314
G1 X119.182 Y91.07 E.03582
G1 X118.648 Y91.07 E.01678
