; generated by PrusaSlicer 2.6.0-alpha6+linux-x64-GTK3 on 2023-05-08 at 03:33:53 UTC

; 

; external perimeters extrusion width = 0.45mm
; perimeters extrusion width = 0.45mm
; infill extrusion width = 0.45mm
; solid infill extrusion width = 0.45mm
; top infill extrusion width = 0.40mm
; first layer extrusion width = 0.42mm

M73 P0 R62
M201 X9000 Y9000 Z500 E10000 ; sets maximum accelerations, mm/sec^2
M203 X500 Y500 Z12 E120 ; sets maximum feedrates, mm / sec
M204 S2000 T1500 ; sets acceleration (S) and retract acceleration (R), mm/sec^2
M205 X10.00 Y10.00 Z0.20 E4.50 ; sets the jerk limits, mm/sec
M205 S0 T0 ; sets the minimum extruding and travel feed rate, mm/sec
;TYPE:Custom
M862.3 P "MK2.5" ; printer model check
M862.1 P0.4 ; nozzle diameter check
M115 U3.11.0 ; tell printer latest fw version
G90 ; use absolute coordinates
M83 ; extruder relative mode
M104 S215 ; set extruder temp
M140 S60 ; set bed temp
M190 S60 ; wait for bed temp
M109 S215 ; wait for extruder temp
G28 W ; home all without mesh bed level
G80 ; mesh bed leveling

G1 Z0.2 F720
G1 Y-3 F1000 ; go outside print area
G92 E0
G1 X60 E9 F1000 ; intro line
G1 X100 E12.5 F1000 ; intro line

G92 E0
G21 ; set units to millimeters
G90 ; use absolute coordinates
M83 ; use relative distances for extrusion
M900 K0.05 ; Filament gcode LA 1.5
M900 K30 ; Filament gcode LA 1.0
M107
;LAYER_CHANGE
;Z:0.2
;HEIGHT:0.2
;BEFORE_LAYER_CHANGE
G92 E0.0
;0.2


G1 E-.8 F2100
G1 Z.4 F720
;AFTER_LAYER_CHANGE
;0.2
;CURRENT_Z: 0.2
G1 X75.515 Y69.693 F10800
G1 Z.2 F720
G1 E.8 F2100
M204 S800
;TYPE:Skirt/Brim
;WIDTH:0.42
G1 F1200
G1 X76.56 Y68.817 E.04275
G1 X77.5 Y68.623 E.03009
G1 X172.5 Y68.623 E2.97866
G1 X173.807 Y69.015 E.04278
G1 X174.683 Y70.06 E.04275
G1 X174.877 Y71 E.03009
G1 X174.877 Y139 E2.13209
G1 X174.485 Y140.307 E.04278
G1 X173.44 Y141.183 E.04275
G1 X172.5 Y141.377 E.03009
G1 X171.624 Y141.376 E.02747
G1 X77.424 Y138.376 E2.95507
G1 X76.13 Y137.943 E.04278
G1 X75.288 Y136.87 E.04276
G1 X75.123 Y136 E.02776
G1 X75.123 Y71 E2.03803
G1 X75.497 Y69.751 E.04088
M204 S1000
; printing object divisorias2.stl id:0 copy 0
;WIPE_START
G1 F8640
G1 X76.56 Y68.817 E-.32674
G1 X77.5 Y68.623 E-.22162
G1 X78.59 Y68.623 E-.25164
;WIPE_END
G1 Z.6 F720
G1 X171.814 Y135.421 F10800
G1 Z.2 F720
G1 E.8 F2100
M204 S800
;TYPE:Perimeter
;WIDTH:0.419999
G1 F1200
G1 X171.268 Y135.283 E.01766
G1 X170.704 Y135.224 E.01778
G1 X78.287 Y135.213 E2.89767
G1 X78.287 Y71.787 E1.98867
G1 X171.713 Y71.787 E2.9293
M73 P0 R61
G1 X171.713 Y133.5 E1.93496
G1 X171.741 Y134.828 E.04165
M73 P1 R61
G1 X171.806 Y135.362 E.01687
M204 S1000
G1 X171.771 Y135.8 F10800
M204 S800
;TYPE:External perimeter
G1 F1200
G1 X171.226 Y135.657 E.01767
G1 X170.704 Y135.601 E.01646
G1 X77.91 Y135.59 E2.90949
G1 X77.91 Y71.41 E2.01232
G1 X172.09 Y71.41 E2.95294
G1 X172.09 Y133.5 E1.94679
G1 X172.117 Y134.801 E.0408
G1 X172.288 Y136.016 E.03847
G1 X172.288 Y138.423 E.07547
G1 X172.248 Y138.627 E.00652
G1 X171.952 Y138.627 E.00928
G1 X171.911 Y138.473 E.005
G1 X171.909 Y135.982 E.0781
G1 X171.807 Y135.848 E.00528
M204 S1000
G1 X171.832 Y135.405 F10800
;WIPE_START
G1 F8640
G1 X171.226 Y135.657 E-.14122
G1 X170.704 Y135.601 E-.12122
G1 X168.376 Y135.601 E-.53756
;WIPE_END
G1 Z.6 F720
G1 X170.836 Y71.9 F10800
G1 Z.2 F720
G1 E.8 F2100
M204 S800
;TYPE:Solid infill
;WIDTH:0.420545
G1 F1200
G1 X171.43 Y72.494 E.02638
G1 X171.43 Y73.028 E.01677
G1 X170.472 Y72.07 E.04254
G1 X169.938 Y72.07 E.01677
G1 X171.43 Y73.562 E.06625
G1 X171.43 Y74.096 E.01677
G1 X169.404 Y72.07 E.08997
G1 X168.87 Y72.07 E.01677
G1 X171.43 Y74.63 E.11368
G1 X171.43 Y75.164 E.01677
G1 X168.336 Y72.07 E.13739
G1 X167.802 Y72.07 E.01677
G1 X171.43 Y75.698 E.1611
G1 X171.43 Y76.232 E.01677
G1 X167.268 Y72.07 E.18482
G1 X166.734 Y72.07 E.01677
G1 X171.43 Y76.766 E.20853
G1 X171.43 Y77.3 E.01677
G1 X166.2 Y72.07 E.23224
G1 X165.666 Y72.07 E.01677
G1 X171.43 Y77.834 E.25596
G1 X171.43 Y78.368 E.01677
G1 X165.132 Y72.07 E.27967
G1 X164.597 Y72.07 E.0168
G1 X171.43 Y78.903 E.30342
G1 X171.43 Y79.437 E.01677
G1 X164.063 Y72.07 E.32714
G1 X163.529 Y72.07 E.01677
G1 X171.43 Y79.971 E.35085
G1 X171.43 Y80.505 E.01677
G1 X162.995 Y72.07 E.37456
G1 X162.461 Y72.07 E.01677
G1 X171.43 Y81.039 E.39828
G1 X171.43 Y81.573 E.01677
G1 X161.927 Y72.07 E.42199
G1 X161.393 Y72.07 E.01677
G1 X171.43 Y82.107 E.4457
G1 X171.43 Y82.641 E.01677
G1 X160.859 Y72.07 E.46941
G1 X160.325 Y72.07 E.01677
G1 X171.43 Y83.175 E.49313
G1 X171.43 Y83.709 E.01677
G1 X159.791 Y72.07 E.51684
G1 X159.257 Y72.07 E.01677
G1 X171.43 Y84.243 E.54055
G1 X171.43 Y84.777 E.01677
G1 X158.723 Y72.07 E.56426
G1 X158.189 Y72.07 E.01677
G1 X171.43 Y85.311 E.58798
G1 X171.43 Y85.845 E.01677
G1 X157.655 Y72.07 E.61169
G1 X157.121 Y72.07 E.01677
G1 X171.43 Y86.379 E.6354
G1 X171.43 Y86.913 E.01677
G1 X156.587 Y72.07 E.65912
G1 X156.053 Y72.07 E.01677
G1 X171.43 Y87.447 E.68283
G1 X171.43 Y87.981 E.01677
G1 X155.519 Y72.07 E.70654
G1 X154.985 Y72.07 E.01677
M73 P2 R61
G1 X171.43 Y88.515 E.73025
G1 X171.43 Y89.049 E.01677
G1 X154.451 Y72.07 E.75397
G1 X153.917 Y72.07 E.01677
G1 X171.43 Y89.583 E.77768
G1 X171.43 Y90.117 E.01677
G1 X153.383 Y72.07 E.80139
G1 X152.849 Y72.07 E.01677
G1 X171.43 Y90.651 E.8251
G1 X171.43 Y91.185 E.01677
G1 X152.315 Y72.07 E.84882
G1 X151.78 Y72.07 E.0168
G1 X171.43 Y91.72 E.87257
G1 X171.43 Y92.254 E.01677
G1 X151.246 Y72.07 E.89629
G1 X150.712 Y72.07 E.01677
G1 X171.43 Y92.788 E.92
G1 X171.43 Y93.322 E.01677
G1 X150.178 Y72.07 E.94371
G1 X149.644 Y72.07 E.01677
G1 X171.43 Y93.856 E.96742
G1 X171.43 Y94.39 E.01677
M73 P2 R60
G1 X149.11 Y72.07 E.99114
G1 X148.576 Y72.07 E.01677
G1 X171.43 Y94.924 E1.01485
G1 X171.43 Y95.458 E.01677
G1 X148.042 Y72.07 E1.03856
G1 X147.508 Y72.07 E.01677
G1 X171.43 Y95.992 E1.06228
G1 X171.43 Y96.526 E.01677
G1 X146.974 Y72.07 E1.08599
G1 X146.44 Y72.07 E.01677
G1 X171.43 Y97.06 E1.1097
G1 X171.43 Y97.594 E.01677
G1 X145.906 Y72.07 E1.13341
G1 X145.372 Y72.07 E.01677
G1 X171.43 Y98.128 E1.15713
G1 X171.43 Y98.662 E.01677
G1 X144.838 Y72.07 E1.18084
G1 X144.304 Y72.07 E.01677
G1 X171.43 Y99.196 E1.20455
G1 X171.43 Y99.73 E.01677
G1 X143.77 Y72.07 E1.22826
G1 X143.236 Y72.07 E.01677
G1 X171.43 Y100.264 E1.25198
G1 X171.43 Y100.798 E.01677
M73 P3 R60
G1 X142.702 Y72.07 E1.27569
G1 X142.168 Y72.07 E.01677
G1 X171.43 Y101.332 E1.2994
G1 X171.43 Y101.866 E.01677
G1 X141.634 Y72.07 E1.32312
G1 X141.1 Y72.07 E.01677
G1 X171.43 Y102.4 E1.34683
G1 X171.43 Y102.934 E.01677
G1 X140.566 Y72.07 E1.37054
G1 X140.032 Y72.07 E.01677
G1 X171.43 Y103.468 E1.39425
G1 X171.43 Y104.003 E.0168
G1 X139.498 Y72.07 E1.41799
G1 X138.963 Y72.07 E.0168
G1 X171.43 Y104.537 E1.44172
G1 X171.43 Y105.071 E.01677
G1 X138.429 Y72.07 E1.46544
G1 X137.895 Y72.07 E.01677
G1 X171.43 Y105.605 E1.48915
G1 X171.43 Y106.139 E.01677
G1 X137.361 Y72.07 E1.51286
G1 X136.827 Y72.07 E.01677
G1 X171.43 Y106.673 E1.53657
G1 X171.43 Y107.207 E.01677
G1 X136.293 Y72.07 E1.56029
G1 X135.759 Y72.07 E.01677
G1 X171.43 Y107.741 E1.584
G1 X171.43 Y108.275 E.01677
G1 X135.225 Y72.07 E1.60771
G1 X134.691 Y72.07 E.01677
G1 X171.43 Y108.809 E1.63142
G1 X171.43 Y109.343 E.01677
M73 P4 R59
G1 X134.157 Y72.07 E1.65514
G1 X133.623 Y72.07 E.01677
G1 X171.43 Y109.877 E1.67885
G1 X171.43 Y110.411 E.01677
G1 X133.089 Y72.07 E1.70256
G1 X132.555 Y72.07 E.01677
G1 X171.43 Y110.945 E1.72628
G1 X171.43 Y111.479 E.01677
G1 X132.021 Y72.07 E1.74999
G1 X131.487 Y72.07 E.01677
G1 X171.43 Y112.013 E1.7737
G1 X171.43 Y112.547 E.01677
G1 X130.953 Y72.07 E1.79741
G1 X130.419 Y72.07 E.01677
G1 X171.43 Y113.081 E1.82113
G1 X171.43 Y113.615 E.01677
G1 X129.885 Y72.07 E1.84484
G1 X129.351 Y72.07 E.01677
G1 X171.43 Y114.149 E1.86855
G1 X171.43 Y114.683 E.01677
G1 X128.817 Y72.07 E1.89226
G1 X128.283 Y72.07 E.01677
G1 X171.43 Y115.217 E1.91598
G1 X171.43 Y115.751 E.01677
G1 X127.749 Y72.07 E1.93969
G1 X127.215 Y72.07 E.01677
M73 P5 R59
G1 X171.43 Y116.285 E1.9634
G1 X171.43 Y116.82 E.0168
G1 X126.68 Y72.07 E1.98716
G1 X126.146 Y72.07 E.01677
G1 X171.43 Y117.354 E2.01087
G1 X171.43 Y117.888 E.01677
G1 X125.612 Y72.07 E2.03459
G1 X125.078 Y72.07 E.01677
G1 X171.43 Y118.422 E2.0583
G1 X171.43 Y118.956 E.01677
G1 X124.544 Y72.07 E2.08201
G1 X124.01 Y72.07 E.01677
G1 X171.43 Y119.49 E2.10572
G1 X171.43 Y120.024 E.01677
M73 P5 R58
G1 X123.476 Y72.07 E2.12944
G1 X122.942 Y72.07 E.01677
G1 X171.43 Y120.558 E2.15315
G1 X171.43 Y121.092 E.01677
G1 X122.408 Y72.07 E2.17686
G1 X121.874 Y72.07 E.01677
G1 X171.43 Y121.626 E2.20057
G1 X171.43 Y122.16 E.01677
M73 P6 R58
G1 X121.34 Y72.07 E2.22429
G1 X120.806 Y72.07 E.01677
G1 X171.43 Y122.694 E2.248
G1 X171.43 Y123.228 E.01677
G1 X120.272 Y72.07 E2.27171
G1 X119.738 Y72.07 E.01677
G1 X171.43 Y123.762 E2.29542
G1 X171.43 Y124.296 E.01677
G1 X119.204 Y72.07 E2.31914
G1 X118.67 Y72.07 E.01677
G1 X171.43 Y124.83 E2.34285
G1 X171.43 Y125.364 E.01677
G1 X118.136 Y72.07 E2.36656
G1 X117.602 Y72.07 E.01677
G1 X171.43 Y125.898 E2.39028
G1 X171.43 Y126.432 E.01677
G1 X117.068 Y72.07 E2.41399
G1 X116.534 Y72.07 E.01677
G1 X171.43 Y126.966 E2.4377
G1 X171.43 Y127.5 E.01677
M73 P7 R58
G1 X116 Y72.07 E2.46141
G1 X115.466 Y72.07 E.01677
G1 X171.43 Y128.034 E2.48513
G1 X171.43 Y128.568 E.01677
M73 P7 R57
G1 X114.932 Y72.07 E2.50884
G1 X114.398 Y72.07 E.01677
G1 X171.43 Y129.102 E2.53255
G1 X171.43 Y129.637 E.0168
G1 X113.863 Y72.07 E2.55631
G1 X113.329 Y72.07 E.01677
G1 X171.43 Y130.171 E2.58002
G1 X171.43 Y130.705 E.01677
G1 X112.795 Y72.07 E2.60373
G1 X112.261 Y72.07 E.01677
G1 X171.43 Y131.239 E2.62745
G1 X171.43 Y131.773 E.01677
G1 X111.727 Y72.07 E2.65116
G1 X111.193 Y72.07 E.01677
G1 X171.43 Y132.307 E2.67487
G1 X171.43 Y132.841 E.01677
M73 P8 R57
G1 X110.659 Y72.07 E2.69859
G1 X110.125 Y72.07 E.01677
G1 X171.43 Y133.375 E2.7223
G1 X171.433 Y133.912 E.01686
G1 X109.591 Y72.07 E2.74614
G1 X109.057 Y72.07 E.01677
G1 X171.437 Y134.449 E2.77001
G1 X171.477 Y135.024 E.0181
G1 X108.523 Y72.07 E2.79552
G1 X107.989 Y72.07 E.01677
G1 X170.877 Y134.958 E2.79259
G1 X170.326 Y134.941 E.01731
M73 P8 R56
G1 X107.455 Y72.07 E2.79184
G1 X106.921 Y72.07 E.01677
G1 X169.792 Y134.941 E2.79184
G1 X169.258 Y134.941 E.01677
M73 P9 R56
G1 X106.387 Y72.07 E2.79184
G1 X105.853 Y72.07 E.01677
G1 X168.724 Y134.941 E2.79184
G1 X168.19 Y134.941 E.01677
G1 X105.319 Y72.07 E2.79184
G1 X104.785 Y72.07 E.01677
G1 X167.655 Y134.941 E2.79182
G1 X167.121 Y134.941 E.01677
G1 X104.251 Y72.07 E2.79182
G1 X103.717 Y72.07 E.01677
G1 X166.587 Y134.941 E2.79182
G1 X166.053 Y134.94 E.01677
G1 X103.183 Y72.07 E2.79179
G1 X102.649 Y72.07 E.01677
G1 X165.519 Y134.94 E2.79179
G1 X164.985 Y134.94 E.01677
M73 P10 R56
G1 X102.115 Y72.07 E2.79179
G1 X101.58 Y72.07 E.0168
G1 X164.451 Y134.94 E2.79182
G1 X163.917 Y134.94 E.01677
G1 X101.046 Y72.07 E2.79182
G1 X100.512 Y72.07 E.01677
G1 X163.383 Y134.94 E2.79182
G1 X162.848 Y134.94 E.0168
M73 P10 R55
G1 X99.978 Y72.07 E2.79179
G1 X99.444 Y72.07 E.01677
G1 X162.314 Y134.94 E2.79179
G1 X161.78 Y134.94 E.01677
G1 X98.91 Y72.07 E2.79179
G1 X98.376 Y72.07 E.01677
G1 X161.246 Y134.94 E2.79179
G1 X160.712 Y134.94 E.01677
G1 X97.842 Y72.07 E2.79179
G1 X97.308 Y72.07 E.01677
M73 P11 R55
G1 X160.178 Y134.94 E2.79179
G1 X159.644 Y134.94 E.01677
G1 X96.774 Y72.07 E2.79179
G1 X96.24 Y72.07 E.01677
G1 X159.11 Y134.94 E2.79179
G1 X158.576 Y134.94 E.01677
G1 X95.706 Y72.07 E2.79179
G1 X95.172 Y72.07 E.01677
G1 X158.042 Y134.94 E2.79179
G1 X157.507 Y134.939 E.0168
G1 X94.638 Y72.07 E2.79175
G1 X94.104 Y72.07 E.01677
G1 X156.973 Y134.939 E2.79175
G1 X156.439 Y134.939 E.01677
G1 X93.57 Y72.07 E2.79175
G1 X93.036 Y72.07 E.01677
M73 P12 R54
G1 X155.905 Y134.939 E2.79175
G1 X155.371 Y134.939 E.01677
G1 X92.502 Y72.07 E2.79175
G1 X91.968 Y72.07 E.01677
G1 X154.837 Y134.939 E2.79175
G1 X154.303 Y134.939 E.01677
G1 X91.434 Y72.07 E2.79175
G1 X90.9 Y72.07 E.01677
G1 X153.769 Y134.939 E2.79175
G1 X153.235 Y134.939 E.01677
G1 X90.366 Y72.07 E2.79175
G1 X89.832 Y72.07 E.01677
G1 X152.701 Y134.939 E2.79175
G1 X152.166 Y134.939 E.0168
G1 X89.298 Y72.07 E2.79173
G1 X88.763 Y72.07 E.0168
G1 X151.632 Y134.939 E2.79175
G1 X151.098 Y134.939 E.01677
M73 P13 R54
G1 X88.229 Y72.07 E2.79175
G1 X87.695 Y72.07 E.01677
G1 X150.564 Y134.939 E2.79175
G1 X150.03 Y134.939 E.01677
G1 X87.161 Y72.07 E2.79175
G1 X86.627 Y72.07 E.01677
G1 X149.496 Y134.939 E2.79175
G1 X148.962 Y134.938 E.01677
G1 X86.093 Y72.07 E2.79173
G1 X85.559 Y72.07 E.01677
M73 P13 R53
G1 X148.428 Y134.938 E2.79173
G1 X147.894 Y134.938 E.01677
G1 X85.025 Y72.07 E2.79173
G1 X84.491 Y72.07 E.01677
G1 X147.359 Y134.938 E2.7917
G1 X146.825 Y134.938 E.01677
M73 P14 R53
G1 X83.957 Y72.07 E2.7917
G1 X83.423 Y72.07 E.01677
G1 X146.291 Y134.938 E2.7917
G1 X145.757 Y134.938 E.01677
G1 X82.889 Y72.07 E2.7917
G1 X82.355 Y72.07 E.01677
G1 X145.223 Y134.938 E2.7917
G1 X144.689 Y134.938 E.01677
G1 X81.821 Y72.07 E2.7917
G1 X81.287 Y72.07 E.01677
G1 X144.155 Y134.938 E2.7917
G1 X143.621 Y134.938 E.01677
G1 X80.753 Y72.07 E2.7917
G1 X80.219 Y72.07 E.01677
G1 X143.087 Y134.938 E2.7917
G1 X142.553 Y134.938 E.01677
M73 P15 R53
G1 X79.685 Y72.07 E2.7917
G1 X79.151 Y72.07 E.01677
G1 X142.018 Y134.938 E2.79168
G1 X141.484 Y134.938 E.01677
M73 P15 R52
G1 X78.617 Y72.07 E2.79168
G1 X78.57 Y72.07 E.00148
G1 X78.57 Y72.557 E.01529
G1 X140.95 Y134.938 E2.77006
G1 X140.416 Y134.937 E.01677
G1 X78.57 Y73.091 E2.74632
G1 X78.57 Y73.625 E.01677
G1 X139.882 Y134.937 E2.72261
G1 X139.348 Y134.937 E.01677
G1 X78.57 Y74.159 E2.6989
G1 X78.57 Y74.693 E.01677
G1 X138.814 Y134.937 E2.67518
G1 X138.28 Y134.937 E.01677
G1 X78.57 Y75.227 E2.65147
G1 X78.57 Y75.762 E.0168
M73 P16 R52
G1 X137.746 Y134.937 E2.62774
G1 X137.211 Y134.937 E.0168
G1 X78.57 Y76.296 E2.604
G1 X78.57 Y76.83 E.01677
G1 X136.677 Y134.937 E2.58029
G1 X136.143 Y134.937 E.01677
G1 X78.57 Y77.364 E2.55658
G1 X78.57 Y77.898 E.01677
G1 X135.609 Y134.937 E2.53286
G1 X135.075 Y134.937 E.01677
G1 X78.57 Y78.432 E2.50915
G1 X78.57 Y78.966 E.01677
G1 X134.541 Y134.937 E2.48544
G1 X134.007 Y134.937 E.01677
M73 P16 R51
G1 X78.57 Y79.5 E2.46172
G1 X78.57 Y80.034 E.01677
G1 X133.473 Y134.937 E2.43801
G1 X132.939 Y134.937 E.01677
M73 P17 R51
G1 X78.57 Y80.568 E2.4143
G1 X78.57 Y81.102 E.01677
G1 X132.405 Y134.937 E2.39059
G1 X131.87 Y134.937 E.0168
G1 X78.57 Y81.636 E2.36685
G1 X78.57 Y82.17 E.01677
G1 X131.336 Y134.936 E2.34312
G1 X130.802 Y134.936 E.01677
G1 X78.57 Y82.704 E2.3194
G1 X78.57 Y83.238 E.01677
G1 X130.268 Y134.936 E2.29569
G1 X129.734 Y134.936 E.01677
G1 X78.57 Y83.772 E2.27198
G1 X78.57 Y84.306 E.01677
G1 X129.2 Y134.936 E2.24827
G1 X128.666 Y134.936 E.01677
G1 X78.57 Y84.84 E2.22455
G1 X78.57 Y85.374 E.01677
G1 X128.132 Y134.936 E2.20084
G1 X127.598 Y134.936 E.01677
M73 P18 R51
G1 X78.57 Y85.908 E2.17713
G1 X78.57 Y86.442 E.01677
G1 X127.064 Y134.936 E2.15342
G1 X126.529 Y134.936 E.0168
G1 X78.57 Y86.976 E2.12968
G1 X78.57 Y87.51 E.01677
G1 X125.995 Y134.936 E2.10597
G1 X125.461 Y134.936 E.01677
M73 P18 R50
G1 X78.57 Y88.044 E2.08225
G1 X78.57 Y88.579 E.0168
G1 X124.927 Y134.936 E2.05852
G1 X124.393 Y134.936 E.01677
G1 X78.57 Y89.113 E2.03481
G1 X78.57 Y89.647 E.01677
G1 X123.859 Y134.936 E2.01109
G1 X123.325 Y134.936 E.01677
G1 X78.57 Y90.181 E1.98738
G1 X78.57 Y90.715 E.01677
G1 X122.791 Y134.935 E1.96365
G1 X122.257 Y134.935 E.01677
G1 X78.57 Y91.249 E1.93993
G1 X78.57 Y91.783 E.01677
M73 P19 R50
G1 X121.722 Y134.935 E1.9162
G1 X121.188 Y134.935 E.01677
G1 X78.57 Y92.317 E1.89249
G1 X78.57 Y92.851 E.01677
G1 X120.654 Y134.935 E1.86877
G1 X120.12 Y134.935 E.01677
G1 X78.57 Y93.385 E1.84506
G1 X78.57 Y93.919 E.01677
G1 X119.586 Y134.935 E1.82135
G1 X119.052 Y134.935 E.01677
G1 X78.57 Y94.453 E1.79764
G1 X78.57 Y94.987 E.01677
G1 X118.518 Y134.935 E1.77392
G1 X117.984 Y134.935 E.01677
G1 X78.57 Y95.521 E1.75021
G1 X78.57 Y96.055 E.01677
G1 X117.45 Y134.935 E1.7265
G1 X116.916 Y134.935 E.01677
G1 X78.57 Y96.589 E1.70279
G1 X78.57 Y97.123 E.01677
G1 X116.381 Y134.935 E1.67905
G1 X115.847 Y134.935 E.01677
G1 X78.57 Y97.657 E1.65534
G1 X78.57 Y98.191 E.01677
G1 X115.313 Y134.935 E1.63162
G1 X114.779 Y134.935 E.01677
M73 P20 R49
G1 X78.57 Y98.725 E1.60791
