; generated by PrusaSlicer 2.5.0-alpha2+linux-x64-GTK3 on 2022-08-29 at 00:56:13 UTC



; 



; external perimeters extrusion width = 0.45mm

; perimeters extrusion width = 0.45mm

; infill extrusion width = 0.45mm

; solid infill extrusion width = 0.45mm

; top infill extrusion width = 0.40mm

; first layer extrusion width = 0.42mm



M73 P0 R58

M107

;TYPE:Custom

M862.3 P "MK2.5" ; printer model check

M862.1 P0.4 ; nozzle diameter check

M115 U3.9.1 ; tell printer latest fw version

G90 ; use absolute coordinates

M83 ; extruder relative mode

M104 S215 ; set extruder temp

M140 S60 ; set bed temp

M190 S60 ; wait for bed temp

M109 S215 ; wait for extruder temp

G28 W ; home all without mesh bed level

G80 ; mesh bed leveling

G1 Y-3.0 F1000.0 ; go outside print area

G92 E0.0

G1 X60.0 E9.0 F1000.0 ; intro line

G1 X100.0 E12.5 F1000.0 ; intro line

G92 E0.0

G21 ; set units to millimeters

G90 ; use absolute coordinates

M83 ; use relative distances for extrusion

M900 K0.05 ; Filament gcode LA 1.5

M900 K30 ; Filament gcode LA 1.0

M107

;LAYER_CHANGE

;Z:0.2

;HEIGHT:0.2

;BEFORE_LAYER_CHANGE

G92 E0.0

;0.2





G1 E-.8 F2100

G1 Z.6 F10800

;AFTER_LAYER_CHANGE

;0.2

;CURRENT_Z: 0.2

G1 X89.403 Y56.57

G1 Z.2

G1 E.8 F2100

M204 S1000

;TYPE:Skirt/Brim

;WIDTH:0.42

G1 F1200

G1 X90.008 Y55.95 E.02715

G1 X90.596 Y55.589 E.02164

G1 X91.376 Y55.329 E.02579

G1 X92 Y55.261 E.01969

G1 X93 Y55.261 E.03135

G1 X94.048 Y55.505 E.03374

G1 X159.909 Y87.867 E2.30085

G1 X160.91 Y88.795 E.04278

M73 P0 R57

G1 X161.238 Y90 E.03918

G1 X161.238 Y151.5 E1.9283

G1 X161.172 Y152.12 E.01953

G1 X160.911 Y152.904 E.02593

G1 X160.55 Y153.492 E.02164

G1 X159.931 Y154.097 E.02715

G1 X159.158 Y154.521 E.02763

G1 X158.312 Y154.718 E.02722

G1 X157 Y154.739 E.04115

G1 X155.952 Y154.495 E.03374

G1 X90.091 Y122.133 E2.30085

G1 X89.09 Y121.205 E.04278

G1 X88.762 Y120 E.03918

G1 X88.782 Y58.187 E1.9381

G1 X88.98 Y57.34 E.02727

G1 X89.374 Y56.622 E.02567

;WIPE_START

G1 F8640

G1 X90.008 Y55.95 E-.21329

G1 X90.596 Y55.589 E-.15933

G1 X91.376 Y55.329 E-.18991

G1 X92 Y55.261 E-.14497

G1 X92.228 Y55.261 E-.05249

;WIPE_END

G1 E-.04 F2100

G1 Z.8 F10800

G1 X92.359 Y90.435

G1 Z.2

G1 E.8 F2100

;TYPE:Perimeter

;WIDTH:0.419999

G1 F1200

G1 X92.779 Y90.787 E.01718

G1 X119.559 Y90.787 E.8397

;WIDTH:0.457876

G1 X120.424 Y90.806 E.02982

;WIDTH:0.495753

G1 X121.288 Y90.825 E.03254

;WIDTH:0.533629

G1 X122.152 Y90.844 E.03526

;WIDTH:0.573002

G1 X122.331 Y90.864 E.00797

G1 X123.195 Y90.842 E.0381

;WIDTH:0.530607

G1 X124.06 Y90.821 E.03505

;WIDTH:0.488211

G1 X124.924 Y90.8 E.032

;WIDTH:0.445815

G1 X125.076 Y90.8 E.00512

;WIDTH:0.488211

G1 X125.94 Y90.821 E.032

;WIDTH:0.530606

G1 X126.805 Y90.842 E.03505

;WIDTH:0.573001

G1 X127.669 Y90.864 E.0381

G1 X127.758 Y90.846 E.00403

;WIDTH:0.538461

G1 X127.848 Y90.829 E.00377

;WIDTH:0.50392

G1 X129.144 Y90.808 E.04969

;WIDTH:0.46196

G1 X130.441 Y90.787 E.04517

;WIDTH:0.419999

G1 X157.641 Y90.787 E.85286

G1 X157.641 Y119.633 E.90442

G1 X157.221 Y119.213 E.01861

G1 X130.441 Y119.213 E.8397

;WIDTH:0.457876

G1 X129.576 Y119.194 E.02982

;WIDTH:0.495753

G1 X128.712 Y119.175 E.03254

;WIDTH:0.533629

G1 X127.848 Y119.156 E.03526

;WIDTH:0.573001

G1 X127.669 Y119.136 E.00797

G1 X126.805 Y119.158 E.0381

;WIDTH:0.530606

G1 X125.94 Y119.179 E.03505

;WIDTH:0.488211

G1 X125.076 Y119.2 E.032

;WIDTH:0.445815

G1 X124.924 Y119.2 E.00512

;WIDTH:0.488211

G1 X124.06 Y119.179 E.032

;WIDTH:0.530607

G1 X123.195 Y119.158 E.03505

;WIDTH:0.573002

G1 X122.331 Y119.136 E.0381

G1 X122.242 Y119.154 E.00403

;WIDTH:0.538462

G1 X122.152 Y119.171 E.00377

;WIDTH:0.503921

G1 X120.856 Y119.192 E.04969

;WIDTH:0.46196

G1 X119.559 Y119.213 E.04517

;WIDTH:0.419999

G1 X92.359 Y119.213 E.85286

G1 X92.359 Y101.427 E.55765

G1 X92.359 Y90.495 E.34278

;WIPE_START

G1 F8640

G1 X92.779 Y90.787 E-.11812

;WIPE_END

G1 E-.68188 F2100

G1 Z.8 F10800

G1 X112.41 Y99.44

G1 Z.2

G1 E.8 F2100

G1 F1200

G1 X113.507 Y97.387 E.07297

G1 X113.569 Y97.295 E.00348

G1 X115.213 Y95.292 E.08127

G1 X115.292 Y95.213 E.00347

G1 X117.295 Y93.569 E.08127

G1 X117.387 Y93.507 E.00348

G1 X119.673 Y92.285 E.08126

G1 X119.775 Y92.243 E.00348

;WIDTH:0.457876

G1 X120.597 Y91.974 E.02982

;WIDTH:0.495753

G1 X121.418 Y91.705 E.03254

;WIDTH:0.533629

G1 X122.239 Y91.436 E.03526

;WIDTH:0.573002

G1 X122.357 Y91.392 E.00554

G1 X123.219 Y91.329 E.0381

;WIDTH:0.530607

G1 X124.081 Y91.266 E.03505

;WIDTH:0.488211

G1 X124.943 Y91.202 E.032

;WIDTH:0.445815

G1 X125.057 Y91.202 E.00379

;WIDTH:0.488211

G1 X125.919 Y91.266 E.032

;WIDTH:0.530606

G1 X126.781 Y91.329 E.03505

;WIDTH:0.573001

G1 X127.643 Y91.392 E.0381

G1 X127.699 Y91.421 E.00281

;WIDTH:0.538461

G1 X127.756 Y91.45 E.00262

;WIDTH:0.50392

G1 X128.99 Y91.846 E.04969

;WIDTH:0.46196

G1 X130.225 Y92.243 E.04517

;WIDTH:0.419999

G1 X130.327 Y92.285 E.00348

G1 X132.613 Y93.507 E.08126

G1 X132.705 Y93.569 E.00348

G1 X134.708 Y95.213 E.08127

G1 X134.787 Y95.292 E.00347

G1 X136.431 Y97.295 E.08127

G1 X136.493 Y97.387 E.00348

G1 X137.715 Y99.673 E.08126

G1 X137.757 Y99.775 E.00348

G1 X138.51 Y102.256 E.08128

G1 X138.531 Y102.365 E.00348

G1 X138.785 Y104.945 E.08128

G1 X138.785 Y105.055 E.00347

G1 X138.531 Y107.635 E.08128

G1 X138.51 Y107.744 E.00348

G1 X137.757 Y110.225 E.08128

G1 X137.715 Y110.327 E.00348

G1 X136.493 Y112.613 E.08126

G1 X136.431 Y112.705 E.00348

G1 X134.787 Y114.708 E.08127

G1 X134.708 Y114.787 E.00347

G1 X132.705 Y116.431 E.08127

G1 X132.613 Y116.493 E.00348

G1 X130.327 Y117.715 E.08126

G1 X130.225 Y117.757 E.00348

;WIDTH:0.457876

G1 X129.403 Y118.026 E.02982

;WIDTH:0.495753

G1 X128.582 Y118.295 E.03254

;WIDTH:0.533629

G1 X127.761 Y118.564 E.03526

;WIDTH:0.573001

G1 X127.643 Y118.608 E.00554

G1 X126.781 Y118.671 E.0381

;WIDTH:0.530606

G1 X125.919 Y118.734 E.03505

;WIDTH:0.488211

G1 X125.057 Y118.798 E.032

;WIDTH:0.445815

G1 X124.943 Y118.798 E.00379

;WIDTH:0.488211

M73 P1 R57

G1 X124.081 Y118.734 E.032

;WIDTH:0.530607

G1 X123.219 Y118.671 E.03505

;WIDTH:0.573002

G1 X122.357 Y118.608 E.0381

G1 X122.301 Y118.579 E.00281

;WIDTH:0.538462

G1 X122.244 Y118.55 E.00262

;WIDTH:0.503921

G1 X121.01 Y118.154 E.04969

;WIDTH:0.46196

G1 X119.775 Y117.757 E.04517

;WIDTH:0.419999

G1 X119.673 Y117.715 E.00348

G1 X117.387 Y116.493 E.08126

G1 X117.295 Y116.431 E.00348

G1 X115.292 Y114.787 E.08127

G1 X115.213 Y114.708 E.00347

G1 X113.569 Y112.705 E.08127

G1 X113.507 Y112.613 E.00348

G1 X112.285 Y110.327 E.08126

G1 X112.243 Y110.225 E.00348

G1 X111.49 Y107.744 E.08128

G1 X111.469 Y107.635 E.00348

G1 X111.215 Y105.055 E.08128

G1 X111.215 Y104.945 E.00347

G1 X111.469 Y102.365 E.08128

G1 X111.49 Y102.256 E.00348

G1 X112.243 Y99.775 E.08128

G1 X112.285 Y99.673 E.00348

G1 X112.382 Y99.493 E.00641

G1 X112.618 Y99.851 F10800

;TYPE:External perimeter

G1 F1200

G1 X113.84 Y97.565 E.08126

G1 X113.86 Y97.534 E.00116

G1 X115.505 Y95.531 E.08127

G1 X115.531 Y95.505 E.00116

G1 X117.534 Y93.86 E.08127

G1 X117.565 Y93.84 E.00116

G1 X119.851 Y92.618 E.08126

G1 X119.885 Y92.604 E.00116

G1 X122.365 Y91.851 E.08128

G1 X122.402 Y91.844 E.00116

G1 X124.982 Y91.59 E.08128

G1 X125.018 Y91.59 E.00116

G1 X127.598 Y91.844 E.08128

G1 X127.635 Y91.851 E.00116

G1 X130.115 Y92.604 E.08128

G1 X130.149 Y92.618 E.00116

G1 X132.435 Y93.839 E.08126

G1 X132.466 Y93.86 E.00116

G1 X134.469 Y95.505 E.08127

G1 X134.495 Y95.531 E.00116

G1 X136.14 Y97.534 E.08127

G1 X136.16 Y97.565 E.00116

G1 X137.382 Y99.851 E.08126

G1 X137.396 Y99.885 E.00116

G1 X138.149 Y102.365 E.08128

G1 X138.156 Y102.402 E.00116

G1 X138.41 Y104.982 E.08128

G1 X138.41 Y105.018 E.00116

G1 X138.156 Y107.598 E.08128

G1 X138.149 Y107.635 E.00116

G1 X137.396 Y110.115 E.08128

G1 X137.382 Y110.149 E.00116

G1 X136.16 Y112.435 E.08126

G1 X136.14 Y112.466 E.00116

G1 X134.495 Y114.469 E.08127

G1 X134.469 Y114.495 E.00116

G1 X132.466 Y116.14 E.08127

G1 X132.435 Y116.16 E.00116

G1 X130.149 Y117.382 E.08126

G1 X130.115 Y117.396 E.00116

G1 X127.635 Y118.149 E.08128

G1 X127.598 Y118.156 E.00116

G1 X125.018 Y118.41 E.08128

G1 X124.982 Y118.41 E.00116

G1 X122.402 Y118.156 E.08128

G1 X122.365 Y118.149 E.00116

G1 X119.885 Y117.396 E.08128

G1 X119.851 Y117.382 E.00116

G1 X117.565 Y116.161 E.08126

G1 X117.534 Y116.14 E.00116

G1 X115.531 Y114.495 E.08127

G1 X115.505 Y114.469 E.00116

G1 X113.86 Y112.466 E.08127

G1 X113.84 Y112.435 E.00116

G1 X112.618 Y110.149 E.08126

G1 X112.604 Y110.115 E.00116

G1 X111.851 Y107.635 E.08128

G1 X111.844 Y107.598 E.00116

G1 X111.59 Y105.018 E.08128

G1 X111.59 Y104.982 E.00116

G1 X111.844 Y102.402 E.08128

G1 X111.851 Y102.365 E.00116

G1 X112.597 Y99.907 E.08055

;WIPE_START

G1 F8640

G1 X113.84 Y97.565 E-.61215

;WIPE_END

G1 E-.18785 F2100

G1 Z.8 F10800

G1 X92.697 Y90.362

G1 Z.2

G1 E.8 F2100

;WIDTH:0.459768

G1 F1200

G1 X92.779 Y90.41 E.00329

;WIDTH:0.419999

G1 X122.263 Y90.41 E.92445

G1 X158.018 Y90.41 E1.12109

G1 X158.018 Y118.793 E.88993

;WIDTH:0.458523

G1 X157.999 Y119.122 E.01137

;WIDTH:0.497047

G1 X157.98 Y119.45 E.01242

;WIDTH:0.535571

G1 X157.96 Y119.778 E.01348

G1 X157.96 Y151.214 E1.28773

G1 X157.95 Y151.45 E.00968

G1 X157.468 Y151.46 E.01977

G1 X157.468 Y119.778 E1.29782

G1 X157.386 Y119.716 E.00424

;WIDTH:0.497047

G1 X157.304 Y119.653 E.0039

;WIDTH:0.458523

G1 X157.221 Y119.59 E.00357

;WIDTH:0.419999

G1 X130.441 Y119.59 E.8397

G1 X127.848 Y119.59 E.08128

G1 X91.982 Y119.59 E1.12457

G1 X91.982 Y91.207 E.88993

;WIDTH:0.458524

G1 X92.001 Y90.878 E.01137

;WIDTH:0.497048

G1 X92.02 Y90.55 E.01242

;WIDTH:0.535572

G1 X92.04 Y90.222 E.01348

G1 X92.04 Y58.584 E1.29599

G1 X92.05 Y58.55 E.00147

G1 X92.532 Y58.54 E.01977

G1 X92.532 Y90.222 E1.29782

;WIDTH:0.539305

G1 X92.534 Y90.264 E.00177

G1 X92.616 Y90.313 E.00392

;WIDTH:0.499537

G1 X92.646 Y90.331 E.00132

;WIPE_START

G1 F8640

G1 X92.779 Y90.41 E-.03576

;WIPE_END

G1 E-.76424 F2100

G1 Z.8 F10800

G1 X93.236 Y119.1

G1 Z.2

G1 E.8 F2100

;TYPE:Solid infill

;WIDTH:0.420809

G1 F1200

G1 X92.642 Y118.505 E.02641

G1 X92.642 Y117.971 E.01679

G1 X93.601 Y118.93 E.04262

G1 X94.135 Y118.93 E.01679

G1 X92.642 Y117.437 E.06636

G1 X92.642 Y116.902 E.01679

G1 X94.67 Y118.93 E.09011

G1 X95.204 Y118.93 E.01679

G1 X92.642 Y116.368 E.11386

G1 X92.642 Y115.833 E.01679

G1 X95.738 Y118.93 E.13761

G1 X96.273 Y118.93 E.01679

G1 X92.642 Y115.299 E.16135

G1 X92.642 Y114.765 E.01679

G1 X96.807 Y118.93 E.1851

G1 X97.342 Y118.93 E.01679

G1 X92.642 Y114.23 E.20885

G1 X92.642 Y113.696 E.01679

G1 X97.876 Y118.93 E.2326

G1 X98.41 Y118.93 E.01679

G1 X92.642 Y113.161 E.25635

G1 X92.642 Y112.627 E.01679

G1 X98.945 Y118.93 E.28009

G1 X99.479 Y118.93 E.01679

G1 X92.642 Y112.092 E.30384

G1 X92.642 Y111.558 E.01679

G1 X100.014 Y118.93 E.32759

G1 X100.548 Y118.93 E.01679

G1 X92.642 Y111.024 E.35134

G1 X92.642 Y110.489 E.01679

G1 X101.083 Y118.93 E.37508

G1 X101.617 Y118.93 E.01679

G1 X92.642 Y109.955 E.39883

G1 X92.642 Y109.42 E.01679

G1 X102.151 Y118.93 E.42258

G1 X102.686 Y118.93 E.01679

G1 X92.642 Y108.886 E.44633

G1 X92.642 Y108.352 E.01679

G1 X103.22 Y118.93 E.47008

G1 X103.755 Y118.93 E.01679

G1 X92.642 Y107.817 E.49382

G1 X92.642 Y107.283 E.01679

G1 X104.289 Y118.93 E.51757

G1 X104.823 Y118.93 E.01679

G1 X92.642 Y106.748 E.54132

G1 X92.642 Y106.214 E.01679

G1 X105.358 Y118.93 E.56507

G1 X105.892 Y118.93 E.01679

M73 P1 R56

G1 X92.642 Y105.679 E.58881

G1 X92.642 Y105.145 E.01679

M73 P2 R56

G1 X106.427 Y118.93 E.61256

G1 X106.961 Y118.93 E.01679

G1 X92.642 Y104.611 E.63631

G1 X92.642 Y104.076 E.01679

G1 X107.495 Y118.93 E.66006

G1 X108.03 Y118.93 E.01679

G1 X92.642 Y103.542 E.68381

G1 X92.642 Y103.007 E.01679

G1 X108.564 Y118.93 E.70755

G1 X109.099 Y118.93 E.01679

G1 X92.642 Y102.473 E.7313

G1 X92.642 Y101.939 E.01679

G1 X109.633 Y118.93 E.75505

G1 X110.168 Y118.93 E.01679

G1 X92.642 Y101.404 E.7788

G1 X92.642 Y100.87 E.01679

G1 X110.702 Y118.93 E.80254

G1 X111.236 Y118.93 E.01679

G1 X92.642 Y100.335 E.82629

G1 X92.642 Y99.801 E.01679

G1 X111.771 Y118.93 E.85004

G1 X112.305 Y118.93 E.01679

G1 X92.642 Y99.266 E.87379

G1 X92.642 Y98.732 E.01679

G1 X112.84 Y118.93 E.89754

G1 X113.374 Y118.93 E.01679

G1 X92.642 Y98.198 E.92128

G1 X92.642 Y97.663 E.01679

G1 X113.908 Y118.93 E.94503

G1 X114.443 Y118.93 E.01679

G1 X92.642 Y97.129 E.96878

G1 X92.642 Y96.594 E.01679

G1 X114.977 Y118.93 E.99253

G1 X115.512 Y118.93 E.01679

G1 X92.642 Y96.06 E1.01627

G1 X92.642 Y95.526 E.01679

G1 X116.046 Y118.93 E1.04002

G1 X116.581 Y118.93 E.01679

G1 X92.642 Y94.991 E1.06377

G1 X92.642 Y94.457 E.01679

G1 X117.115 Y118.93 E1.08752

G1 X117.649 Y118.93 E.01679

G1 X92.642 Y93.922 E1.11127

G1 X92.642 Y93.388 E.01679

G1 X118.184 Y118.93 E1.13501

G1 X118.718 Y118.93 E.01679

G1 X92.642 Y92.853 E1.15876

G1 X92.642 Y92.319 E.01679

M73 P3 R56

G1 X119.422 Y119.1 E1.19005

;WIPE_START

G1 F8640

G1 X117.095 Y116.772 E-.76

;WIPE_END

G1 E-.04 F2100

G1 Z.8 F10800

G1 X122.015 Y119.02

G1 Z.2

G1 E.8 F2100

G1 F1200

G1 X121.702 Y118.707 E.01392

G1 X120.888 Y118.428 E.02702

G1 X121.333 Y118.873 E.01975

G1 X120.815 Y118.889 E.01627

G1 X120.075 Y118.149 E.0329

G1 X119.546 Y117.968 E.01755

G1 X119.144 Y117.753 E.01434

G1 X120.298 Y118.906 E.05126

G1 X119.78 Y118.923 E.01627

G1 X117.583 Y116.726 E.09763

;WIPE_START

G1 F8640

G1 X119.78 Y118.923 E-.71745

G1 X119.964 Y118.917 E-.04255

;WIPE_END

G1 E-.04 F2100

G1 Z.8 F10800

G1 X113.274 Y112.417

G1 Z.2

G1 E.8 F2100

G1 F1200

G1 X92.642 Y91.785 E.91685

G1 X92.642 Y91.25 E.01679

G1 X112.247 Y110.856 E.87122

G1 X112.034 Y110.456 E.01424

G1 X111.86 Y109.934 E.0173

G1 X92.996 Y91.07 E.83825

G1 X93.53 Y91.07 E.01679

G1 X111.629 Y109.168 E.80424

G1 X111.398 Y108.403 E.02513

G1 X94.065 Y91.07 E.77022

G1 X94.599 Y91.07 E.01679

G1 X111.191 Y107.662 E.73728

G1 X111.132 Y107.069 E.01871

G1 X95.133 Y91.07 E.71094

G1 X95.668 Y91.07 E.01679

G1 X111.074 Y106.476 E.6846

G1 X111.016 Y105.883 E.01871

G1 X96.202 Y91.07 E.65826

G1 X96.737 Y91.07 E.01679

G1 X110.957 Y105.291 E.63193

G1 X110.929 Y105 E.00918

G1 X110.953 Y104.752 E.00783

G1 X97.271 Y91.07 E.60799

G1 X97.806 Y91.07 E.01679

G1 X111.001 Y104.266 E.58637

G1 X111.049 Y103.779 E.01536

G1 X98.34 Y91.07 E.56475

G1 X98.874 Y91.07 E.01679

G1 X111.097 Y103.292 E.54313

G1 X111.145 Y102.806 E.01536

G1 X99.409 Y91.07 E.52151

G1 X99.943 Y91.07 E.01679

G1 X111.193 Y102.319 E.49988

G1 X111.306 Y101.899 E.01369

G1 X100.478 Y91.07 E.4812

G1 X101.012 Y91.07 E.01679

G1 X111.43 Y101.488 E.46296

G1 X111.554 Y101.078 E.01347

G1 X101.546 Y91.07 E.44472

G1 X102.081 Y91.07 E.01679

G1 X111.678 Y100.667 E.42648

G1 X111.802 Y100.257 E.01347

M73 P3 R55

G1 X102.615 Y91.07 E.40823

G1 X103.15 Y91.07 E.01679

G1 X111.926 Y99.846 E.38999

G1 X111.974 Y99.689 E.00516

G1 X112.077 Y99.463 E.00781

G1 X103.684 Y91.07 E.37295

G1 X104.219 Y91.07 E.01679

G1 X112.263 Y99.115 E.35748

G1 X112.449 Y98.766 E.01241

G1 X104.753 Y91.07 E.342

G1 X105.287 Y91.07 E.01679

G1 X112.635 Y98.418 E.32652

G1 X112.822 Y98.07 E.01241

G1 X105.822 Y91.07 E.31105

G1 X106.356 Y91.07 E.01679

G1 X113.008 Y97.721 E.29557

G1 X113.194 Y97.373 E.01241

G1 X106.891 Y91.07 E.2801

G1 X107.425 Y91.07 E.01679

G1 X113.404 Y97.049 E.26571

G1 X113.645 Y96.756 E.01193

G1 X107.959 Y91.07 E.25266

G1 X108.494 Y91.07 E.01679

G1 X113.886 Y96.462 E.23962

G1 X114.127 Y96.169 E.01193

G1 X109.028 Y91.07 E.22658

G1 X109.563 Y91.07 E.01679

G1 X114.368 Y95.875 E.21354

G1 X114.609 Y95.582 E.01193

G1 X110.097 Y91.07 E.2005

G1 X110.632 Y91.07 E.01679

G1 X114.85 Y95.289 E.18746

G1 X115.101 Y95.005 E.0119

G1 X111.166 Y91.07 E.17487

G1 X111.7 Y91.07 E.01679

G1 X115.394 Y94.764 E.16413

G1 X115.687 Y94.523 E.01193

G1 X112.235 Y91.07 E.15342

G1 X112.769 Y91.07 E.01679

G1 X115.981 Y94.282 E.14272

