; generated by PrusaSlicer 2.6.0-alpha6+linux-x64-GTK3 on 2023-05-08 at 03:33:56 UTC

; 

; external perimeters extrusion width = 0.45mm
; perimeters extrusion width = 0.45mm
; infill extrusion width = 0.45mm
; solid infill extrusion width = 0.45mm
; top infill extrusion width = 0.40mm
; first layer extrusion width = 0.42mm

M73 P0 R123
M201 X9000 Y9000 Z500 E10000 ; sets maximum accelerations, mm/sec^2
M203 X500 Y500 Z12 E120 ; sets maximum feedrates, mm / sec
M204 S2000 T1500 ; sets acceleration (S) and retract acceleration (R), mm/sec^2
M205 X10.00 Y10.00 Z0.20 E4.50 ; sets the jerk limits, mm/sec
M205 S0 T0 ; sets the minimum extruding and travel feed rate, mm/sec
;TYPE:Custom
M862.3 P "MK2.5" ; printer model check
M862.1 P0.4 ; nozzle diameter check
M115 U3.11.0 ; tell printer latest fw version
G90 ; use absolute coordinates
M83 ; extruder relative mode
M104 S215 ; set extruder temp
M140 S60 ; set bed temp
M190 S60 ; wait for bed temp
M109 S215 ; wait for extruder temp
G28 W ; home all without mesh bed level
G80 ; mesh bed leveling

G1 Z0.2 F720
G1 Y-3 F1000 ; go outside print area
G92 E0
G1 X60 E9 F1000 ; intro line
G1 X100 E12.5 F1000 ; intro line

G92 E0
G21 ; set units to millimeters
G90 ; use absolute coordinates
M83 ; use relative distances for extrusion
M900 K0.05 ; Filament gcode LA 1.5
M900 K30 ; Filament gcode LA 1.0
M107
;LAYER_CHANGE
;Z:0.2
;HEIGHT:0.2
;BEFORE_LAYER_CHANGE
G92 E0.0
;0.2


G1 E-.8 F2100
G1 Z.4 F720
;AFTER_LAYER_CHANGE
;0.2
;CURRENT_Z: 0.2
G1 X105.537 Y69.816 F10800
G1 Z.2 F720
G1 E.8 F2100
M204 S800
;TYPE:Skirt/Brim
;WIDTH:0.42
G1 F1200
G1 X106.434 Y68.788 E.04278
G1 X107.7 Y68.423 E.04131
G1 X172.7 Y68.423 E2.03803
G1 X174.007 Y68.815 E.04278
G1 X174.884 Y69.861 E.0428
G1 X175.077 Y70.8 E.03006
G1 X175.077 Y139.2 E2.14463
G1 X174.686 Y140.507 E.04277
M73 P0 R122
G1 X173.64 Y141.383 E.04278
G1 X172.7 Y141.577 E.03009
G1 X77.3 Y141.577 E2.9912
G1 X75.993 Y141.185 E.04278
G1 X75.117 Y140.139 E.04278
G1 X74.923 Y139.2 E.03006
G1 X74.923 Y137.6 E.05017
G1 X75.136 Y136.615 E.0316
G1 X105.512 Y69.87 E2.29928
M204 S1000
; printing object divisorias3.stl id:0 copy 0
;WIPE_START
G1 F8640
G1 X106.434 Y68.788 E-.32824
G1 X107.7 Y68.423 E-.30423
G1 X108.426 Y68.423 E-.16753
;WIPE_END
G1 Z.6 F720
G1 X108.378 Y137.956 F10800
G1 Z.2 F720
G1 E.8 F2100
M204 S800
;TYPE:Perimeter
;WIDTH:0.454434
G1 F1200
G1 X108.487 Y137.821 E.00594
;WIDTH:0.419999
G1 X108.487 Y110.44 E.85851
;WIDTH:0.457836
G1 X108.506 Y109.576 E.02982
;WIDTH:0.495673
G1 X108.525 Y108.712 E.03253
;WIDTH:0.533509
G1 X108.544 Y107.848 E.03525
;WIDTH:0.572792
G1 X108.564 Y107.668 E.00798
G1 X108.542 Y106.804 E.03808
;WIDTH:0.530427
G1 X108.521 Y105.94 E.03503
;WIDTH:0.488062
G1 X108.5 Y105.076 E.03199
;WIDTH:0.445697
G1 X108.5 Y104.924 E.00509
;WIDTH:0.488062
G1 X108.521 Y104.06 E.03199
;WIDTH:0.530427
G1 X108.542 Y103.196 E.03503
;WIDTH:0.572792
G1 X108.564 Y102.332 E.03808
G1 X108.546 Y102.242 E.00404
;WIDTH:0.538308
G1 X108.529 Y102.152 E.00377
;WIDTH:0.503824
G1 X108.508 Y100.856 E.04967
;WIDTH:0.461912
G1 X108.487 Y99.56 E.04516
;WIDTH:0.419999
G1 X108.487 Y71.587 E.87707
G1 X171.913 Y71.587 E1.98867
G1 X171.913 Y138.413 E2.09528
G1 X109.078 Y138.413 E1.97014
;WIDTH:0.454434
G1 X108.022 Y138.395 E.03614
G1 X108.34 Y138.003 E.01727
M204 S1000
G1 X108.11 Y137.821 F10800
M204 S800
;TYPE:External perimeter
;WIDTH:0.419999
G1 F1200
G1 X108.11 Y71.21 E2.08854
G1 X172.29 Y71.21 E2.01232
G1 X172.29 Y138.79 E2.11892
G1 X77.71 Y138.79 E2.96548
G1 X77.71 Y138.01 E.02446
G1 X107.922 Y138.01 E.94727
G1 X108.068 Y137.864 E.00647
M204 S1000
G1 X108.51 Y137.82 F10800
G1 X108.022 Y138.395
M204 S800
;TYPE:Perimeter
;WIDTH:0.454434
G1 F1200
G1 X107.922 Y138.4 E.00343
;WIDTH:0.445668
G1 X78.1 Y138.4 E.9987
M204 S1000
;WIPE_START
G1 F8640
G1 X81.565 Y138.4 E-.8
;WIPE_END
G1 Z.6 F720
G1 X109.956 Y110.257 F10800
G1 Z.2 F720
G1 E.8 F2100
M204 S800
;WIDTH:0.419999
G1 F1200
G1 X109.942 Y110.224 E.00112
;WIDTH:0.457836
G1 X109.673 Y109.403 E.02981
;WIDTH:0.495673
G1 X109.404 Y108.581 E.03256
;WIDTH:0.533509
G1 X109.136 Y107.76 E.03523
;WIDTH:0.572792
G1 X109.092 Y107.642 E.00555
G1 X109.029 Y106.78 E.03808
;WIDTH:0.530427
G1 X108.965 Y105.918 E.03504
;WIDTH:0.488062
G1 X108.902 Y105.057 E.03195
;WIDTH:0.445697
G1 X108.902 Y104.943 E.00382
;WIDTH:0.488062
G1 X108.965 Y104.082 E.03195
;WIDTH:0.530427
G1 X109.029 Y103.22 E.03504
;WIDTH:0.572792
G1 X109.092 Y102.358 E.03808
G1 X109.121 Y102.301 E.00282
;WIDTH:0.538308
G1 X109.15 Y102.244 E.00263
;WIDTH:0.503824
G1 X109.546 Y101.01 E.04967
;WIDTH:0.461912
G1 X109.942 Y99.776 E.04515
;WIDTH:0.419999
G1 X111.269 Y97.295 E.08822
G1 X112.991 Y95.213 E.08471
G1 X115.087 Y93.507 E.08474
G1 X117.373 Y92.285 E.08127
G1 X119.956 Y91.49 E.08474
G1 X122.644 Y91.215 E.08472
G1 X125.334 Y91.468 E.08472
G1 X128.026 Y92.285 E.08821
G1 X130.405 Y93.569 E.08476
G1 X132.486 Y95.292 E.08471
G1 X134.192 Y97.387 E.08471
G1 X135.457 Y99.776 E.08476
G1 X136.21 Y102.256 E.08126
G1 X136.485 Y104.945 E.08475
G1 X136.231 Y107.635 E.08472
G1 X135.457 Y110.224 E.08473
G1 X134.131 Y112.705 E.0882
G1 X132.408 Y114.787 E.08473
G1 X130.313 Y116.493 E.08471
G1 X128.026 Y117.715 E.0813
G1 X125.443 Y118.51 E.08474
G1 X122.755 Y118.785 E.08472
G1 X120.065 Y118.532 E.08472
G1 X117.373 Y117.715 E.08821
G1 X114.995 Y116.431 E.08474
G1 X112.913 Y114.708 E.08473
G1 X111.207 Y112.613 E.08471
G1 X109.979 Y110.312 E.08178
M204 S1000
G1 X110.298 Y110.099 F10800
M204 S800
;TYPE:External perimeter
G1 F1200
G1 X109.543 Y107.598 E.08191
G1 X109.29 Y104.982 E.08241
G1 X109.551 Y102.366 E.08243
G1 X110.317 Y99.851 E.08243
G1 X111.56 Y97.534 E.08244
G1 X113.231 Y95.505 E.08242
G1 X115.265 Y93.84 E.08242
G1 X117.585 Y92.603 E.08244
G1 X120.102 Y91.844 E.08243
G1 X122.718 Y91.59 E.08241
G1 X125.334 Y91.851 E.08243
G1 X127.849 Y92.618 E.08244
G1 X130.166 Y93.86 E.08243
G1 X132.195 Y95.531 E.08242
G1 X133.86 Y97.565 E.08242
G1 X135.084 Y99.854 E.08139
G1 X135.849 Y102.366 E.08233
G1 X136.11 Y104.982 E.08243
G1 X135.856 Y107.598 E.08241
G1 X135.096 Y110.115 E.08244
G1 X133.86 Y112.435 E.08242
G1 X132.195 Y114.469 E.08242
G1 X130.166 Y116.14 E.08242
G1 X127.849 Y117.382 E.08243
G1 X125.334 Y118.149 E.08244
G1 X122.718 Y118.41 E.08243
G1 X120.102 Y118.156 E.08241
G1 X117.585 Y117.397 E.08243
G1 X115.265 Y116.16 E.08244
G1 X113.231 Y114.495 E.08242
G1 X111.56 Y112.466 E.08242
G1 X110.321 Y110.155 E.08222
M204 S1000
G1 X109.902 Y110.047 F10800
;WIPE_START
G1 F8640
G1 X109.543 Y107.598 E-.61714
G1 X109.467 Y106.81 E-.18286
;WIPE_END
G1 Z.6 F720
G1 X171.8 Y72.464 F10800
G1 Z.2 F720
G1 E.8 F2100
M204 S800
;TYPE:Solid infill
;WIDTH:0.420585
G1 F1200
G1 X171.206 Y71.87 E.02638
G1 X170.672 Y71.87 E.01677
G1 X171.63 Y72.828 E.04255
G1 X171.63 Y73.363 E.0168
G1 X170.138 Y71.87 E.06628
G1 X169.604 Y71.87 E.01677
G1 X171.63 Y73.897 E.09
G1 X171.63 Y74.431 E.01677
G1 X169.07 Y71.87 E.11371
G1 X168.536 Y71.87 E.01677
G1 X171.63 Y74.965 E.13743
G1 X171.63 Y75.499 E.01677
G1 X168.001 Y71.87 E.16117
G1 X167.467 Y71.87 E.01677
G1 X171.63 Y76.033 E.18488
G1 X171.63 Y76.567 E.01677
G1 X166.933 Y71.87 E.2086
G1 X166.399 Y71.87 E.01677
G1 X171.63 Y77.101 E.23231
G1 X171.63 Y77.635 E.01677
G1 X165.865 Y71.87 E.25603
G1 X165.331 Y71.87 E.01677
G1 X171.63 Y78.169 E.27974
G1 X171.63 Y78.704 E.0168
G1 X164.797 Y71.87 E.30348
G1 X164.263 Y71.87 E.01677
G1 X171.63 Y79.238 E.32719
G1 X171.63 Y79.772 E.01677
G1 X163.729 Y71.87 E.35091
G1 X163.195 Y71.87 E.01677
G1 X171.63 Y80.306 E.37462
G1 X171.63 Y80.84 E.01677
G1 X162.66 Y71.87 E.39836
G1 X162.126 Y71.87 E.01677
G1 X171.63 Y81.374 E.42208
G1 X171.63 Y81.908 E.01677
M73 P0 R121
G1 X161.592 Y71.87 E.44579
G1 X161.058 Y71.87 E.01677
G1 X171.63 Y82.442 E.46951
G1 X171.63 Y82.976 E.01677
G1 X160.524 Y71.87 E.49322
G1 X159.99 Y71.87 E.01677
G1 X171.63 Y83.51 E.51694
G1 X171.63 Y84.045 E.0168
M73 P1 R121
G1 X159.456 Y71.87 E.54068
G1 X158.922 Y71.87 E.01677
G1 X171.63 Y84.579 E.56439
G1 X171.63 Y85.113 E.01677
G1 X158.388 Y71.87 E.58811
G1 X157.854 Y71.87 E.01677
G1 X171.63 Y85.647 E.61182
G1 X171.63 Y86.181 E.01677
G1 X157.319 Y71.87 E.63556
G1 X156.785 Y71.87 E.01677
G1 X171.63 Y86.715 E.65927
G1 X171.63 Y87.249 E.01677
G1 X156.251 Y71.87 E.68299
G1 X155.717 Y71.87 E.01677
G1 X171.63 Y87.783 E.7067
G1 X171.63 Y88.317 E.01677
G1 X155.183 Y71.87 E.73042
G1 X154.649 Y71.87 E.01677
G1 X171.63 Y88.851 E.75413
G1 X171.63 Y89.386 E.0168
G1 X154.115 Y71.87 E.77787
G1 X153.581 Y71.87 E.01677
G1 X171.63 Y89.92 E.80159
G1 X171.63 Y90.454 E.01677
G1 X153.047 Y71.87 E.8253
G1 X152.513 Y71.87 E.01677
G1 X171.63 Y90.988 E.84902
G1 X171.63 Y91.522 E.01677
G1 X151.978 Y71.87 E.87276
G1 X151.444 Y71.87 E.01677
G1 X171.63 Y92.056 E.89647
G1 X171.63 Y92.59 E.01677
G1 X150.91 Y71.87 E.92019
G1 X150.376 Y71.87 E.01677
G1 X171.63 Y93.124 E.9439
G1 X171.63 Y93.658 E.01677
G1 X149.842 Y71.87 E.96762
G1 X149.308 Y71.87 E.01677
G1 X171.63 Y94.192 E.99133
G1 X171.63 Y94.727 E.0168
G1 X148.774 Y71.87 E1.01507
G1 X148.24 Y71.87 E.01677
G1 X171.63 Y95.261 E1.03878
G1 X171.63 Y95.795 E.01677
G1 X147.706 Y71.87 E1.0625
G1 X147.172 Y71.87 E.01677
G1 X171.63 Y96.329 E1.08621
G1 X171.63 Y96.863 E.01677
G1 X146.637 Y71.87 E1.10995
G1 X146.103 Y71.87 E.01677
G1 X171.63 Y97.397 E1.13367
G1 X171.63 Y97.931 E.01677
G1 X145.569 Y71.87 E1.15738
G1 X145.035 Y71.87 E.01677
G1 X171.63 Y98.465 E1.1811
G1 X171.63 Y98.999 E.01677
G1 X144.501 Y71.87 E1.20481
G1 X143.967 Y71.87 E.01677
G1 X171.63 Y99.533 E1.22853
G1 X171.63 Y100.067 E.01677
G1 X143.433 Y71.87 E1.25224
G1 X142.899 Y71.87 E.01677
G1 X171.63 Y100.602 E1.27598
G1 X171.63 Y101.136 E.01677
G1 X142.365 Y71.87 E1.2997
G1 X141.831 Y71.87 E.01677
G1 X171.63 Y101.67 E1.32341
G1 X171.63 Y102.204 E.01677
G1 X141.297 Y71.87 E1.34713
G1 X140.762 Y71.87 E.0168
G1 X171.63 Y102.738 E1.37086
G1 X171.63 Y103.272 E.01677
G1 X140.228 Y71.87 E1.39458
G1 X139.694 Y71.87 E.01677
M73 P1 R120
G1 X171.63 Y103.806 E1.41829
G1 X171.63 Y104.34 E.01677
G1 X139.16 Y71.87 E1.44201
G1 X138.626 Y71.87 E.01677
G1 X171.63 Y104.874 E1.46572
G1 X171.63 Y105.408 E.01677
G1 X138.092 Y71.87 E1.48944
G1 X137.558 Y71.87 E.01677
G1 X171.63 Y105.943 E1.51318
G1 X171.63 Y106.477 E.01677
G1 X137.024 Y71.87 E1.53689
G1 X136.49 Y71.87 E.01677
G1 X171.63 Y107.011 E1.56061
G1 X171.63 Y107.545 E.01677
M73 P2 R120
G1 X135.956 Y71.87 E1.58432
G1 X135.421 Y71.87 E.0168
G1 X171.63 Y108.079 E1.60806
G1 X171.63 Y108.613 E.01677
G1 X134.887 Y71.87 E1.63178
G1 X134.353 Y71.87 E.01677
G1 X171.63 Y109.147 E1.65549
G1 X171.63 Y109.681 E.01677
G1 X133.819 Y71.87 E1.67921
G1 X133.285 Y71.87 E.01677
G1 X171.63 Y110.215 E1.70292
G1 X171.63 Y110.749 E.01677
G1 X132.751 Y71.87 E1.72664
G1 X132.217 Y71.87 E.01677
G1 X171.63 Y111.284 E1.75037
G1 X171.63 Y111.818 E.01677
G1 X131.683 Y71.87 E1.77409
G1 X131.149 Y71.87 E.01677
G1 X171.63 Y112.352 E1.7978
G1 X171.63 Y112.886 E.01677
G1 X130.615 Y71.87 E1.82152
G1 X130.08 Y71.87 E.0168
G1 X171.63 Y113.42 E1.84526
G1 X171.63 Y113.954 E.01677
G1 X129.546 Y71.87 E1.86897
G1 X129.012 Y71.87 E.01677
G1 X171.63 Y114.488 E1.89269
G1 X171.63 Y115.022 E.01677
G1 X128.478 Y71.87 E1.9164
G1 X127.944 Y71.87 E.01677
M73 P2 R119
G1 X171.63 Y115.556 E1.94012
G1 X171.63 Y116.09 E.01677
G1 X127.41 Y71.87 E1.96383
G1 X126.876 Y71.87 E.01677
G1 X171.63 Y116.625 E1.98757
G1 X171.63 Y117.159 E.01677
G1 X126.342 Y71.87 E2.01129
G1 X125.808 Y71.87 E.01677
G1 X171.63 Y117.693 E2.035
G1 X171.63 Y118.227 E.01677
G1 X125.274 Y71.87 E2.05872
G1 X124.739 Y71.87 E.0168
G1 X171.63 Y118.761 E2.08245
G1 X171.63 Y119.295 E.01677
G1 X124.205 Y71.87 E2.10617
G1 X123.671 Y71.87 E.01677
G1 X171.63 Y119.829 E2.12988
G1 X171.63 Y120.363 E.01677
G1 X123.137 Y71.87 E2.1536
G1 X122.603 Y71.87 E.01677
M73 P3 R119
G1 X171.63 Y120.897 E2.17731
G1 X171.63 Y121.431 E.01677
G1 X122.069 Y71.87 E2.20103
G1 X121.535 Y71.87 E.01677
G1 X171.63 Y121.966 E2.22477
G1 X171.63 Y122.5 E.01677
G1 X121.001 Y71.87 E2.24848
G1 X120.467 Y71.87 E.01677
G1 X171.63 Y123.034 E2.2722
G1 X171.63 Y123.568 E.01677
G1 X119.933 Y71.87 E2.29591
G1 X119.398 Y71.87 E.0168
G1 X171.63 Y124.102 E2.31965
G1 X171.63 Y124.636 E.01677
G1 X118.864 Y71.87 E2.34337
G1 X118.33 Y71.87 E.01677
M73 P3 R118
G1 X171.63 Y125.17 E2.36708
G1 X171.63 Y125.704 E.01677
G1 X117.796 Y71.87 E2.3908
G1 X117.262 Y71.87 E.01677
G1 X171.63 Y126.238 E2.41451
G1 X171.63 Y126.772 E.01677
G1 X116.728 Y71.87 E2.43823
G1 X116.194 Y71.87 E.01677
G1 X171.63 Y127.307 E2.46196
G1 X171.63 Y127.841 E.01677
G1 X115.66 Y71.87 E2.48568
G1 X115.126 Y71.87 E.01677
G1 X171.63 Y128.375 E2.50939
G1 X171.63 Y128.909 E.01677
G1 X114.592 Y71.87 E2.53311
G1 X114.057 Y71.87 E.0168
G1 X171.63 Y129.443 E2.55685
G1 X171.63 Y129.977 E.01677
G1 X113.523 Y71.87 E2.58056
G1 X112.989 Y71.87 E.01677
G1 X171.63 Y130.511 E2.60428
G1 X171.63 Y131.045 E.01677
M73 P4 R118
G1 X112.455 Y71.87 E2.62799
G1 X111.921 Y71.87 E.01677
G1 X171.63 Y131.579 E2.65171
G1 X171.63 Y132.113 E.01677
G1 X111.387 Y71.87 E2.67542
G1 X110.853 Y71.87 E.01677
G1 X171.63 Y132.648 E2.69916
G1 X171.63 Y133.182 E.01677
M73 P4 R117
G1 X110.319 Y71.87 E2.72288
G1 X109.785 Y71.87 E.01677
G1 X171.63 Y133.716 E2.74659
G1 X171.63 Y134.25 E.01677
G1 X109.251 Y71.87 E2.77031
G1 X108.77 Y71.87 E.0151
G1 X108.77 Y71.924 E.0017
G1 X129.719 Y92.873 E.93036
G1 X128.577 Y92.265 E.04063
G1 X108.77 Y72.458 E.87964
G1 X108.77 Y72.992 E.01677
G1 X127.642 Y91.864 E.83812
G1 X126.877 Y91.633 E.02509
G1 X108.77 Y73.526 E.80414
G1 X108.77 Y74.06 E.01677
G1 X126.112 Y91.402 E.77017
G1 X125.365 Y91.189 E.02439
G1 X108.77 Y74.594 E.73699
G1 X108.77 Y75.128 E.01677
G1 X124.773 Y91.132 E.71072
G1 X124.181 Y91.074 E.01868
G1 X108.77 Y75.662 E.68443
G1 X108.77 Y76.197 E.0168
G1 X123.589 Y91.016 E.65812
G1 X122.997 Y90.958 E.01868
G1 X108.77 Y76.731 E.63183
G1 X108.77 Y77.265 E.01677
G1 X122.458 Y90.953 E.60789
G1 X121.972 Y91.001 E.01534
G1 X108.77 Y77.799 E.58631
G1 X108.77 Y78.333 E.01677
G1 X121.486 Y91.049 E.56472
G1 X121 Y91.097 E.01534
G1 X108.77 Y78.867 E.54314
G1 X108.77 Y79.401 E.01677
G1 X120.514 Y91.146 E.52158
G1 X120.028 Y91.194 E.01534
G1 X108.77 Y79.935 E.5
G1 X108.77 Y80.469 E.01677
G1 X119.604 Y91.304 E.48117
G1 X119.195 Y91.428 E.01342
G1 X108.77 Y81.003 E.46298
G1 X108.77 Y81.538 E.0168
G1 X118.785 Y91.553 E.44477
G1 X118.375 Y91.677 E.01345
G1 X108.77 Y82.072 E.42656
G1 X108.77 Y82.606 E.01677
G1 X117.966 Y91.802 E.4084
G1 X117.556 Y91.926 E.01345
G1 X108.77 Y83.14 E.39019
G1 X108.77 Y83.674 E.01677
G1 X117.172 Y92.076 E.37314
G1 X116.824 Y92.262 E.01239
G1 X108.77 Y84.208 E.35768
G1 X108.77 Y84.742 E.01677
G1 X116.475 Y92.447 E.34218
G1 X116.127 Y92.633 E.01239
G1 X108.77 Y85.276 E.32673
G1 X108.77 Y85.81 E.01677
G1 X115.778 Y92.819 E.31125
G1 X115.43 Y93.004 E.01238
G1 X108.77 Y86.344 E.29577
G1 X108.77 Y86.879 E.0168
G1 X115.081 Y93.19 E.28027
G1 X114.756 Y93.399 E.01213
G1 X108.77 Y87.413 E.26584
G1 X108.77 Y87.947 E.01677
G1 X114.463 Y93.64 E.25283
G1 X114.17 Y93.88 E.01189
G1 X108.77 Y88.481 E.23979
G1 X108.77 Y89.015 E.01677
G1 X113.876 Y94.121 E.22676
G1 X113.583 Y94.362 E.01191
G1 X108.77 Y89.549 E.21375
G1 X108.77 Y90.083 E.01677
G1 X113.29 Y94.603 E.20074
G1 X112.996 Y94.844 E.01194
G1 X108.77 Y90.617 E.1877
G1 X108.77 Y91.151 E.01677
G1 X112.712 Y95.094 E.17509
G1 X112.47 Y95.386 E.01191
G1 X108.77 Y91.685 E.16434
G1 X108.77 Y92.219 E.01677
G1 X112.229 Y95.679 E.15364
G1 X111.989 Y95.972 E.01189
G1 X108.77 Y92.754 E.14294
G1 X108.77 Y93.288 E.01677
G1 X111.748 Y96.266 E.13225
G1 X111.507 Y96.559 E.01191
G1 X108.77 Y93.822 E.12155
G1 X108.77 Y94.356 E.01677
G1 X111.266 Y96.852 E.11085
G1 X111.028 Y97.148 E.01193
G1 X108.77 Y94.89 E.10028
G1 X108.77 Y95.424 E.01677
G1 X110.833 Y97.487 E.09162
G1 X110.647 Y97.835 E.01239
G1 X108.77 Y95.958 E.08336
G1 X108.77 Y96.492 E.01677
G1 X110.461 Y98.183 E.0751
G1 X110.275 Y98.531 E.01239
G1 X108.77 Y97.026 E.06684
G1 X108.77 Y97.56 E.01677
G1 X110.089 Y98.879 E.05858
G1 X109.903 Y99.227 E.01239
G1 X108.77 Y98.095 E.05029
G1 X108.77 Y98.629 E.01677
G1 X109.721 Y99.579 E.04221
G1 X109.584 Y99.977 E.01322
G1 X108.77 Y99.163 E.03615
G1 X108.775 Y99.702 E.01693
