; generated by PrusaSlicer 2.8.0 on 2024-09-21 at 14:29:42 UTC

; 

; external perimeters extrusion width = 0.45mm
; perimeters extrusion width = 0.45mm
; infill extrusion width = 0.45mm
; solid infill extrusion width = 0.45mm
; top infill extrusion width = 0.40mm
; first layer extrusion width = 0.42mm

M73 P0 R35
M201 X9000 Y9000 Z500 E10000 ; sets maximum accelerations, mm/sec^2
M203 X500 Y500 Z12 E120 ; sets maximum feedrates, mm / sec
M204 S2000 T1500 ; sets acceleration (S) and retract acceleration (R), mm/sec^2
M205 X10.00 Y10.00 Z0.20 E4.50 ; sets the jerk limits, mm/sec
M205 S0 T0 ; sets the minimum extruding and travel feed rate, mm/sec

; printing object flexbatterCR123Ax1.stl id:0 copy 0
; stop printing object flexbatterCR123Ax1.stl id:0 copy 0

;TYPE:Custom
M862.3 P "MK2.5" ; printer model check
M862.1 P0.4 ; nozzle diameter check
M115 U3.11.0 ; tell printer latest fw version
G90 ; use absolute coordinates
M83 ; extruder relative mode
M104 S215 ; set extruder temp
M140 S60 ; set bed temp
M190 S60 ; wait for bed temp
M109 S215 ; wait for extruder temp
G28 W ; home all without mesh bed level
G80 ; mesh bed leveling

G1 Z0.2 F720
G1 Y-3 F1000 ; go outside print area
G92 E0
G1 X60 E9 F1000 ; intro line
G1 X100 E12.5 F1000 ; intro line

G92 E0
G21 ; set units to millimeters
G90 ; use absolute coordinates
M83 ; use relative distances for extrusion
M900 K0.05 ; Filament gcode LA 1.5
M900 K30 ; Filament gcode LA 1.0
M107
;LAYER_CHANGE
;Z:0.2
;HEIGHT:0.2
G1 E-.8 F2100
G1 Z.6 F720
G1 X100.735 Y94.588 F10800
G1 Z.2 F720
G1 E.8 F2100
M204 S800
;TYPE:Skirt/Brim
;WIDTH:0.42
G1 F1200
G1 X101.139 Y94.183 E.01794
G1 X102.208 Y93.36 E.0423
G1 X102.702 Y93.074 E.0179
G1 X103.937 Y92.563 E.04191
G1 X104.487 Y92.415 E.01786
G1 X106.09 Y92.222 E.05062
G1 X112.839 Y92.222 E.21161
G1 X147.939 Y92.842 E1.10071
G1 X149.448 Y93.483 E.05141
G1 X149.948 Y93.983 E.02217
G1 X150.589 Y95.53 E.0525
G1 X150.589 Y114.47 E.59385
G1 X149.948 Y116.017 E.0525
G1 X149.448 Y116.517 E.02217
G1 X147.939 Y117.158 E.05141
G1 X112.839 Y117.778 E1.10071
G1 X105.802 Y117.759 E.22064
G1 X104.487 Y117.585 E.04159
G1 X103.937 Y117.437 E.01786
G1 X102.702 Y116.926 E.04191
G1 X102.208 Y116.64 E.0179
G1 X101.147 Y115.827 E.04191
G1 X100.743 Y115.423 E.01791
G1 X99.93 Y114.362 E.04191
G1 X99.644 Y113.867 E.01792
G1 X99.132 Y112.633 E.04189
G1 X98.985 Y112.081 E.01791
G1 X98.81 Y110.756 E.04191
G1 X98.791 Y99.53 E.35198
G1 X98.983 Y97.928 E.05059
G1 X99.13 Y97.38 E.01779
G1 X99.639 Y96.144 E.04191
G1 X99.924 Y95.649 E.01791
G1 X100.699 Y94.635 E.04002
M204 S1000
;WIPE_START
G1 F8640
G1 X100.735 Y94.588 E-.01367
G1 X101.139 Y94.183 E-.13209
G1 X102.208 Y93.36 E-.31151
G1 X102.702 Y93.074 E-.1318
G1 X103.546 Y92.724 E-.21093
;WIPE_END
G1 Z.6 F720
; printing object flexbatterCR123Ax1.stl id:0 copy 0
G1 X139.17 Y108.74 F10800
G1 Z.2 F720
G1 E.8 F2100
M204 S800
;TYPE:Perimeter
;WIDTH:0.419999
G1 F1200
G1 X139.574 Y108.409 E.01638
G1 X140.118 Y108.163 E.01872
G1 X140.706 Y108.066 E.01869
G1 X141.3 Y108.125 E.01872
G1 X141.858 Y108.335 E.01869
G1 X142.343 Y108.683 E.01872
G1 X142.721 Y109.144 E.01869
G1 X142.967 Y109.687 E.01869
G1 X143.064 Y110.276 E.01872
G1 X143.005 Y110.87 E.01872
G1 X142.795 Y111.429 E.01872
G1 X142.447 Y111.913 E.01869
G1 X141.986 Y112.291 E.01869
G1 X141.443 Y112.537 E.01869
G1 X140.854 Y112.634 E.01872
G1 X140.26 Y112.575 E.01872
G1 X139.702 Y112.365 E.01869
G1 X139.217 Y112.017 E.01872
G1 X138.839 Y111.556 E.01869
G1 X138.593 Y111.013 E.01869
G1 X138.496 Y110.424 E.01872
G1 X138.555 Y109.83 E.01872
G1 X138.765 Y109.272 E.01869
G1 X139.112 Y108.787 E.0187
G1 X139.124 Y108.778 E.00047
M204 S1000
G1 X139.124 Y108.778 F10800
G1 X139.431 Y109.001
M204 S800
;TYPE:External perimeter
G1 F1200
G1 X139.446 Y108.982 E.00076
G1 X139.846 Y108.683 E.01566
G1 X140.309 Y108.499 E.01562
G1 X140.805 Y108.44 E.01566
G1 X141.298 Y108.511 E.01562
G1 X141.756 Y108.708 E.01563
G1 X142.148 Y109.017 E.01565
G1 X142.446 Y109.416 E.01561
G1 X142.632 Y109.879 E.01564
G1 X142.69 Y110.375 E.01566
G1 X142.619 Y110.868 E.01562
G1 X142.422 Y111.327 E.01566
G1 X142.113 Y111.718 E.01563
G1 X141.714 Y112.017 E.01563
G1 X141.251 Y112.201 E.01562
G1 X140.755 Y112.26 E.01566
G1 X140.262 Y112.189 E.01562
G1 X139.803 Y111.992 E.01566
G1 X139.412 Y111.683 E.01563
G1 X139.113 Y111.284 E.01563
G1 X138.928 Y110.821 E.01563
G1 X138.87 Y110.375 E.0141
G1 X138.941 Y109.832 E.01717
G1 X139.138 Y109.374 E.01563
G1 X139.394 Y109.049 E.01297
M204 S1000
;WIPE_START
G1 F8640
G1 X139.431 Y109.001 E-.01399
G1 X139.446 Y108.982 E-.00559
G1 X139.846 Y108.683 E-.11531
G1 X140.309 Y108.499 E-.11504
G1 X140.805 Y108.44 E-.11534
G1 X141.298 Y108.511 E-.11501
G1 X141.756 Y108.708 E-.11512
G1 X142.148 Y109.017 E-.11525
G1 X142.38 Y109.327 E-.08935
;WIPE_END
G1 Z.6 F720
G1 X131.05 Y106.707 F10800
G1 Z.2 F720
G1 E.8 F2100
M204 S800
;TYPE:Perimeter
G1 F1200
G1 X147.213 Y106.707 E.50678
G1 X147.213 Y108.903 E.06885
G1 X147.213 Y113.783 E.15301
G1 X131.05 Y113.783 E.50678
G1 X131.05 Y106.767 E.21998
M204 S1000
G1 X131.05 Y106.767 F10800
G1 X130.673 Y106.33
M204 S800
;TYPE:External perimeter
G1 F1200
G1 X147.59 Y106.33 E.53042
G1 X147.59 Y108.903 E.08067
M73 P0 R34
G1 X147.59 Y114.16 E.16483
G1 X130.673 Y114.16 E.53042
G1 X130.673 Y106.39 E.24362
M204 S1000
;WIPE_START
G1 F8640
M73 P1 R34
G1 X130.673 Y106.33 E-.01385
G1 X134.078 Y106.33 E-.78615
;WIPE_END
G1 Z.6 F720
G1 X146.321 Y106.82 F10800
G1 Z.2 F720
G1 E.8 F2100
M204 S800
;TYPE:Solid infill
;WIDTH:0.427808
G1 F1200
G1 X146.93 Y107.429 E.02756
G1 X146.93 Y107.974 E.01744
G1 X145.946 Y106.99 E.04454
G1 X145.402 Y106.99 E.01741
G1 X146.93 Y108.518 E.06916
G1 X146.93 Y109.062 E.01741
G1 X144.858 Y106.99 E.09378
G1 X144.313 Y106.99 E.01744
G1 X146.93 Y109.607 E.11845
G1 X146.93 Y110.151 E.01741
G1 X143.769 Y106.99 E.14307
G1 X143.225 Y106.99 E.01741
G1 X146.93 Y110.695 E.16769
G1 X146.93 Y111.24 E.01744
G1 X142.681 Y106.99 E.19233
G1 X142.136 Y106.99 E.01744
G1 X146.93 Y111.784 E.21698
G1 X146.93 Y112.328 E.01741
G1 X141.592 Y106.99 E.2416
G1 X141.048 Y106.99 E.01741
G1 X146.93 Y112.873 E.26624
G1 X146.93 Y113.417 E.01741
G1 X143.28 Y109.766 E.16522
G1 X143.349 Y110.38 E.01977
G1 X146.469 Y113.5 E.14121
G1 X145.925 Y113.5 E.01741
G1 X143.29 Y110.865 E.11926
G1 X143.23 Y111.117 E.00829
G1 X143.162 Y111.282 E.00571
G1 X145.38 Y113.5 E.10039
G1 X144.836 Y113.5 E.01741
G1 X142.989 Y111.654 E.08357
G1 X142.761 Y111.969 E.01244
G1 X144.292 Y113.5 E.06929
G1 X143.747 Y113.5 E.01744
G1 X142.5 Y112.253 E.05644
G1 X142.192 Y112.489 E.01242
G1 X143.203 Y113.5 E.04576
G1 X142.659 Y113.5 E.01741
G1 X141.838 Y112.679 E.03716
G1 X141.444 Y112.83 E.0135
G1 X142.114 Y113.5 E.03032
G1 X141.57 Y113.5 E.01741
G1 X140.97 Y112.899 E.02718
G1 X140.78 Y112.923 E.00613
G1 X140.403 Y112.877 E.01215
G1 X141.196 Y113.67 E.03589
M204 S1000
;WIPE_START
G1 F8640
G1 X140.403 Y112.877 E-.25895
G1 X140.78 Y112.923 E-.0877
G1 X140.97 Y112.899 E-.04422
G1 X141.57 Y113.5 E-.19609
G1 X142.114 Y113.5 E-.12561
G1 X141.846 Y113.232 E-.08743
;WIPE_END
G1 Z.6 F720
G1 X140.334 Y106.82 F10800
G1 Z.2 F720
G1 E.8 F2100
M204 S800
G1 F1200
G1 X141.364 Y107.851 E.04664
G1 X140.885 Y107.785 E.01547
G1 X140.753 Y107.785 E.00422
G1 X139.959 Y106.99 E.03596
G1 X139.415 Y106.99 E.01741
G1 X140.264 Y107.839 E.03843
G1 X140.014 Y107.9 E.00824
G1 X139.848 Y107.968 E.00574
G1 X138.87 Y106.99 E.04426
G1 X138.326 Y106.99 E.01741
G1 X139.476 Y108.14 E.05205
G1 X139.161 Y108.369 E.01246
G1 X137.782 Y106.99 E.06241
G1 X137.237 Y106.99 E.01744
G1 X138.877 Y108.63 E.07423
G1 X138.641 Y108.938 E.01242
G1 X136.693 Y106.99 E.08817
G1 X136.149 Y106.99 E.01741
G1 X138.451 Y109.292 E.10419
G1 X138.302 Y109.687 E.01351
G1 X135.604 Y106.99 E.12209
G1 X135.06 Y106.99 E.01741
G1 X138.229 Y110.159 E.14343
G1 X138.208 Y110.33 E.00551
G1 X138.254 Y110.728 E.01282
G1 X134.516 Y106.99 E.16918
G1 X133.971 Y106.99 E.01744
G1 X140.482 Y113.5 E.29466
G1 X139.937 Y113.5 E.01744
G1 X133.427 Y106.99 E.29464
G1 X132.883 Y106.99 E.01741
G1 X139.393 Y113.5 E.29464
G1 X138.849 Y113.5 E.01741
G1 X132.339 Y106.99 E.29464
G1 X131.794 Y106.99 E.01744
G1 X138.304 Y113.5 E.29464
G1 X137.76 Y113.5 E.01741
G1 X131.333 Y107.073 E.29089
G1 X131.333 Y107.618 E.01744
G1 X137.216 Y113.5 E.26624
G1 X136.671 Y113.5 E.01744
G1 X131.333 Y108.162 E.2416
G1 X131.333 Y108.706 E.01741
G1 X136.127 Y113.5 E.21698
G1 X135.583 Y113.5 E.01741
G1 X131.333 Y109.251 E.19233
G1 X131.333 Y109.795 E.01741
G1 X135.038 Y113.5 E.16769
G1 X134.494 Y113.5 E.01741
G1 X131.333 Y110.339 E.14307
G1 X131.333 Y110.884 E.01744
G1 X133.95 Y113.5 E.11842
G1 X133.406 Y113.5 E.01741
G1 X131.333 Y111.428 E.0938
G1 X131.333 Y111.972 E.01741
G1 X132.861 Y113.5 E.06916
G1 X132.317 Y113.5 E.01741
G1 X131.333 Y112.516 E.04454
G1 X131.333 Y113.061 E.01744
G1 X131.942 Y113.67 E.02756
M204 S1000
;WIPE_START
G1 F8640
G1 X131.333 Y113.061 E-.19887
G1 X131.333 Y112.516 E-.12584
G1 X132.317 Y113.5 E-.32132
G1 X132.861 Y113.5 E-.12561
G1 X132.774 Y113.413 E-.02836
;WIPE_END
G1 Z.6 F720
G1 X140.191 Y97.451 F10800
G1 Z.2 F720
G1 E.8 F2100
M204 S800
;TYPE:Perimeter
;WIDTH:0.419999
G1 F1200
G1 X140.706 Y97.366 E.01637
G1 X141.3 Y97.425 E.01872
G1 X141.858 Y97.635 E.01869
G1 X142.343 Y97.983 E.01872
G1 X142.721 Y98.444 E.01869
G1 X142.967 Y98.987 E.01869
G1 X143.064 Y99.576 E.01872
G1 X143.005 Y100.17 E.01872
G1 X142.795 Y100.728 E.01869
G1 X142.447 Y101.213 E.01872
G1 X141.986 Y101.591 E.01869
G1 X141.443 Y101.837 E.01869
G1 X140.854 Y101.934 E.01872
G1 X140.26 Y101.875 E.01872
G1 X139.702 Y101.665 E.01869
G1 X139.217 Y101.317 E.01872
G1 X138.839 Y100.856 E.01869
G1 X138.593 Y100.312 E.01872
G1 X138.496 Y99.724 E.01869
G1 X138.555 Y99.13 E.01872
G1 X138.765 Y98.572 E.01869
G1 X139.112 Y98.087 E.0187
G1 X139.574 Y97.709 E.01872
G1 X140.118 Y97.463 E.01872
G1 X140.132 Y97.461 E.00044
M204 S1000
G1 X140.132 Y97.461 F10800
G1 X140.286 Y97.808
M204 S800
;TYPE:External perimeter
G1 F1200
G1 X140.309 Y97.799 E.00077
G1 X140.805 Y97.74 E.01566
G1 X141.298 Y97.811 E.01562
G1 X141.756 Y98.008 E.01563
G1 X142.148 Y98.317 E.01565
G1 X142.446 Y98.716 E.01561
G1 X142.632 Y99.179 E.01564
G1 X142.69 Y99.675 E.01566
G1 X142.619 Y100.168 E.01562
G1 X142.422 Y100.627 E.01566
G1 X142.113 Y101.018 E.01563
G1 X141.714 Y101.317 E.01563
G1 X141.251 Y101.501 E.01562
G1 X140.755 Y101.56 E.01566
G1 X140.262 Y101.489 E.01562
G1 X139.803 Y101.292 E.01566
G1 X139.412 Y100.983 E.01563
G1 X139.113 Y100.584 E.01563
G1 X138.928 Y100.12 E.01566
G1 X138.87 Y99.675 E.01407
G1 X138.941 Y99.132 E.01717
G1 X139.138 Y98.674 E.01563
G1 X139.446 Y98.282 E.01563
G1 X139.846 Y97.983 E.01566
G1 X140.23 Y97.83 E.01296
M204 S1000
;WIPE_START
G1 F8640
G1 X140.286 Y97.808 E-.01389
G1 X140.309 Y97.799 E-.0057
G1 X140.805 Y97.74 E-.11534
G1 X141.298 Y97.811 E-.11501
G1 X141.756 Y98.008 E-.11512
G1 X142.148 Y98.317 E-.11525
G1 X142.446 Y98.716 E-.11499
G1 X142.632 Y99.179 E-.11521
G1 X142.677 Y99.564 E-.08949
;WIPE_END
G1 Z.6 F720
G1 X131.05 Y103.293 F10800
G1 Z.2 F720
G1 E.8 F2100
M204 S800
;TYPE:Perimeter
G1 F1200
G1 X131.05 Y96.217 E.22186
G1 X147.213 Y96.217 E.50678
G1 X147.213 Y98.382 E.06788
G1 X147.213 Y103.293 E.15398
G1 X131.11 Y103.293 E.5049
M204 S1000
G1 X131.11 Y103.293 F10800
G1 X130.673 Y103.67
M204 S800
;TYPE:External perimeter
G1 F1200
G1 X130.673 Y95.84 E.2455
G1 X147.59 Y95.84 E.53042
G1 X147.59 Y98.382 E.0797
G1 X147.59 Y103.67 E.1658
G1 X130.733 Y103.67 E.52854
M204 S1000
;WIPE_START
G1 F8640
G1 X130.673 Y103.67 E-.01385
G1 X130.673 Y100.265 E-.78615
;WIPE_END
G1 Z.6 F720
G1 X147.1 Y97.109 F10800
G1 Z.2 F720
M73 P2 R34
G1 E.8 F2100
M204 S800
;TYPE:Solid infill
;WIDTH:0.427806
G1 F1200
G1 X146.491 Y96.5 E.02756
G1 X145.946 Y96.5 E.01744
G1 X146.93 Y97.484 E.04454
G1 X146.93 Y98.028 E.01741
G1 X145.402 Y96.5 E.06916
G1 X144.858 Y96.5 E.01741
G1 X146.93 Y98.572 E.09378
G1 X146.93 Y99.117 E.01744
G1 X144.313 Y96.5 E.11844
G1 X143.769 Y96.5 E.01741
G1 X146.93 Y99.661 E.14307
G1 X146.93 Y100.205 E.01741
G1 X143.225 Y96.5 E.16769
G1 X142.681 Y96.5 E.01741
G1 X146.93 Y100.75 E.19233
G1 X146.93 Y101.294 E.01741
G1 X142.136 Y96.5 E.21697
G1 X141.592 Y96.5 E.01741
G1 X146.93 Y101.838 E.2416
G1 X146.93 Y102.383 E.01744
G1 X141.048 Y96.5 E.26624
G1 X140.503 Y96.5 E.01744
G1 X141.119 Y97.116 E.02788
G1 X140.885 Y97.085 E.00755
G1 X140.559 Y97.1 E.01044
G1 X139.959 Y96.5 E.02716
G1 X139.415 Y96.5 E.01741
G1 X140.092 Y97.177 E.03064
G1 X139.7 Y97.33 E.01347
G1 X138.87 Y96.5 E.03757
G1 X138.326 Y96.5 E.01741
G1 X139.35 Y97.524 E.04635
G1 X139.042 Y97.76 E.01242
G1 X137.782 Y96.5 E.05703
G1 X137.237 Y96.5 E.01744
G1 X138.786 Y98.048 E.07008
G1 X138.559 Y98.366 E.0125
G1 X136.693 Y96.5 E.08445
G1 X136.149 Y96.5 E.01741
G1 X138.389 Y98.74 E.10138
G1 X138.329 Y98.885 E.00502
G1 X138.266 Y99.162 E.00909
G1 X135.604 Y96.5 E.12048
G1 X135.06 Y96.5 E.01741
G1 X138.4 Y99.84 E.15117
M204 S1000
;WIPE_START
G1 F8640
G1 X135.95 Y97.39 E-.8
;WIPE_END
G1 Z.6 F720
G1 X143.105 Y99.102 F10800
G1 Z.2 F720
G1 E.8 F2100
M204 S800
G1 F1200
G1 X146.93 Y102.927 E.17312
G1 X146.93 Y103.01 E.00266
G1 X146.469 Y103.01 E.01475
G1 X143.326 Y99.867 E.14225
G1 X143.253 Y100.338 E.01525
G1 X145.925 Y103.01 E.12093
G1 X145.38 Y103.01 E.01744
G1 X143.1 Y100.73 E.10319
G1 X143.054 Y100.842 E.00387
G1 X142.906 Y101.08 E.00897
G1 X144.836 Y103.01 E.08735
G1 X144.292 Y103.01 E.01741
G1 X142.67 Y101.388 E.07341
G1 X142.52 Y101.538 E.00679
G1 X142.382 Y101.644 E.00557
G1 X143.747 Y103.01 E.0618
G1 X143.203 Y103.01 E.01741
G1 X142.064 Y101.871 E.05155
G1 X141.69 Y102.041 E.01315
G1 X142.659 Y103.01 E.04386
G1 X142.115 Y103.01 E.01741
G1 X141.268 Y102.163 E.03833
G1 X140.783 Y102.222 E.01564
G1 X141.57 Y103.01 E.03564
G1 X141.026 Y103.01 E.01741
G1 X140.154 Y102.138 E.03947
G1 X140.015 Y102.101 E.0046
G1 X139.588 Y101.924 E.01479
G1 X139.407 Y101.819 E.0067
G1 X139.04 Y101.538 E.01479
G1 X138.892 Y101.39 E.0067
G1 X138.61 Y101.023 E.01481
G1 X138.506 Y100.842 E.00668
G1 X138.329 Y100.415 E.01479
G1 X138.292 Y100.276 E.0046
G1 X134.516 Y96.5 E.1709
G1 X133.971 Y96.5 E.01744
G1 X140.482 Y103.01 E.29466
G1 X139.937 Y103.01 E.01744
G1 X133.427 Y96.5 E.29464
G1 X132.883 Y96.5 E.01741
G1 X139.393 Y103.01 E.29464
G1 X138.849 Y103.01 E.01741
G1 X132.339 Y96.5 E.29464
G1 X131.794 Y96.5 E.01744
G1 X138.304 Y103.01 E.29464
G1 X137.76 Y103.01 E.01741
G1 X131.333 Y96.583 E.29088
G1 X131.333 Y97.128 E.01744
G1 X137.216 Y103.01 E.26624
G1 X136.671 Y103.01 E.01744
G1 X131.333 Y97.672 E.2416
G1 X131.333 Y98.216 E.01741
G1 X136.127 Y103.01 E.21697
G1 X135.583 Y103.01 E.01741
G1 X131.333 Y98.76 E.19235
G1 X131.333 Y99.305 E.01744
G1 X135.038 Y103.01 E.16769
G1 X134.494 Y103.01 E.01741
G1 X131.333 Y99.849 E.14307
G1 X131.333 Y100.393 E.01741
G1 X133.95 Y103.01 E.11844
G1 X133.406 Y103.01 E.01741
G1 X131.333 Y100.938 E.0938
G1 X131.333 Y101.482 E.01741
G1 X132.861 Y103.01 E.06916
G1 X132.317 Y103.01 E.01741
G1 X131.333 Y102.026 E.04454
G1 X131.333 Y102.571 E.01744
G1 X131.942 Y103.18 E.02756
M204 S1000
;WIPE_START
G1 F8640
G1 X131.333 Y102.571 E-.19887
G1 X131.333 Y102.026 E-.12584
G1 X132.317 Y103.01 E-.32132
G1 X132.861 Y103.01 E-.12561
G1 X132.774 Y102.923 E-.02836
;WIPE_END
G1 Z.6 F720
G1 X120.542 Y97.678 F10800
G1 Z.2 F720
G1 E.8 F2100
M204 S800
;TYPE:Perimeter
;WIDTH:0.419999
G1 F1200
G1 X121.017 Y97.463 E.01635
G1 X121.606 Y97.366 E.01872
G1 X122.2 Y97.425 E.01872
G1 X122.758 Y97.635 E.01869
G1 X123.243 Y97.982 E.0187
G1 X123.621 Y98.444 E.01872
G1 X123.867 Y98.987 E.01869
G1 X123.964 Y99.576 E.01872
G1 X123.905 Y100.17 E.01872
G1 X123.728 Y100.648 E.01598
G1 X123.621 Y100.856 E.00733
G1 X123.243 Y101.318 E.01872
G1 X122.758 Y101.665 E.0187
G1 X122.224 Y101.872 E.01796
G1 X121.68 Y101.939 E.01719
G1 X121.16 Y101.875 E.01643
G1 X120.602 Y101.665 E.01869
G1 X120.117 Y101.317 E.01872
G1 X119.739 Y100.856 E.01869
G1 X119.493 Y100.312 E.01872
G1 X119.396 Y99.724 E.01869
G1 X119.454 Y99.13 E.01871
G1 X119.665 Y98.572 E.0187
G1 X120.013 Y98.087 E.01872
G1 X120.474 Y97.709 E.01869
G1 X120.487 Y97.703 E.00045
M204 S1000
G1 X120.487 Y97.703 F10800
G1 X120.726 Y97.998
M204 S800
