; generated by PrusaSlicer 2.8.0 on 2024-09-21 at 14:29:41 UTC

; 

; external perimeters extrusion width = 0.45mm
; perimeters extrusion width = 0.45mm
; infill extrusion width = 0.45mm
; solid infill extrusion width = 0.45mm
; top infill extrusion width = 0.40mm
; first layer extrusion width = 0.42mm

M73 P0 R20
M201 X9000 Y9000 Z500 E10000 ; sets maximum accelerations, mm/sec^2
M203 X500 Y500 Z12 E120 ; sets maximum feedrates, mm / sec
M204 S2000 T1500 ; sets acceleration (S) and retract acceleration (R), mm/sec^2
M205 X10.00 Y10.00 Z0.20 E4.50 ; sets the jerk limits, mm/sec
M205 S0 T0 ; sets the minimum extruding and travel feed rate, mm/sec

; printing object pcb.stl id:0 copy 0
; stop printing object pcb.stl id:0 copy 0

;TYPE:Custom
M862.3 P "MK2.5" ; printer model check
M862.1 P0.4 ; nozzle diameter check
M115 U3.11.0 ; tell printer latest fw version
G90 ; use absolute coordinates
M83 ; extruder relative mode
M104 S215 ; set extruder temp
M140 S60 ; set bed temp
M190 S60 ; wait for bed temp
M109 S215 ; wait for extruder temp
G28 W ; home all without mesh bed level
G80 ; mesh bed leveling

G1 Z0.2 F720
G1 Y-3 F1000 ; go outside print area
G92 E0
G1 X60 E9 F1000 ; intro line
G1 X100 E12.5 F1000 ; intro line

G92 E0
G21 ; set units to millimeters
G90 ; use absolute coordinates
M83 ; use relative distances for extrusion
M900 K0.05 ; Filament gcode LA 1.5
M900 K30 ; Filament gcode LA 1.0
M107
;LAYER_CHANGE
;Z:0.2
;HEIGHT:0.2
G1 E-.8 F2100
G1 Z.6 F720
G1 X91.202 Y88.752 F10800
G1 Z.2 F720
G1 E.8 F2100
M204 S800
;TYPE:Skirt/Brim
;WIDTH:0.42
G1 F1200
G1 X92.235 Y87.949 E.04102
G1 X93 Y87.811 E.02437
G1 X157 Y87.811 E2.00668
G1 X158.248 Y88.202 E.04101
G1 X159.051 Y89.235 E.04102
G1 X159.189 Y90 E.02437
G1 X159.189 Y120 E.94063
G1 X158.798 Y121.248 E.04101
G1 X157.765 Y122.051 E.04102
G1 X157 Y122.189 E.02437
G1 X93 Y122.189 E2.00668
G1 X91.752 Y121.798 E.04101
M73 P1 R20
G1 X90.949 Y120.765 E.04102
G1 X90.811 Y120 E.02437
G1 X90.811 Y90 E.94063
G1 X91.184 Y88.809 E.03913
M204 S1000
;WIPE_START
G1 F8640
G1 X91.202 Y88.752 E-.0138
G1 X92.235 Y87.949 E-.30211
G1 X93 Y87.811 E-.17949
G1 X94.319 Y87.811 E-.3046
;WIPE_END
G1 Z.6 F720
; printing object pcb.stl id:0 copy 0
G1 X156.213 Y119.213 F10800
G1 Z.2 F720
G1 E.8 F2100
M204 S800
;TYPE:Perimeter
;WIDTH:0.419999
G1 F1200
G1 X93.787 Y119.213 E1.95732
G1 X93.787 Y90.787 E.89128
G1 X156.213 Y90.787 E1.95732
G1 X156.213 Y105 E.44564
M73 P2 R20
G1 X156.213 Y119.153 E.44376
M204 S1000
G1 X156.59 Y119.59 F10800
M204 S800
;TYPE:External perimeter
G1 F1200
G1 X93.41 Y119.59 E1.98096
G1 X93.41 Y90.41 E.91492
G1 X156.59 Y90.41 E1.98096
G1 X156.59 Y105 E.45746
G1 X156.59 Y119.53 E.45558
M204 S1000
;WIPE_START
G1 F8640
G1 X156.59 Y119.59 E-.01385
G1 X153.185 Y119.59 E-.78615
;WIPE_END
G1 Z.6 F720
G1 X156.1 Y91.666 F10800
G1 Z.2 F720
G1 E.8 F2100
M204 S800
;TYPE:Solid infill
;WIDTH:0.421471
G1 F1200
G1 X155.504 Y91.07 E.02653
G1 X154.969 Y91.07 E.01684
G1 X155.93 Y92.031 E.04278
G1 X155.93 Y92.567 E.01687
G1 X154.433 Y91.07 E.06664
G1 X153.898 Y91.07 E.01684
M73 P3 R20
G1 X155.93 Y93.102 E.09045
G1 X155.93 Y93.637 E.01684
G1 X153.363 Y91.07 E.11427
G1 X152.827 Y91.07 E.01687
G1 X155.93 Y94.173 E.13813
G1 X155.93 Y94.708 E.01684
G1 X152.292 Y91.07 E.16194
G1 X151.757 Y91.07 E.01684
G1 X155.93 Y95.243 E.18576
G1 X155.93 Y95.779 E.01687
G1 X151.221 Y91.07 E.20962
G1 X150.686 Y91.07 E.01684
G1 X155.93 Y96.314 E.23344
G1 X155.93 Y96.849 E.01684
M73 P3 R19
G1 X150.151 Y91.07 E.25725
G1 X149.615 Y91.07 E.01687
G1 X155.93 Y97.385 E.28111
G1 X155.93 Y97.92 E.01684
G1 X149.08 Y91.07 E.30493
G1 X148.545 Y91.07 E.01684
G1 X155.93 Y98.455 E.32874
G1 X155.93 Y98.991 E.01687
G1 X148.009 Y91.07 E.3526
G1 X147.474 Y91.07 E.01684
G1 X155.93 Y99.526 E.37642
G1 X155.93 Y100.062 E.01687
G1 X146.938 Y91.07 E.40028
G1 X146.403 Y91.07 E.01684
G1 X155.93 Y100.597 E.42409
G1 X155.93 Y101.132 E.01684
G1 X145.868 Y91.07 E.44791
G1 X145.332 Y91.07 E.01687
G1 X155.93 Y101.668 E.47177
G1 X155.93 Y102.203 E.01684
G1 X144.797 Y91.07 E.49558
G1 X144.262 Y91.07 E.01684
G1 X155.93 Y102.738 E.5194
G1 X155.93 Y103.274 E.01687
G1 X143.726 Y91.07 E.54326
G1 X143.191 Y91.07 E.01684
G1 X155.93 Y103.809 E.56707
G1 X155.93 Y104.344 E.01684
G1 X142.656 Y91.07 E.59089
G1 X142.12 Y91.07 E.01687
M73 P4 R19
G1 X155.93 Y104.88 E.61475
G1 X155.93 Y105.415 E.01684
G1 X141.585 Y91.07 E.63856
G1 X141.05 Y91.07 E.01684
G1 X155.93 Y105.95 E.66238
G1 X155.93 Y106.486 E.01687
G1 X140.514 Y91.07 E.68624
G1 X139.979 Y91.07 E.01684
G1 X155.93 Y107.021 E.71005
G1 X155.93 Y107.556 E.01684
G1 X139.444 Y91.07 E.73387
G1 X138.908 Y91.07 E.01687
G1 X155.93 Y108.092 E.75773
G1 X155.93 Y108.627 E.01684
G1 X138.373 Y91.07 E.78154
G1 X137.837 Y91.07 E.01687
G1 X155.93 Y109.163 E.8054
G1 X155.93 Y109.698 E.01684
G1 X137.302 Y91.07 E.82922
G1 X136.767 Y91.07 E.01684
G1 X155.93 Y110.233 E.85304
G1 X155.93 Y110.769 E.01687
M73 P5 R19
G1 X136.231 Y91.07 E.8769
G1 X135.696 Y91.07 E.01684
G1 X155.93 Y111.304 E.90071
G1 X155.93 Y111.839 E.01684
G1 X135.161 Y91.07 E.92453
G1 X134.625 Y91.07 E.01687
G1 X155.93 Y112.375 E.94839
G1 X155.93 Y112.91 E.01684
G1 X134.09 Y91.07 E.9722
G1 X133.555 Y91.07 E.01684
G1 X155.93 Y113.445 E.99602
G1 X155.93 Y113.981 E.01687
G1 X133.019 Y91.07 E1.01988
G1 X132.484 Y91.07 E.01684
G1 X155.93 Y114.516 E1.04369
G1 X155.93 Y115.051 E.01684
M73 P6 R19
G1 X131.949 Y91.07 E1.06751
G1 X131.413 Y91.07 E.01687
G1 X155.93 Y115.587 E1.09137
G1 X155.93 Y116.122 E.01684
G1 X130.878 Y91.07 E1.11518
G1 X130.343 Y91.07 E.01684
G1 X155.93 Y116.657 E1.139
G1 X155.93 Y117.193 E.01687
G1 X129.807 Y91.07 E1.16286
G1 X129.272 Y91.07 E.01684
G1 X155.93 Y117.728 E1.18667
G1 X155.93 Y118.264 E.01687
G1 X128.736 Y91.07 E1.21053
G1 X128.201 Y91.07 E.01684
M73 P7 R19
G1 X155.93 Y118.799 E1.23435
G1 X155.93 Y118.93 E.00412
G1 X155.526 Y118.93 E.01272
G1 X127.666 Y91.07 E1.24018
G1 X127.13 Y91.07 E.01687
G1 X154.991 Y118.93 E1.2402
G1 X154.455 Y118.93 E.01687
G1 X126.595 Y91.07 E1.24018
G1 X126.06 Y91.07 E.01684
G1 X153.92 Y118.93 E1.24018
G1 X153.385 Y118.93 E.01684
G1 X125.524 Y91.07 E1.2402
G1 X124.989 Y91.07 E.01684
M73 P8 R18
G1 X152.849 Y118.93 E1.24018
G1 X152.314 Y118.93 E.01684
G1 X124.454 Y91.07 E1.24018
G1 X123.918 Y91.07 E.01687
G1 X151.779 Y118.93 E1.2402
G1 X151.243 Y118.93 E.01687
G1 X123.383 Y91.07 E1.24018
G1 X122.848 Y91.07 E.01684
G1 X150.708 Y118.93 E1.24018
G1 X150.172 Y118.93 E.01687
G1 X122.312 Y91.07 E1.24018
G1 X121.777 Y91.07 E.01684
M73 P9 R18
G1 X149.637 Y118.93 E1.24018
G1 X149.102 Y118.93 E.01684
G1 X121.242 Y91.07 E1.24018
G1 X120.706 Y91.07 E.01687
G1 X148.566 Y118.93 E1.24018
G1 X148.031 Y118.93 E.01684
G1 X120.171 Y91.07 E1.24018
G1 X119.636 Y91.07 E.01684
G1 X147.496 Y118.93 E1.24018
G1 X146.96 Y118.93 E.01687
G1 X119.1 Y91.07 E1.24018
G1 X118.565 Y91.07 E.01684
M73 P10 R18
G1 X146.425 Y118.93 E1.24018
G1 X145.89 Y118.93 E.01684
G1 X118.029 Y91.07 E1.2402
G1 X117.494 Y91.07 E.01684
G1 X145.354 Y118.93 E1.24018
G1 X144.819 Y118.93 E.01684
G1 X116.959 Y91.07 E1.24018
G1 X116.423 Y91.07 E.01687
G1 X144.284 Y118.93 E1.2402
G1 X143.748 Y118.93 E.01687
G1 X115.888 Y91.07 E1.24018
G1 X115.353 Y91.07 E.01684
M73 P11 R18
G1 X143.213 Y118.93 E1.24018
G1 X142.678 Y118.93 E.01684
G1 X114.817 Y91.07 E1.2402
G1 X114.282 Y91.07 E.01684
G1 X142.142 Y118.93 E1.24018
G1 X141.607 Y118.93 E.01684
G1 X113.747 Y91.07 E1.24018
G1 X113.211 Y91.07 E.01687
G1 X141.072 Y118.93 E1.2402
G1 X140.536 Y118.93 E.01687
G1 X112.676 Y91.07 E1.24018
G1 X112.141 Y91.07 E.01684
G1 X140.001 Y118.93 E1.24018
G1 X139.465 Y118.93 E.01687
M73 P12 R18
G1 X111.605 Y91.07 E1.24018
G1 X111.07 Y91.07 E.01684
G1 X138.93 Y118.93 E1.24018
G1 X138.395 Y118.93 E.01684
G1 X110.535 Y91.07 E1.24018
G1 X109.999 Y91.07 E.01687
G1 X137.859 Y118.93 E1.24018
G1 X137.324 Y118.93 E.01684
G1 X109.464 Y91.07 E1.24018
G1 X108.928 Y91.07 E.01687
M73 P12 R17
G1 X136.789 Y118.93 E1.2402
G1 X136.253 Y118.93 E.01687
M73 P13 R17
G1 X108.393 Y91.07 E1.24018
G1 X107.858 Y91.07 E.01684
G1 X135.718 Y118.93 E1.24018
G1 X135.183 Y118.93 E.01684
G1 X107.322 Y91.07 E1.2402
G1 X106.787 Y91.07 E.01684
G1 X134.647 Y118.93 E1.24018
G1 X134.112 Y118.93 E.01684
G1 X106.252 Y91.07 E1.24018
G1 X105.716 Y91.07 E.01687
G1 X133.577 Y118.93 E1.2402
G1 X133.041 Y118.93 E.01687
M73 P14 R17
G1 X105.181 Y91.07 E1.24018
G1 X104.646 Y91.07 E.01684
G1 X132.506 Y118.93 E1.24018
G1 X131.971 Y118.93 E.01684
G1 X104.11 Y91.07 E1.2402
G1 X103.575 Y91.07 E.01684
G1 X131.435 Y118.93 E1.24018
G1 X130.9 Y118.93 E.01684
G1 X103.04 Y91.07 E1.24018
G1 X102.504 Y91.07 E.01687
G1 X130.364 Y118.93 E1.24018
G1 X129.829 Y118.93 E.01684
M73 P15 R17
G1 X101.969 Y91.07 E1.24018
G1 X101.434 Y91.07 E.01684
G1 X129.294 Y118.93 E1.24018
G1 X128.758 Y118.93 E.01687
G1 X100.898 Y91.07 E1.24018
G1 X100.363 Y91.07 E.01684
G1 X128.223 Y118.93 E1.24018
G1 X127.688 Y118.93 E.01684
G1 X99.827 Y91.07 E1.2402
G1 X99.292 Y91.07 E.01684
G1 X127.152 Y118.93 E1.24018
G1 X126.617 Y118.93 E.01684
M73 P16 R17
G1 X98.757 Y91.07 E1.24018
G1 X98.221 Y91.07 E.01687
G1 X126.082 Y118.93 E1.2402
G1 X125.546 Y118.93 E.01687
G1 X97.686 Y91.07 E1.24018
G1 X97.151 Y91.07 E.01684
G1 X125.011 Y118.93 E1.24018
G1 X124.476 Y118.93 E.01684
G1 X96.615 Y91.07 E1.2402
G1 X96.08 Y91.07 E.01684
G1 X123.94 Y118.93 E1.24018
G1 X123.405 Y118.93 E.01684
M73 P17 R17
G1 X95.545 Y91.07 E1.24018
G1 X95.009 Y91.07 E.01687
G1 X122.87 Y118.93 E1.2402
G1 X122.334 Y118.93 E.01687
G1 X94.474 Y91.07 E1.24018
G1 X94.07 Y91.07 E.01272
G1 X94.07 Y91.201 E.00412
G1 X121.799 Y118.93 E1.23435
G1 X121.263 Y118.93 E.01687
G1 X94.07 Y91.737 E1.21049
G1 X94.07 Y92.272 E.01684
M73 P17 R16
G1 X120.728 Y118.93 E1.18667
G1 X120.193 Y118.93 E.01684
G1 X94.07 Y92.807 E1.16286
G1 X94.07 Y93.343 E.01687
M73 P18 R16
G1 X119.657 Y118.93 E1.139
G1 X119.122 Y118.93 E.01684
G1 X94.07 Y93.878 E1.11518
G1 X94.07 Y94.413 E.01684
G1 X118.587 Y118.93 E1.09137
G1 X118.051 Y118.93 E.01687
G1 X94.07 Y94.949 E1.06751
G1 X94.07 Y95.484 E.01684
G1 X117.516 Y118.93 E1.04369
G1 X116.981 Y118.93 E.01684
G1 X94.07 Y96.019 E1.01988
G1 X94.07 Y96.555 E.01687
G1 X116.445 Y118.93 E.99602
G1 X115.91 Y118.93 E.01684
M73 P19 R16
G1 X94.07 Y97.09 E.9722
G1 X94.07 Y97.625 E.01684
G1 X115.375 Y118.93 E.94839
G1 X114.839 Y118.93 E.01687
G1 X94.07 Y98.161 E.92453
G1 X94.07 Y98.696 E.01684
G1 X114.304 Y118.93 E.90071
G1 X113.769 Y118.93 E.01684
G1 X94.07 Y99.231 E.8769
G1 X94.07 Y99.767 E.01687
G1 X113.233 Y118.93 E.85304
G1 X112.698 Y118.93 E.01684
G1 X94.07 Y100.302 E.82922
G1 X94.07 Y100.837 E.01684
G1 X112.163 Y118.93 E.8054
G1 X111.627 Y118.93 E.01687
M73 P20 R16
G1 X94.07 Y101.373 E.78154
G1 X94.07 Y101.908 E.01684
G1 X111.092 Y118.93 E.75773
G1 X110.556 Y118.93 E.01687
G1 X94.07 Y102.444 E.73387
G1 X94.07 Y102.979 E.01684
G1 X110.021 Y118.93 E.71005
G1 X109.486 Y118.93 E.01684
G1 X94.07 Y103.514 E.68624
G1 X94.07 Y104.05 E.01687
G1 X108.95 Y118.93 E.66238
G1 X108.415 Y118.93 E.01684
G1 X94.07 Y104.585 E.63856
G1 X94.07 Y105.12 E.01684
G1 X107.88 Y118.93 E.61475
G1 X107.344 Y118.93 E.01687
G1 X94.07 Y105.656 E.59089
G1 X94.07 Y106.191 E.01684
G1 X106.809 Y118.93 E.56707
G1 X106.274 Y118.93 E.01684
G1 X94.07 Y106.726 E.54326
G1 X94.07 Y107.262 E.01687
M73 P21 R16
G1 X105.738 Y118.93 E.5194
G1 X105.203 Y118.93 E.01684
G1 X94.07 Y107.797 E.49558
G1 X94.07 Y108.332 E.01684
G1 X104.668 Y118.93 E.47177
G1 X104.132 Y118.93 E.01687
G1 X94.07 Y108.868 E.44791
G1 X94.07 Y109.403 E.01684
G1 X103.597 Y118.93 E.42409
G1 X103.062 Y118.93 E.01684
G1 X94.07 Y109.938 E.40028
G1 X94.07 Y110.474 E.01687
G1 X102.526 Y118.93 E.37642
G1 X101.991 Y118.93 E.01684
G1 X94.07 Y111.009 E.3526
G1 X94.07 Y111.545 E.01687
G1 X101.455 Y118.93 E.32874
G1 X100.92 Y118.93 E.01684
G1 X94.07 Y112.08 E.30493
G1 X94.07 Y112.615 E.01684
G1 X100.385 Y118.93 E.28111
G1 X99.849 Y118.93 E.01687
G1 X94.07 Y113.151 E.25725
G1 X94.07 Y113.686 E.01684
G1 X99.314 Y118.93 E.23344
G1 X98.779 Y118.93 E.01684
G1 X94.07 Y114.221 E.20962
G1 X94.07 Y114.757 E.01687
G1 X98.243 Y118.93 E.18576
G1 X97.708 Y118.93 E.01684
G1 X94.07 Y115.292 E.16194
G1 X94.07 Y115.827 E.01684
G1 X97.173 Y118.93 E.13813
G1 X96.637 Y118.93 E.01687
G1 X94.07 Y116.363 E.11427
G1 X94.07 Y116.898 E.01684
G1 X96.102 Y118.93 E.09045
G1 X95.567 Y118.93 E.01684
G1 X94.07 Y117.433 E.06664
G1 X94.07 Y117.969 E.01687
G1 X95.031 Y118.93 E.04278
G1 X94.496 Y118.93 E.01684
G1 X93.9 Y118.334 E.02653
M204 S1000
M106 S84.15
;LAYER_CHANGE
;Z:0.4
;HEIGHT:0.2
;BEFORE_LAYER_CHANGE
G92 E0.0
;0.4


;WIPE_START
G1 F8640
G1 X94.496 Y118.93 E-.19462
G1 X95.031 Y118.93 E-.12353
G1 X94.07 Y117.969 E-.31381
G1 X94.07 Y117.433 E-.12376
G1 X94.206 Y117.569 E-.04428
;WIPE_END
G1 Z.4 F720
;AFTER_LAYER_CHANGE
;0.4
;CURRENT_Z: 0.4
M104 S210 ; set temperature
; stop printing object pcb.stl id:0 copy 0
G1 Z.8
G1 X90.811 Y117.569 F10800
G1 Z.4 F720
G1 E.8 F2100
;TYPE:Skirt/Brim
;WIDTH:0.42
G1 F3000
G1 X90.811 Y90 E.86441
G1 X91.202 Y88.752 E.04101
G1 X92.235 Y87.949 E.04102
G1 X93 Y87.811 E.02437
G1 X157 Y87.811 E2.00668
G1 X158.248 Y88.202 E.04101
M73 P22 R16
G1 X159.051 Y89.235 E.04102
G1 X159.189 Y90 E.02437
G1 X159.189 Y120 E.94063
G1 X158.798 Y121.248 E.04101
G1 X157.765 Y122.051 E.04102
G1 X157 Y122.189 E.02437
G1 X93 Y122.189 E2.00668
G1 X91.752 Y121.798 E.04101
G1 X90.949 Y120.765 E.04102
G1 X90.811 Y120 E.02437
G1 X90.811 Y117.629 E.07434
;WIPE_START
G1 F8640
G1 X90.811 Y117.569 E-.01385
G1 X90.811 Y114.164 E-.78615
;WIPE_END
G1 Z.8 F720
; printing object pcb.stl id:0 copy 0
G1 X156.368 Y119.368 F10800
G1 Z.4 F720
G1 E.8 F2100
M204 S800
;TYPE:Perimeter
;WIDTH:0.449999
G1 F3000
G1 X93.632 Y119.368 E2.12354
G1 X93.632 Y90.632 E.97268
G1 X156.368 Y90.632 E2.12354
G1 X156.368 Y105 E.48634
G1 X156.368 Y119.308 E.48431
M73 P22 R15
M204 S1000
G1 X156.775 Y119.775 F10800
M204 S800
;TYPE:External perimeter
G1 F2400
G1 X93.225 Y119.775 E2.15109
G1 X93.225 Y90.225 E1.00023
G1 X156.775 Y90.225 E2.15109
G1 X156.775 Y105 E.50012
G1 X156.775 Y119.715 E.49808
M204 S1000
;WIPE_START
G1 F8640
G1 X156.775 Y119.775 E-.01385
G1 X153.37 Y119.775 E-.78615
;WIPE_END
G1 Z.8 F720
G1 X94.048 Y90.97 F10800
G1 Z.4 F720
M73 P23 R15
G1 E.8 F2100
M204 S2000
;TYPE:Solid infill
;WIDTH:0.548766
G1 F3000
G1 X94.003 Y90.926 E.00265
G1 X93.942 Y90.942 E.00265
G1 X93.926 Y91.003 E.00265
G1 X93.97 Y91.048 E.00265
G1 X94.031 Y91.031 E.00266
;WIDTH:0.449999
G1 X93.937 Y91.682 E.02226
G1 X94.682 Y90.937 E.03566
G1 X95.257 Y90.937 E.01946
G1 X93.937 Y92.257 E.06319
G1 X93.937 Y92.833 E.0195
G1 X95.833 Y90.937 E.09076
G1 X96.409 Y90.937 E.0195
G1 X93.937 Y93.409 E.11833
G1 X93.937 Y93.984 E.01946
G1 X96.984 Y90.937 E.14586
G1 X97.56 Y90.937 E.0195
G1 X93.937 Y94.56 E.17343
G1 X93.937 Y95.136 E.0195
G1 X98.136 Y90.937 E.201
G1 X98.712 Y90.937 E.0195
G1 X93.937 Y95.712 E.22858
G1 X93.937 Y96.287 E.01946
G1 X99.287 Y90.937 E.2561
G1 X99.863 Y90.937 E.0195
G1 X93.937 Y96.863 E.28367
G1 X93.937 Y97.439 E.0195
G1 X100.439 Y90.937 E.31125
G1 X101.014 Y90.937 E.01946
G1 X93.937 Y98.014 E.33877
G1 X93.937 Y98.59 E.0195
G1 X101.59 Y90.937 E.36634
G1 X102.166 Y90.937 E.0195
G1 X93.937 Y99.166 E.39392
G1 X93.937 Y99.741 E.01946
G1 X102.741 Y90.937 E.42144
G1 X103.317 Y90.937 E.0195
G1 X93.937 Y100.317 E.44901
G1 X93.937 Y100.893 E.0195
G1 X103.893 Y90.937 E.47659
G1 X104.469 Y90.937 E.0195
G1 X93.937 Y101.469 E.50416
G1 X93.937 Y102.044 E.01946
G1 X105.044 Y90.937 E.53169
G1 X105.62 Y90.937 E.0195
G1 X93.937 Y102.62 E.55926
G1 X93.937 Y103.196 E.0195
G1 X106.196 Y90.937 E.58683
G1 X106.771 Y90.937 E.01946
G1 X93.937 Y103.771 E.61436
G1 X93.937 Y104.347 E.0195
G1 X107.347 Y90.937 E.64193
G1 X107.923 Y90.937 E.0195
G1 X93.937 Y104.923 E.6695
G1 X93.937 Y105.498 E.01946
G1 X108.498 Y90.937 E.69703
G1 X109.074 Y90.937 E.0195
G1 X93.937 Y106.074 E.7246
G1 X93.937 Y106.65 E.0195
G1 X109.65 Y90.937 E.75217
G1 X110.226 Y90.937 E.0195
G1 X93.937 Y107.226 E.77974
G1 X93.937 Y107.801 E.01946
G1 X110.801 Y90.937 E.80727
G1 X111.377 Y90.937 E.0195
G1 X93.937 Y108.377 E.83484
G1 X93.937 Y108.953 E.0195
G1 X111.953 Y90.937 E.86241
G1 X112.528 Y90.937 E.01946
G1 X93.937 Y109.528 E.88994
