; generated by PrusaSlicer 2.5.0-alpha2+linux-x64-GTK3 on 2022-08-27 at 17:31:40 UTC

; 

; external perimeters extrusion width = 0.45mm
; perimeters extrusion width = 0.45mm
; infill extrusion width = 0.45mm
; solid infill extrusion width = 0.45mm
; top infill extrusion width = 0.40mm
; first layer extrusion width = 0.42mm

M73 P0 R372
M201 X9000 Y9000 Z500 E10000 ; sets maximum accelerations, mm/sec^2
M203 X500 Y500 Z12 E120 ; sets maximum feedrates, mm / sec
M204 P2000 R1500 T2000 ; sets acceleration (P, T) and retract acceleration (R), mm/sec^2
M205 X10.00 Y10.00 Z0.20 E4.50 ; sets the jerk limits, mm/sec
M205 S0 T0 ; sets the minimum extruding and travel feed rate, mm/sec
M107
;TYPE:Custom
M862.3 P "MK2.5" ; printer model check
M862.1 P0.4 ; nozzle diameter check
M115 U3.11.0 ; tell printer latest fw version
G90 ; use absolute coordinates
M83 ; extruder relative mode
M104 S215 ; set extruder temp
M140 S60 ; set bed temp
M190 S60 ; wait for bed temp
M109 S215 ; wait for extruder temp
G28 W ; home all without mesh bed level
G80 ; mesh bed leveling
G1 Z0.2 F720
G1 Y-3 F1000 ; go outside print area
G92 E0
G1 X60 E9 F1000 ; intro line
G1 X100 E12.5 F1000 ; intro line
G92 E0
G21 ; set units to millimeters
G90 ; use absolute coordinates
M83 ; use relative distances for extrusion
M900 K0.05 ; Filament gcode LA 1.5
M900 K30 ; Filament gcode LA 1.0
M107
;LAYER_CHANGE
;Z:0.2
;HEIGHT:0.2
;BEFORE_LAYER_CHANGE
G92 E0.0
;0.2


M73 P0 R371
G1 E-.8 F2100
G1 Z.4 F720
;AFTER_LAYER_CHANGE
;0.2
G1 X73.463 Y67.119 F10800
G1 Z.2 F720
G1 E.8 F2100
M204 S800
;TYPE:Skirt/Brim
;WIDTH:0.42
G1 F1200
G1 X74.119 Y66.463 E.02908
G1 X74.605 Y66.138 E.01835
G1 X75.462 Y65.783 E.02908
G1 X76.5 Y65.623 E.03292
G1 X173.964 Y65.669 E3.05591
G1 X174.538 Y65.783 E.01835
G1 X175.395 Y66.138 E.02908
G1 X175.881 Y66.463 E.01835
G1 X176.537 Y67.119 E.02908
G1 X176.862 Y67.606 E.01835
G1 X177.217 Y68.462 E.02908
G1 X177.377 Y69.5 E.03292
G1 X177.377 Y139.5 E2.1948
G1 X177.217 Y140.538 E.03292
G1 X176.862 Y141.395 E.02908
G1 X176.537 Y141.882 E.01835
G1 X175.881 Y142.537 E.02908
G1 X175.395 Y142.863 E.01835
G1 X174.538 Y143.217 E.02908
G1 X173.5 Y143.377 E.03292
G1 X76.5 Y143.377 E3.04137
G1 X75.462 Y143.217 E.03292
G1 X74.605 Y142.863 E.02908
G1 X74.119 Y142.537 E.01835
G1 X73.463 Y141.882 E.02908
G1 X73.138 Y141.395 E.01835
G1 X72.783 Y140.538 E.02908
G1 X72.623 Y139.5 E.03292
G1 X72.623 Y69.5 E2.1948
G1 X72.783 Y68.462 E.03292
G1 X73.138 Y67.606 E.02908
G1 X73.43 Y67.169 E.01647
M204 S1000
; printing object Untitled(8).stl_1 id:0 copy 0
;WIPE_START
G1 F8640
G1 X74.119 Y66.463 E-.22776
G1 X74.605 Y66.138 E-.13514
G1 X75.462 Y65.783 E-.21416
G1 X76.245 Y65.662 E-.18293
;WIPE_END
G1 E-.04 F2100
G1 Z.6 F720
G1 X76.564 Y139.41 F10800
G1 Z.2 F720
G1 E.8 F2100
M204 S800
;TYPE:Perimeter
;WIDTH:0.419999
G1 F1200
G1 X76.564 Y69.62 E2.18824
G1 X76.59 Y69.564 E.00191
G1 X173.374 Y69.564 E3.03459
G1 X173.436 Y69.59 E.00211
G1 X173.436 Y139.374 E2.18804
G1 X173.41 Y139.436 E.00209
G1 X76.626 Y139.436 E3.0346
G1 X76.62 Y139.433 E.00021
M204 S1000
G1 X76.275 Y139.694 F10800
M204 S800
G1 F1200
G1 X76.187 Y139.438 E.00849
G1 X76.187 Y69.58 E2.19033
G1 X76.212 Y69.463 E.00375
G1 X76.306 Y69.275 E.0066
G1 X76.562 Y69.187 E.00849
G1 X173.374 Y69.187 E3.03545
G1 X173.537 Y69.212 E.00518
G1 X173.725 Y69.306 E.00659
G1 X173.813 Y69.563 E.00849
G1 X173.813 Y139.374 E2.1889
G1 X173.788 Y139.537 E.00516
G1 X173.694 Y139.725 E.0066
G1 X173.438 Y139.813 E.00849
G1 X76.626 Y139.813 E3.03546
G1 X76.463 Y139.789 E.00516
G1 X76.329 Y139.721 E.00471
M204 S1000
G1 X76.059 Y140.003 F10800
M204 S800
;TYPE:External perimeter
G1 F1200
G1 X75.981 Y139.945 E.00303
G1 X75.842 Y139.683 E.00929
G1 X75.81 Y139.465 E.00691
G1 X75.81 Y69.541 E2.19242
G1 X75.879 Y69.215 E.01044
G1 X76.055 Y68.982 E.00919
G1 X76.317 Y68.842 E.00929
G1 X76.535 Y68.81 E.00691
G1 X173.374 Y68.81 E3.03631
G1 X173.785 Y68.879 E.01307
M73 P0 R370
G1 X174.019 Y69.056 E.00919
G1 X174.158 Y69.317 E.00929
G1 X174.19 Y69.535 E.00691
G1 X174.19 Y139.374 E2.18975
G1 X174.121 Y139.785 E.01306
G1 X173.945 Y140.019 E.00919
G1 X173.683 Y140.158 E.00929
G1 X173.465 Y140.19 E.00691
G1 X76.626 Y140.19 E3.03632
G1 X76.215 Y140.122 E.01306
G1 X76.106 Y140.039 E.00427
M204 S1000
;WIPE_START
G1 F8640
G1 X75.981 Y139.945 E-.0362
;WIPE_END
G1 E-.7638 F2100
G1 Z.6 F720
G1 X173.323 Y70.442 F10800
G1 Z.2 F720
G1 E.8 F2100
M204 S800
;TYPE:Solid infill
;WIDTH:0.421179
G1 F1200
G1 X172.728 Y69.847 E.02647
G1 X172.193 Y69.847 E.01683
G1 X173.153 Y70.808 E.04272
G1 X173.153 Y71.342 E.01683
G1 X171.658 Y69.847 E.06651
G1 X171.123 Y69.847 E.01683
G1 X173.153 Y71.877 E.0903
G1 X173.153 Y72.412 E.01683
G1 X170.588 Y69.847 E.1141
G1 X170.053 Y69.847 E.01683
G1 X173.153 Y72.947 E.13789
G1 X173.153 Y73.482 E.01683
G1 X169.518 Y69.847 E.16169
G1 X168.983 Y69.847 E.01683
G1 X173.153 Y74.017 E.18548
G1 X173.153 Y74.552 E.01683
G1 X168.448 Y69.847 E.20928
G1 X167.913 Y69.847 E.01683
G1 X173.153 Y75.087 E.23307
G1 X173.153 Y75.622 E.01683
G1 X167.378 Y69.847 E.25686
G1 X166.843 Y69.847 E.01683
G1 X173.153 Y76.157 E.28066
G1 X173.153 Y76.692 E.01683
G1 X166.308 Y69.847 E.30445
G1 X165.773 Y69.847 E.01683
G1 X173.153 Y77.227 E.32825
G1 X173.153 Y77.762 E.01683
G1 X165.238 Y69.847 E.35204
G1 X164.704 Y69.847 E.01683
G1 X173.153 Y78.297 E.37584
G1 X173.153 Y78.832 E.01683
G1 X164.169 Y69.847 E.39963
G1 X163.634 Y69.847 E.01683
G1 X173.153 Y79.367 E.42342
G1 X173.153 Y79.902 E.01683
G1 X163.099 Y69.847 E.44722
G1 X162.564 Y69.847 E.01683
G1 X173.153 Y80.436 E.47101
G1 X173.153 Y80.971 E.01683
G1 X162.029 Y69.847 E.49481
G1 X161.494 Y69.847 E.01683
G1 X173.153 Y81.506 E.5186
G1 X173.153 Y82.041 E.01683
G1 X160.959 Y69.847 E.5424
G1 X160.424 Y69.847 E.01683
G1 X173.153 Y82.576 E.56619
G1 X173.153 Y83.111 E.01683
G1 X159.889 Y69.847 E.58998
G1 X159.354 Y69.847 E.01683
G1 X173.153 Y83.646 E.61378
G1 X173.153 Y84.181 E.01683
G1 X158.819 Y69.847 E.63757
G1 X158.284 Y69.847 E.01683
G1 X173.153 Y84.716 E.66137
G1 X173.153 Y85.251 E.01683
G1 X157.749 Y69.847 E.68516
G1 X157.214 Y69.847 E.01683
G1 X173.153 Y85.786 E.70896
G1 X173.153 Y86.321 E.01683
G1 X156.679 Y69.847 E.73275
G1 X156.145 Y69.847 E.01683
G1 X173.153 Y86.856 E.75654
G1 X173.153 Y87.391 E.01683
G1 X155.61 Y69.847 E.78034
G1 X155.075 Y69.847 E.01683
G1 X173.153 Y87.926 E.80413
G1 X173.153 Y88.461 E.01683
G1 X154.54 Y69.847 E.82793
G1 X154.005 Y69.847 E.01683
G1 X173.153 Y88.995 E.85172
G1 X173.153 Y89.53 E.01683
G1 X153.47 Y69.847 E.87552
G1 X152.935 Y69.847 E.01683
G1 X173.153 Y90.065 E.89931
G1 X173.153 Y90.6 E.01683
G1 X152.4 Y69.847 E.9231
G1 X151.865 Y69.847 E.01683
G1 X173.153 Y91.135 E.9469
G1 X173.153 Y91.67 E.01683
G1 X151.33 Y69.847 E.97069
G1 X150.795 Y69.847 E.01683
G1 X173.153 Y92.205 E.99449
G1 X173.153 Y92.74 E.01683
G1 X150.26 Y69.847 E1.01828
G1 X149.725 Y69.847 E.01683
G1 X173.153 Y93.275 E1.04208
G1 X173.153 Y93.81 E.01683
G1 X149.19 Y69.847 E1.06587
G1 X148.655 Y69.847 E.01683
G1 X173.153 Y94.345 E1.08966
G1 X173.153 Y94.88 E.01683
G1 X148.12 Y69.847 E1.11346
G1 X147.586 Y69.847 E.01683
G1 X173.153 Y95.415 E1.13725
G1 X173.153 Y95.95 E.01683
G1 X147.051 Y69.847 E1.16105
G1 X146.516 Y69.847 E.01683
M73 P0 R369
G1 X173.153 Y96.485 E1.18484
G1 X173.153 Y97.02 E.01683
G1 X145.981 Y69.847 E1.20864
G1 X145.446 Y69.847 E.01683
G1 X173.153 Y97.555 E1.23243
G1 X173.153 Y98.089 E.01683
G1 X144.911 Y69.847 E1.25622
G1 X144.376 Y69.847 E.01683
G1 X173.153 Y98.624 E1.28002
G1 X173.153 Y99.159 E.01683
G1 X143.841 Y69.847 E1.30381
G1 X143.306 Y69.847 E.01683
G1 X173.153 Y99.694 E1.32761
G1 X173.153 Y100.229 E.01683
G1 X142.771 Y69.847 E1.3514
G1 X142.236 Y69.847 E.01683
G1 X173.153 Y100.764 E1.3752
G1 X173.153 Y101.299 E.01683
G1 X141.701 Y69.847 E1.39899
G1 X141.166 Y69.847 E.01683
G1 X173.153 Y101.834 E1.42278
G1 X173.153 Y102.369 E.01683
G1 X140.631 Y69.847 E1.44658
G1 X140.096 Y69.847 E.01683
G1 X173.153 Y102.904 E1.47037
G1 X173.153 Y103.439 E.01683
G1 X139.561 Y69.847 E1.49417
G1 X139.026 Y69.847 E.01683
G1 X173.153 Y103.974 E1.51796
G1 X173.153 Y104.509 E.01683
G1 X138.492 Y69.847 E1.54176
G1 X137.957 Y69.847 E.01683
G1 X173.153 Y105.044 E1.56555
G1 X173.153 Y105.579 E.01683
G1 X137.422 Y69.847 E1.58934
G1 X136.887 Y69.847 E.01683
G1 X173.153 Y106.114 E1.61314
G1 X173.153 Y106.648 E.01683
G1 X136.352 Y69.847 E1.63693
G1 X135.817 Y69.847 E.01683
G1 X173.153 Y107.183 E1.66073
G1 X173.153 Y107.718 E.01683
G1 X135.282 Y69.847 E1.68452
G1 X134.747 Y69.847 E.01683
G1 X173.153 Y108.253 E1.70832
G1 X173.153 Y108.788 E.01683
G1 X134.212 Y69.847 E1.73211
G1 X133.677 Y69.847 E.01683
G1 X173.153 Y109.323 E1.7559
G1 X173.153 Y109.858 E.01683
M73 P0 R368
G1 X133.142 Y69.847 E1.7797
G1 X132.607 Y69.847 E.01683
G1 X173.153 Y110.393 E1.80349
G1 X173.153 Y110.928 E.01683
G1 X132.072 Y69.847 E1.82729
G1 X131.537 Y69.847 E.01683
G1 X173.153 Y111.463 E1.85108
G1 X173.153 Y111.998 E.01683
G1 X131.002 Y69.847 E1.87488
G1 X130.467 Y69.847 E.01683
G1 X173.153 Y112.533 E1.89867
G1 X173.153 Y113.068 E.01683
G1 X129.933 Y69.847 E1.92246
G1 X129.398 Y69.847 E.01683
G1 X173.153 Y113.603 E1.94626
G1 X173.153 Y114.138 E.01683
G1 X128.863 Y69.847 E1.97005
G1 X128.328 Y69.847 E.01683
G1 X173.153 Y114.673 E1.99385
G1 X173.153 Y115.207 E.01683
G1 X127.793 Y69.847 E2.01764
G1 X127.258 Y69.847 E.01683
G1 X173.153 Y115.742 E2.04144
G1 X173.153 Y116.277 E.01683
G1 X126.723 Y69.847 E2.06523
G1 X126.188 Y69.847 E.01683
M73 P1 R368
G1 X173.153 Y116.812 E2.08902
G1 X173.153 Y117.347 E.01683
G1 X125.653 Y69.847 E2.11282
G1 X125.118 Y69.847 E.01683
G1 X173.153 Y117.882 E2.13661
G1 X173.153 Y118.417 E.01683
G1 X124.583 Y69.847 E2.16041
G1 X124.048 Y69.847 E.01683
G1 X173.153 Y118.952 E2.1842
G1 X173.153 Y119.487 E.01683
G1 X123.513 Y69.847 E2.208
G1 X122.978 Y69.847 E.01683
M73 P1 R367
G1 X173.153 Y120.022 E2.23179
G1 X173.153 Y120.557 E.01683
G1 X122.443 Y69.847 E2.25558
G1 X121.908 Y69.847 E.01683
G1 X173.153 Y121.092 E2.27938
G1 X173.153 Y121.627 E.01683
G1 X121.374 Y69.847 E2.30317
G1 X120.839 Y69.847 E.01683
G1 X173.153 Y122.162 E2.32697
G1 X173.153 Y122.697 E.01683
G1 X120.304 Y69.847 E2.35076
G1 X119.769 Y69.847 E.01683
G1 X173.153 Y123.232 E2.37456
G1 X173.153 Y123.767 E.01683
G1 X119.234 Y69.847 E2.39835
G1 X118.699 Y69.847 E.01683
G1 X173.153 Y124.301 E2.42214
G1 X173.153 Y124.836 E.01683
G1 X118.164 Y69.847 E2.44594
G1 X117.629 Y69.847 E.01683
G1 X173.153 Y125.371 E2.46973
G1 X173.153 Y125.906 E.01683
G1 X117.094 Y69.847 E2.49353
G1 X116.559 Y69.847 E.01683
G1 X173.153 Y126.441 E2.51732
G1 X173.153 Y126.976 E.01683
G1 X116.024 Y69.847 E2.54112
G1 X115.489 Y69.847 E.01683
G1 X173.153 Y127.511 E2.56491
G1 X173.153 Y128.046 E.01683
G1 X114.954 Y69.847 E2.5887
G1 X114.419 Y69.847 E.01683
M73 P1 R366
G1 X173.153 Y128.581 E2.6125
G1 X173.153 Y129.116 E.01683
G1 X113.884 Y69.847 E2.63629
G1 X113.349 Y69.847 E.01683
G1 X173.153 Y129.651 E2.66009
G1 X173.153 Y130.186 E.01683
G1 X112.814 Y69.847 E2.68388
G1 X112.28 Y69.847 E.01683
G1 X173.153 Y130.721 E2.70768
G1 X173.153 Y131.256 E.01683
G1 X111.745 Y69.847 E2.73147
G1 X111.21 Y69.847 E.01683
G1 X173.153 Y131.791 E2.75526
G1 X173.153 Y132.326 E.01683
G1 X110.675 Y69.847 E2.77906
G1 X110.14 Y69.847 E.01683
G1 X173.153 Y132.86 E2.80285
G1 X173.153 Y133.395 E.01683
G1 X109.605 Y69.847 E2.82665
G1 X109.07 Y69.847 E.01683
G1 X173.153 Y133.93 E2.85044
G1 X173.153 Y134.465 E.01683
G1 X108.535 Y69.847 E2.87424
G1 X108 Y69.847 E.01683
G1 X173.153 Y135 E2.89803
G1 X173.153 Y135.535 E.01683
M73 P1 R365
G1 X107.465 Y69.847 E2.92182
G1 X106.93 Y69.847 E.01683
G1 X173.153 Y136.07 E2.94562
G1 X173.153 Y136.605 E.01683
G1 X106.395 Y69.847 E2.96941
G1 X105.86 Y69.847 E.01683
G1 X173.153 Y137.14 E2.99321
G1 X173.153 Y137.675 E.01683
G1 X105.325 Y69.847 E3.017
G1 X104.79 Y69.847 E.01683
G1 X173.153 Y138.21 E3.0408
G1 X173.153 Y138.745 E.01683
G1 X104.255 Y69.847 E3.06459
G1 X103.721 Y69.847 E.01683
G1 X173.027 Y139.153 E3.08276
G1 X172.492 Y139.153 E.01683
G1 X103.186 Y69.847 E3.08276
G1 X102.651 Y69.847 E.01683
G1 X171.957 Y139.153 E3.08276
G1 X171.422 Y139.153 E.01683
G1 X102.116 Y69.847 E3.08276
G1 X101.581 Y69.847 E.01683
G1 X170.887 Y139.153 E3.08276
G1 X170.352 Y139.153 E.01683
G1 X101.046 Y69.847 E3.08276
G1 X100.511 Y69.847 E.01683
M73 P1 R364
G1 X169.817 Y139.153 E3.08276
G1 X169.282 Y139.153 E.01683
G1 X99.976 Y69.847 E3.08276
G1 X99.441 Y69.847 E.01683
G1 X168.747 Y139.153 E3.08276
G1 X168.212 Y139.153 E.01683
G1 X98.906 Y69.847 E3.08276
G1 X98.371 Y69.847 E.01683
M73 P2 R364
G1 X167.677 Y139.153 E3.08276
G1 X167.142 Y139.153 E.01683
G1 X97.836 Y69.847 E3.08276
G1 X97.301 Y69.847 E.01683
G1 X166.607 Y139.153 E3.08276
G1 X166.072 Y139.153 E.01683
G1 X96.766 Y69.847 E3.08276
G1 X96.231 Y69.847 E.01683
G1 X165.537 Y139.153 E3.08276
G1 X165.003 Y139.153 E.01683
G1 X95.696 Y69.847 E3.08276
G1 X95.161 Y69.847 E.01683
G1 X164.468 Y139.153 E3.08276
G1 X163.933 Y139.153 E.01683
G1 X94.627 Y69.847 E3.08276
G1 X94.092 Y69.847 E.01683
M73 P2 R363
G1 X163.398 Y139.153 E3.08276
G1 X162.863 Y139.153 E.01683
G1 X93.557 Y69.847 E3.08276
G1 X93.022 Y69.847 E.01683
G1 X162.328 Y139.153 E3.08276
G1 X161.793 Y139.153 E.01683
G1 X92.487 Y69.847 E3.08276
G1 X91.952 Y69.847 E.01683
G1 X161.258 Y139.153 E3.08276
G1 X160.723 Y139.153 E.01683
G1 X91.417 Y69.847 E3.08276
G1 X90.882 Y69.847 E.01683
G1 X160.188 Y139.153 E3.08276
G1 X159.653 Y139.153 E.01683
G1 X90.347 Y69.847 E3.08276
G1 X89.812 Y69.847 E.01683
G1 X159.118 Y139.153 E3.08276
G1 X158.583 Y139.153 E.01683
G1 X89.277 Y69.847 E3.08276
G1 X88.742 Y69.847 E.01683
G1 X158.048 Y139.153 E3.08276
G1 X157.513 Y139.153 E.01683
G1 X88.207 Y69.847 E3.08276
G1 X87.672 Y69.847 E.01683
M73 P2 R362
G1 X156.978 Y139.153 E3.08276
G1 X156.443 Y139.153 E.01683
G1 X87.137 Y69.847 E3.08276
G1 X86.602 Y69.847 E.01683
G1 X155.909 Y139.153 E3.08276
G1 X155.374 Y139.153 E.01683
G1 X86.068 Y69.847 E3.08276
G1 X85.533 Y69.847 E.01683
G1 X154.839 Y139.153 E3.08276
G1 X154.304 Y139.153 E.01683
G1 X84.998 Y69.847 E3.08276
G1 X84.463 Y69.847 E.01683
G1 X153.769 Y139.153 E3.08276
G1 X153.234 Y139.153 E.01683
G1 X83.928 Y69.847 E3.08276
G1 X83.393 Y69.847 E.01683
G1 X152.699 Y139.153 E3.08276
G1 X152.164 Y139.153 E.01683
G1 X82.858 Y69.847 E3.08276
G1 X82.323 Y69.847 E.01683
G1 X151.629 Y139.153 E3.08276
G1 X151.094 Y139.153 E.01683
G1 X81.788 Y69.847 E3.08276
G1 X81.253 Y69.847 E.01683
M73 P2 R361
G1 X150.559 Y139.153 E3.08276
G1 X150.024 Y139.153 E.01683
G1 X80.718 Y69.847 E3.08276
G1 X80.183 Y69.847 E.01683
G1 X149.489 Y139.153 E3.08276
G1 X148.954 Y139.153 E.01683
G1 X79.648 Y69.847 E3.08276
G1 X79.113 Y69.847 E.01683
G1 X148.419 Y139.153 E3.08276
G1 X147.884 Y139.153 E.01683
G1 X78.578 Y69.847 E3.08276
G1 X78.043 Y69.847 E.01683
G1 X147.35 Y139.153 E3.08276
G1 X146.815 Y139.153 E.01683
G1 X77.509 Y69.847 E3.08276
G1 X76.974 Y69.847 E.01683
G1 X146.28 Y139.153 E3.08276
G1 X145.745 Y139.153 E.01683
G1 X76.847 Y70.256 E3.0646
G1 X76.847 Y70.79 E.01683
G1 X145.21 Y139.153 E3.0408
G1 X144.675 Y139.153 E.01683
G1 X76.847 Y71.325 E3.01701
G1 X76.847 Y71.86 E.01683
M73 P2 R360
G1 X144.14 Y139.153 E2.99321
G1 X143.605 Y139.153 E.01683
G1 X76.847 Y72.395 E2.96942
G1 X76.847 Y72.93 E.01683
M73 P3 R360
G1 X143.07 Y139.153 E2.94563
G1 X142.535 Y139.153 E.01683
G1 X76.847 Y73.465 E2.92183
G1 X76.847 Y74 E.01683
G1 X142 Y139.153 E2.89804
G1 X141.465 Y139.153 E.01683
G1 X76.847 Y74.535 E2.87424
G1 X76.847 Y75.07 E.01683
G1 X140.93 Y139.153 E2.85045
G1 X140.395 Y139.153 E.01683
G1 X76.847 Y75.605 E2.82665
G1 X76.847 Y76.14 E.01683
G1 X139.86 Y139.153 E2.80286
G1 X139.325 Y139.153 E.01683
G1 X76.847 Y76.675 E2.77907
G1 X76.847 Y77.21 E.01683
G1 X138.791 Y139.153 E2.75527
G1 X138.256 Y139.153 E.01683
G1 X76.847 Y77.745 E2.73148
G1 X76.847 Y78.28 E.01683
G1 X137.721 Y139.153 E2.70768
G1 X137.186 Y139.153 E.01683
M73 P3 R359
G1 X76.847 Y78.815 E2.68389
G1 X76.847 Y79.35 E.01683
G1 X136.651 Y139.153 E2.66009
G1 X136.116 Y139.153 E.01683
G1 X76.847 Y79.884 E2.6363
G1 X76.847 Y80.419 E.01683
G1 X135.581 Y139.153 E2.61251
G1 X135.046 Y139.153 E.01683
G1 X76.847 Y80.954 E2.58871
