; generated by PrusaSlicer 2.6.0-alpha6+linux-x64-GTK3 on 2023-05-08 at 03:34:38 UTC

; 

; external perimeters extrusion width = 0.45mm
; perimeters extrusion width = 0.45mm
; infill extrusion width = 0.45mm
; solid infill extrusion width = 0.45mm
; top infill extrusion width = 0.40mm
; first layer extrusion width = 0.42mm

M73 P0 R641
M201 X9000 Y9000 Z500 E10000 ; sets maximum accelerations, mm/sec^2
M203 X500 Y500 Z12 E120 ; sets maximum feedrates, mm / sec
M204 S2000 T1500 ; sets acceleration (S) and retract acceleration (R), mm/sec^2
M205 X10.00 Y10.00 Z0.20 E4.50 ; sets the jerk limits, mm/sec
M205 S0 T0 ; sets the minimum extruding and travel feed rate, mm/sec
;TYPE:Custom
M862.3 P "MK2.5" ; printer model check
M862.1 P0.4 ; nozzle diameter check
M115 U3.11.0 ; tell printer latest fw version
G90 ; use absolute coordinates
M83 ; extruder relative mode
M104 S215 ; set extruder temp
M140 S60 ; set bed temp
M190 S60 ; wait for bed temp
M109 S215 ; wait for extruder temp
G28 W ; home all without mesh bed level
G80 ; mesh bed leveling

G1 Z0.2 F720
G1 Y-3 F1000 ; go outside print area
G92 E0
G1 X60 E9 F1000 ; intro line
G1 X100 E12.5 F1000 ; intro line

G92 E0
G21 ; set units to millimeters
G90 ; use absolute coordinates
M83 ; use relative distances for extrusion
M900 K0.05 ; Filament gcode LA 1.5
M900 K30 ; Filament gcode LA 1.0
M107
;LAYER_CHANGE
;Z:0.2
;HEIGHT:0.2
;BEFORE_LAYER_CHANGE
G92 E0.0
;0.2


G1 E-.8 F2100
G1 Z.4 F720
;AFTER_LAYER_CHANGE
;0.2
;CURRENT_Z: 0.2
G1 X18.336 Y0 F10800
G1 Z.2 F720
G1 E.8 F2100
M204 S800
;TYPE:Skirt/Brim
;WIDTH:0.42
G1 F1200
G1 X18.336 Y-.499 E.01565
G1 X18.518 Y-1.411 E.02916
G1 X18.851 Y-2.214 E.02726
G1 X19.366 Y-2.984 E.02905
G1 X20.288 Y-3.65 E.03566
G1 X21.09 Y-3.983 E.02723
G1 X22 Y-4.164 E.02909
G1 X228 Y-4.164 E6.45899
G1 X228.91 Y-3.983 E.02909
G1 X229.712 Y-3.65 E.02723
G1 X230.634 Y-2.984 E.03566
G1 X231.149 Y-2.215 E.02902
G1 X231.482 Y-1.411 E.02729
G1 X231.664 Y-.499 E.02916
G1 X231.664 Y210.499 E6.61569
G1 X231.482 Y211.411 E.02916
G1 X231.149 Y212.214 E.02726
G1 X230.634 Y212.984 E.02905
G1 X229.712 Y213.65 E.03566
G1 X228.91 Y213.983 E.02723
G1 X228 Y214.164 E.02909
G1 X22 Y214.164 E6.45899
G1 X21.09 Y213.983 E.02909
M73 P0 R640
G1 X20.288 Y213.65 E.02723
G1 X19.517 Y213.135 E.02907
G1 X18.851 Y212.215 E.03561
G1 X18.518 Y211.411 E.02729
G1 X18.336 Y210.499 E.02916
G1 X18.336 Y.06 E6.59817
M204 S1000
; printing object gaveta2.stl id:0 copy 0
;WIPE_START
G1 F8640
G1 X18.336 Y-.499 E-.12907
G1 X18.518 Y-1.411 E-.21474
G1 X18.851 Y-2.214 E-.20073
G1 X19.366 Y-2.984 E-.2139
G1 X19.512 Y-3.089 E-.04156
;WIPE_END
G1 Z.6 F720
G1 X227.674 Y210.217 F10800
G1 Z.2 F720
G1 E.8 F2100
M204 S800
;TYPE:Perimeter
;WIDTH:0.419999
G1 F1200
G1 X22.357 Y210.217 E6.43756
G1 X22.282 Y210.173 E.00273
G1 X22.282 Y208.778 E.04374
G1 X22.258 Y208.613 E.00523
G1 X22.118 Y208.379 E.00855
G1 X21.788 Y208.242 E.0112
G1 X21.788 Y198.755 E.29746
G1 X22.147 Y198.589 E.0124
G1 X22.227 Y198.465 E.00463
G1 X22.282 Y198.222 E.00781
G1 X22.282 Y11.778 E5.84581
G1 X22.267 Y11.647 E.00413
G1 X22.147 Y11.411 E.0083
G1 X21.788 Y11.245 E.0124
G1 X21.788 Y1.758 E.29746
G1 X22.118 Y1.621 E.0112
G1 X22.211 Y1.498 E.00483
G1 X22.282 Y1.222 E.00894
G1 X22.282 Y-.142 E.04277
G1 X22.326 Y-.217 E.00273
G1 X227.643 Y-.217 E6.43756
G1 X227.718 Y-.173 E.00273
G1 X227.718 Y1.222 E.04374
G1 X227.742 Y1.387 E.00523
G1 X227.882 Y1.621 E.00855
G1 X228.212 Y1.758 E.0112
G1 X228.212 Y11.245 E.29746
G1 X227.853 Y11.411 E.0124
G1 X227.773 Y11.535 E.00463
G1 X227.718 Y11.778 E.00781
G1 X227.718 Y198.222 E5.84581
G1 X227.733 Y198.353 E.00413
M73 P0 R639
G1 X227.853 Y198.589 E.0083
G1 X228.212 Y198.755 E.0124
G1 X228.212 Y208.242 E.29746
G1 X227.882 Y208.379 E.0112
G1 X227.789 Y208.502 E.00483
G1 X227.718 Y208.778 E.00894
G1 X227.718 Y210.142 E.04277
G1 X227.704 Y210.165 E.00084
M204 S1000
G1 X227.83 Y210.594 F10800
M204 S800
;TYPE:External perimeter
G1 F1200
G1 X22.17 Y210.594 E6.44831
G1 X21.905 Y210.33 E.01173
G1 X21.905 Y208.778 E.04866
G1 X21.881 Y208.686 E.00298
G1 X21.717 Y208.589 E.00597
G1 X21.411 Y208.589 E.00959
G1 X21.411 Y198.41 E.31915
G1 X21.717 Y198.41 E.00959
G1 X21.86 Y198.344 E.00494
G1 X21.905 Y198.222 E.00408
G1 X21.905 Y11.778 E5.84581
G1 X21.887 Y11.697 E.0026
G1 X21.717 Y11.59 E.0063
G1 X21.411 Y11.59 E.00959
G1 X21.411 Y1.411 E.31915
G1 X21.717 Y1.411 E.00959
G1 X21.85 Y1.355 E.00452
G1 X21.905 Y1.222 E.00451
G1 X21.905 Y-.33 E.04866
G1 X22.17 Y-.594 E.01173
G1 X227.83 Y-.594 E6.44831
G1 X228.095 Y-.33 E.01173
G1 X228.095 Y1.222 E.04866
G1 X228.119 Y1.314 E.00298
G1 X228.283 Y1.411 E.00597
G1 X228.589 Y1.411 E.00959
G1 X228.589 Y11.59 E.31915
G1 X228.283 Y11.59 E.00959
G1 X228.14 Y11.656 E.00494
G1 X228.095 Y11.778 E.00408
G1 X228.095 Y198.222 E5.84581
G1 X228.113 Y198.303 E.0026
G1 X228.283 Y198.41 E.0063
G1 X228.589 Y198.41 E.00959
G1 X228.589 Y208.589 E.31915
G1 X228.283 Y208.589 E.00959
G1 X228.15 Y208.645 E.00452
G1 X228.095 Y208.778 E.00451
G1 X228.095 Y210.33 E.04866
G1 X227.872 Y210.552 E.00987
M204 S1000
G1 X227.494 Y210.378 F10800
;WIPE_START
G1 F8640
G1 X224.407 Y210.553 E-.8
;WIPE_END
G1 Z.6 F720
G1 X226.842 Y-.104 F10800
G1 Z.2 F720
G1 E.8 F2100
M204 S800
;TYPE:Solid infill
;WIDTH:0.420067
G1 F1200
G1 X227.435 Y.489 E.0263
G1 X227.435 Y1.022 E.01671
G1 X226.479 Y.066 E.0424
G1 X225.945 Y.066 E.01675
G1 X227.929 Y2.05 E.08799
G1 X227.929 Y2.583 E.01671
G1 X225.412 Y.066 E.11163
G1 X224.878 Y.066 E.01675
G1 X227.929 Y3.117 E.13531
G1 X227.929 Y3.65 E.01671
G1 X224.345 Y.066 E.15895
G1 X223.812 Y.066 E.01671
G1 X227.929 Y4.183 E.18259
G1 X227.929 Y4.717 E.01675
G1 X223.278 Y.066 E.20627
G1 X222.745 Y.066 E.01671
G1 X227.929 Y5.25 E.22991
G1 X227.929 Y5.783 E.01671
G1 X222.212 Y.066 E.25355
G1 X221.678 Y.066 E.01675
G1 X227.929 Y6.317 E.27723
G1 X227.929 Y6.85 E.01671
G1 X221.145 Y.066 E.30087
G1 X220.612 Y.066 E.01671
G1 X227.929 Y7.383 E.32451
G1 X227.929 Y7.917 E.01675
G1 X220.078 Y.066 E.34819
G1 X219.545 Y.066 E.01671
G1 X227.929 Y8.45 E.37183
G1 X227.929 Y8.984 E.01675
G1 X219.011 Y.066 E.39551
G1 X218.478 Y.066 E.01671
G1 X227.929 Y9.517 E.41915
G1 X227.929 Y10.05 E.01671
G1 X217.945 Y.066 E.44279
G1 X217.411 Y.066 E.01675
G1 X227.929 Y10.584 E.46647
G1 X227.929 Y11.083 E.01565
G1 X227.906 Y11.094 E.0008
G1 X216.878 Y.066 E.48909
G1 X216.345 Y.066 E.01671
G1 X227.589 Y11.31 E.49867
G1 X227.478 Y11.506 E.00706
G1 X227.446 Y11.701 E.0062
G1 X215.811 Y.066 E.51601
G1 X215.278 Y.066 E.01671
G1 X227.435 Y12.223 E.53916
G1 X227.435 Y12.756 E.01671
M73 P0 R638
G1 X214.745 Y.066 E.5628
G1 X214.211 Y.066 E.01675
G1 X227.435 Y13.289 E.58646
G1 X227.435 Y13.823 E.01675
G1 X213.678 Y.066 E.61012
G1 X213.144 Y.066 E.01675
G1 X227.435 Y14.356 E.63378
G1 X227.435 Y14.889 E.01671
G1 X212.611 Y.066 E.65742
G1 X212.078 Y.066 E.01671
G1 X227.435 Y15.423 E.68108
G1 X227.435 Y15.956 E.01671
G1 X211.544 Y.066 E.70474
G1 X211.011 Y.066 E.01671
G1 X227.435 Y16.49 E.7284
G1 X227.435 Y17.023 E.01671
G1 X210.478 Y.066 E.75204
G1 X209.944 Y.066 E.01675
G1 X227.435 Y17.556 E.7757
G1 X227.435 Y18.09 E.01675
G1 X209.411 Y.066 E.79936
G1 X208.877 Y.066 E.01675
G1 X227.435 Y18.623 E.82302
G1 X227.435 Y19.156 E.01671
G1 X208.344 Y.066 E.84666
G1 X207.811 Y.066 E.01671
G1 X227.435 Y19.69 E.87032
G1 X227.435 Y20.223 E.01671
G1 X207.277 Y.066 E.89398
G1 X206.744 Y.066 E.01671
G1 X227.435 Y20.757 E.91764
G1 X227.435 Y21.29 E.01671
G1 X206.211 Y.066 E.94128
G1 X205.677 Y.066 E.01675
G1 X227.435 Y21.823 E.96494
G1 X227.435 Y22.357 E.01675
G1 X205.144 Y.066 E.9886
G1 X204.611 Y.066 E.01671
G1 X227.435 Y22.89 E1.01224
G1 X227.435 Y23.423 E.01671
G1 X204.077 Y.066 E1.0359
G1 X203.544 Y.066 E.01671
G1 X227.435 Y23.957 E1.05956
G1 X227.435 Y24.49 E.01671
G1 X203.01 Y.066 E1.08322
G1 X202.477 Y.066 E.01671
G1 X227.435 Y25.023 E1.10686
G1 X227.435 Y25.557 E.01675
G1 X201.944 Y.066 E1.13052
G1 X201.41 Y.066 E.01675
G1 X227.435 Y26.09 E1.15418
G1 X227.435 Y26.624 E.01675
G1 X200.877 Y.066 E1.17784
G1 X200.344 Y.066 E.01671
G1 X227.435 Y27.157 E1.20147
G1 X227.435 Y27.69 E.01671
G1 X199.81 Y.066 E1.22514
G1 X199.277 Y.066 E.01671
G1 X227.435 Y28.224 E1.2488
G1 X227.435 Y28.757 E.01671
G1 X198.744 Y.066 E1.27243
G1 X198.21 Y.066 E.01675
G1 X227.435 Y29.29 E1.29609
G1 X227.435 Y29.824 E.01675
G1 X197.677 Y.066 E1.31976
G1 X197.143 Y.066 E.01675
G1 X227.435 Y30.357 E1.34342
G1 X227.435 Y30.89 E.01671
G1 X196.61 Y.066 E1.36705
G1 X196.077 Y.066 E.01671
G1 X227.435 Y31.424 E1.39071
G1 X227.435 Y31.957 E.01671
G1 X195.543 Y.066 E1.41438
G1 X195.01 Y.066 E.01671
G1 X227.435 Y32.491 E1.43804
G1 X227.435 Y33.024 E.01671
M73 P0 R637
G1 X194.477 Y.066 E1.46167
G1 X193.943 Y.066 E.01675
G1 X227.435 Y33.557 E1.48533
G1 X227.435 Y34.091 E.01675
G1 X193.41 Y.066 E1.509
G1 X192.876 Y.066 E.01675
G1 X227.435 Y34.624 E1.53266
G1 X227.435 Y35.157 E.01671
G1 X192.343 Y.066 E1.55629
G1 X191.81 Y.066 E.01671
G1 X227.435 Y35.691 E1.57995
G1 X227.435 Y36.224 E.01671
G1 X191.276 Y.066 E1.60361
G1 X190.743 Y.066 E.01671
G1 X227.435 Y36.758 E1.62728
G1 X227.435 Y37.291 E.01671
G1 X190.21 Y.066 E1.65091
G1 X189.676 Y.066 E.01675
G1 X227.435 Y37.824 E1.67457
G1 X227.435 Y38.358 E.01675
G1 X189.143 Y.066 E1.69823
G1 X188.61 Y.066 E.01671
G1 X227.435 Y38.891 E1.72187
G1 X227.435 Y39.424 E.01671
G1 X188.076 Y.066 E1.74553
G1 X187.543 Y.066 E.01671
G1 X227.435 Y39.958 E1.76919
G1 X227.435 Y40.491 E.01671
G1 X187.009 Y.066 E1.79285
G1 X186.476 Y.066 E.01671
G1 X227.435 Y41.024 E1.81649
G1 X227.435 Y41.558 E.01675
G1 X185.943 Y.066 E1.84015
G1 X185.409 Y.066 E.01675
G1 X227.435 Y42.091 E1.86381
G1 X227.435 Y42.625 E.01675
G1 X184.876 Y.066 E1.88747
G1 X184.343 Y.066 E.01671
G1 X227.435 Y43.158 E1.91111
G1 X227.435 Y43.691 E.01671
G1 X183.809 Y.066 E1.93477
G1 X183.276 Y.066 E.01671
G1 X227.435 Y44.225 E1.95843
G1 X227.435 Y44.758 E.01671
M73 P0 R636
G1 X182.743 Y.066 E1.98207
G1 X182.209 Y.066 E.01675
G1 X227.435 Y45.291 E2.00573
G1 X227.435 Y45.825 E.01675
G1 X181.676 Y.066 E2.02939
G1 X181.142 Y.066 E.01675
G1 X227.435 Y46.358 E2.05305
G1 X227.435 Y46.891 E.01671
G1 X180.609 Y.066 E2.07669
G1 X180.076 Y.066 E.01671
G1 X227.435 Y47.425 E2.10035
G1 X227.435 Y47.958 E.01671
G1 X179.542 Y.066 E2.12401
G1 X179.009 Y.066 E.01671
G1 X227.435 Y48.492 E2.14767
G1 X227.435 Y49.025 E.01671
G1 X178.476 Y.066 E2.17131
G1 X177.942 Y.066 E.01675
G1 X227.435 Y49.558 E2.19497
G1 X227.435 Y50.092 E.01675
G1 X177.409 Y.066 E2.21863
G1 X176.876 Y.066 E.01671
G1 X227.435 Y50.625 E2.24227
G1 X227.435 Y51.158 E.01671
G1 X176.342 Y.066 E2.26593
G1 X175.809 Y.066 E.01671
G1 X227.435 Y51.692 E2.28959
G1 X227.435 Y52.225 E.01671
G1 X175.275 Y.066 E2.31325
G1 X174.742 Y.066 E.01671
G1 X227.435 Y52.759 E2.33691
G1 X227.435 Y53.292 E.01671
G1 X174.209 Y.066 E2.36055
G1 X173.675 Y.066 E.01675
M73 P0 R635
G1 X227.435 Y53.825 E2.38421
G1 X227.435 Y54.359 E.01675
G1 X173.142 Y.066 E2.40787
G1 X172.609 Y.066 E.01671
G1 X227.435 Y54.892 E2.43151
G1 X227.435 Y55.425 E.01671
G1 X172.075 Y.066 E2.45517
G1 X171.542 Y.066 E.01671
G1 X227.435 Y55.959 E2.47883
G1 X227.435 Y56.492 E.01671
G1 X171.008 Y.066 E2.50249
G1 X170.475 Y.066 E.01671
G1 X227.435 Y57.025 E2.52613
G1 X227.435 Y57.559 E.01675
G1 X169.942 Y.066 E2.54979
G1 X169.408 Y.066 E.01675
G1 X227.435 Y58.092 E2.57345
G1 X227.435 Y58.626 E.01675
G1 X168.875 Y.066 E2.59711
G1 X168.342 Y.066 E.01671
G1 X227.435 Y59.159 E2.62075
G1 X227.435 Y59.692 E.01671
G1 X167.808 Y.066 E2.64441
G1 X167.275 Y.066 E.01671
G1 X227.435 Y60.226 E2.66807
G1 X227.435 Y60.759 E.01671
G1 X166.742 Y.066 E2.69171
G1 X166.208 Y.066 E.01675
M73 P1 R635
G1 X227.435 Y61.292 E2.71537
G1 X227.435 Y61.826 E.01675
M73 P1 R634
G1 X165.675 Y.066 E2.73903
G1 X165.141 Y.066 E.01675
G1 X227.435 Y62.359 E2.76269
G1 X227.435 Y62.892 E.01671
G1 X164.608 Y.066 E2.78633
G1 X164.075 Y.066 E.01671
G1 X227.435 Y63.426 E2.80999
G1 X227.435 Y63.959 E.01671
G1 X163.541 Y.066 E2.83365
G1 X163.008 Y.066 E.01671
G1 X227.435 Y64.493 E2.85731
G1 X227.435 Y65.026 E.01671
G1 X162.475 Y.066 E2.88095
G1 X161.941 Y.066 E.01675
G1 X227.435 Y65.559 E2.90461
G1 X227.435 Y66.093 E.01675
G1 X161.408 Y.066 E2.92827
G1 X160.875 Y.066 E.01671
G1 X227.435 Y66.626 E2.95191
G1 X227.435 Y67.159 E.01671
G1 X160.341 Y.066 E2.97557
G1 X159.808 Y.066 E.01671
G1 X227.435 Y67.693 E2.99923
G1 X227.435 Y68.226 E.01671
G1 X159.274 Y.066 E3.02289
G1 X158.741 Y.066 E.01671
M73 P1 R633
G1 X227.435 Y68.759 E3.04653
G1 X227.435 Y69.293 E.01675
G1 X158.208 Y.066 E3.07019
G1 X157.674 Y.066 E.01675
G1 X227.435 Y69.826 E3.09385
G1 X227.435 Y70.36 E.01675
G1 X157.141 Y.066 E3.11751
G1 X156.608 Y.066 E.01671
G1 X227.435 Y70.893 E3.14115
G1 X227.435 Y71.426 E.01671
G1 X156.074 Y.066 E3.16481
G1 X155.541 Y.066 E.01671
G1 X227.435 Y71.96 E3.18847
G1 X227.435 Y72.493 E.01671
G1 X155.007 Y.066 E3.21213
G1 X154.474 Y.066 E.01671
G1 X227.435 Y73.026 E3.23577
G1 X227.435 Y73.56 E.01675
G1 X153.941 Y.066 E3.25943
G1 X153.407 Y.066 E.01675
G1 X227.435 Y74.093 E3.28309
G1 X227.435 Y74.627 E.01675
G1 X152.874 Y.066 E3.30675
G1 X152.341 Y.066 E.01671
M73 P1 R632
G1 X227.435 Y75.16 E3.33039
G1 X227.435 Y75.693 E.01671
G1 X151.807 Y.066 E3.35405
G1 X151.274 Y.066 E.01671
G1 X227.435 Y76.227 E3.37771
G1 X227.435 Y76.76 E.01671
G1 X150.741 Y.066 E3.40135
G1 X150.207 Y.066 E.01675
G1 X227.435 Y77.293 E3.42501
G1 X227.435 Y77.827 E.01675
G1 X149.674 Y.066 E3.44867
G1 X149.14 Y.066 E.01675
G1 X227.435 Y78.36 E3.47233
G1 X227.435 Y78.893 E.01671
G1 X148.607 Y.066 E3.49597
G1 X148.074 Y.066 E.01671
G1 X227.435 Y79.427 E3.51963
G1 X227.435 Y79.96 E.01671
G1 X147.54 Y.066 E3.54329
G1 X147.007 Y.066 E.01671
M73 P1 R631
G1 X227.435 Y80.494 E3.56695
G1 X227.435 Y81.027 E.01671
G1 X146.474 Y.066 E3.59059
G1 X145.94 Y.066 E.01675
G1 X227.435 Y81.56 E3.61425
G1 X227.435 Y82.094 E.01675
G1 X145.407 Y.066 E3.63791
G1 X144.874 Y.066 E.01671
G1 X227.435 Y82.627 E3.66155
G1 X227.435 Y83.16 E.01671
G1 X144.34 Y.066 E3.68521
G1 X143.807 Y.066 E.01671
G1 X227.435 Y83.694 E3.70887
G1 X227.435 Y84.227 E.01671
G1 X143.273 Y.066 E3.73253
G1 X142.74 Y.066 E.01671
G1 X227.435 Y84.76 E3.75617
G1 X227.435 Y85.294 E.01675
G1 X142.207 Y.066 E3.77983
G1 X141.673 Y.066 E.01675
G1 X227.435 Y85.827 E3.80349
G1 X227.435 Y86.361 E.01675
M73 P1 R630
G1 X141.14 Y.066 E3.82715
G1 X140.607 Y.066 E.01671
G1 X227.435 Y86.894 E3.85079
G1 X227.435 Y87.427 E.01671
G1 X140.073 Y.066 E3.87445
G1 X139.54 Y.066 E.01671
G1 X227.435 Y87.961 E3.89811
G1 X227.435 Y88.494 E.01671
G1 X139.006 Y.066 E3.92177
G1 X138.473 Y.066 E.01671
G1 X227.435 Y89.027 E3.94541
G1 X227.435 Y89.561 E.01675
G1 X137.94 Y.066 E3.96907
G1 X137.406 Y.066 E.01675
G1 X227.435 Y90.094 E3.99273
G1 X227.435 Y90.628 E.01675
G1 X136.873 Y.066 E4.01639
G1 X136.34 Y.066 E.01671
M73 P1 R629
G1 X227.435 Y91.161 E4.04003
G1 X227.435 Y91.694 E.01671
G1 X135.806 Y.066 E4.06369
G1 X135.273 Y.066 E.01671
G1 X227.435 Y92.228 E4.08735
G1 X227.435 Y92.761 E.01671
G1 X134.74 Y.066 E4.11099
G1 X134.206 Y.066 E.01675
G1 X227.435 Y93.294 E4.13465
G1 X227.435 Y93.828 E.01675
G1 X133.673 Y.066 E4.15831
G1 X133.139 Y.066 E.01675
G1 X227.435 Y94.361 E4.18197
G1 X227.435 Y94.894 E.01671
G1 X132.606 Y.066 E4.20561
G1 X132.073 Y.066 E.01671
G1 X227.435 Y95.428 E4.22927
G1 X227.435 Y95.961 E.01671
M73 P1 R628
G1 X131.539 Y.066 E4.25293
G1 X131.006 Y.066 E.01671
G1 X227.435 Y96.495 E4.27659
G1 X227.435 Y97.028 E.01671
G1 X130.473 Y.066 E4.30023
G1 X129.939 Y.066 E.01675
M73 P2 R628
G1 X227.435 Y97.561 E4.32389
G1 X227.435 Y98.095 E.01675
G1 X129.406 Y.066 E4.34755
G1 X128.873 Y.066 E.01671
G1 X227.435 Y98.628 E4.37119
G1 X227.435 Y99.161 E.01671
G1 X128.339 Y.066 E4.39485
G1 X127.806 Y.066 E.01671
G1 X227.435 Y99.695 E4.41851
G1 X227.435 Y100.228 E.01671
G1 X127.272 Y.066 E4.44217
G1 X126.739 Y.066 E.01671
M73 P2 R627
G1 X227.435 Y100.761 E4.4658
G1 X227.435 Y101.295 E.01675
G1 X126.206 Y.066 E4.48947
G1 X125.672 Y.066 E.01675
G1 X227.435 Y101.828 E4.51313
G1 X227.435 Y102.362 E.01675
G1 X125.139 Y.066 E4.53679
G1 X124.606 Y.066 E.01671
G1 X227.435 Y102.895 E4.56042
G1 X227.435 Y103.428 E.01671
G1 X124.072 Y.066 E4.58409
