; generated by PrusaSlicer 2.5.0+linux-x64-GTK3 on 2022-09-09 at 20:31:59 UTC

; 

; external perimeters extrusion width = 0.45mm
; perimeters extrusion width = 0.45mm
; infill extrusion width = 0.45mm
; solid infill extrusion width = 0.45mm
; top infill extrusion width = 0.40mm
; first layer extrusion width = 0.42mm

M73 P0 R654
M201 X9000 Y9000 Z500 E10000 ; sets maximum accelerations, mm/sec^2
M203 X500 Y500 Z12 E120 ; sets maximum feedrates, mm / sec
M204 P2000 R1500 T2000 ; sets acceleration (P, T) and retract acceleration (R), mm/sec^2
M205 X10.00 Y10.00 Z0.20 E4.50 ; sets the jerk limits, mm/sec
M205 S0 T0 ; sets the minimum extruding and travel feed rate, mm/sec
M107
;TYPE:Custom
M862.3 P "MK2.5" ; printer model check
M862.1 P0.4 ; nozzle diameter check
M115 U3.11.0 ; tell printer latest fw version
G90 ; use absolute coordinates
M83 ; extruder relative mode
M104 S215 ; set extruder temp
M140 S60 ; set bed temp
M190 S60 ; wait for bed temp
M109 S215 ; wait for extruder temp
G28 W ; home all without mesh bed level
G80 ; mesh bed leveling

G1 Z0.2 F720
G1 Y-3 F1000 ; go outside print area
G92 E0
G1 X60 E9 F1000 ; intro line
G1 X100 E12.5 F1000 ; intro line

G92 E0
G21 ; set units to millimeters
G90 ; use absolute coordinates
M83 ; use relative distances for extrusion
M900 K0.05 ; Filament gcode LA 1.5
M900 K30 ; Filament gcode LA 1.0
M107
;LAYER_CHANGE
;Z:0.2
;HEIGHT:0.2
;BEFORE_LAYER_CHANGE
G92 E0.0
;0.2


G1 E-.8 F2100
G1 Z.4 F720
;AFTER_LAYER_CHANGE
;0.2
;CURRENT_Z: 0.2
G1 X18.337 Y0 F10800
G1 Z.2 F720
G1 E.8 F2100
M204 S800
;TYPE:Skirt/Brim
;WIDTH:0.42
G1 F1200
G1 X18.337 Y-.5 E.01568
G1 X18.518 Y-1.41 E.02908
G1 X18.85 Y-2.212 E.02722
G1 X19.366 Y-2.983 E.02908
G1 X20.288 Y-3.65 E.03569
G1 X21.09 Y-3.982 E.02722
G1 X22 Y-4.163 E.02908
G1 X228 Y-4.163 E6.45899
G1 X228.91 Y-3.982 E.02908
G1 X229.712 Y-3.65 E.02722
G1 X230.634 Y-2.983 E.03569
G1 X231.15 Y-2.212 E.02908
G1 X231.482 Y-1.41 E.02722
G1 X231.663 Y-.5 E.02908
G1 X231.663 Y210.5 E6.61576
G1 X231.482 Y211.41 E.02908
M73 P0 R653
G1 X231.15 Y212.212 E.02722
G1 X230.634 Y212.983 E.02908
G1 X229.712 Y213.65 E.03569
G1 X228.91 Y213.982 E.02722
G1 X228 Y214.163 E.02908
G1 X22 Y214.163 E6.45899
G1 X21.09 Y213.982 E.02908
G1 X20.288 Y213.65 E.02722
G1 X19.517 Y213.134 E.02908
G1 X18.85 Y212.212 E.03569
G1 X18.518 Y211.41 E.02722
G1 X18.337 Y210.5 E.02908
G1 X18.337 Y.06 E6.5982
M204 S1000
; printing object gaveta2.stl id:0 copy 0
;WIPE_START
G1 F8640
G1 X18.337 Y-.5 E-.12931
G1 X18.518 Y-1.41 E-.21416
G1 X18.85 Y-2.212 E-.20047
G1 X19.366 Y-2.983 E-.21416
G1 X19.372 Y-2.988 E-.0019
;WIPE_END
G1 E-.04 F2100
G1 Z.6 F720
G1 X22.086 Y198.623 F10800
G1 Z.2 F720
G1 E.8 F2100
M204 S800
;TYPE:Perimeter
;WIDTH:0.419999
G1 F1200
G1 X22.14 Y198.599 E.00185
G1 X22.224 Y198.475 E.00471
G1 X22.284 Y198.221 E.00817
G1 X22.284 Y11.779 E5.84578
G1 X22.261 Y11.616 E.00514
G1 X22.14 Y11.401 E.00775
G1 X21.787 Y11.243 E.01211
G1 X21.787 Y5.562 E.17815
G1 X228.213 Y5.562 E6.47233
G1 X228.213 Y11.243 E.17815
G1 X227.86 Y11.401 E.01211
G1 X227.776 Y11.525 E.00471
G1 X227.716 Y11.779 E.00817
G1 X227.716 Y198.221 E5.84578
G1 X227.739 Y198.384 E.00514
M73 P0 R652
G1 X227.86 Y198.599 E.00775
G1 X228.213 Y198.757 E.01211
G1 X228.213 Y204.438 E.17815
G1 X21.787 Y204.438 E6.47233
G1 X21.787 Y198.757 E.17815
G1 X22.031 Y198.648 E.00837
M204 S1000
G1 X21.859 Y198.347 F10800
M204 S800
;TYPE:External perimeter
G1 F1200
G1 X21.907 Y198.221 E.00423
G1 X21.907 Y11.779 E5.84578
G1 X21.887 Y11.694 E.00272
G1 X21.719 Y11.59 E.00621
G1 X21.41 Y11.59 E.00968
G1 X21.41 Y5.185 E.20084
G1 X228.59 Y5.185 E6.49597
G1 X228.59 Y11.59 E.20084
G1 X228.281 Y11.59 E.00968
G1 X228.141 Y11.653 E.00482
G1 X228.093 Y11.779 E.00423
G1 X228.093 Y198.221 E5.84578
G1 X228.113 Y198.306 E.00272
G1 X228.281 Y198.41 E.00621
G1 X228.59 Y198.41 E.00968
G1 X228.59 Y204.815 E.20084
G1 X21.41 Y204.815 E6.49597
G1 X21.41 Y198.41 E.20084
G1 X21.719 Y198.41 E.00968
G1 X21.804 Y198.372 E.00294
M204 S1000
G1 X21.991 Y198.374 F10800
;WIPE_START
G1 F8640
G1 X21.907 Y198.221 E-.04209
G1 X21.907 Y195.112 E-.71791
;WIPE_END
G1 E-.04 F2100
G1 Z.6 F720
G1 X227.337 Y5.675 F10800
G1 Z.2 F720
G1 E.8 F2100
M204 S800
;TYPE:Solid infill
;WIDTH:0.42016
G1 F1200
G1 X227.93 Y6.268 E.0263
G1 X227.93 Y6.801 E.01673
G1 X226.973 Y5.844 E.04244
G1 X226.44 Y5.844 E.01673
G1 X227.93 Y7.335 E.06611
G1 X227.93 Y7.868 E.01673
G1 X225.906 Y5.844 E.08977
G1 X225.373 Y5.844 E.01673
G1 X227.93 Y8.402 E.11344
G1 X227.93 Y8.935 E.01673
G1 X224.839 Y5.844 E.13711
G1 X224.306 Y5.844 E.01673
G1 X227.93 Y9.469 E.16077
G1 X227.93 Y10.002 E.01673
G1 X223.772 Y5.844 E.18444
G1 X223.239 Y5.844 E.01673
G1 X227.93 Y10.536 E.20811
G1 X227.93 Y11.069 E.01673
G1 X222.705 Y5.844 E.23177
G1 X222.172 Y5.844 E.01673
G1 X227.604 Y11.277 E.24099
G1 X227.523 Y11.396 E.00451
G1 X227.467 Y11.538 E.00479
G1 X227.45 Y11.656 E.00374
G1 X221.638 Y5.844 E.2578
G1 X221.105 Y5.844 E.01673
G1 X227.433 Y12.172 E.28071
G1 X227.433 Y12.706 E.01673
G1 X220.571 Y5.844 E.30438
G1 X220.038 Y5.844 E.01673
M73 P0 R651
G1 X227.433 Y13.239 E.32804
G1 X227.433 Y13.773 E.01673
G1 X219.504 Y5.844 E.35171
G1 X218.971 Y5.844 E.01673
G1 X227.433 Y14.306 E.37538
G1 X227.433 Y14.84 E.01673
G1 X218.437 Y5.844 E.39904
G1 X217.904 Y5.844 E.01673
G1 X227.433 Y15.373 E.42271
G1 X227.433 Y15.907 E.01673
G1 X217.37 Y5.844 E.44638
G1 X216.837 Y5.844 E.01673
G1 X227.433 Y16.44 E.47004
G1 X227.433 Y16.974 E.01673
G1 X216.303 Y5.844 E.49371
G1 X215.77 Y5.844 E.01673
G1 X227.433 Y17.507 E.51737
G1 X227.433 Y18.041 E.01673
G1 X215.236 Y5.844 E.54104
G1 X214.703 Y5.844 E.01673
G1 X227.433 Y18.574 E.56471
G1 X227.433 Y19.108 E.01673
G1 X214.169 Y5.844 E.58837
G1 X213.636 Y5.844 E.01673
G1 X227.433 Y19.641 E.61204
G1 X227.433 Y20.175 E.01673
G1 X213.102 Y5.844 E.63571
G1 X212.569 Y5.844 E.01673
G1 X227.433 Y20.708 E.65937
G1 X227.433 Y21.242 E.01673
G1 X212.035 Y5.844 E.68304
G1 X211.502 Y5.844 E.01673
G1 X227.433 Y21.775 E.7067
G1 X227.433 Y22.309 E.01673
G1 X210.968 Y5.844 E.73037
G1 X210.435 Y5.844 E.01673
G1 X227.433 Y22.842 E.75404
G1 X227.433 Y23.376 E.01673
G1 X209.901 Y5.844 E.7777
G1 X209.368 Y5.844 E.01673
G1 X227.433 Y23.909 E.80137
G1 X227.433 Y24.443 E.01673
G1 X208.834 Y5.844 E.82504
G1 X208.301 Y5.844 E.01673
G1 X227.433 Y24.976 E.8487
G1 X227.433 Y25.51 E.01673
G1 X207.767 Y5.844 E.87237
G1 X207.234 Y5.844 E.01673
G1 X227.433 Y26.043 E.89603
G1 X227.433 Y26.577 E.01673
G1 X206.7 Y5.844 E.9197
G1 X206.167 Y5.844 E.01673
G1 X227.433 Y27.11 E.94337
G1 X227.433 Y27.644 E.01673
G1 X205.633 Y5.844 E.96703
G1 X205.1 Y5.844 E.01673
G1 X227.433 Y28.177 E.9907
G1 X227.433 Y28.711 E.01673
G1 X204.566 Y5.844 E1.01437
G1 X204.033 Y5.844 E.01673
G1 X227.433 Y29.244 E1.03803
G1 X227.433 Y29.778 E.01673
G1 X203.499 Y5.844 E1.0617
G1 X202.966 Y5.844 E.01673
G1 X227.433 Y30.311 E1.08536
G1 X227.433 Y30.845 E.01673
G1 X202.432 Y5.844 E1.10903
G1 X201.899 Y5.844 E.01673
G1 X227.433 Y31.378 E1.1327
G1 X227.433 Y31.912 E.01673
G1 X201.365 Y5.844 E1.15636
G1 X200.832 Y5.844 E.01673
G1 X227.433 Y32.445 E1.18003
G1 X227.433 Y32.979 E.01673
G1 X200.298 Y5.844 E1.2037
G1 X199.765 Y5.844 E.01673
G1 X227.433 Y33.512 E1.22736
G1 X227.433 Y34.046 E.01673
G1 X199.231 Y5.844 E1.25103
G1 X198.698 Y5.844 E.01673
G1 X227.433 Y34.579 E1.27469
G1 X227.433 Y35.113 E.01673
G1 X198.164 Y5.844 E1.29836
G1 X197.631 Y5.844 E.01673
G1 X227.433 Y35.646 E1.32203
G1 X227.433 Y36.18 E.01673
G1 X197.098 Y5.844 E1.34569
G1 X196.564 Y5.844 E.01673
M73 P0 R650
G1 X227.433 Y36.713 E1.36936
G1 X227.433 Y37.247 E.01673
G1 X196.031 Y5.844 E1.39303
G1 X195.497 Y5.844 E.01673
G1 X227.433 Y37.78 E1.41669
G1 X227.433 Y38.314 E.01673
G1 X194.964 Y5.844 E1.44036
G1 X194.43 Y5.844 E.01673
G1 X227.433 Y38.847 E1.46402
G1 X227.433 Y39.381 E.01673
G1 X193.897 Y5.844 E1.48769
G1 X193.363 Y5.844 E.01673
G1 X227.433 Y39.914 E1.51136
G1 X227.433 Y40.448 E.01673
G1 X192.83 Y5.844 E1.53502
G1 X192.296 Y5.844 E.01673
G1 X227.433 Y40.981 E1.55869
G1 X227.433 Y41.515 E.01673
G1 X191.763 Y5.844 E1.58236
G1 X191.229 Y5.844 E.01673
G1 X227.433 Y42.048 E1.60602
G1 X227.433 Y42.582 E.01673
G1 X190.696 Y5.844 E1.62969
G1 X190.162 Y5.844 E.01673
G1 X227.433 Y43.115 E1.65335
G1 X227.433 Y43.649 E.01673
G1 X189.629 Y5.844 E1.67702
G1 X189.095 Y5.844 E.01673
G1 X227.433 Y44.182 E1.70069
G1 X227.433 Y44.716 E.01673
G1 X188.562 Y5.844 E1.72435
G1 X188.028 Y5.844 E.01673
G1 X227.433 Y45.249 E1.74802
G1 X227.433 Y45.783 E.01673
G1 X187.495 Y5.844 E1.77169
G1 X186.961 Y5.844 E.01673
G1 X227.433 Y46.316 E1.79535
G1 X227.433 Y46.85 E.01673
G1 X186.428 Y5.844 E1.81902
G1 X185.894 Y5.844 E.01673
G1 X227.433 Y47.383 E1.84268
G1 X227.433 Y47.917 E.01673
G1 X185.361 Y5.844 E1.86635
G1 X184.827 Y5.844 E.01673
G1 X227.433 Y48.45 E1.89002
G1 X227.433 Y48.984 E.01673
M73 P0 R649
G1 X184.294 Y5.844 E1.91368
G1 X183.76 Y5.844 E.01673
G1 X227.433 Y49.517 E1.93735
G1 X227.433 Y50.051 E.01673
G1 X183.227 Y5.844 E1.96102
G1 X182.693 Y5.844 E.01673
G1 X227.433 Y50.584 E1.98468
G1 X227.433 Y51.118 E.01673
G1 X182.16 Y5.844 E2.00835
G1 X181.626 Y5.844 E.01673
G1 X227.433 Y51.651 E2.03201
G1 X227.433 Y52.185 E.01673
G1 X181.093 Y5.844 E2.05568
G1 X180.559 Y5.844 E.01673
G1 X227.433 Y52.718 E2.07935
G1 X227.433 Y53.252 E.01673
G1 X180.026 Y5.844 E2.10301
G1 X179.492 Y5.844 E.01673
G1 X227.433 Y53.785 E2.12668
G1 X227.433 Y54.319 E.01673
G1 X178.959 Y5.844 E2.15035
G1 X178.425 Y5.844 E.01673
G1 X227.433 Y54.852 E2.17401
G1 X227.433 Y55.386 E.01673
G1 X177.892 Y5.844 E2.19768
G1 X177.358 Y5.844 E.01673
G1 X227.433 Y55.919 E2.22134
G1 X227.433 Y56.453 E.01673
G1 X176.825 Y5.844 E2.24501
G1 X176.291 Y5.844 E.01673
G1 X227.433 Y56.986 E2.26868
G1 X227.433 Y57.52 E.01673
G1 X175.758 Y5.844 E2.29234
G1 X175.224 Y5.844 E.01673
G1 X227.433 Y58.053 E2.31601
G1 X227.433 Y58.587 E.01673
M73 P0 R648
G1 X174.691 Y5.844 E2.33968
G1 X174.157 Y5.844 E.01673
G1 X227.433 Y59.12 E2.36334
G1 X227.433 Y59.654 E.01673
G1 X173.624 Y5.844 E2.38701
G1 X173.09 Y5.844 E.01673
G1 X227.433 Y60.187 E2.41067
G1 X227.433 Y60.721 E.01673
G1 X172.557 Y5.844 E2.43434
G1 X172.023 Y5.844 E.01673
G1 X227.433 Y61.254 E2.45801
G1 X227.433 Y61.788 E.01673
G1 X171.49 Y5.844 E2.48167
G1 X170.956 Y5.844 E.01673
G1 X227.433 Y62.321 E2.50534
G1 X227.433 Y62.855 E.01673
G1 X170.423 Y5.844 E2.52901
G1 X169.889 Y5.844 E.01673
G1 X227.433 Y63.388 E2.55267
G1 X227.433 Y63.922 E.01673
G1 X169.356 Y5.844 E2.57634
G1 X168.822 Y5.844 E.01673
G1 X227.433 Y64.455 E2.6
G1 X227.433 Y64.989 E.01673
G1 X168.289 Y5.844 E2.62367
G1 X167.755 Y5.844 E.01673
G1 X227.433 Y65.522 E2.64734
G1 X227.433 Y66.056 E.01673
G1 X167.222 Y5.844 E2.671
G1 X166.688 Y5.844 E.01673
M73 P0 R647
G1 X227.433 Y66.589 E2.69467
G1 X227.433 Y67.123 E.01673
G1 X166.155 Y5.844 E2.71834
G1 X165.621 Y5.844 E.01673
G1 X227.433 Y67.656 E2.742
G1 X227.433 Y68.19 E.01673
M73 P1 R647
G1 X165.088 Y5.844 E2.76567
G1 X164.554 Y5.844 E.01673
G1 X227.433 Y68.723 E2.78933
G1 X227.433 Y69.257 E.01673
G1 X164.021 Y5.844 E2.813
G1 X163.487 Y5.844 E.01673
G1 X227.433 Y69.79 E2.83667
G1 X227.433 Y70.324 E.01673
G1 X162.954 Y5.844 E2.86033
G1 X162.42 Y5.844 E.01673
G1 X227.433 Y70.857 E2.884
G1 X227.433 Y71.391 E.01673
G1 X161.887 Y5.844 E2.90767
G1 X161.353 Y5.844 E.01673
G1 X227.433 Y71.924 E2.93133
G1 X227.433 Y72.458 E.01673
G1 X160.82 Y5.844 E2.955
G1 X160.286 Y5.844 E.01673
G1 X227.433 Y72.991 E2.97866
G1 X227.433 Y73.525 E.01673
M73 P1 R646
G1 X159.753 Y5.844 E3.00233
G1 X159.219 Y5.844 E.01673
G1 X227.433 Y74.058 E3.026
G1 X227.433 Y74.592 E.01673
G1 X158.686 Y5.844 E3.04966
G1 X158.152 Y5.844 E.01673
G1 X227.433 Y75.125 E3.07333
G1 X227.433 Y75.659 E.01673
G1 X157.619 Y5.844 E3.097
G1 X157.085 Y5.844 E.01673
G1 X227.433 Y76.192 E3.12066
G1 X227.433 Y76.726 E.01673
G1 X156.552 Y5.844 E3.14433
G1 X156.018 Y5.844 E.01673
G1 X227.433 Y77.259 E3.16799
G1 X227.433 Y77.793 E.01673
G1 X155.485 Y5.844 E3.19166
G1 X154.951 Y5.844 E.01673
G1 X227.433 Y78.326 E3.21533
G1 X227.433 Y78.86 E.01673
G1 X154.418 Y5.844 E3.23899
G1 X153.884 Y5.844 E.01673
G1 X227.433 Y79.393 E3.26266
G1 X227.433 Y79.927 E.01673
M73 P1 R645
G1 X153.351 Y5.844 E3.28633
G1 X152.817 Y5.844 E.01673
G1 X227.433 Y80.46 E3.30999
G1 X227.433 Y80.994 E.01673
G1 X152.284 Y5.844 E3.33366
G1 X151.75 Y5.844 E.01673
G1 X227.433 Y81.527 E3.35732
G1 X227.433 Y82.061 E.01673
G1 X151.217 Y5.844 E3.38099
G1 X150.683 Y5.844 E.01673
G1 X227.433 Y82.594 E3.40466
G1 X227.433 Y83.128 E.01673
G1 X150.15 Y5.844 E3.42832
G1 X149.616 Y5.844 E.01673
G1 X227.433 Y83.661 E3.45199
G1 X227.433 Y84.195 E.01673
G1 X149.083 Y5.844 E3.47566
G1 X148.549 Y5.844 E.01673
G1 X227.433 Y84.728 E3.49932
G1 X227.433 Y85.262 E.01673
G1 X148.016 Y5.844 E3.52299
G1 X147.482 Y5.844 E.01673
M73 P1 R644
G1 X227.433 Y85.795 E3.54665
G1 X227.433 Y86.329 E.01673
G1 X146.949 Y5.844 E3.57032
G1 X146.415 Y5.844 E.01673
G1 X227.433 Y86.862 E3.59399
G1 X227.433 Y87.396 E.01673
G1 X145.882 Y5.844 E3.61765
G1 X145.348 Y5.844 E.01673
G1 X227.433 Y87.929 E3.64132
G1 X227.433 Y88.463 E.01673
G1 X144.815 Y5.844 E3.66499
G1 X144.281 Y5.844 E.01673
G1 X227.433 Y88.996 E3.68865
G1 X227.433 Y89.53 E.01673
G1 X143.748 Y5.844 E3.71232
G1 X143.214 Y5.844 E.01673
G1 X227.433 Y90.063 E3.73598
G1 X227.433 Y90.597 E.01673
G1 X142.681 Y5.844 E3.75965
G1 X142.147 Y5.844 E.01673
M73 P1 R643
G1 X227.433 Y91.13 E3.78332
G1 X227.433 Y91.664 E.01673
G1 X141.614 Y5.844 E3.80698
G1 X141.08 Y5.844 E.01673
G1 X227.433 Y92.197 E3.83065
G1 X227.433 Y92.731 E.01673
G1 X140.547 Y5.844 E3.85432
G1 X140.013 Y5.844 E.01673
G1 X227.433 Y93.264 E3.87798
G1 X227.433 Y93.798 E.01673
G1 X139.48 Y5.844 E3.90165
G1 X138.946 Y5.844 E.01673
G1 X227.433 Y94.331 E3.92531
G1 X227.433 Y94.865 E.01673
G1 X138.413 Y5.844 E3.94898
G1 X137.879 Y5.844 E.01673
G1 X227.433 Y95.398 E3.97265
G1 X227.433 Y95.932 E.01673
G1 X137.346 Y5.844 E3.99631
G1 X136.812 Y5.844 E.01673
M73 P1 R642
G1 X227.433 Y96.465 E4.01998
G1 X227.433 Y96.999 E.01673
G1 X136.279 Y5.844 E4.04365
G1 X135.745 Y5.844 E.01673
G1 X227.433 Y97.532 E4.06731
G1 X227.433 Y98.066 E.01673
G1 X135.212 Y5.844 E4.09098
G1 X134.678 Y5.844 E.01673
G1 X227.433 Y98.599 E4.11464
G1 X227.433 Y99.133 E.01673
G1 X134.145 Y5.844 E4.13831
G1 X133.611 Y5.844 E.01673
G1 X227.433 Y99.666 E4.16198
G1 X227.433 Y100.2 E.01673
G1 X133.078 Y5.844 E4.18564
G1 X132.544 Y5.844 E.01673
G1 X227.433 Y100.733 E4.20931
G1 X227.433 Y101.267 E.01673
M73 P1 R641
G1 X132.011 Y5.844 E4.23298
G1 X131.477 Y5.844 E.01673
G1 X227.433 Y101.8 E4.25664
G1 X227.433 Y102.334 E.01673
G1 X130.944 Y5.844 E4.28031
G1 X130.41 Y5.844 E.01673
G1 X227.433 Y102.867 E4.30397
G1 X227.433 Y103.401 E.01673
G1 X129.877 Y5.844 E4.32764
G1 X129.343 Y5.844 E.01673
G1 X227.433 Y103.934 E4.35131
G1 X227.433 Y104.468 E.01673
G1 X128.81 Y5.844 E4.37497
G1 X128.276 Y5.844 E.01673
M73 P2 R641
G1 X227.433 Y105.001 E4.39864
G1 X227.433 Y105.535 E.01673
G1 X127.743 Y5.844 E4.42231
G1 X127.209 Y5.844 E.01673
M73 P2 R640
G1 X227.433 Y106.068 E4.44597
G1 X227.433 Y106.602 E.01673
G1 X126.676 Y5.844 E4.46964
G1 X126.142 Y5.844 E.01673
G1 X227.433 Y107.135 E4.4933
G1 X227.433 Y107.669 E.01673
G1 X125.609 Y5.844 E4.51697
G1 X125.075 Y5.844 E.01673
G1 X227.433 Y108.202 E4.54064
G1 X227.433 Y108.736 E.01673
G1 X124.542 Y5.844 E4.5643
G1 X124.008 Y5.844 E.01673
G1 X227.433 Y109.269 E4.58797
G1 X227.433 Y109.803 E.01673
G1 X123.475 Y5.844 E4.61164
G1 X122.941 Y5.844 E.01673
M73 P2 R639
G1 X227.433 Y110.336 E4.6353
G1 X227.433 Y110.87 E.01673
G1 X122.408 Y5.844 E4.65897
G1 X121.874 Y5.844 E.01673
G1 X227.433 Y111.403 E4.68263
G1 X227.433 Y111.937 E.01673
G1 X121.341 Y5.844 E4.7063
G1 X120.807 Y5.844 E.01673
G1 X227.433 Y112.47 E4.72997
G1 X227.433 Y113.004 E.01673
G1 X120.274 Y5.844 E4.75363
G1 X119.74 Y5.844 E.01673
G1 X227.433 Y113.537 E4.7773
G1 X227.433 Y114.071 E.01673
G1 X119.207 Y5.844 E4.80097
G1 X118.673 Y5.844 E.01673
M73 P2 R638
G1 X227.433 Y114.604 E4.82463
G1 X227.433 Y115.138 E.01673
G1 X118.14 Y5.844 E4.8483
G1 X117.606 Y5.844 E.01673
G1 X227.433 Y115.671 E4.87196
G1 X227.433 Y116.205 E.01673
G1 X117.073 Y5.844 E4.89563
G1 X116.539 Y5.844 E.01673
