; generated by PrusaSlicer 2.8.0 on 2024-09-21 at 14:29:08 UTC

; 

; external perimeters extrusion width = 0.45mm
; perimeters extrusion width = 0.45mm
; infill extrusion width = 0.45mm
; solid infill extrusion width = 0.45mm
; top infill extrusion width = 0.40mm
; first layer extrusion width = 0.42mm

M73 P0 R423
M201 X9000 Y9000 Z500 E10000 ; sets maximum accelerations, mm/sec^2
M203 X500 Y500 Z12 E120 ; sets maximum feedrates, mm / sec
M204 S2000 T1500 ; sets acceleration (S) and retract acceleration (R), mm/sec^2
M205 X10.00 Y10.00 Z0.20 E4.50 ; sets the jerk limits, mm/sec
M205 S0 T0 ; sets the minimum extruding and travel feed rate, mm/sec

; printing object gaveta.stl id:0 copy 0
; stop printing object gaveta.stl id:0 copy 0

;TYPE:Custom
M862.3 P "MK2.5" ; printer model check
M862.1 P0.4 ; nozzle diameter check
M115 U3.11.0 ; tell printer latest fw version
G90 ; use absolute coordinates
M83 ; extruder relative mode
M104 S215 ; set extruder temp
M140 S60 ; set bed temp
M190 S60 ; wait for bed temp
M109 S215 ; wait for extruder temp
G28 W ; home all without mesh bed level
G80 ; mesh bed leveling

G1 Z0.2 F720
G1 Y-3 F1000 ; go outside print area
G92 E0
G1 X60 E9 F1000 ; intro line
G1 X100 E12.5 F1000 ; intro line

G92 E0
G21 ; set units to millimeters
G90 ; use absolute coordinates
M83 ; use relative distances for extrusion
M900 K0.05 ; Filament gcode LA 1.5
M900 K30 ; Filament gcode LA 1.0
M107
;LAYER_CHANGE
;Z:0.2
;HEIGHT:0.2
G1 E-.8 F2100
G1 Z.6 F720
G1 X62.812 Y10 F10800
G1 Z.2 F720
G1 E.8 F2100
M204 S800
;TYPE:Skirt/Brim
;WIDTH:0.42
G1 F1200
G1 X63.203 Y8.751 E.04104
G1 X64.236 Y7.949 E.041
G1 X65 Y7.811 E.02434
G1 X185 Y7.811 E3.76252
G1 X186.248 Y8.202 E.04101
G1 X187.05 Y9.235 E.041
G1 X187.188 Y10 E.02437
G1 X187.188 Y200 E5.95732
G1 X186.797 Y201.249 E.04104
G1 X185.764 Y202.051 E.041
G1 X185 Y202.189 E.02434
G1 X65 Y202.189 E3.76252
G1 X63.752 Y201.798 E.04101
G1 X62.95 Y200.765 E.041
G1 X62.812 Y200 E.02437
G1 X62.812 Y10.06 E5.95544
M204 S1000
;WIPE_START
G1 F8640
G1 X62.812 Y10 E-.01385
G1 X63.203 Y8.751 E-.3022
G1 X64.236 Y7.949 E-.30197
G1 X65 Y7.811 E-.17926
G1 X65.012 Y7.811 E-.00272
;WIPE_END
G1 Z.6 F720
; printing object gaveta.stl id:0 copy 0
G1 X65.787 Y199.213 F10800
G1 Z.2 F720
G1 E.8 F2100
M204 S800
;TYPE:Perimeter
;WIDTH:0.419999
G1 F1200
G1 X65.787 Y10.787 E5.90795
G1 X184.213 Y10.787 E3.71316
M73 P0 R422
G1 X184.213 Y69.999 E1.85655
G1 X184.213 Y199.213 E4.05141
G1 X65.847 Y199.213 E3.71128
M204 S1000
G1 X65.847 Y199.213 F10800
G1 X65.41 Y199.59
M204 S800
;TYPE:External perimeter
G1 F1200
G1 X65.41 Y10.41 E5.9316
G1 X184.59 Y10.41 E3.7368
G1 X184.59 Y69.999 E1.86837
G1 X184.59 Y199.59 E4.06323
G1 X65.47 Y199.59 E3.73492
M204 S1000
;WIPE_START
G1 F8640
G1 X65.41 Y199.59 E-.01385
G1 X65.41 Y196.185 E-.78615
;WIPE_END
G1 Z.6 F720
G1 X184.099 Y11.663 F10800
G1 Z.2 F720
G1 E.8 F2100
M204 S800
;TYPE:Solid infill
;WIDTH:0.420464
G1 F1200
G1 X183.506 Y11.069 E.02635
G1 X182.972 Y11.069 E.01676
G1 X183.93 Y12.027 E.04253
G1 X183.93 Y12.561 E.01676
G1 X182.438 Y11.069 E.06624
G1 X181.904 Y11.069 E.01676
G1 X183.93 Y13.095 E.08995
G1 X183.93 Y13.629 E.01676
G1 X181.37 Y11.069 E.11365
G1 X180.836 Y11.069 E.01676
G1 X183.93 Y14.163 E.13736
G1 X183.93 Y14.697 E.01676
G1 X180.302 Y11.069 E.16107
G1 X179.768 Y11.069 E.01676
G1 X183.93 Y15.231 E.18478
G1 X183.93 Y15.765 E.01676
G1 X179.234 Y11.069 E.20848
G1 X178.701 Y11.069 E.01673
M73 P0 R421
G1 X183.93 Y16.299 E.23217
G1 X183.93 Y16.833 E.01676
G1 X178.167 Y11.069 E.25588
G1 X177.633 Y11.069 E.01676
G1 X183.93 Y17.367 E.27959
G1 X183.93 Y17.9 E.01673
G1 X177.099 Y11.069 E.30327
G1 X176.565 Y11.069 E.01676
G1 X183.93 Y18.434 E.32698
G1 X183.93 Y18.968 E.01676
G1 X176.031 Y11.069 E.35069
G1 X175.497 Y11.069 E.01676
G1 X183.93 Y19.502 E.37439
G1 X183.93 Y20.036 E.01676
G1 X174.963 Y11.069 E.3981
G1 X174.429 Y11.069 E.01676
G1 X183.93 Y20.57 E.42181
G1 X183.93 Y21.104 E.01676
G1 X173.895 Y11.069 E.44552
G1 X173.361 Y11.069 E.01676
G1 X183.93 Y21.638 E.46922
G1 X183.93 Y22.172 E.01676
G1 X172.827 Y11.069 E.49293
G1 X172.293 Y11.069 E.01676
G1 X183.93 Y22.706 E.51664
G1 X183.93 Y23.24 E.01676
G1 X171.759 Y11.069 E.54035
G1 X171.226 Y11.069 E.01673
G1 X183.93 Y23.774 E.56403
G1 X183.93 Y24.308 E.01676
G1 X170.692 Y11.069 E.58774
G1 X170.158 Y11.069 E.01676
G1 X183.93 Y24.842 E.61145
G1 X183.93 Y25.375 E.01673
G1 X169.624 Y11.069 E.63513
G1 X169.09 Y11.069 E.01676
G1 X183.93 Y25.909 E.65884
G1 X183.93 Y26.443 E.01676
G1 X168.556 Y11.069 E.68255
G1 X168.022 Y11.069 E.01676
G1 X183.93 Y26.977 E.70626
G1 X183.93 Y27.511 E.01676
G1 X167.488 Y11.069 E.72996
G1 X166.954 Y11.069 E.01676
G1 X183.93 Y28.045 E.75367
G1 X183.93 Y28.579 E.01676
G1 X166.42 Y11.069 E.77738
G1 X165.886 Y11.069 E.01676
G1 X183.93 Y29.113 E.80109
G1 X183.93 Y29.647 E.01676
G1 X165.352 Y11.069 E.82479
G1 X164.818 Y11.069 E.01676
G1 X183.93 Y30.181 E.8485
G1 X183.93 Y30.715 E.01676
G1 X164.284 Y11.069 E.87221
G1 X163.751 Y11.069 E.01673
G1 X183.93 Y31.249 E.89589
G1 X183.93 Y31.783 E.01676
G1 X163.217 Y11.069 E.9196
G1 X162.683 Y11.069 E.01676
G1 X183.93 Y32.317 E.94331
G1 X183.93 Y32.85 E.01673
G1 X162.149 Y11.069 E.967
G1 X161.615 Y11.069 E.01676
G1 X183.93 Y33.384 E.9907
G1 X183.93 Y33.918 E.01676
G1 X161.081 Y11.069 E1.01441
G1 X160.547 Y11.069 E.01676
G1 X183.93 Y34.452 E1.03812
G1 X183.93 Y34.986 E.01676
G1 X160.013 Y11.069 E1.06183
G1 X159.479 Y11.069 E.01676
G1 X183.93 Y35.52 E1.08553
G1 X183.93 Y36.054 E.01676
G1 X158.945 Y11.069 E1.10924
G1 X158.411 Y11.069 E.01676
G1 X183.93 Y36.588 E1.13295
G1 X183.93 Y37.122 E.01676
G1 X157.877 Y11.069 E1.15666
G1 X157.343 Y11.069 E.01676
G1 X183.93 Y37.656 E1.18036
G1 X183.93 Y38.19 E.01676
G1 X156.809 Y11.069 E1.20407
G1 X156.276 Y11.069 E.01673
G1 X183.93 Y38.724 E1.22776
G1 X183.93 Y39.258 E.01676
G1 X155.742 Y11.069 E1.25146
G1 X155.208 Y11.069 E.01676
G1 X183.93 Y39.792 E1.27517
G1 X183.93 Y40.325 E.01673
G1 X154.674 Y11.069 E1.29886
G1 X154.14 Y11.069 E.01676
G1 X183.93 Y40.859 E1.32257
G1 X183.93 Y41.393 E.01676
M73 P0 R420
G1 X153.606 Y11.069 E1.34627
G1 X153.072 Y11.069 E.01676
G1 X183.93 Y41.927 E1.36998
G1 X183.93 Y42.461 E.01676
G1 X152.538 Y11.069 E1.39369
G1 X152.004 Y11.069 E.01676
G1 X183.93 Y42.995 E1.4174
G1 X183.93 Y43.529 E.01676
G1 X151.47 Y11.069 E1.4411
G1 X150.936 Y11.069 E.01676
G1 X183.93 Y44.063 E1.46481
G1 X183.93 Y44.597 E.01676
G1 X150.402 Y11.069 E1.48852
G1 X149.868 Y11.069 E.01676
G1 X183.93 Y45.131 E1.51223
G1 X183.93 Y45.665 E.01676
G1 X149.334 Y11.069 E1.53593
G1 X148.801 Y11.069 E.01673
G1 X183.93 Y46.199 E1.55962
G1 X183.93 Y46.733 E.01676
G1 X148.267 Y11.069 E1.58333
G1 X147.733 Y11.069 E.01676
G1 X183.93 Y47.267 E1.60703
G1 X183.93 Y47.8 E.01673
G1 X147.199 Y11.069 E1.63072
G1 X146.665 Y11.069 E.01676
G1 X183.93 Y48.334 E1.65443
G1 X183.93 Y48.868 E.01676
G1 X146.131 Y11.069 E1.67814
G1 X145.597 Y11.069 E.01676
G1 X183.93 Y49.402 E1.70184
G1 X183.93 Y49.936 E.01676
G1 X145.063 Y11.069 E1.72555
G1 X144.529 Y11.069 E.01676
G1 X183.93 Y50.47 E1.74926
G1 X183.93 Y51.004 E.01676
G1 X143.995 Y11.069 E1.77297
G1 X143.461 Y11.069 E.01676
G1 X183.93 Y51.538 E1.79667
G1 X183.93 Y52.072 E.01676
G1 X142.927 Y11.069 E1.82038
G1 X142.393 Y11.069 E.01676
G1 X183.93 Y52.606 E1.84409
G1 X183.93 Y53.14 E.01676
G1 X141.859 Y11.069 E1.8678
G1 X141.326 Y11.069 E.01673
G1 X183.93 Y53.674 E1.89148
G1 X183.93 Y54.208 E.01676
M73 P0 R419
G1 X140.792 Y11.069 E1.91519
G1 X140.258 Y11.069 E.01676
G1 X183.93 Y54.742 E1.9389
G1 X183.93 Y55.275 E.01673
G1 X139.724 Y11.069 E1.96258
G1 X139.19 Y11.069 E.01676
G1 X183.93 Y55.809 E1.98629
G1 X183.93 Y56.343 E.01676
G1 X138.656 Y11.069 E2.01
G1 X138.122 Y11.069 E.01676
G1 X183.93 Y56.877 E2.0337
G1 X183.93 Y57.411 E.01676
G1 X137.588 Y11.069 E2.05741
G1 X137.054 Y11.069 E.01676
G1 X183.93 Y57.945 E2.08112
G1 X183.93 Y58.479 E.01676
G1 X136.52 Y11.069 E2.10483
G1 X135.986 Y11.069 E.01676
M73 P1 R419
G1 X183.93 Y59.013 E2.12854
G1 X183.93 Y59.547 E.01676
G1 X135.452 Y11.069 E2.15224
G1 X134.918 Y11.069 E.01676
G1 X183.93 Y60.081 E2.17595
G1 X183.93 Y60.615 E.01676
G1 X134.384 Y11.069 E2.19966
G1 X133.851 Y11.069 E.01673
G1 X183.93 Y61.149 E2.22334
G1 X183.93 Y61.683 E.01676
G1 X133.317 Y11.069 E2.24705
G1 X132.783 Y11.069 E.01676
G1 X183.93 Y62.216 E2.27074
G1 X183.93 Y62.75 E.01676
G1 X132.249 Y11.069 E2.29444
G1 X131.715 Y11.069 E.01676
M73 P1 R418
G1 X183.93 Y63.284 E2.31815
G1 X183.93 Y63.818 E.01676
G1 X131.181 Y11.069 E2.34186
G1 X130.647 Y11.069 E.01676
G1 X183.93 Y64.352 E2.36557
G1 X183.93 Y64.886 E.01676
G1 X130.113 Y11.069 E2.38927
G1 X129.579 Y11.069 E.01676
G1 X183.93 Y65.42 E2.41298
G1 X183.93 Y65.954 E.01676
G1 X129.045 Y11.069 E2.43669
G1 X128.511 Y11.069 E.01676
G1 X183.93 Y66.488 E2.4604
G1 X183.93 Y67.022 E.01676
G1 X127.977 Y11.069 E2.48411
G1 X127.443 Y11.069 E.01676
G1 X183.93 Y67.556 E2.50781
G1 X183.93 Y68.09 E.01676
G1 X126.91 Y11.069 E2.5315
G1 X126.376 Y11.069 E.01676
G1 X183.93 Y68.624 E2.55521
G1 X183.93 Y69.158 E.01676
G1 X125.842 Y11.069 E2.57891
G1 X125.308 Y11.069 E.01676
G1 X183.93 Y69.691 E2.6026
G1 X183.93 Y70.225 E.01676
G1 X124.774 Y11.069 E2.62631
G1 X124.24 Y11.069 E.01676
G1 X183.93 Y70.759 E2.65001
G1 X183.93 Y71.293 E.01676
M73 P1 R417
G1 X123.706 Y11.069 E2.67372
G1 X123.172 Y11.069 E.01676
G1 X183.93 Y71.827 E2.69743
G1 X183.93 Y72.361 E.01676
G1 X122.638 Y11.069 E2.72114
G1 X122.104 Y11.069 E.01676
G1 X183.93 Y72.895 E2.74484
G1 X183.93 Y73.429 E.01676
G1 X121.57 Y11.069 E2.76855
G1 X121.036 Y11.069 E.01676
G1 X183.93 Y73.963 E2.79226
G1 X183.93 Y74.497 E.01676
G1 X120.502 Y11.069 E2.81597
G1 X119.968 Y11.069 E.01676
G1 X183.93 Y75.031 E2.83968
G1 X183.93 Y75.565 E.01676
G1 X119.435 Y11.069 E2.86336
G1 X118.901 Y11.069 E.01676
G1 X183.93 Y76.099 E2.88707
G1 X183.93 Y76.633 E.01676
G1 X118.367 Y11.069 E2.91078
G1 X117.833 Y11.069 E.01676
G1 X183.93 Y77.166 E2.93446
G1 X183.93 Y77.7 E.01676
G1 X117.299 Y11.069 E2.95817
G1 X116.765 Y11.069 E.01676
G1 X183.93 Y78.234 E2.98188
G1 X183.93 Y78.768 E.01676
M73 P1 R416
G1 X116.231 Y11.069 E3.00558
G1 X115.697 Y11.069 E.01676
G1 X183.93 Y79.302 E3.02929
G1 X183.93 Y79.836 E.01676
G1 X115.163 Y11.069 E3.053
G1 X114.629 Y11.069 E.01676
G1 X183.93 Y80.37 E3.07671
G1 X183.93 Y80.904 E.01676
G1 X114.095 Y11.069 E3.10041
G1 X113.561 Y11.069 E.01676
G1 X183.93 Y81.438 E3.12412
G1 X183.93 Y81.972 E.01676
G1 X113.027 Y11.069 E3.14783
G1 X112.493 Y11.069 E.01676
G1 X183.93 Y82.506 E3.17154
G1 X183.93 Y83.04 E.01676
G1 X111.96 Y11.069 E3.19522
G1 X111.426 Y11.069 E.01676
G1 X183.93 Y83.574 E3.21893
G1 X183.93 Y84.108 E.01676
G1 X110.892 Y11.069 E3.24264
G1 X110.358 Y11.069 E.01676
G1 X183.93 Y84.641 E3.26632
G1 X183.93 Y85.175 E.01676
M73 P1 R415
G1 X109.824 Y11.069 E3.29003
G1 X109.29 Y11.069 E.01676
G1 X183.93 Y85.709 E3.31374
G1 X183.93 Y86.243 E.01676
G1 X108.756 Y11.069 E3.33745
G1 X108.222 Y11.069 E.01676
G1 X183.93 Y86.777 E3.36115
G1 X183.93 Y87.311 E.01676
G1 X107.688 Y11.069 E3.38486
G1 X107.154 Y11.069 E.01676
G1 X183.93 Y87.845 E3.40857
G1 X183.93 Y88.379 E.01676
G1 X106.62 Y11.069 E3.43228
G1 X106.086 Y11.069 E.01676
G1 X183.93 Y88.913 E3.45598
G1 X183.93 Y89.447 E.01676
M73 P2 R415
G1 X105.552 Y11.069 E3.47969
G1 X105.018 Y11.069 E.01676
G1 X183.93 Y89.981 E3.5034
G1 X183.93 Y90.515 E.01676
G1 X104.485 Y11.069 E3.52708
G1 X103.951 Y11.069 E.01676
M73 P2 R414
G1 X183.93 Y91.049 E3.55079
G1 X183.93 Y91.583 E.01676
G1 X103.417 Y11.069 E3.5745
G1 X102.883 Y11.069 E.01676
G1 X183.93 Y92.116 E3.59819
G1 X183.93 Y92.65 E.01676
G1 X102.349 Y11.069 E3.62189
G1 X101.815 Y11.069 E.01676
G1 X183.93 Y93.184 E3.6456
G1 X183.93 Y93.718 E.01676
G1 X101.281 Y11.069 E3.66931
G1 X100.747 Y11.069 E.01676
G1 X183.93 Y94.252 E3.69302
G1 X183.93 Y94.786 E.01676
G1 X100.213 Y11.069 E3.71672
G1 X99.679 Y11.069 E.01676
G1 X183.93 Y95.32 E3.74043
G1 X183.93 Y95.854 E.01676
G1 X99.145 Y11.069 E3.76414
G1 X98.611 Y11.069 E.01676
M73 P2 R413
G1 X183.93 Y96.388 E3.78785
G1 X183.93 Y96.922 E.01676
G1 X98.077 Y11.069 E3.81155
G1 X97.543 Y11.069 E.01676
G1 X183.93 Y97.456 E3.83526
G1 X183.93 Y97.99 E.01676
G1 X97.01 Y11.069 E3.85895
G1 X96.476 Y11.069 E.01676
G1 X183.93 Y98.524 E3.88265
G1 X183.93 Y99.058 E.01676
G1 X95.942 Y11.069 E3.90636
G1 X95.408 Y11.069 E.01676
G1 X183.93 Y99.591 E3.93005
G1 X183.93 Y100.125 E.01676
G1 X94.874 Y11.069 E3.95376
G1 X94.34 Y11.069 E.01676
G1 X183.93 Y100.659 E3.97746
G1 X183.93 Y101.193 E.01676
G1 X93.806 Y11.069 E4.00117
G1 X93.272 Y11.069 E.01676
M73 P2 R412
G1 X183.93 Y101.727 E4.02488
G1 X183.93 Y102.261 E.01676
G1 X92.738 Y11.069 E4.04859
G1 X92.204 Y11.069 E.01676
G1 X183.93 Y102.795 E4.07229
G1 X183.93 Y103.329 E.01676
G1 X91.67 Y11.069 E4.096
G1 X91.136 Y11.069 E.01676
G1 X183.93 Y103.863 E4.11971
G1 X183.93 Y104.397 E.01676
G1 X90.602 Y11.069 E4.14342
G1 X90.068 Y11.069 E.01676
G1 X183.93 Y104.931 E4.16712
G1 X183.93 Y105.465 E.01676
G1 X89.535 Y11.069 E4.19081
G1 X89.001 Y11.069 E.01676
G1 X183.93 Y105.999 E4.21452
G1 X183.93 Y106.533 E.01676
M73 P2 R411
G1 X88.467 Y11.069 E4.23822
G1 X87.933 Y11.069 E.01676
G1 X183.93 Y107.066 E4.26191
G1 X183.93 Y107.6 E.01676
G1 X87.399 Y11.069 E4.28562
G1 X86.865 Y11.069 E.01676
G1 X183.93 Y108.134 E4.30933
G1 X183.93 Y108.668 E.01676
G1 X86.331 Y11.069 E4.33303
G1 X85.797 Y11.069 E.01676
G1 X183.93 Y109.202 E4.35674
G1 X183.93 Y109.736 E.01676
G1 X85.263 Y11.069 E4.38045
G1 X84.729 Y11.069 E.01676
G1 X183.93 Y110.27 E4.40416
G1 X183.93 Y110.804 E.01676
M73 P3 R411
G1 X84.195 Y11.069 E4.42786
G1 X83.661 Y11.069 E.01676
M73 P3 R410
G1 X183.93 Y111.338 E4.45157
G1 X183.93 Y111.872 E.01676
G1 X83.127 Y11.069 E4.47528
G1 X82.593 Y11.069 E.01676
G1 X183.93 Y112.406 E4.49899
G1 X183.93 Y112.94 E.01676
G1 X82.06 Y11.069 E4.52267
G1 X81.526 Y11.069 E.01676
G1 X183.93 Y113.474 E4.54638
G1 X183.93 Y114.007 E.01673
G1 X80.992 Y11.069 E4.57006
G1 X80.458 Y11.069 E.01676
G1 X183.93 Y114.541 E4.59377
G1 X183.93 Y115.075 E.01676
G1 X79.924 Y11.069 E4.61748
G1 X79.39 Y11.069 E.01676
M73 P3 R409
G1 X183.93 Y115.609 E4.64119
G1 X183.93 Y116.143 E.01676
G1 X78.856 Y11.069 E4.66489
G1 X78.322 Y11.069 E.01676
G1 X183.93 Y116.677 E4.6886
G1 X183.93 Y117.211 E.01676
G1 X77.788 Y11.069 E4.71231
G1 X77.254 Y11.069 E.01676
G1 X183.93 Y117.745 E4.73602
G1 X183.93 Y118.279 E.01676
G1 X76.72 Y11.069 E4.75973
G1 X76.186 Y11.069 E.01676
G1 X183.93 Y118.813 E4.78343
G1 X183.93 Y119.347 E.01676
G1 X75.652 Y11.069 E4.80714
G1 X75.119 Y11.069 E.01673
M73 P3 R408
G1 X183.93 Y119.881 E4.83083
G1 X183.93 Y120.415 E.01676
G1 X74.585 Y11.069 E4.85453
G1 X74.051 Y11.069 E.01676
G1 X183.93 Y120.949 E4.87824
G1 X183.93 Y121.482 E.01673
G1 X73.517 Y11.069 E4.90193
G1 X72.983 Y11.069 E.01676
G1 X183.93 Y122.016 E4.92563
G1 X183.93 Y122.55 E.01676
G1 X72.449 Y11.069 E4.94934
G1 X71.915 Y11.069 E.01676
G1 X183.93 Y123.084 E4.97305
G1 X183.93 Y123.618 E.01676
M73 P3 R407
G1 X71.381 Y11.069 E4.99676
G1 X70.847 Y11.069 E.01676
G1 X183.93 Y124.152 E5.02046
G1 X183.93 Y124.686 E.01676
G1 X70.313 Y11.069 E5.04417
G1 X69.779 Y11.069 E.01676
G1 X183.93 Y125.22 E5.06788
G1 X183.93 Y125.754 E.01676
G1 X69.245 Y11.069 E5.09159
G1 X68.711 Y11.069 E.01676
G1 X183.93 Y126.288 E5.1153
G1 X183.93 Y126.822 E.01676
G1 X68.177 Y11.069 E5.139
G1 X67.644 Y11.069 E.01673
G1 X183.93 Y127.356 E5.16269
G1 X183.93 Y127.89 E.01676
M73 P3 R406
G1 X67.11 Y11.069 E5.1864
G1 X66.576 Y11.069 E.01676
M73 P4 R406
G1 X183.93 Y128.424 E5.2101
G1 X183.93 Y128.957 E.01673
G1 X66.07 Y11.098 E5.23252
G1 X66.07 Y11.632 E.01676
G1 X183.93 Y129.491 E5.23252
G1 X183.93 Y130.025 E.01676
G1 X66.07 Y12.166 E5.23252
G1 X66.07 Y12.7 E.01676
G1 X183.93 Y130.559 E5.23252
G1 X183.93 Y131.093 E.01676
G1 X66.07 Y13.234 E5.23252
G1 X66.07 Y13.768 E.01676
M73 P4 R405
G1 X183.93 Y131.627 E5.23252
G1 X183.93 Y132.161 E.01676
G1 X66.07 Y14.302 E5.23252
G1 X66.07 Y14.836 E.01676
G1 X183.93 Y132.695 E5.23252
G1 X183.93 Y133.229 E.01676
G1 X66.07 Y15.369 E5.23255
G1 X66.07 Y15.903 E.01676
G1 X183.93 Y133.763 E5.23255
G1 X183.93 Y134.297 E.01676
G1 X66.07 Y16.437 E5.23255
G1 X66.07 Y16.971 E.01676
G1 X183.93 Y134.831 E5.23255
