; generated by PrusaSlicer 2.5.0+linux-x64-GTK3 on 2022-09-09 at 20:22:28 UTC

; 

; external perimeters extrusion width = 0.45mm
; perimeters extrusion width = 0.45mm
; infill extrusion width = 0.45mm
; solid infill extrusion width = 0.45mm
; top infill extrusion width = 0.40mm
; first layer extrusion width = 0.42mm

M73 P0 R426
M201 X9000 Y9000 Z500 E10000 ; sets maximum accelerations, mm/sec^2
M203 X500 Y500 Z12 E120 ; sets maximum feedrates, mm / sec
M204 P2000 R1500 T2000 ; sets acceleration (P, T) and retract acceleration (R), mm/sec^2
M205 X10.00 Y10.00 Z0.20 E4.50 ; sets the jerk limits, mm/sec
M205 S0 T0 ; sets the minimum extruding and travel feed rate, mm/sec
M107
;TYPE:Custom
M862.3 P "MK2.5" ; printer model check
M862.1 P0.4 ; nozzle diameter check
M115 U3.11.0 ; tell printer latest fw version
G90 ; use absolute coordinates
M83 ; extruder relative mode
M104 S215 ; set extruder temp
M140 S60 ; set bed temp
M190 S60 ; wait for bed temp
M109 S215 ; wait for extruder temp
G28 W ; home all without mesh bed level
G80 ; mesh bed leveling

G1 Z0.2 F720
G1 Y-3 F1000 ; go outside print area
G92 E0
G1 X60 E9 F1000 ; intro line
G1 X100 E12.5 F1000 ; intro line

G92 E0
G21 ; set units to millimeters
G90 ; use absolute coordinates
M83 ; use relative distances for extrusion
M900 K0.05 ; Filament gcode LA 1.5
M900 K30 ; Filament gcode LA 1.0
M107
;LAYER_CHANGE
;Z:0.2
;HEIGHT:0.2
;BEFORE_LAYER_CHANGE
G92 E0.0
;0.2


G1 E-.8 F2100
G1 Z.4 F720
;AFTER_LAYER_CHANGE
;0.2
;CURRENT_Z: 0.2
G1 X62.623 Y10 F10800
G1 Z.2 F720
G1 E.8 F2100
M204 S800
;TYPE:Skirt/Brim
;WIDTH:0.42
G1 F1200
G1 X63.015 Y8.693 E.04278
G1 X64.06 Y7.817 E.04278
G1 X65 Y7.623 E.03008
G1 X185 Y7.623 E3.76252
G1 X186.307 Y8.015 E.04278
M73 P0 R425
G1 X187.183 Y9.06 E.04278
G1 X187.377 Y10 E.03008
G1 X187.377 Y200 E5.95732
G1 X186.985 Y201.307 E.04278
G1 X185.94 Y202.183 E.04278
G1 X185 Y202.377 E.03008
G1 X65 Y202.377 E3.76252
G1 X63.693 Y201.985 E.04278
G1 X62.817 Y200.94 E.04278
G1 X62.623 Y200 E.03008
G1 X62.623 Y10.06 E5.95544
M204 S1000
; printing object gaveta.stl id:0 copy 0
;WIPE_START
G1 F8640
G1 X63.015 Y8.693 E-.32835
G1 X64.06 Y7.817 E-.31505
G1 X64.555 Y7.715 E-.1166
;WIPE_END
G1 E-.04 F2100
G1 Z.6 F720
G1 X65.787 Y199.213 F10800
G1 Z.2 F720
G1 E.8 F2100
M204 S800
;TYPE:Perimeter
;WIDTH:0.419999
G1 F1200
G1 X65.787 Y10.787 E5.90795
G1 X184.213 Y10.787 E3.71315
G1 X184.213 Y199.213 E5.90795
G1 X65.847 Y199.213 E3.71127
M204 S1000
G1 X65.41 Y199.59 F10800
M204 S800
;TYPE:External perimeter
G1 F1200
G1 X65.41 Y10.41 E5.9316
G1 X184.59 Y10.41 E3.7368
M73 P0 R424
G1 X184.59 Y199.59 E5.9316
G1 X65.47 Y199.59 E3.73492
M204 S1000
G1 X65.485 Y199.197 F10800
;WIPE_START
G1 F8640
G1 X65.469 Y196.299 E-.76
;WIPE_END
G1 E-.04 F2100
G1 Z.6 F720
G1 X184.1 Y11.663 F10800
G1 Z.2 F720
G1 E.8 F2100
M204 S800
;TYPE:Solid infill
;WIDTH:0.420464
G1 F1200
G1 X183.506 Y11.07 E.02635
G1 X182.972 Y11.07 E.01676
G1 X183.93 Y12.028 E.04252
G1 X183.93 Y12.562 E.01676
G1 X182.438 Y11.07 E.06623
G1 X181.904 Y11.07 E.01676
G1 X183.93 Y13.096 E.08993
G1 X183.93 Y13.629 E.01676
G1 X181.371 Y11.07 E.11364
G1 X180.837 Y11.07 E.01676
G1 X183.93 Y14.163 E.13734
G1 X183.93 Y14.697 E.01676
G1 X180.303 Y11.07 E.16105
G1 X179.769 Y11.07 E.01676
G1 X183.93 Y15.231 E.18475
G1 X183.93 Y15.765 E.01676
G1 X179.235 Y11.07 E.20845
G1 X178.701 Y11.07 E.01676
G1 X183.93 Y16.299 E.23216
G1 X183.93 Y16.833 E.01676
G1 X178.167 Y11.07 E.25586
G1 X177.633 Y11.07 E.01676
G1 X183.93 Y17.367 E.27957
G1 X183.93 Y17.901 E.01676
G1 X177.099 Y11.07 E.30327
G1 X176.565 Y11.07 E.01676
G1 X183.93 Y18.435 E.32698
G1 X183.93 Y18.969 E.01676
G1 X176.031 Y11.07 E.35068
G1 X175.497 Y11.07 E.01676
G1 X183.93 Y19.503 E.37439
G1 X183.93 Y20.037 E.01676
G1 X174.963 Y11.07 E.39809
G1 X174.429 Y11.07 E.01676
G1 X183.93 Y20.571 E.42179
G1 X183.93 Y21.104 E.01676
G1 X173.896 Y11.07 E.4455
G1 X173.362 Y11.07 E.01676
G1 X183.93 Y21.638 E.4692
G1 X183.93 Y22.172 E.01676
G1 X172.828 Y11.07 E.49291
G1 X172.294 Y11.07 E.01676
G1 X183.93 Y22.706 E.51661
G1 X183.93 Y23.24 E.01676
G1 X171.76 Y11.07 E.54032
G1 X171.226 Y11.07 E.01676
G1 X183.93 Y23.774 E.56402
G1 X183.93 Y24.308 E.01676
G1 X170.692 Y11.07 E.58772
G1 X170.158 Y11.07 E.01676
G1 X183.93 Y24.842 E.61143
G1 X183.93 Y25.376 E.01676
G1 X169.624 Y11.07 E.63513
G1 X169.09 Y11.07 E.01676
G1 X183.93 Y25.91 E.65884
G1 X183.93 Y26.444 E.01676
G1 X168.556 Y11.07 E.68254
G1 X168.022 Y11.07 E.01676
G1 X183.93 Y26.978 E.70625
G1 X183.93 Y27.512 E.01676
G1 X167.488 Y11.07 E.72995
G1 X166.954 Y11.07 E.01676
G1 X183.93 Y28.046 E.75366
G1 X183.93 Y28.579 E.01676
G1 X166.421 Y11.07 E.77736
G1 X165.887 Y11.07 E.01676
G1 X183.93 Y29.113 E.80106
G1 X183.93 Y29.647 E.01676
G1 X165.353 Y11.07 E.82477
G1 X164.819 Y11.07 E.01676
G1 X183.93 Y30.181 E.84847
G1 X183.93 Y30.715 E.01676
G1 X164.285 Y11.07 E.87218
G1 X163.751 Y11.07 E.01676
G1 X183.93 Y31.249 E.89588
G1 X183.93 Y31.783 E.01676
M73 P0 R423
G1 X163.217 Y11.07 E.91959
G1 X162.683 Y11.07 E.01676
G1 X183.93 Y32.317 E.94329
G1 X183.93 Y32.851 E.01676
G1 X162.149 Y11.07 E.967
G1 X161.615 Y11.07 E.01676
G1 X183.93 Y33.385 E.9907
G1 X183.93 Y33.919 E.01676
G1 X161.081 Y11.07 E1.0144
G1 X160.547 Y11.07 E.01676
G1 X183.93 Y34.453 E1.03811
G1 X183.93 Y34.987 E.01676
G1 X160.013 Y11.07 E1.06181
G1 X159.479 Y11.07 E.01676
G1 X183.93 Y35.521 E1.08552
G1 X183.93 Y36.054 E.01676
G1 X158.946 Y11.07 E1.10922
G1 X158.412 Y11.07 E.01676
G1 X183.93 Y36.588 E1.13293
G1 X183.93 Y37.122 E.01676
G1 X157.878 Y11.07 E1.15663
G1 X157.344 Y11.07 E.01676
G1 X183.93 Y37.656 E1.18034
G1 X183.93 Y38.19 E.01676
G1 X156.81 Y11.07 E1.20404
G1 X156.276 Y11.07 E.01676
G1 X183.93 Y38.724 E1.22774
G1 X183.93 Y39.258 E.01676
G1 X155.742 Y11.07 E1.25145
G1 X155.208 Y11.07 E.01676
G1 X183.93 Y39.792 E1.27515
G1 X183.93 Y40.326 E.01676
G1 X154.674 Y11.07 E1.29886
G1 X154.14 Y11.07 E.01676
G1 X183.93 Y40.86 E1.32256
G1 X183.93 Y41.394 E.01676
G1 X153.606 Y11.07 E1.34627
G1 X153.072 Y11.07 E.01676
G1 X183.93 Y41.928 E1.36997
G1 X183.93 Y42.462 E.01676
G1 X152.538 Y11.07 E1.39367
G1 X152.004 Y11.07 E.01676
G1 X183.93 Y42.996 E1.41738
G1 X183.93 Y43.529 E.01676
G1 X151.471 Y11.07 E1.44108
G1 X150.937 Y11.07 E.01676
G1 X183.93 Y44.063 E1.46479
G1 X183.93 Y44.597 E.01676
G1 X150.403 Y11.07 E1.48849
G1 X149.869 Y11.07 E.01676
G1 X183.93 Y45.131 E1.5122
G1 X183.93 Y45.665 E.01676
G1 X149.335 Y11.07 E1.5359
G1 X148.801 Y11.07 E.01676
G1 X183.93 Y46.199 E1.55961
G1 X183.93 Y46.733 E.01676
G1 X148.267 Y11.07 E1.58331
G1 X147.733 Y11.07 E.01676
G1 X183.93 Y47.267 E1.60701
G1 X183.93 Y47.801 E.01676
M73 P0 R422
G1 X147.199 Y11.07 E1.63072
G1 X146.665 Y11.07 E.01676
G1 X183.93 Y48.335 E1.65442
G1 X183.93 Y48.869 E.01676
G1 X146.131 Y11.07 E1.67813
G1 X145.597 Y11.07 E.01676
G1 X183.93 Y49.403 E1.70183
G1 X183.93 Y49.937 E.01676
G1 X145.063 Y11.07 E1.72554
G1 X144.53 Y11.07 E.01676
G1 X183.93 Y50.47 E1.74924
G1 X183.93 Y51.004 E.01676
G1 X143.996 Y11.07 E1.77295
G1 X143.462 Y11.07 E.01676
G1 X183.93 Y51.538 E1.79665
G1 X183.93 Y52.072 E.01676
G1 X142.928 Y11.07 E1.82035
G1 X142.394 Y11.07 E.01676
G1 X183.93 Y52.606 E1.84406
G1 X183.93 Y53.14 E.01676
G1 X141.86 Y11.07 E1.86776
G1 X141.326 Y11.07 E.01676
G1 X183.93 Y53.674 E1.89147
G1 X183.93 Y54.208 E.01676
G1 X140.792 Y11.07 E1.91517
G1 X140.258 Y11.07 E.01676
G1 X183.93 Y54.742 E1.93888
G1 X183.93 Y55.276 E.01676
G1 X139.724 Y11.07 E1.96258
G1 X139.19 Y11.07 E.01676
G1 X183.93 Y55.81 E1.98629
G1 X183.93 Y56.344 E.01676
G1 X138.656 Y11.07 E2.00999
G1 X138.122 Y11.07 E.01676
G1 X183.93 Y56.878 E2.03369
G1 X183.93 Y57.412 E.01676
G1 X137.588 Y11.07 E2.0574
G1 X137.055 Y11.07 E.01676
G1 X183.93 Y57.945 E2.0811
G1 X183.93 Y58.479 E.01676
M73 P0 R421
G1 X136.521 Y11.07 E2.10481
G1 X135.987 Y11.07 E.01676
M73 P1 R421
G1 X183.93 Y59.013 E2.12851
G1 X183.93 Y59.547 E.01676
G1 X135.453 Y11.07 E2.15222
G1 X134.919 Y11.07 E.01676
G1 X183.93 Y60.081 E2.17592
G1 X183.93 Y60.615 E.01676
G1 X134.385 Y11.07 E2.19962
G1 X133.851 Y11.07 E.01676
G1 X183.93 Y61.149 E2.22333
G1 X183.93 Y61.683 E.01676
G1 X133.317 Y11.07 E2.24703
G1 X132.783 Y11.07 E.01676
G1 X183.93 Y62.217 E2.27074
G1 X183.93 Y62.751 E.01676
G1 X132.249 Y11.07 E2.29444
G1 X131.715 Y11.07 E.01676
G1 X183.93 Y63.285 E2.31815
G1 X183.93 Y63.819 E.01676
G1 X131.181 Y11.07 E2.34185
G1 X130.647 Y11.07 E.01676
G1 X183.93 Y64.353 E2.36556
G1 X183.93 Y64.887 E.01676
G1 X130.113 Y11.07 E2.38926
G1 X129.58 Y11.07 E.01676
G1 X183.93 Y65.42 E2.41296
G1 X183.93 Y65.954 E.01676
G1 X129.046 Y11.07 E2.43667
G1 X128.512 Y11.07 E.01676
G1 X183.93 Y66.488 E2.46037
G1 X183.93 Y67.022 E.01676
M73 P1 R420
G1 X127.978 Y11.07 E2.48408
G1 X127.444 Y11.07 E.01676
G1 X183.93 Y67.556 E2.50778
G1 X183.93 Y68.09 E.01676
G1 X126.91 Y11.07 E2.53149
G1 X126.376 Y11.07 E.01676
G1 X183.93 Y68.624 E2.55519
G1 X183.93 Y69.158 E.01676
G1 X125.842 Y11.07 E2.5789
G1 X125.308 Y11.07 E.01676
G1 X183.93 Y69.692 E2.6026
G1 X183.93 Y70.226 E.01676
G1 X124.774 Y11.07 E2.6263
G1 X124.24 Y11.07 E.01676
G1 X183.93 Y70.76 E2.65001
G1 X183.93 Y71.294 E.01676
G1 X123.706 Y11.07 E2.67371
G1 X123.172 Y11.07 E.01676
G1 X183.93 Y71.828 E2.69742
G1 X183.93 Y72.362 E.01676
G1 X122.638 Y11.07 E2.72112
G1 X122.105 Y11.07 E.01676
G1 X183.93 Y72.895 E2.74483
G1 X183.93 Y73.429 E.01676
G1 X121.571 Y11.07 E2.76853
G1 X121.037 Y11.07 E.01676
G1 X183.93 Y73.963 E2.79224
G1 X183.93 Y74.497 E.01676
G1 X120.503 Y11.07 E2.81594
G1 X119.969 Y11.07 E.01676
M73 P1 R419
G1 X183.93 Y75.031 E2.83964
G1 X183.93 Y75.565 E.01676
G1 X119.435 Y11.07 E2.86335
G1 X118.901 Y11.07 E.01676
G1 X183.93 Y76.099 E2.88705
G1 X183.93 Y76.633 E.01676
G1 X118.367 Y11.07 E2.91076
G1 X117.833 Y11.07 E.01676
G1 X183.93 Y77.167 E2.93446
G1 X183.93 Y77.701 E.01676
G1 X117.299 Y11.07 E2.95817
G1 X116.765 Y11.07 E.01676
G1 X183.93 Y78.235 E2.98187
G1 X183.93 Y78.769 E.01676
G1 X116.231 Y11.07 E3.00557
G1 X115.697 Y11.07 E.01676
G1 X183.93 Y79.303 E3.02928
G1 X183.93 Y79.837 E.01676
G1 X115.163 Y11.07 E3.05298
G1 X114.63 Y11.07 E.01676
G1 X183.93 Y80.37 E3.07669
G1 X183.93 Y80.904 E.01676
G1 X114.096 Y11.07 E3.10039
G1 X113.562 Y11.07 E.01676
M73 P1 R418
G1 X183.93 Y81.438 E3.1241
G1 X183.93 Y81.972 E.01676
G1 X113.028 Y11.07 E3.1478
G1 X112.494 Y11.07 E.01676
G1 X183.93 Y82.506 E3.17151
G1 X183.93 Y83.04 E.01676
G1 X111.96 Y11.07 E3.19521
G1 X111.426 Y11.07 E.01676
G1 X183.93 Y83.574 E3.21891
G1 X183.93 Y84.108 E.01676
G1 X110.892 Y11.07 E3.24262
G1 X110.358 Y11.07 E.01676
G1 X183.93 Y84.642 E3.26632
G1 X183.93 Y85.176 E.01676
G1 X109.824 Y11.07 E3.29003
G1 X109.29 Y11.07 E.01676
G1 X183.93 Y85.71 E3.31373
G1 X183.93 Y86.244 E.01676
G1 X108.756 Y11.07 E3.33744
G1 X108.222 Y11.07 E.01676
G1 X183.93 Y86.778 E3.36114
G1 X183.93 Y87.312 E.01676
G1 X107.688 Y11.07 E3.38485
G1 X107.155 Y11.07 E.01676
M73 P1 R417
G1 X183.93 Y87.845 E3.40855
G1 X183.93 Y88.379 E.01676
G1 X106.621 Y11.07 E3.43225
G1 X106.087 Y11.07 E.01676
G1 X183.93 Y88.913 E3.45596
G1 X183.93 Y89.447 E.01676
M73 P2 R417
G1 X105.553 Y11.07 E3.47966
G1 X105.019 Y11.07 E.01676
G1 X183.93 Y89.981 E3.50337
G1 X183.93 Y90.515 E.01676
G1 X104.485 Y11.07 E3.52707
G1 X103.951 Y11.07 E.01676
G1 X183.93 Y91.049 E3.55078
G1 X183.93 Y91.583 E.01676
G1 X103.417 Y11.07 E3.57448
G1 X102.883 Y11.07 E.01676
G1 X183.93 Y92.117 E3.59819
G1 X183.93 Y92.651 E.01676
G1 X102.349 Y11.07 E3.62189
G1 X101.815 Y11.07 E.01676
M73 P2 R416
G1 X183.93 Y93.185 E3.64559
G1 X183.93 Y93.719 E.01676
G1 X101.281 Y11.07 E3.6693
G1 X100.747 Y11.07 E.01676
G1 X183.93 Y94.253 E3.693
G1 X183.93 Y94.787 E.01676
G1 X100.213 Y11.07 E3.71671
G1 X99.68 Y11.07 E.01676
G1 X183.93 Y95.32 E3.74041
G1 X183.93 Y95.854 E.01676
G1 X99.146 Y11.07 E3.76412
G1 X98.612 Y11.07 E.01676
G1 X183.93 Y96.388 E3.78782
G1 X183.93 Y96.922 E.01676
G1 X98.078 Y11.07 E3.81152
G1 X97.544 Y11.07 E.01676
G1 X183.93 Y97.456 E3.83523
G1 X183.93 Y97.99 E.01676
G1 X97.01 Y11.07 E3.85893
G1 X96.476 Y11.07 E.01676
M73 P2 R415
G1 X183.93 Y98.524 E3.88264
G1 X183.93 Y99.058 E.01676
G1 X95.942 Y11.07 E3.90634
G1 X95.408 Y11.07 E.01676
G1 X183.93 Y99.592 E3.93005
G1 X183.93 Y100.126 E.01676
G1 X94.874 Y11.07 E3.95375
G1 X94.34 Y11.07 E.01676
G1 X183.93 Y100.66 E3.97746
G1 X183.93 Y101.194 E.01676
G1 X93.806 Y11.07 E4.00116
G1 X93.272 Y11.07 E.01676
G1 X183.93 Y101.728 E4.02486
G1 X183.93 Y102.261 E.01676
G1 X92.739 Y11.07 E4.04857
G1 X92.205 Y11.07 E.01676
G1 X183.93 Y102.795 E4.07227
G1 X183.93 Y103.329 E.01676
G1 X91.671 Y11.07 E4.09598
G1 X91.137 Y11.07 E.01676
M73 P2 R414
G1 X183.93 Y103.863 E4.11968
G1 X183.93 Y104.397 E.01676
G1 X90.603 Y11.07 E4.14339
G1 X90.069 Y11.07 E.01676
G1 X183.93 Y104.931 E4.16709
G1 X183.93 Y105.465 E.01676
G1 X89.535 Y11.07 E4.1908
G1 X89.001 Y11.07 E.01676
G1 X183.93 Y105.999 E4.2145
G1 X183.93 Y106.533 E.01676
G1 X88.467 Y11.07 E4.2382
G1 X87.933 Y11.07 E.01676
G1 X183.93 Y107.067 E4.26191
G1 X183.93 Y107.601 E.01676
G1 X87.399 Y11.07 E4.28561
G1 X86.865 Y11.07 E.01676
G1 X183.93 Y108.135 E4.30932
G1 X183.93 Y108.669 E.01676
M73 P2 R413
G1 X86.331 Y11.07 E4.33302
G1 X85.797 Y11.07 E.01676
G1 X183.93 Y109.203 E4.35673
G1 X183.93 Y109.736 E.01676
G1 X85.264 Y11.07 E4.38043
G1 X84.73 Y11.07 E.01676
G1 X183.93 Y110.27 E4.40414
G1 X183.93 Y110.804 E.01676
G1 X84.196 Y11.07 E4.42784
G1 X83.662 Y11.07 E.01676
M73 P3 R413
G1 X183.93 Y111.338 E4.45154
G1 X183.93 Y111.872 E.01676
G1 X83.128 Y11.07 E4.47525
G1 X82.594 Y11.07 E.01676
G1 X183.93 Y112.406 E4.49895
G1 X183.93 Y112.94 E.01676
M73 P3 R412
G1 X82.06 Y11.07 E4.52266
G1 X81.526 Y11.07 E.01676
G1 X183.93 Y113.474 E4.54636
G1 X183.93 Y114.008 E.01676
G1 X80.992 Y11.07 E4.57007
G1 X80.458 Y11.07 E.01676
G1 X183.93 Y114.542 E4.59377
G1 X183.93 Y115.076 E.01676
G1 X79.924 Y11.07 E4.61747
G1 X79.39 Y11.07 E.01676
G1 X183.93 Y115.61 E4.64118
G1 X183.93 Y116.144 E.01676
G1 X78.856 Y11.07 E4.66488
G1 X78.322 Y11.07 E.01676
G1 X183.93 Y116.678 E4.68859
G1 X183.93 Y117.211 E.01676
M73 P3 R411
G1 X77.789 Y11.07 E4.71229
G1 X77.255 Y11.07 E.01676
G1 X183.93 Y117.745 E4.736
G1 X183.93 Y118.279 E.01676
G1 X76.721 Y11.07 E4.7597
G1 X76.187 Y11.07 E.01676
G1 X183.93 Y118.813 E4.78341
G1 X183.93 Y119.347 E.01676
G1 X75.653 Y11.07 E4.80711
G1 X75.119 Y11.07 E.01676
G1 X183.93 Y119.881 E4.83081
G1 X183.93 Y120.415 E.01676
G1 X74.585 Y11.07 E4.85452
G1 X74.051 Y11.07 E.01676
G1 X183.93 Y120.949 E4.87822
G1 X183.93 Y121.483 E.01676
M73 P3 R410
G1 X73.517 Y11.07 E4.90193
G1 X72.983 Y11.07 E.01676
G1 X183.93 Y122.017 E4.92563
G1 X183.93 Y122.551 E.01676
G1 X72.449 Y11.07 E4.94934
G1 X71.915 Y11.07 E.01676
G1 X183.93 Y123.085 E4.97304
G1 X183.93 Y123.619 E.01676
G1 X71.381 Y11.07 E4.99675
G1 X70.847 Y11.07 E.01676
G1 X183.93 Y124.153 E5.02045
G1 X183.93 Y124.686 E.01676
G1 X70.314 Y11.07 E5.04415
G1 X69.78 Y11.07 E.01676
G1 X183.93 Y125.22 E5.06786
G1 X183.93 Y125.754 E.01676
M73 P3 R409
G1 X69.246 Y11.07 E5.09156
G1 X68.712 Y11.07 E.01676
G1 X183.93 Y126.288 E5.11527
G1 X183.93 Y126.822 E.01676
G1 X68.178 Y11.07 E5.13897
G1 X67.644 Y11.07 E.01676
G1 X183.93 Y127.356 E5.16268
G1 X183.93 Y127.89 E.01676
G1 X67.11 Y11.07 E5.18638
G1 X66.576 Y11.07 E.01676
G1 X183.93 Y128.424 E5.21009
G1 X183.93 Y128.958 E.01676
M73 P4 R409
G1 X66.07 Y11.098 E5.23256
G1 X66.07 Y11.632 E.01676
M73 P4 R408
G1 X183.93 Y129.492 E5.23256
G1 X183.93 Y130.026 E.01676
G1 X66.07 Y12.165 E5.23256
G1 X66.07 Y12.699 E.01676
G1 X183.93 Y130.56 E5.23256
G1 X183.93 Y131.094 E.01676
G1 X66.07 Y13.233 E5.23256
G1 X66.07 Y13.767 E.01676
G1 X183.93 Y131.628 E5.23256
G1 X183.93 Y132.161 E.01676
G1 X66.07 Y14.301 E5.23256
G1 X66.07 Y14.835 E.01676
G1 X183.93 Y132.695 E5.23256
G1 X183.93 Y133.229 E.01676
M73 P4 R407
G1 X66.07 Y15.369 E5.23256
G1 X66.07 Y15.903 E.01676
G1 X183.93 Y133.763 E5.23256
G1 X183.93 Y134.297 E.01676
G1 X66.07 Y16.437 E5.23256
G1 X66.07 Y16.971 E.01676
G1 X183.93 Y134.831 E5.23256
G1 X183.93 Y135.365 E.01676
G1 X66.07 Y17.505 E5.23256
G1 X66.07 Y18.039 E.01676
G1 X183.93 Y135.899 E5.23256
G1 X183.93 Y136.433 E.01676
G1 X66.07 Y18.573 E5.23256
G1 X66.07 Y19.107 E.01676
M73 P4 R406
G1 X183.93 Y136.967 E5.23256
G1 X183.93 Y137.501 E.01676
