; generated by PrusaSlicer 2.3.0+linux-x64 on 2021-11-03 at 13:13:09 UTC



; 



; external perimeters extrusion width = 0.45mm

; perimeters extrusion width = 0.45mm

; infill extrusion width = 0.45mm

; solid infill extrusion width = 0.45mm

; top infill extrusion width = 0.40mm

; first layer extrusion width = 0.42mm



M73 P0 R453

M201 X9000 Y9000 Z500 E10000 ; sets maximum accelerations, mm/sec^2

M203 X500 Y500 Z12 E120 ; sets maximum feedrates, mm/sec

M204 P2000 R1500 T2000 ; sets acceleration (P, T) and retract acceleration (R), mm/sec^2

M205 X10.00 Y10.00 Z0.20 E4.50 ; sets the jerk limits, mm/sec

M205 S0 T0 ; sets the minimum extruding and travel feed rate, mm/sec

M107

;TYPE:Custom

M862.3 P "MK2.5" ; printer model check

M862.1 P0.4 ; nozzle diameter check

M115 U3.9.1 ; tell printer latest fw version

G90 ; use absolute coordinates

M83 ; extruder relative mode

M104 S215 ; set extruder temp

M140 S60 ; set bed temp

M190 S60 ; wait for bed temp

M109 S215 ; wait for extruder temp

G28 W ; home all without mesh bed level

G80 ; mesh bed leveling

G1 Y-3.0 F1000.0 ; go outside print area

G92 E0.0

G1 X60.0 E9.0 F1000.0 ; intro line

G1 X100.0 E12.5 F1000.0 ; intro line

G92 E0.0

G21 ; set units to millimeters

G90 ; use absolute coordinates

M83 ; use relative distances for extrusion

M900 K0.05 ; Filament gcode LA 1.5

M900 K30 ; Filament gcode LA 1.0

;LAYER_CHANGE

;Z:0.2

;HEIGHT:0.2

;BEFORE_LAYER_CHANGE

G92 E0.0

;0.2





G1 E-0.80000 F2100.000

G1 Z0.600 F10800.000

;AFTER_LAYER_CHANGE

;0.2

;CURRENT_Z: 0.2

G1 X62.716 Y9.342

G1 Z0.200

G1 E0.80000 F2100.000

M204 S1000

;TYPE:Skirt

;WIDTH:0.42

G1 F1200.000

G1 X62.983 Y8.742 E0.02060

G1 X63.357 Y8.282 E0.01858

G1 X63.836 Y7.927 E0.01870

G1 X64.389 Y7.703 E0.01870

G1 X64.980 Y7.623 E0.01870

G1 X185.004 Y7.623 E3.76327

G1 X185.906 Y7.802 E0.02884

G1 X186.675 Y8.313 E0.02896

G1 X187.190 Y9.076 E0.02884

G1 X187.377 Y9.976 E0.02884

G1 X187.377 Y200.004 E5.95819

G1 X187.284 Y200.658 E0.02071

G1 X187.017 Y201.258 E0.02060

G1 X186.640 Y201.720 E0.01870

G1 X186.160 Y202.075 E0.01870

G1 X185.608 Y202.298 E0.01870

G1 X185.016 Y202.377 E0.01870

G1 X64.992 Y202.377 E3.76327

G1 X64.342 Y202.284 E0.02060

G1 X63.742 Y202.017 E0.02060

G1 X63.280 Y201.640 E0.01870

G1 X62.924 Y201.157 E0.01882

G1 X62.700 Y200.600 E0.01882

G1 X62.623 Y200.009 E0.01870

G1 X62.623 Y9.996 E5.95771

G1 X62.707 Y9.402 E0.01883

;WIPE_START

G1 F8640.000

G1 X62.983 Y8.742 E-0.16503

G1 X63.357 Y8.282 E-0.13685

G1 X63.836 Y7.927 E-0.13772

G1 X64.389 Y7.703 E-0.13772

G1 X64.980 Y7.623 E-0.13772

G1 X65.175 Y7.623 E-0.04496

;WIPE_END

G1 E-0.04000 F2100.000

G1 Z0.800 F10800.000

G1 X65.787 Y10.787

G1 Z0.200

G1 E0.80000 F2100.000

;TYPE:Perimeter

G1 F1200.000

G1 X184.213 Y10.787 E3.71316

G1 X184.213 Y199.213 E5.90796

M73 P0 R452

G1 X65.787 Y199.213 E3.71316

G1 X65.787 Y10.847 E5.90608

G1 X65.410 Y10.410 F10800.000

;TYPE:External perimeter

G1 F1200.000

G1 X184.590 Y10.410 E3.73681

G1 X184.590 Y199.590 E5.93161

G1 X65.410 Y199.590 E3.73681

G1 X65.410 Y10.470 E5.92972

G1 X65.788 Y10.542 F10800.000

;WIPE_START

G1 F8640.000

G1 X68.701 Y10.468 E-0.76000

;WIPE_END

G1 E-0.04000 F2100.000

G1 Z0.800 F10800.000

G1 X66.663 Y199.100

G1 Z0.200

G1 E0.80000 F2100.000

;TYPE:Solid infill

;WIDTH:0.420464

G1 F1200.000

G1 X66.070 Y198.506 E0.02635

G1 X66.070 Y197.972 E0.01676

G1 X67.028 Y198.930 E0.04252

G1 X67.562 Y198.930 E0.01676

G1 X66.070 Y197.438 E0.06622

G1 X66.070 Y196.905 E0.01676

G1 X68.095 Y198.930 E0.08993

G1 X68.629 Y198.930 E0.01676

G1 X66.070 Y196.371 E0.11363

G1 X66.070 Y195.837 E0.01676

G1 X69.163 Y198.930 E0.13734

G1 X69.697 Y198.930 E0.01676

G1 X66.070 Y195.303 E0.16104

G1 X66.070 Y194.769 E0.01676

G1 X70.231 Y198.930 E0.18475

G1 X70.765 Y198.930 E0.01676

G1 X66.070 Y194.235 E0.20845

G1 X66.070 Y193.701 E0.01676

G1 X71.299 Y198.930 E0.23216

G1 X71.833 Y198.930 E0.01676

G1 X66.070 Y193.167 E0.25586

G1 X66.070 Y192.633 E0.01676

G1 X72.367 Y198.930 E0.27956

G1 X72.901 Y198.930 E0.01676

G1 X66.070 Y192.099 E0.30327

G1 X66.070 Y191.565 E0.01676

G1 X73.435 Y198.930 E0.32697

G1 X73.969 Y198.930 E0.01676

G1 X66.070 Y191.031 E0.35068

G1 X66.070 Y190.497 E0.01676

G1 X74.503 Y198.930 E0.37438

M73 P0 R451

G1 X75.037 Y198.930 E0.01676

G1 X66.070 Y189.963 E0.39809

G1 X66.070 Y189.430 E0.01676

G1 X75.570 Y198.930 E0.42179

G1 X76.104 Y198.930 E0.01676

G1 X66.070 Y188.896 E0.44549

G1 X66.070 Y188.362 E0.01676

G1 X76.638 Y198.930 E0.46920

G1 X77.172 Y198.930 E0.01676

G1 X66.070 Y187.828 E0.49290

G1 X66.070 Y187.294 E0.01676

G1 X77.706 Y198.930 E0.51661

G1 X78.240 Y198.930 E0.01676

G1 X66.070 Y186.760 E0.54031

G1 X66.070 Y186.226 E0.01676

G1 X78.774 Y198.930 E0.56402

G1 X79.308 Y198.930 E0.01676

G1 X66.070 Y185.692 E0.58772

G1 X66.070 Y185.158 E0.01676

G1 X79.842 Y198.930 E0.61143

G1 X80.376 Y198.930 E0.01676

G1 X66.070 Y184.624 E0.63513

G1 X66.070 Y184.090 E0.01676

G1 X80.910 Y198.930 E0.65883

G1 X81.444 Y198.930 E0.01676

G1 X66.070 Y183.556 E0.68254

G1 X66.070 Y183.022 E0.01676

G1 X81.978 Y198.930 E0.70624

G1 X82.512 Y198.930 E0.01676

G1 X66.070 Y182.488 E0.72995

G1 X66.070 Y181.955 E0.01676

G1 X83.045 Y198.930 E0.75365

G1 X83.579 Y198.930 E0.01676

G1 X66.070 Y181.421 E0.77736

G1 X66.070 Y180.887 E0.01676

G1 X84.113 Y198.930 E0.80106

G1 X84.647 Y198.930 E0.01676

G1 X66.070 Y180.353 E0.82477

G1 X66.070 Y179.819 E0.01676

G1 X85.181 Y198.930 E0.84847

G1 X85.715 Y198.930 E0.01676

G1 X66.070 Y179.285 E0.87217

G1 X66.070 Y178.751 E0.01676

G1 X86.249 Y198.930 E0.89588

G1 X86.783 Y198.930 E0.01676

G1 X66.070 Y178.217 E0.91958

G1 X66.070 Y177.683 E0.01676

G1 X87.317 Y198.930 E0.94329

G1 X87.851 Y198.930 E0.01676

G1 X66.070 Y177.149 E0.96699

G1 X66.070 Y176.615 E0.01676

G1 X88.385 Y198.930 E0.99070

G1 X88.919 Y198.930 E0.01676

G1 X66.070 Y176.081 E1.01440

G1 X66.070 Y175.547 E0.01676

G1 X89.453 Y198.930 E1.03811

G1 X89.987 Y198.930 E0.01676

G1 X66.070 Y175.013 E1.06181

G1 X66.070 Y174.480 E0.01676

G1 X90.520 Y198.930 E1.08551

G1 X91.054 Y198.930 E0.01676

G1 X66.070 Y173.946 E1.10922

G1 X66.070 Y173.412 E0.01676

G1 X91.588 Y198.930 E1.13292

G1 X92.122 Y198.930 E0.01676

G1 X66.070 Y172.878 E1.15663

G1 X66.070 Y172.344 E0.01676

G1 X92.656 Y198.930 E1.18033

G1 X93.190 Y198.930 E0.01676

G1 X66.070 Y171.810 E1.20404

G1 X66.070 Y171.276 E0.01676

G1 X93.724 Y198.930 E1.22774

G1 X94.258 Y198.930 E0.01676

G1 X66.070 Y170.742 E1.25144

G1 X66.070 Y170.208 E0.01676

G1 X94.792 Y198.930 E1.27515

G1 X95.326 Y198.930 E0.01676

G1 X66.070 Y169.674 E1.29885

G1 X66.070 Y169.140 E0.01676

G1 X95.860 Y198.930 E1.32256

G1 X96.394 Y198.930 E0.01676

G1 X66.070 Y168.606 E1.34626

G1 X66.070 Y168.072 E0.01676

G1 X96.928 Y198.930 E1.36997

M73 P0 R450

G1 X97.461 Y198.930 E0.01676

G1 X66.070 Y167.538 E1.39367

G1 X66.070 Y167.005 E0.01676

G1 X97.995 Y198.930 E1.41738

G1 X98.529 Y198.930 E0.01676

G1 X66.070 Y166.471 E1.44108

G1 X66.070 Y165.937 E0.01676

G1 X99.063 Y198.930 E1.46478

G1 X99.597 Y198.930 E0.01676

G1 X66.070 Y165.403 E1.48849

G1 X66.070 Y164.869 E0.01676

G1 X100.131 Y198.930 E1.51219

G1 X100.665 Y198.930 E0.01676

G1 X66.070 Y164.335 E1.53590

G1 X66.070 Y163.801 E0.01676

G1 X101.199 Y198.930 E1.55960

G1 X101.733 Y198.930 E0.01676

G1 X66.070 Y163.267 E1.58331

G1 X66.070 Y162.733 E0.01676

G1 X102.267 Y198.930 E1.60701

G1 X102.801 Y198.930 E0.01676

G1 X66.070 Y162.199 E1.63072

G1 X66.070 Y161.665 E0.01676

G1 X103.335 Y198.930 E1.65442

G1 X103.869 Y198.930 E0.01676

G1 X66.070 Y161.131 E1.67812

G1 X66.070 Y160.597 E0.01676

G1 X104.403 Y198.930 E1.70183

G1 X104.936 Y198.930 E0.01676

G1 X66.070 Y160.064 E1.72553

G1 X66.070 Y159.530 E0.01676

G1 X105.470 Y198.930 E1.74924

G1 X106.004 Y198.930 E0.01676

G1 X66.070 Y158.996 E1.77294

G1 X66.070 Y158.462 E0.01676

G1 X106.538 Y198.930 E1.79665

G1 X107.072 Y198.930 E0.01676

G1 X66.070 Y157.928 E1.82035

G1 X66.070 Y157.394 E0.01676

G1 X107.606 Y198.930 E1.84406

G1 X108.140 Y198.930 E0.01676

G1 X66.070 Y156.860 E1.86776

G1 X66.070 Y156.326 E0.01676

G1 X108.674 Y198.930 E1.89146

G1 X109.208 Y198.930 E0.01676

G1 X66.070 Y155.792 E1.91517

M73 P0 R449

G1 X66.070 Y155.258 E0.01676

G1 X109.742 Y198.930 E1.93887

G1 X110.276 Y198.930 E0.01676

G1 X66.070 Y154.724 E1.96258

G1 X66.070 Y154.190 E0.01676

G1 X110.810 Y198.930 E1.98628

G1 X111.344 Y198.930 E0.01676

G1 X66.070 Y153.656 E2.00999

G1 X66.070 Y153.122 E0.01676

G1 X111.878 Y198.930 E2.03369

G1 X112.411 Y198.930 E0.01676

G1 X66.070 Y152.589 E2.05739

G1 X66.070 Y152.055 E0.01676

G1 X112.945 Y198.930 E2.08110

G1 X113.479 Y198.930 E0.01676

G1 X66.070 Y151.521 E2.10480

G1 X66.070 Y150.987 E0.01676

G1 X114.013 Y198.930 E2.12851

G1 X114.547 Y198.930 E0.01676

G1 X66.070 Y150.453 E2.15221

G1 X66.070 Y149.919 E0.01676

G1 X115.081 Y198.930 E2.17592

G1 X115.615 Y198.930 E0.01676

G1 X66.070 Y149.385 E2.19962

G1 X66.070 Y148.851 E0.01676

G1 X116.149 Y198.930 E2.22333

M73 P1 R449

G1 X116.683 Y198.930 E0.01676

G1 X66.070 Y148.317 E2.24703

G1 X66.070 Y147.783 E0.01676

G1 X117.217 Y198.930 E2.27073

G1 X117.751 Y198.930 E0.01676

G1 X66.070 Y147.249 E2.29444

G1 X66.070 Y146.715 E0.01676

G1 X118.285 Y198.930 E2.31814

M73 P1 R448

G1 X118.819 Y198.930 E0.01676

G1 X66.070 Y146.181 E2.34185

G1 X66.070 Y145.647 E0.01676

G1 X119.353 Y198.930 E2.36555

G1 X119.886 Y198.930 E0.01676

G1 X66.070 Y145.114 E2.38926

G1 X66.070 Y144.580 E0.01676

G1 X120.420 Y198.930 E2.41296

G1 X120.954 Y198.930 E0.01676

G1 X66.070 Y144.046 E2.43667

G1 X66.070 Y143.512 E0.01676

G1 X121.488 Y198.930 E2.46037

G1 X122.022 Y198.930 E0.01676

G1 X66.070 Y142.978 E2.48407

G1 X66.070 Y142.444 E0.01676

G1 X122.556 Y198.930 E2.50778

G1 X123.090 Y198.930 E0.01676

G1 X66.070 Y141.910 E2.53148

G1 X66.070 Y141.376 E0.01676

G1 X123.624 Y198.930 E2.55519

G1 X124.158 Y198.930 E0.01676

G1 X66.070 Y140.842 E2.57889

G1 X66.070 Y140.308 E0.01676

G1 X124.692 Y198.930 E2.60260

G1 X125.226 Y198.930 E0.01676

G1 X66.070 Y139.774 E2.62630

G1 X66.070 Y139.240 E0.01676

G1 X125.760 Y198.930 E2.65001

G1 X126.294 Y198.930 E0.01676

G1 X66.070 Y138.706 E2.67371

M73 P1 R447

G1 X66.070 Y138.172 E0.01676

G1 X126.828 Y198.930 E2.69741

G1 X127.361 Y198.930 E0.01676

G1 X66.070 Y137.639 E2.72112

G1 X66.070 Y137.105 E0.01676

G1 X127.895 Y198.930 E2.74482

G1 X128.429 Y198.930 E0.01676

G1 X66.070 Y136.571 E2.76853

G1 X66.070 Y136.037 E0.01676

G1 X128.963 Y198.930 E2.79223

G1 X129.497 Y198.930 E0.01676

G1 X66.070 Y135.503 E2.81594

G1 X66.070 Y134.969 E0.01676

G1 X130.031 Y198.930 E2.83964

G1 X130.565 Y198.930 E0.01676

G1 X66.070 Y134.435 E2.86334

G1 X66.070 Y133.901 E0.01676

G1 X131.099 Y198.930 E2.88705

G1 X131.633 Y198.930 E0.01676

G1 X66.070 Y133.367 E2.91075

G1 X66.070 Y132.833 E0.01676

G1 X132.167 Y198.930 E2.93446

G1 X132.701 Y198.930 E0.01676

G1 X66.070 Y132.299 E2.95816

G1 X66.070 Y131.765 E0.01676

G1 X133.235 Y198.930 E2.98187

G1 X133.769 Y198.930 E0.01676

G1 X66.070 Y131.231 E3.00557

M73 P1 R446

G1 X66.070 Y130.697 E0.01676

G1 X134.303 Y198.930 E3.02928

G1 X134.836 Y198.930 E0.01676

G1 X66.070 Y130.164 E3.05298

G1 X66.070 Y129.630 E0.01676

G1 X135.370 Y198.930 E3.07668

G1 X135.904 Y198.930 E0.01676

G1 X66.070 Y129.096 E3.10039

G1 X66.070 Y128.562 E0.01676

G1 X136.438 Y198.930 E3.12409

G1 X136.972 Y198.930 E0.01676

G1 X66.070 Y128.028 E3.14780

G1 X66.070 Y127.494 E0.01676

G1 X137.506 Y198.930 E3.17150

G1 X138.040 Y198.930 E0.01676

G1 X66.070 Y126.960 E3.19521

G1 X66.070 Y126.426 E0.01676

G1 X138.574 Y198.930 E3.21891

G1 X139.108 Y198.930 E0.01676

G1 X66.070 Y125.892 E3.24262

G1 X66.070 Y125.358 E0.01676

G1 X139.642 Y198.930 E3.26632

M73 P1 R445

G1 X140.176 Y198.930 E0.01676

G1 X66.070 Y124.824 E3.29002

G1 X66.070 Y124.290 E0.01676

G1 X140.710 Y198.930 E3.31373

G1 X141.244 Y198.930 E0.01676

G1 X66.070 Y123.756 E3.33743

G1 X66.070 Y123.222 E0.01676

G1 X141.778 Y198.930 E3.36114

G1 X142.311 Y198.930 E0.01676

G1 X66.070 Y122.689 E3.38484

G1 X66.070 Y122.155 E0.01676

G1 X142.845 Y198.930 E3.40855

G1 X143.379 Y198.930 E0.01676

G1 X66.070 Y121.621 E3.43225

G1 X66.070 Y121.087 E0.01676

G1 X143.913 Y198.930 E3.45596

G1 X144.447 Y198.930 E0.01676

G1 X66.070 Y120.553 E3.47966

G1 X66.070 Y120.019 E0.01676

G1 X144.981 Y198.930 E3.50336

G1 X145.515 Y198.930 E0.01676

G1 X66.070 Y119.485 E3.52707

M73 P1 R444

G1 X66.070 Y118.951 E0.01676

G1 X146.049 Y198.930 E3.55077

G1 X146.583 Y198.930 E0.01676

G1 X66.070 Y118.417 E3.57448

G1 X66.070 Y117.883 E0.01676

G1 X147.117 Y198.930 E3.59818

M73 P2 R444

G1 X147.651 Y198.930 E0.01676

G1 X66.070 Y117.349 E3.62189

G1 X66.070 Y116.815 E0.01676

G1 X148.185 Y198.930 E3.64559

G1 X148.719 Y198.930 E0.01676

G1 X66.070 Y116.281 E3.66929

G1 X66.070 Y115.747 E0.01676

G1 X149.252 Y198.930 E3.69300

G1 X149.786 Y198.930 E0.01676

G1 X66.070 Y115.214 E3.71670

G1 X66.070 Y114.680 E0.01676

G1 X150.320 Y198.930 E3.74041

G1 X150.854 Y198.930 E0.01676

G1 X66.070 Y114.146 E3.76411

G1 X66.070 Y113.612 E0.01676

G1 X151.388 Y198.930 E3.78782

M73 P2 R443

G1 X151.922 Y198.930 E0.01676

G1 X66.070 Y113.078 E3.81152

G1 X66.070 Y112.544 E0.01676

G1 X152.456 Y198.930 E3.83523

G1 X152.990 Y198.930 E0.01676

G1 X66.070 Y112.010 E3.85893

G1 X66.070 Y111.476 E0.01676

G1 X153.524 Y198.930 E3.88263

G1 X154.058 Y198.930 E0.01676

G1 X66.070 Y110.942 E3.90634

G1 X66.070 Y110.408 E0.01676

G1 X154.592 Y198.930 E3.93004

G1 X155.126 Y198.930 E0.01676

G1 X66.070 Y109.874 E3.95375

G1 X66.070 Y109.340 E0.01676

G1 X155.660 Y198.930 E3.97745

G1 X156.194 Y198.930 E0.01676

G1 X66.070 Y108.806 E4.00116

M73 P2 R442

G1 X66.070 Y108.273 E0.01676

G1 X156.727 Y198.930 E4.02486

G1 X157.261 Y198.930 E0.01676

G1 X66.070 Y107.739 E4.04857

G1 X66.070 Y107.205 E0.01676

G1 X157.795 Y198.930 E4.07227

G1 X158.329 Y198.930 E0.01676

G1 X66.070 Y106.671 E4.09597

G1 X66.070 Y106.137 E0.01676

G1 X158.863 Y198.930 E4.11968

G1 X159.397 Y198.930 E0.01676

G1 X66.070 Y105.603 E4.14338

G1 X66.070 Y105.069 E0.01676

G1 X159.931 Y198.930 E4.16709

G1 X160.465 Y198.930 E0.01676

G1 X66.070 Y104.535 E4.19079

G1 X66.070 Y104.001 E0.01676

G1 X160.999 Y198.930 E4.21450

M73 P2 R441

G1 X161.533 Y198.930 E0.01676

G1 X66.070 Y103.467 E4.23820

G1 X66.070 Y102.933 E0.01676

G1 X162.067 Y198.930 E4.26191

G1 X162.601 Y198.930 E0.01676

G1 X66.070 Y102.399 E4.28561

G1 X66.070 Y101.865 E0.01676

G1 X163.135 Y198.930 E4.30931

G1 X163.669 Y198.930 E0.01676

G1 X66.070 Y101.331 E4.33302

G1 X66.070 Y100.798 E0.01676

G1 X164.202 Y198.930 E4.35672

G1 X164.736 Y198.930 E0.01676

G1 X66.070 Y100.264 E4.38043

G1 X66.070 Y99.730 E0.01676

G1 X165.270 Y198.930 E4.40413

G1 X165.804 Y198.930 E0.01676

G1 X66.070 Y99.196 E4.42784

M73 P2 R440

G1 X66.070 Y98.662 E0.01676

G1 X166.338 Y198.930 E4.45154

G1 X166.872 Y198.930 E0.01676

G1 X66.070 Y98.128 E4.47524

G1 X66.070 Y97.594 E0.01676

G1 X167.406 Y198.930 E4.49895

G1 X167.940 Y198.930 E0.01676

G1 X66.070 Y97.060 E4.52265

G1 X66.070 Y96.526 E0.01676

G1 X168.474 Y198.930 E4.54636

G1 X169.008 Y198.930 E0.01676

G1 X66.070 Y95.992 E4.57006

G1 X66.070 Y95.458 E0.01676

G1 X169.542 Y198.930 E4.59377

M73 P3 R440

G1 X170.076 Y198.930 E0.01676

G1 X66.070 Y94.924 E4.61747

M73 P3 R439

G1 X66.070 Y94.390 E0.01676

G1 X170.610 Y198.930 E4.64118

G1 X171.144 Y198.930 E0.01676

G1 X66.070 Y93.856 E4.66488

G1 X66.070 Y93.323 E0.01676

G1 X171.677 Y198.930 E4.68858

G1 X172.211 Y198.930 E0.01676

G1 X66.070 Y92.789 E4.71229

G1 X66.070 Y92.255 E0.01676

G1 X172.745 Y198.930 E4.73599

G1 X173.279 Y198.930 E0.01676

G1 X66.070 Y91.721 E4.75970

G1 X66.070 Y91.187 E0.01676

G1 X173.813 Y198.930 E4.78340

G1 X174.347 Y198.930 E0.01676

G1 X66.070 Y90.653 E4.80711

M73 P3 R438

G1 X66.070 Y90.119 E0.01676

G1 X174.881 Y198.930 E4.83081

G1 X175.415 Y198.930 E0.01676

G1 X66.070 Y89.585 E4.85452

G1 X66.070 Y89.051 E0.01676

