; generated by PrusaSlicer 2.5.0+linux-x64-GTK3 on 2022-09-09 at 20:20:58 UTC

; 

; external perimeters extrusion width = 0.45mm
; perimeters extrusion width = 0.45mm
; infill extrusion width = 0.45mm
; solid infill extrusion width = 0.45mm
; top infill extrusion width = 0.40mm
; first layer extrusion width = 0.42mm

M73 P0 R35
M201 X9000 Y9000 Z500 E10000 ; sets maximum accelerations, mm/sec^2
M203 X500 Y500 Z12 E120 ; sets maximum feedrates, mm / sec
M204 P2000 R1500 T2000 ; sets acceleration (P, T) and retract acceleration (R), mm/sec^2
M205 X10.00 Y10.00 Z0.20 E4.50 ; sets the jerk limits, mm/sec
M205 S0 T0 ; sets the minimum extruding and travel feed rate, mm/sec
M107
;TYPE:Custom
M862.3 P "MK2.5" ; printer model check
M862.1 P0.4 ; nozzle diameter check
M115 U3.11.0 ; tell printer latest fw version
G90 ; use absolute coordinates
M83 ; extruder relative mode
M104 S215 ; set extruder temp
M140 S60 ; set bed temp
M190 S60 ; wait for bed temp
M109 S215 ; wait for extruder temp
G28 W ; home all without mesh bed level
G80 ; mesh bed leveling

G1 Z0.2 F720
G1 Y-3 F1000 ; go outside print area
G92 E0
G1 X60 E9 F1000 ; intro line
G1 X100 E12.5 F1000 ; intro line

G92 E0
G21 ; set units to millimeters
G90 ; use absolute coordinates
M83 ; use relative distances for extrusion
M900 K0.05 ; Filament gcode LA 1.5
M900 K30 ; Filament gcode LA 1.0
M107
;LAYER_CHANGE
;Z:0.2
;HEIGHT:0.2
;BEFORE_LAYER_CHANGE
G92 E0.0
;0.2


G1 E-.8 F2100
G1 Z.4 F720
;AFTER_LAYER_CHANGE
;0.2
;CURRENT_Z: 0.2
G1 X100.594 Y94.463 F10800
G1 Z.2 F720
G1 E.8 F2100
M204 S800
;TYPE:Skirt/Brim
;WIDTH:0.42
G1 F1200
G1 X101.033 Y94.024 E.01946
G1 X102.093 Y93.21 E.04191
G1 X102.63 Y92.9 E.01946
G1 X103.865 Y92.388 E.04191
G1 X104.462 Y92.228 E.01938
G1 X106.09 Y92.033 E.0514
G1 X112.842 Y92.033 E.2117
G1 X147.942 Y92.653 E1.10071
G1 X149.581 Y93.349 E.05583
G1 X150.081 Y93.849 E.02217
G1 X150.777 Y95.53 E.05704
G1 X150.777 Y114.47 E.59385
G1 X150.081 Y116.151 E.05704
G1 X149.581 Y116.651 E.02217
G1 X147.942 Y117.347 E.05583
G1 X112.842 Y117.967 E1.10071
G1 X105.777 Y117.946 E.22151
G1 X104.462 Y117.772 E.0416
G1 X103.865 Y117.612 E.01938
G1 X102.63 Y117.1 E.04191
G1 X102.093 Y116.79 E.01946
G1 X101.033 Y115.976 E.04191
G1 X100.594 Y115.537 E.01946
G1 X99.78 Y114.477 E.04191
G1 X99.47 Y113.94 E.01945
G1 X98.958 Y112.705 E.04191
G1 X98.798 Y112.106 E.01945
G1 X98.623 Y110.78 E.04191
G1 X98.603 Y99.53 E.35275
G1 X98.797 Y97.903 E.05136
G1 X98.956 Y97.308 E.01933
G1 X99.468 Y96.064 E.04218
G1 X99.78 Y95.523 E.01958
G1 X100.557 Y94.51 E.04003
M204 S1000
; printing object flexbatterCR123Ax1.stl id:0 copy 0
;WIPE_START
G1 F8640
G1 X101.033 Y94.024 E-.15705
G1 X102.093 Y93.21 E-.30862
G1 X102.63 Y92.9 E-.1433
G1 X103.235 Y92.65 E-.15103
;WIPE_END
G1 E-.04 F2100
G1 Z.6 F720
G1 X107.078 Y108.312 F10800
G1 Z.2 F720
G1 E.8 F2100
M204 S800
;TYPE:External perimeter
;WIDTH:0.418707
G1 F1200
G1 X107.236 Y108.114 E.00791
G1 X107.374 Y107.797 E.01082
G1 X107.426 Y107.455 E.01082
G1 X107.387 Y107.111 E.01082
G1 X107.261 Y106.788 E.01082
G1 X107.055 Y106.51 E.01082
G1 X106.784 Y106.294 E.01082
G1 X106.467 Y106.156 E.01082
;WIDTH:0.419192
G1 X106.075 Y106.104 E.01235
G1 X104.946 Y106.259 E.03566
G1 X103.896 Y106.701 E.03566
G1 X103.03 Y107.365 E.03414
G1 X102.307 Y108.308 E.03718
G1 X101.876 Y109.364 E.03566
G1 X101.734 Y110.445 E.03414
G1 X101.889 Y111.624 E.03718
G1 X102.331 Y112.674 E.03566
G1 X102.995 Y113.54 E.03414
G1 X103.938 Y114.264 E.03719
G1 X104.946 Y114.681 E.03414
G1 X106.064 Y114.835 E.03529
;WIDTH:0.423087
G1 X110.343 Y114.842 E.13527
;WIDTH:0.420466
G1 X110.346 Y114.842 E.00011
;WIDTH:0.431011
G1 X111.316 Y114.828 E.03131
;WIDTH:0.470628
G1 X111.831 Y114.769 E.01841
;WIDTH:0.512517
G1 X112.544 Y114.726 E.02789
G1 X112.544 Y115.208 E.01881
G1 X111.842 Y115.195 E.02742
;WIDTH:0.468706
G1 X111.294 Y115.215 E.0194
;WIDTH:0.42881
G1 X110.343 Y115.219 E.03053
;WIDTH:0.423087
G1 X106.015 Y115.207 E.1368
;WIDTH:0.419269
G1 X104.945 Y115.067 E.03378
G1 X104.802 Y115.029 E.00461
G1 X103.794 Y114.611 E.03414
G1 X103.667 Y114.538 E.00461
G1 X102.801 Y113.873 E.03415
G1 X102.697 Y113.769 E.00461
G1 X102.033 Y112.903 E.03414
G1 X101.959 Y112.776 E.00461
G1 X101.541 Y111.768 E.03415
G1 X101.503 Y111.625 E.00461
G1 X101.361 Y110.544 E.03414
G1 X101.361 Y110.396 E.00461
G1 X101.503 Y109.315 E.03414
G1 X101.541 Y109.172 E.00461
G1 X101.959 Y108.164 E.03415
G1 X102.033 Y108.037 E.00461
G1 X102.697 Y107.171 E.03414
G1 X102.801 Y107.067 E.00461
G1 X103.667 Y106.402 E.03414
G1 X103.794 Y106.329 E.00461
G1 X104.802 Y105.911 E.03414
G1 X104.944 Y105.873 E.00461
G1 X106.026 Y105.731 E.03415
G1 X106.469 Y105.77 E.01391
;WIDTH:0.418845
G1 X106.886 Y105.922 E.01386
;WIDTH:0.418697
G1 X107.249 Y106.177 E.01387
G1 X107.534 Y106.517 E.01387
G1 X107.722 Y106.919 E.01387
G1 X107.799 Y107.356 E.01387
G1 X107.76 Y107.799 E.01387
G1 X107.608 Y108.216 E.01387
G1 X107.353 Y108.579 E.01387
;WIDTH:0.420331
G1 X106.954 Y108.909 E.01625
G1 X106.47 Y109.09 E.01621
;WIDTH:0.419098
G1 X105.78 Y109.183 E.02178
G1 X105.458 Y109.309 E.01081
;WIDTH:0.418695
G1 X105.18 Y109.515 E.01082
G1 X104.964 Y109.786 E.01082
G1 X104.826 Y110.103 E.01082
G1 X104.774 Y110.445 E.01082
G1 X104.813 Y110.789 E.01082
G1 X104.939 Y111.112 E.01082
G1 X105.145 Y111.39 E.01082
G1 X105.416 Y111.606 E.01082
G1 X105.733 Y111.744 E.01082
;WIDTH:0.422915
G1 X106.135 Y111.798 E.01282
G1 X107.136 Y111.795 E.03163
;WIDTH:0.419223
G1 X108.018 Y111.672 E.02785
G1 X108.848 Y111.321 E.02822
G1 X109.56 Y110.767 E.02822
G1 X110.104 Y110.048 E.02822
G1 X110.443 Y109.212 E.02822
;WIDTH:0.423089
G1 X110.556 Y108.306 E.02887
G1 X110.559 Y106.897 E.04453
;WIDTH:0.420009
G1 X110.575 Y106.321 E.01808
;WIDTH:0.403521
G1 X110.921 Y106.321 E.01037
;WIDTH:0.420017
G1 X110.937 Y106.898 E.01809
;WIDTH:0.423089
G1 X110.925 Y108.427 E.04835
;WIDTH:0.419226
G1 X110.778 Y109.404 E.03091
G1 X110.378 Y110.319 E.03127
G1 X109.754 Y111.1 E.03127
G1 X108.95 Y111.693 E.03127
G1 X108.019 Y112.058 E.03127
;WIDTH:0.423197
G1 X107.072 Y112.179 E.0302
G1 X106.135 Y112.178 E.02962
;WIDTH:0.422915
G1 X105.732 Y112.13 E.01284
;WIDTH:0.418717
G1 X105.314 Y111.978 E.01388
G1 X104.951 Y111.723 E.01387
G1 X104.666 Y111.383 E.01387
G1 X104.478 Y110.981 E.01387
G1 X104.401 Y110.544 E.01387
G1 X104.44 Y110.101 E.01387
G1 X104.592 Y109.684 E.01387
G1 X104.847 Y109.321 E.01387
;WIDTH:0.420332
G1 X105.246 Y108.991 E.01625
G1 X105.73 Y108.81 E.01621
;WIDTH:0.419099
G1 X106.42 Y108.717 E.02178
G1 X106.742 Y108.591 E.01082
;WIDTH:0.418707
G1 X107.041 Y108.359 E.01181
M204 S1000
;WIPE_START
G1 F8640
G1 X107.236 Y108.114 E-.07233
G1 X107.374 Y107.797 E-.07994
G1 X107.426 Y107.455 E-.07994
G1 X107.387 Y107.111 E-.07994
G1 X107.261 Y106.788 E-.07994
G1 X107.055 Y106.51 E-.07994
G1 X106.784 Y106.294 E-.07994
G1 X106.467 Y106.156 E-.07994
G1 X106.075 Y106.104 E-.09117
G1 X105.917 Y106.126 E-.03693
;WIPE_END
G1 E-.04 F2100
G1 Z.6 F720
G1 X113.487 Y106.707 F10800
G1 Z.2 F720
G1 E.8 F2100
M204 S800
;TYPE:Perimeter
;WIDTH:0.419999
G1 F1200
G1 X127.41 Y106.707 E.43653
G1 X127.41 Y113.783 E.22185
G1 X118.122 Y113.783 E.29121
G1 X118.467 Y113.372 E.01684
G1 X118.467 Y111.088 E.07159
G1 X118.381 Y110.788 E.00978
G1 X118.131 Y110.572 E.01037
G1 X117.901 Y110.523 E.00737
G1 X113.487 Y110.523 E.13841
G1 X113.487 Y106.767 E.11775
M204 S1000
;WIPE_START
G1 F8640
M73 P1 R35
G1 X116.778 Y106.753 E-.76
;WIPE_END
G1 E-.04 F2100
G1 Z.6 F720
G1 X123.862 Y110.985 F10800
G1 Z.2 F720
G1 E.8 F2100
M204 S800
G1 F1200
G1 X123.695 Y111.428 E.01484
G1 X123.347 Y111.913 E.0187
G1 X122.886 Y112.291 E.01871
G1 X122.342 Y112.537 E.01871
G1 X121.754 Y112.634 E.0187
G1 X121.16 Y112.575 E.01871
G1 X120.602 Y112.365 E.01871
G1 X120.117 Y112.017 E.01871
G1 X119.739 Y111.556 E.01871
G1 X119.493 Y111.012 E.01871
G1 X119.396 Y110.424 E.01871
G1 X119.455 Y109.83 E.01871
G1 X119.634 Y109.348 E.01613
G1 X119.999 Y108.805 E.02051
G1 X120.474 Y108.409 E.0194
G1 X121.018 Y108.163 E.01871
G1 X121.606 Y108.066 E.01871
G1 X122.2 Y108.125 E.0187
G1 X122.758 Y108.335 E.01871
G1 X123.243 Y108.683 E.01871
G1 X123.621 Y109.144 E.01871
G1 X123.867 Y109.687 E.0187
G1 X123.964 Y110.276 E.01871
G1 X123.905 Y110.87 E.0187
G1 X123.883 Y110.929 E.00199
M204 S1000
G1 X123.498 Y110.916 F10800
M204 S800
;TYPE:External perimeter
G1 F1200
G1 X123.322 Y111.326 E.014
G1 X123.013 Y111.718 E.01564
G1 X122.614 Y112.017 E.01564
G1 X122.151 Y112.202 E.01564
G1 X121.655 Y112.26 E.01564
G1 X121.162 Y112.189 E.01564
G1 X120.704 Y111.992 E.01564
G1 X120.312 Y111.683 E.01564
G1 X120.013 Y111.284 E.01564
G1 X119.828 Y110.821 E.01564
G1 X119.77 Y110.375 E.01411
G1 X119.834 Y109.852 E.01651
G1 X120.002 Y109.455 E.01351
G1 X120.307 Y109.023 E.0166
G1 X120.704 Y108.708 E.01587
G1 X121.201 Y108.5 E.01692
G1 X121.705 Y108.44 E.01589
G1 X122.198 Y108.511 E.01564
G1 X122.656 Y108.708 E.01564
G1 X123.048 Y109.017 E.01564
G1 X123.38 Y109.497 E.01832
G1 X123.532 Y109.879 E.01288
G1 X123.59 Y110.375 E.01564
G1 X123.52 Y110.86 E.01539
M204 S1000
G1 X123.776 Y111.204 F10800
;WIPE_START
G1 F8640
G1 X123.322 Y111.326 E-.11692
G1 X123.013 Y111.718 E-.11515
G1 X122.614 Y112.017 E-.11517
G1 X122.151 Y112.202 E-.11516
G1 X121.655 Y112.26 E-.11515
G1 X121.162 Y112.189 E-.11516
G1 X120.894 Y112.074 E-.06729
;WIPE_END
G1 E-.04 F2100
G1 Z.6 F720
G1 X113.11 Y106.33 F10800
G1 Z.2 F720
G1 E.8 F2100
M204 S800
G1 F1200
G1 X127.787 Y106.33 E.46017
G1 X127.787 Y114.16 E.2455
G1 X118.878 Y114.16 E.27931
;WIDTH:0.457135
G1 X118.553 Y114.142 E.01123
;WIDTH:0.494271
G1 X118.227 Y114.123 E.01224
;WIDTH:0.531407
G1 X117.901 Y114.104 E.01325
;WIDTH:0.531595
G1 X115.278 Y114.104 E.10661
;WIDTH:0.56777
G1 X113.895 Y114.157 E.06039
G1 X113.737 Y114.213 E.00734
;WIDTH:0.518513
G1 X113.578 Y114.27 E.00665
;WIDTH:0.469256
G1 X113.42 Y114.326 E.00596
;WIDTH:0.419999
G1 X112.91 Y114.36 E.01602
G1 X112.91 Y114.05 E.00972
G1 X113.008 Y113.539 E.01633
G1 X113.475 Y113.553 E.01463
;WIDTH:0.453933
G1 X113.557 Y113.572 E.00289
;WIDTH:0.487867
G1 X113.639 Y113.592 E.00313
;WIDTH:0.5218
G1 X113.722 Y113.611 E.00337
;WIDTH:0.542606
G1 X115.272 Y113.616 E.06443
;WIDTH:0.531595
G1 X117.901 Y113.616 E.10683
;WIDTH:0.535108
G1 X117.944 Y113.614 E.00174
G1 X117.993 Y113.533 E.00386
;WIDTH:0.496739
G1 X118.041 Y113.452 E.00356
;WIDTH:0.458369
G1 X118.09 Y113.372 E.00326
;WIDTH:0.419999
G1 X118.09 Y111.088 E.07159
G1 X118.03 Y110.95 E.00472
G1 X117.901 Y110.9 E.00433
G1 X113.11 Y110.9 E.15023
G1 X113.11 Y106.39 E.14139
M204 S1000
G1 X113.497 Y106.431 F10800
;WIPE_START
G1 F8640
G1 X116.401 Y106.377 E-.76
;WIPE_END
G1 E-.04 F2100
G1 Z.6 F720
G1 X113.332 Y113.942 F10800
G1 Z.2 F720
G1 E.8 F2100
M204 S800
;TYPE:Perimeter
;WIDTH:0.453244
G1 F1200
G1 X113.463 Y113.93 E.00451
M204 S1000
;WIPE_START
G1 F8640
G1 X113.332 Y113.942 E-.03049
;WIPE_END
G1 E-.76951 F2100
G1 Z.6 F720
G1 X127.296 Y107.597 F10800
G1 Z.2 F720
G1 E.8 F2100
M204 S800
;TYPE:Solid infill
;WIDTH:0.426542
G1 F1200
G1 X126.69 Y106.99 E.02736
G1 X126.147 Y106.99 E.01731
G1 X127.127 Y107.969 E.04418
G1 X127.127 Y108.512 E.01731
G1 X125.605 Y106.99 E.06865
G1 X125.062 Y106.99 E.01731
G1 X127.127 Y109.054 E.09312
G1 X127.127 Y109.597 E.01731
G1 X124.52 Y106.99 E.1176
G1 X123.977 Y106.99 E.01731
G1 X127.127 Y110.14 E.14207
G1 X127.127 Y110.682 E.01731
G1 X123.435 Y106.99 E.16655
G1 X122.892 Y106.99 E.01731
G1 X127.127 Y111.225 E.19102
G1 X127.127 Y111.767 E.01731
G1 X122.35 Y106.99 E.21549
G1 X121.807 Y106.99 E.01731
G1 X127.127 Y112.31 E.23997
G1 X127.127 Y112.852 E.01731
G1 X124.202 Y109.927 E.13194
G1 X124.252 Y110.35 E.01358
G1 X124.234 Y110.502 E.00488
G1 X127.127 Y113.395 E.13049
G1 X127.127 Y113.5 E.00337
M73 P1 R34
G1 X126.69 Y113.5 E.01394
G1 X124.17 Y110.98 E.11367
G1 X124.023 Y111.376 E.01346
G1 X126.147 Y113.5 E.09583
G1 X125.605 Y113.5 E.01731
G1 X123.84 Y111.735 E.07961
G1 X123.604 Y112.042 E.01234
G1 X125.062 Y113.5 E.06576
G1 X124.52 Y113.5 E.01731
G1 X123.328 Y112.309 E.05376
G1 X123.017 Y112.54 E.01237
G1 X123.977 Y113.5 E.04331
G1 X123.435 Y113.5 E.01731
G1 X122.65 Y112.716 E.03538
G1 X122.446 Y112.8 E.00706
G1 X122.246 Y112.854 E.00661
G1 X122.892 Y113.5 E.02916
G1 X122.35 Y113.5 E.01731
G1 X121.762 Y112.913 E.02651
G1 X121.68 Y112.922 E.00263
G1 X121.168 Y112.861 E.01645
G1 X121.977 Y113.67 E.03648
M204 S1000
;WIPE_START
G1 F8640
G1 X121.168 Y112.861 E-.26409
G1 X121.68 Y112.922 E-.11909
G1 X121.762 Y112.913 E-.01902
G1 X122.35 Y113.5 E-.19191
G1 X122.892 Y113.5 E-.12527
G1 X122.768 Y113.376 E-.04063
;WIPE_END
G1 E-.04 F2100
G1 Z.6 F720
G1 X121.095 Y106.82 F10800
G1 Z.2 F720
G1 E.8 F2100
M204 S800
G1 F1200
G1 X122.101 Y107.826 E.04538
G1 X121.785 Y107.785 E.01018
G1 X121.524 Y107.792 E.00833
G1 X120.722 Y106.99 E.03615
G1 X120.18 Y106.99 E.01731
G1 X121.05 Y107.86 E.03925
G1 X120.654 Y108.007 E.01346
G1 X119.637 Y106.99 E.04588
G1 X119.095 Y106.99 E.01731
G1 X120.295 Y108.19 E.05413
G1 X119.988 Y108.426 E.01234
G1 X118.552 Y106.99 E.06476
G1 X118.01 Y106.99 E.01731
G1 X119.724 Y108.705 E.07735
G1 X119.5 Y109.023 E.01242
G1 X117.467 Y106.99 E.0917
G1 X116.925 Y106.99 E.01731
G1 X119.314 Y109.38 E.1078
G1 X119.229 Y109.585 E.00709
G1 X119.176 Y109.784 E.00657
G1 X116.382 Y106.99 E.12603
G1 X115.839 Y106.99 E.01731
G1 X119.115 Y110.265 E.14775
G1 X119.115 Y110.455 E.00606
G1 X119.175 Y110.868 E.01331
G1 X115.297 Y106.99 E.17494
G1 X114.754 Y106.99 E.01731
G1 X118.013 Y110.248 E.14698
G1 X118.248 Y110.313 E.00779
G1 X118.479 Y110.466 E.00884
G1 X118.624 Y110.641 E.00724
G1 X118.742 Y110.978 E.01139
G1 X121.265 Y113.5 E.11379
G1 X120.722 Y113.5 E.01731
G1 X118.75 Y111.528 E.08897
G1 X118.75 Y112.071 E.01731
G1 X120.18 Y113.5 E.06449
G1 X119.637 Y113.5 E.01731
G1 X118.75 Y112.613 E.04002
G1 X118.75 Y113.156 E.01731
G1 X119.264 Y113.67 E.0232
M204 S1000
;WIPE_START
G1 F8640
G1 X118.75 Y113.156 E-.16794
G1 X118.75 Y112.613 E-.12527
G1 X119.637 Y113.5 E-.28969
G1 X120.18 Y113.5 E-.12527
G1 X120.021 Y113.341 E-.05184
;WIPE_END
G1 E-.04 F2100
G1 Z.6 F720
G1 X117.631 Y110.41 F10800
G1 Z.2 F720
G1 E.8 F2100
M204 S800
G1 F1200
G1 X114.212 Y106.99 E.15426
G1 X113.77 Y106.99 E.0141
G1 X113.77 Y107.091 E.00321
G1 X116.919 Y110.24 E.14207
G1 X116.377 Y110.24 E.01731
G1 X113.77 Y107.633 E.11759
G1 X113.77 Y108.176 E.01731
G1 X115.834 Y110.24 E.09312
G1 X115.292 Y110.24 E.01731
G1 X113.77 Y108.718 E.06865
G1 X113.77 Y109.261 E.01731
G1 X114.749 Y110.24 E.04417
G1 X114.207 Y110.24 E.01731
G1 X113.6 Y109.634 E.02735
M204 S1000
;WIPE_START
G1 F8640
G1 X114.207 Y110.24 E-.19801
G1 X114.749 Y110.24 E-.12527
G1 X113.77 Y109.261 E-.31976
G1 X113.77 Y108.754 E-.11697
;WIPE_END
G1 E-.04 F2100
G1 Z.6 F720
G1 X131.051 Y106.707 F10800
G1 Z.2 F720
G1 E.8 F2100
M204 S800
;TYPE:Perimeter
;WIDTH:0.419999
G1 F1200
G1 X147.213 Y106.707 E.50676
G1 X147.213 Y113.783 E.22185
G1 X131.051 Y113.783 E.50676
G1 X131.051 Y106.767 E.21997
M204 S1000
G1 X130.673 Y106.33 F10800
M204 S800
;TYPE:External perimeter
G1 F1200
G1 X147.59 Y106.33 E.53041
G1 X147.59 Y114.16 E.2455
G1 X130.673 Y114.16 E.53041
G1 X130.673 Y106.39 E.24362
M204 S1000
G1 X131.069 Y106.388 F10800
;WIPE_START
G1 F8640
G1 X133.965 Y106.379 E-.76
;WIPE_END
G1 E-.04 F2100
G1 Z.6 F720
G1 X140.141 Y112.531 F10800
G1 Z.2 F720
G1 E.8 F2100
M204 S800
;TYPE:Perimeter
G1 F1200
G1 X139.702 Y112.365 E.01472
G1 X139.217 Y112.017 E.01871
G1 X138.839 Y111.556 E.01871
G1 X138.593 Y111.013 E.0187
G1 X138.496 Y110.424 E.01871
G1 X138.555 Y109.83 E.01871
G1 X138.765 Y109.272 E.01871
G1 X139.113 Y108.787 E.0187
G1 X139.574 Y108.409 E.01871
G1 X140.118 Y108.163 E.01871
G1 X140.706 Y108.066 E.0187
G1 X141.3 Y108.125 E.01871
G1 X141.858 Y108.335 E.01871
M73 P2 R34
G1 X142.343 Y108.683 E.01871
G1 X142.721 Y109.144 E.01871
G1 X142.967 Y109.687 E.0187
G1 X143.064 Y110.276 E.01871
G1 X143.005 Y110.87 E.01871
G1 X142.795 Y111.428 E.01871
G1 X142.447 Y111.913 E.0187
G1 X141.986 Y112.291 E.01871
G1 X141.442 Y112.537 E.01871
G1 X140.854 Y112.634 E.0187
G1 X140.26 Y112.575 E.01871
G1 X140.197 Y112.552 E.00211
M204 S1000
G1 X140.356 Y112.202 F10800
M204 S800
;TYPE:External perimeter
G1 F1200
G1 X140.262 Y112.189 E.00297
