; generated by PrusaSlicer 2.8.0 on 2024-09-21 at 14:29:50 UTC

; 

; external perimeters extrusion width = 0.45mm
; perimeters extrusion width = 0.45mm
; infill extrusion width = 0.45mm
; solid infill extrusion width = 0.45mm
; top infill extrusion width = 0.40mm
; first layer extrusion width = 0.42mm

M73 P0 R49
M201 X9000 Y9000 Z500 E10000 ; sets maximum accelerations, mm/sec^2
M203 X500 Y500 Z12 E120 ; sets maximum feedrates, mm / sec
M204 S2000 T1500 ; sets acceleration (S) and retract acceleration (R), mm/sec^2
M205 X10.00 Y10.00 Z0.20 E4.50 ; sets the jerk limits, mm/sec
M205 S0 T0 ; sets the minimum extruding and travel feed rate, mm/sec

; printing object axoblock-test-files-e-dungeon-tile.stl id:0 copy 0
; stop printing object axoblock-test-files-e-dungeon-tile.stl id:0 copy 0

;TYPE:Custom
M862.3 P "MK2.5" ; printer model check
M862.1 P0.4 ; nozzle diameter check
M115 U3.11.0 ; tell printer latest fw version
G90 ; use absolute coordinates
M83 ; extruder relative mode
M104 S215 ; set extruder temp
M140 S60 ; set bed temp
M190 S60 ; wait for bed temp
M109 S215 ; wait for extruder temp
G28 W ; home all without mesh bed level
G80 ; mesh bed leveling

G1 Z0.2 F720
G1 Y-3 F1000 ; go outside print area
G92 E0
G1 X60 E9 F1000 ; intro line
G1 X100 E12.5 F1000 ; intro line

G92 E0
G21 ; set units to millimeters
G90 ; use absolute coordinates
M83 ; use relative distances for extrusion
M900 K0.05 ; Filament gcode LA 1.5
M900 K30 ; Filament gcode LA 1.0
M107
;LAYER_CHANGE
;Z:0.2
;HEIGHT:0.2
G1 E-.8 F2100
G1 Z.6 F720
G1 X98.007 Y78.557 F10800
G1 Z.2 F720
G1 E.8 F2100
M204 S800
;TYPE:Skirt/Brim
;WIDTH:0.42
G1 F1200
G1 X99.04 Y77.754 E.04102
G1 X99.805 Y77.616 E.02437
G1 X150.197 Y77.614 E1.58001
G1 X151.446 Y78.005 E.04104
G1 X152.248 Y79.038 E.041
G1 X152.386 Y79.803 E.02437
G1 X152.386 Y130.197 E1.58007
G1 X151.994 Y131.445 E.04102
G1 X150.961 Y132.248 E.04102
G1 X150.197 Y132.386 E.02434
G1 X99.805 Y132.383 E1.58001
G1 X98.557 Y131.992 E.04101
G1 X97.754 Y130.959 E.04102
G1 X97.617 Y130.195 E.02434
G1 X97.616 Y79.805 E1.57994
G1 X97.989 Y78.614 E.03913
M204 S1000
;WIPE_START
G1 F8640
G1 X98.007 Y78.557 E-.0138
G1 X99.04 Y77.754 E-.30211
G1 X99.805 Y77.616 E-.17949
G1 X101.124 Y77.616 E-.3046
;WIPE_END
G1 Z.6 F720
; printing object axoblock-test-files-e-dungeon-tile.stl id:0 copy 0
G1 X107.166 Y103.724 F10800
G1 Z.2 F720
G1 E.8 F2100
M204 S800
;TYPE:External perimeter
;WIDTH:0.419999
G1 F1200
G1 X107.151 Y103.759 E.00119
G1 X107.02 Y103.811 E.00442
G1 X102.131 Y103.806 E.15329
G1 X101.096 Y103.711 E.03259
G1 X100.9 Y103.564 E.00768
G1 X100.89 Y97.748 E.18236
;WIDTH:0.419444
G1 X100.891 Y97.671 E.00241
;WIDTH:0.419999
G1 X101.058 Y97.495 E.00761
G1 X101.971 Y97.397 E.02879
G1 X107.02 Y97.391 E.15831
G1 X107.162 Y97.455 E.00488
G1 X107.209 Y97.58 E.00419
G1 X107.209 Y103.622 E.18944
G1 X107.189 Y103.669 E.0016
M204 S1000
;WIPE_START
G1 F8640
G1 X107.166 Y103.724 E-.01377
G1 X107.151 Y103.759 E-.00879
G1 X107.02 Y103.811 E-.03254
G1 X103.794 Y103.807 E-.7449
;WIPE_END
G1 Z.6 F720
G1 X107.017 Y129.052 F10800
G1 Z.2 F720
G1 E.8 F2100
M204 S800
;WIDTH:0.419423
G1 F1200
G1 X106.918 Y129.108 E.00356
;WIDTH:0.419313
G1 X104.1 Y129.11 E.0882
;WIDTH:0.42618
G1 X103.997 Y129.066 E.00357
G1 X103.894 Y129.11 E.00357
;WIDTH:0.419112
G1 X101.127 Y129.11 E.08655
;WIDTH:0.465327
G1 X100.929 Y129.071 E.00709
G1 X100.892 Y128.922 E.00539
;WIDTH:0.419893
G1 X100.89 Y126.13 E.08752
;WIDTH:0.43107
G1 X100.941 Y126 E.00451
G1 X100.89 Y125.87 E.00451
;WIDTH:0.420004
G1 X100.898 Y123.07 E.08779
G1 X101.06 Y122.895 E.00748
G1 X102.076 Y122.796 E.03201
G1 X104.616 Y122.791 E.07964
G1 X104.759 Y122.856 E.00493
G1 X105.002 Y123.557 E.02326
G1 X105.299 Y124.071 E.01861
G1 X105.697 Y124.515 E.0187
G1 X106.179 Y124.864 E.01866
G1 X106.721 Y125.105 E.0186
G1 X107.143 Y125.219 E.01371
G1 X107.209 Y125.362 E.00494
G1 X107.204 Y127.871 E.07867
G1 X107.147 Y128.592 E.02268
G1 X107.08 Y129.017 E.01349
;WIDTH:0.419423
G1 X107.069 Y129.023 E.00039
M204 S1000
;WIPE_START
G1 F8640
G1 X107.017 Y129.052 E-.01375
G1 X106.918 Y129.108 E-.02626
G1 X104.1 Y129.11 E-.65068
G1 X103.997 Y129.066 E-.02586
G1 X103.894 Y129.11 E-.02586
G1 X103.645 Y129.11 E-.05759
;WIPE_END
G1 Z.6 F720
G1 X149.033 Y87.029 F10800
G1 Z.2 F720
G1 E.8 F2100
M204 S800
;WIDTH:0.420055
G1 F1200
G1 X148.938 Y87.109 E.00389
G1 X147.87 Y87.206 E.03363
G1 X145.384 Y87.211 E.07796
G1 X145.241 Y87.146 E.00493
G1 X144.998 Y86.443 E.02333
G1 X144.702 Y85.93 E.01857
G1 X144.303 Y85.488 E.01867
;WIDTH:0.419999
G1 X143.821 Y85.138 E.01868
G1 X143.279 Y84.895 E.01862
G1 X142.854 Y84.781 E.0138
G1 X142.789 Y84.638 E.00493
G1 X142.794 Y82.131 E.07861
G1 X142.892 Y81.057 E.03381
G1 X143.064 Y80.896 E.00739
G1 X145.895 Y80.89 E.08876
;WIDTH:0.426645
G1 X145.997 Y80.934 E.00354
G1 X146.099 Y80.89 E.00354
;WIDTH:0.419669
G1 X148.855 Y80.891 E.08634
;WIDTH:0.465416
G1 X149.07 Y80.929 E.00767
G1 X149.109 Y81.208 E.0099
;WIDTH:0.420049
G1 X149.11 Y83.873 E.08357
;WIDTH:0.430674
G1 X149.059 Y84 E.00441
G1 X149.11 Y84.127 E.00441
;WIDTH:0.420055
G1 X149.103 Y86.97 E.08915
G1 X149.079 Y86.991 E.001
M204 S1000
;WIPE_START
G1 F8640
G1 X149.033 Y87.029 E-.01378
G1 X148.938 Y87.109 E-.02868
G1 X147.87 Y87.206 E-.24762
G1 X145.662 Y87.21 E-.50992
;WIPE_END
G1 Z.6 F720
G1 X132.563 Y87.124 F10800
G1 Z.2 F720
G1 E.8 F2100
M204 S800
;WIDTH:0.419999
G1 F1200
G1 X132.545 Y87.164 E.00138
G1 X132.42 Y87.211 E.00419
G1 X126.377 Y87.211 E.18947
G1 X126.241 Y87.153 E.00464
G1 X126.189 Y87.022 E.00442
G1 X126.194 Y82.134 E.15326
G1 X126.293 Y81.057 E.03391
G1 X126.32 Y80.979 E.00259
;WIDTH:0.419389
G1 X126.48 Y80.893 E.00569
;WIDTH:0.418985
G1 X126.532 Y80.891 E.00163
;WIDTH:0.419997
G1 X132.334 Y80.896 E.18192
G1 X132.505 Y81.057 E.00736
G1 X132.574 Y81.644 E.01853
G1 X132.608 Y82.594 E.02981
;WIDTH:0.419999
G1 X132.609 Y87.022 E.13884
G1 X132.587 Y87.07 E.00166
M204 S1000
;WIPE_START
G1 F8640
G1 X132.563 Y87.124 E-.01364
G1 X132.545 Y87.164 E-.01013
G1 X132.42 Y87.211 E-.03084
G1 X129.192 Y87.211 E-.74539
;WIPE_END
G1 Z.6 F720
G1 X132.816 Y112.808 F10800
G1 Z.2 F720
G1 E.8 F2100
M204 S800
;TYPE:Perimeter
G1 F1200
G1 X132.76 Y112.875 E.00274
G1 X132.491 Y112.984 E.0091
G1 X132.42 Y112.988 E.00223
G1 X126.377 Y112.988 E.18947
G1 X126.116 Y112.924 E.00843
G1 X125.969 Y112.814 E.00576
G1 X125.867 Y112.667 E.00561
G1 X125.812 Y112.422 E.00787
G1 X125.812 Y106.38 E.18944
G1 X125.872 Y106.127 E.00815
G1 X125.978 Y105.98 E.00568
G1 X126.125 Y105.874 E.00568
G1 X126.377 Y105.814 E.00812
G1 X132.42 Y105.814 E.18947
G1 X132.665 Y105.869 E.00787
G1 X132.885 Y106.056 E.00905
G1 X132.981 Y106.306 E.0084
G1 X132.986 Y106.38 E.00233
G1 X132.986 Y112.422 E.18944
G1 X132.926 Y112.675 E.00815
G1 X132.854 Y112.762 E.00354
M204 S1000
G1 X132.854 Y112.762 F10800
G1 X132.563 Y112.524
M204 S800
;TYPE:External perimeter
G1 F1200
G1 X132.545 Y112.564 E.00138
G1 X132.42 Y112.611 E.00419
G1 X126.377 Y112.611 E.18947
G1 X126.241 Y112.553 E.00464
G1 X126.189 Y112.422 E.00442
G1 X126.189 Y106.38 E.18944
G1 X126.244 Y106.246 E.00454
G1 X126.377 Y106.191 E.00451
G1 X132.42 Y106.191 E.18947
G1 X132.575 Y106.272 E.00548
G1 X132.609 Y106.38 E.00355
G1 X132.609 Y112.422 E.18944
G1 X132.587 Y112.47 E.00166
M204 S1000
;WIPE_START
G1 F8640
G1 X132.563 Y112.524 E-.01364
G1 X132.545 Y112.564 E-.01013
G1 X132.42 Y112.611 E-.03084
G1 X129.192 Y112.611 E-.74539
;WIPE_END
G1 Z.6 F720
G1 X124.029 Y104.01 F10800
G1 Z.2 F720
G1 E.8 F2100
M204 S800
;TYPE:Perimeter
G1 F1200
G1 X124.02 Y104.022 E.00047
G1 X123.873 Y104.128 E.00568
G1 X123.62 Y104.188 E.00815
G1 X117.577 Y104.188 E.18947
G1 X117.333 Y104.133 E.00784
G1 X117.113 Y103.946 E.00905
G1 X117.043 Y103.808 E.00485
G1 X117.012 Y103.622 E.00591
G1 X117.012 Y97.58 E.18944
G1 X117.072 Y97.327 E.00815
G1 X117.238 Y97.127 E.00815
G1 X117.507 Y97.018 E.0091
G1 X117.577 Y97.014 E.0022
G1 X123.62 Y97.014 E.18947
G1 X123.882 Y97.078 E.00846
G1 X124.029 Y97.188 E.00576
G1 X124.131 Y97.335 E.00561
G1 X124.186 Y97.58 E.00787
G1 X124.186 Y103.622 E.18944
G1 X124.126 Y103.875 E.00815
M73 P1 R49
G1 X124.064 Y103.962 E.00335
M204 S1000
G1 X124.064 Y103.962 F10800
G1 X123.767 Y103.723
M204 S800
;TYPE:External perimeter
G1 F1200
G1 X123.754 Y103.756 E.00111
G1 X123.62 Y103.811 E.00454
G1 X117.577 Y103.811 E.18947
G1 X117.447 Y103.759 E.00439
G1 X117.399 Y103.684 E.00279
G1 X117.389 Y97.58 E.19139
G1 X117.453 Y97.438 E.00488
G1 X117.577 Y97.391 E.00416
G1 X123.62 Y97.391 E.18947
G1 X123.757 Y97.449 E.00466
G1 X123.809 Y97.58 E.00442
G1 X123.809 Y103.622 E.18944
G1 X123.79 Y103.668 E.00156
M204 S1000
;WIPE_START
G1 F8640
G1 X123.767 Y103.723 E-.01377
G1 X123.754 Y103.756 E-.00819
G1 X123.62 Y103.811 E-.03345
G1 X120.396 Y103.811 E-.74459
;WIPE_END
G1 Z.6 F720
G1 X142.876 Y112.565 F10800
G1 Z.2 F720
G1 E.8 F2100
M204 S800
;WIDTH:0.419996
G1 F1200
G1 X142.836 Y112.547 E.00138
G1 X142.789 Y112.422 E.00419
G1 X142.789 Y106.38 E.18944
;WIDTH:0.419999
G1 X142.847 Y106.243 E.00466
G1 X142.978 Y106.191 E.00442
G1 X147.905 Y106.196 E.15448
G1 X148.944 Y106.294 E.03272
G1 X149.02 Y106.321 E.00253
;WIDTH:0.41959
G1 X149.109 Y106.53 E.00711
;WIDTH:0.419996
G1 X149.1 Y112.368 E.18304
G1 X148.938 Y112.508 E.00671
G1 X147.866 Y112.606 E.03375
G1 X142.978 Y112.611 E.15326
G1 X142.93 Y112.59 E.00164
M204 S1000
;WIPE_START
G1 F8640
G1 X142.876 Y112.565 E-.01374
G1 X142.836 Y112.547 E-.01013
G1 X142.789 Y112.422 E-.03084
G1 X142.789 Y109.194 E-.74529
;WIPE_END
G1 Z.6 F720
G1 X107.16 Y112.525 F10800
G1 Z.2 F720
G1 E.8 F2100
M204 S800
;WIDTH:0.419999
G1 F1200
G1 X107.138 Y112.57 E.00157
G1 X107.02 Y112.611 E.00392
G1 X102.131 Y112.606 E.15329
G1 X101.056 Y112.507 E.03385
G1 X100.895 Y112.334 E.00741
G1 X100.889 Y106.662 E.17784
G1 X100.894 Y106.467 E.00612
G1 X101.058 Y106.295 E.00745
G1 X101.951 Y106.199 E.02816
G1 X102.132 Y106.197 E.00568
G1 X107.02 Y106.191 E.15326
G1 X107.175 Y106.272 E.00548
G1 X107.209 Y106.38 E.00355
G1 X107.209 Y112.422 E.18944
G1 X107.186 Y112.471 E.0017
M204 S1000
;WIPE_START
G1 F8640
G1 X107.16 Y112.525 E-.01384
G1 X107.138 Y112.57 E-.01157
G1 X107.02 Y112.611 E-.02884
G1 X103.791 Y112.607 E-.74575
;WIPE_END
G1 Z.6 F720
G1 X117.192 Y112.818 F10800
G1 Z.2 F720
G1 E.8 F2100
M204 S800
;TYPE:Perimeter
G1 F1200
G1 X117.125 Y112.762 E.00274
G1 X117.016 Y112.493 E.0091
G1 X117.012 Y112.422 E.00223
G1 X117.012 Y106.38 E.18944
G1 X117.076 Y106.118 E.00846
G1 X117.186 Y105.971 E.00576
G1 X117.333 Y105.869 E.00561
G1 X117.577 Y105.814 E.00784
G1 X123.62 Y105.814 E.18947
G1 X123.873 Y105.874 E.00815
G1 X124.02 Y105.98 E.00568
G1 X124.126 Y106.127 E.00568
G1 X124.186 Y106.38 E.00815
G1 X124.186 Y112.422 E.18944
G1 X124.131 Y112.667 E.00787
G1 X123.944 Y112.887 E.00905
G1 X123.694 Y112.983 E.0084
G1 X123.62 Y112.988 E.00233
G1 X117.577 Y112.988 E.18947
G1 X117.325 Y112.928 E.00812
G1 X117.238 Y112.856 E.00354
M204 S1000
G1 X117.238 Y112.856 F10800
G1 X117.476 Y112.565
M204 S800
;TYPE:External perimeter
G1 F1200
G1 X117.436 Y112.547 E.00138
G1 X117.389 Y112.422 E.00419
G1 X117.389 Y106.38 E.18944
G1 X117.447 Y106.243 E.00466
G1 X117.577 Y106.191 E.00439
G1 X123.62 Y106.191 E.18947
G1 X123.754 Y106.246 E.00454
G1 X123.809 Y106.38 E.00454
G1 X123.809 Y112.422 E.18944
G1 X123.757 Y112.553 E.00442
G1 X123.62 Y112.611 E.00466
G1 X117.577 Y112.611 E.18947
G1 X117.53 Y112.59 E.00161
M204 S1000
;WIPE_START
G1 F8640
G1 X117.476 Y112.565 E-.01374
G1 X117.436 Y112.547 E-.01013
G1 X117.389 Y112.422 E-.03084
G1 X117.389 Y109.194 E-.74529
;WIPE_END
G1 Z.6 F720
G1 X149.034 Y122.989 F10800
G1 Z.2 F720
G1 E.8 F2100
M204 S800
G1 F1200
G1 X149.107 Y123.077 E.00358
G1 X149.11 Y125.874 E.0877
;WIDTH:0.430575
G1 X149.06 Y126 E.00437
G1 X149.11 Y126.126 E.00437
;WIDTH:0.420086
G1 X149.109 Y128.806 E.08405
;WIDTH:0.465464
G1 X149.07 Y129.072 E.00945
G1 X148.795 Y129.111 E.00976
;WIDTH:0.420019
G1 X146.099 Y129.111 E.08454
;WIDTH:0.426951
G1 X145.997 Y129.068 E.00353
G1 X145.895 Y129.111 E.00353
;WIDTH:0.420002
G1 X143.068 Y129.106 E.08864
G1 X142.892 Y128.94 E.00759
G1 X142.794 Y127.872 E.03363
G1 X142.789 Y125.384 E.07801
G1 X142.818 Y125.283 E.00329
;WIDTH:0.419999
G1 X142.919 Y125.204 E.00402
G1 X143.557 Y124.998 E.02102
G1 X144.07 Y124.702 E.01857
G1 X144.512 Y124.303 E.01867
G1 X144.862 Y123.821 E.01868
G1 X145.105 Y123.279 E.01862
G1 X145.219 Y122.857 E.01371
G1 X145.362 Y122.791 E.00494
G1 X148.13 Y122.796 E.08679
G1 X148.599 Y122.827 E.01474
G1 X148.957 Y122.897 E.01144
G1 X148.996 Y122.943 E.00189
M204 S1000
;WIPE_START
G1 F8640
G1 X149.034 Y122.989 E-.01378
G1 X149.107 Y123.077 E-.0264
G1 X149.11 Y125.874 E-.64584
G1 X149.06 Y126 E-.0313
G1 X149.11 Y126.126 E-.0313
G1 X149.11 Y126.349 E-.05138
;WIPE_END
G1 Z.6 F720
G1 X123.615 Y129.03 F10800
G1 Z.2 F720
G1 E.8 F2100
M204 S800
G1 F1200
G1 X123.533 Y129.106 E.00351
G1 X117.888 Y129.111 E.17699
G1 X117.665 Y129.106 E.00699
G1 X117.492 Y128.94 E.00752
G1 X117.394 Y127.868 E.03375
G1 X117.389 Y122.98 E.15326
G1 X117.453 Y122.838 E.00488
G1 X117.577 Y122.791 E.00416
G1 X123.62 Y122.791 E.18947
G1 X123.757 Y122.849 E.00466
G1 X123.791 Y122.898 E.00187
G1 X123.809 Y122.98 E.00263
G1 X123.804 Y127.868 E.15326
G1 X123.705 Y128.944 E.03388
G1 X123.658 Y128.989 E.00204
M204 S1000
;WIPE_START
G1 F8640
G1 X123.615 Y129.03 E-.01372
G1 X123.533 Y129.106 E-.02582
G1 X120.239 Y129.109 E-.76046
;WIPE_END
G1 Z.6 F720
G1 X117.478 Y87.163 F10800
G1 Z.2 F720
G1 E.8 F2100
M204 S800
G1 F1200
G1 X117.43 Y87.14 E.00167
G1 X117.405 Y87.098 E.00153
G1 X117.389 Y86.393 E.02211
G1 X117.389 Y82.601 E.1189
G1 X117.407 Y82.094 E.01591
G1 X117.492 Y81.057 E.03262
G1 X117.664 Y80.896 E.00739
G1 X123.155 Y80.891 E.17217
G1 X123.532 Y80.898 E.01182
G1 X123.706 Y81.062 E.0075
G1 X123.804 Y82.134 E.03375
G1 X123.809 Y87.022 E.15326
G1 X123.757 Y87.153 E.00442
G1 X123.62 Y87.211 E.00466
G1 X117.577 Y87.211 E.18947
G1 X117.532 Y87.189 E.00157
M204 S1000
;WIPE_START
G1 F8640
G1 X117.478 Y87.163 E-.01384
G1 X117.43 Y87.14 E-.01229
G1 X117.405 Y87.098 E-.01129
G1 X117.389 Y86.393 E-.16283
G1 X117.389 Y83.795 E-.59975
;WIPE_END
G1 Z.6 F720
G1 X132.827 Y104.011 F10800
G1 Z.2 F720
G1 E.8 F2100
M204 S800
;TYPE:Perimeter
G1 F1200
G1 X132.812 Y104.031 E.00078
G1 X132.665 Y104.133 E.00561
G1 X132.42 Y104.188 E.00787
G1 X126.377 Y104.188 E.18947
G1 X126.125 Y104.128 E.00812
G1 X125.978 Y104.022 E.00568
G1 X125.872 Y103.875 E.00568
G1 X125.812 Y103.622 E.00815
G1 X125.812 Y97.58 E.18944
G1 X125.867 Y97.335 E.00787
G1 X126.054 Y97.115 E.00905
G1 X126.328 Y97.016 E.00913
G1 X126.377 Y97.014 E.00154
G1 X132.42 Y97.014 E.18947
G1 X132.673 Y97.074 E.00815
G1 X132.873 Y97.24 E.00815
G1 X132.982 Y97.509 E.0091
G1 X132.986 Y97.58 E.00223
G1 X132.986 Y103.622 E.18944
G1 X132.922 Y103.884 E.00846
G1 X132.863 Y103.963 E.00309
M204 S1000
G1 X132.863 Y103.963 F10800
G1 X132.566 Y103.724
M204 S800
;TYPE:External perimeter
G1 F1200
G1 X132.551 Y103.759 E.00119
G1 X132.42 Y103.811 E.00442
G1 X126.377 Y103.811 E.18947
G1 X126.244 Y103.756 E.00451
G1 X126.189 Y103.622 E.00454
G1 X126.189 Y97.58 E.18944
G1 X126.27 Y97.425 E.00548
G1 X126.377 Y97.391 E.00352
G1 X132.42 Y97.391 E.18947
G1 X132.562 Y97.455 E.00488
G1 X132.609 Y97.58 E.00419
G1 X132.609 Y103.622 E.18944
G1 X132.589 Y103.669 E.0016
M204 S1000
;WIPE_START
G1 F8640
G1 X132.566 Y103.724 E-.01377
G1 X132.551 Y103.759 E-.00879
G1 X132.42 Y103.811 E-.03254
G1 X129.194 Y103.811 E-.7449
;WIPE_END
G1 Z.6 F720
G1 X132.417 Y129.041 F10800
G1 Z.2 F720
G1 E.8 F2100
M204 S800
G1 F1200
G1 X132.318 Y129.109 E.00377
G1 X126.467 Y129.103 E.18345
G1 X126.292 Y128.94 E.0075
G1 X126.194 Y127.868 E.03375
G1 X126.189 Y122.98 E.15326
G1 X126.27 Y122.825 E.00548
G1 X126.377 Y122.791 E.00352
G1 X132.42 Y122.791 E.18947
G1 X132.568 Y122.862 E.00515
G1 X132.609 Y122.98 E.00392
G1 X132.604 Y127.868 E.15326
G1 X132.56 Y128.484 E.01936
G1 X132.496 Y128.986 E.01587
G1 X132.466 Y129.007 E.00115
M204 S1000
;WIPE_START
G1 F8640
G1 X132.417 Y129.041 E-.01377
G1 X132.318 Y129.109 E-.02773
G1 X129.033 Y129.106 E-.7585
;WIPE_END
G1 Z.6 F720
G1 X149.031 Y103.625 F10800
G1 Z.2 F720
G1 E.8 F2100
M204 S800
;WIDTH:0.419996
G1 F1200
