; generated by PrusaSlicer 2.6.0-alpha6+linux-x64-GTK3 on 2023-05-08 at 03:34:16 UTC

; 

; external perimeters extrusion width = 0.45mm
; perimeters extrusion width = 0.45mm
; infill extrusion width = 0.45mm
; solid infill extrusion width = 0.45mm
; top infill extrusion width = 0.40mm
; first layer extrusion width = 0.42mm

M73 P0 R35
M201 X9000 Y9000 Z500 E10000 ; sets maximum accelerations, mm/sec^2
M203 X500 Y500 Z12 E120 ; sets maximum feedrates, mm / sec
M204 S2000 T1500 ; sets acceleration (S) and retract acceleration (R), mm/sec^2
M205 X10.00 Y10.00 Z0.20 E4.50 ; sets the jerk limits, mm/sec
M205 S0 T0 ; sets the minimum extruding and travel feed rate, mm/sec
;TYPE:Custom
M862.3 P "MK2.5" ; printer model check
M862.1 P0.4 ; nozzle diameter check
M115 U3.11.0 ; tell printer latest fw version
G90 ; use absolute coordinates
M83 ; extruder relative mode
M104 S215 ; set extruder temp
M140 S60 ; set bed temp
M190 S60 ; wait for bed temp
M109 S215 ; wait for extruder temp
G28 W ; home all without mesh bed level
G80 ; mesh bed leveling

G1 Z0.2 F720
G1 Y-3 F1000 ; go outside print area
G92 E0
G1 X60 E9 F1000 ; intro line
G1 X100 E12.5 F1000 ; intro line

G92 E0
G21 ; set units to millimeters
G90 ; use absolute coordinates
M83 ; use relative distances for extrusion
M900 K0.05 ; Filament gcode LA 1.5
M900 K30 ; Filament gcode LA 1.0
M107
;LAYER_CHANGE
;Z:0.2
;HEIGHT:0.2
;BEFORE_LAYER_CHANGE
G92 E0.0
;0.2


G1 E-.8 F2100
G1 Z.4 F720
;AFTER_LAYER_CHANGE
;0.2
;CURRENT_Z: 0.2
G1 X97.624 Y78.301 F10800
G1 Z.2 F720
G1 E.8 F2100
M204 S800
;TYPE:Skirt/Brim
;WIDTH:0.42
G1 F1200
G1 X98.67 Y77.425 E.04278
G1 X99.61 Y77.231 E.03009
G1 X150.41 Y77.231 E1.5928
G1 X151.717 Y77.623 E.04278
G1 X152.593 Y78.668 E.04275
G1 X152.787 Y79.608 E.03009
G1 X152.787 Y130.388 E1.59217
G1 X152.395 Y131.695 E.04278
G1 X151.35 Y132.571 E.04275
G1 X150.41 Y132.765 E.03009
G1 X99.61 Y132.765 E1.5928
G1 X98.303 Y132.373 E.04278
G1 X97.426 Y131.328 E.04277
G1 X97.233 Y130.388 E.03009
G1 X97.233 Y79.608 E1.59217
G1 X97.607 Y78.358 E.04091
M204 S1000
; printing object axoblock-test-files-e-axoblock-frame.stl id:0 copy 0
;WIPE_START
G1 F8640
G1 X98.67 Y77.425 E-.32658
G1 X99.61 Y77.231 E-.22162
G1 X100.701 Y77.231 E-.2518
;WIPE_END
G1 Z.6 F720
G1 X100.763 Y129.218 F10800
G1 Z.2 F720
G1 E.8 F2100
M204 S800
;TYPE:Perimeter
;WIDTH:0.419999
G1 F1200
G1 X100.763 Y122.766 E.2023
G1 X100.785 Y121.085 E.05271
G1 X100.785 Y80.764 E1.26423
G1 X149.215 Y80.783 E1.51849
G1 X149.218 Y129.216 E1.51858
M73 P1 R35
G1 X100.823 Y129.218 E1.51739
M204 S1000
G1 X100.386 Y129.595 F10800
M204 S800
;TYPE:External perimeter
G1 F1200
G1 X100.386 Y122.763 E.21421
G1 X100.408 Y121.088 E.05252
G1 X100.407 Y80.387 E1.27615
G1 X149.592 Y80.406 E1.54216
G1 X149.595 Y129.593 E1.54222
G1 X100.446 Y129.595 E1.54103
M204 S1000
G1 X100.489 Y129.209 F10800
;WIPE_START
M73 P1 R34
G1 F8640
G1 X100.416 Y126.13 E-.8
;WIPE_END
G1 Z.6 F720
G1 X124.742 Y123.576 F10800
G1 Z.2 F720
G1 E.8 F2100
M204 S800
;TYPE:Perimeter
;WIDTH:0.449381
G1 F1200
G1 X124.617 Y123.856 E.01036
;WIDTH:0.419999
G1 X124.353 Y124.006 E.00952
G1 X124.215 Y124.023 E.00436
G1 X120.171 Y124.023 E.1268
G1 X119.053 Y125.035 E.04728
G1 X118.771 Y125.173 E.00984
G1 X118.673 Y125.181 E.00308
G1 X105.382 Y125.181 E.41673
G1 X105.091 Y125.1 E.00947
G1 X104.896 Y124.904 E.00867
G1 X104.817 Y124.615 E.00939
G1 X104.817 Y111.323 E.41676
G1 X104.857 Y111.113 E.0067
G1 X104.963 Y110.943 E.00628
G1 X105.975 Y109.825 E.04728
G1 X105.975 Y105.783 E.12673
G1 X106.035 Y105.528 E.00821
G1 X106.142 Y105.381 E.0057
;WIDTH:0.450381
G1 X106.54 Y105.202 E.01479
G1 X116.908 Y105.202 E.35127
G1 X117.344 Y105.423 E.01656
;WIDTH:0.419999
G1 X117.431 Y105.567 E.00528
G1 X119.475 Y110.521 E.16803
G1 X124.431 Y112.567 E.16811
G1 X124.575 Y112.654 E.00528
;WIDTH:0.449381
G1 X124.796 Y113.09 E.01652
G1 X124.796 Y123.457 E.35038
G1 X124.767 Y123.521 E.00237
M204 S1000
G1 X124.404 Y123.457 F10800
M204 S800
;TYPE:External perimeter
;WIDTH:0.419999
G1 F1200
G1 X124.349 Y123.59 E.00451
G1 X124.215 Y123.646 E.00455
G1 X120.026 Y123.646 E.13134
G1 X118.8 Y124.755 E.05183
G1 X118.673 Y124.804 E.00427
G1 X105.382 Y124.804 E.41673
G1 X105.249 Y124.748 E.00452
M73 P2 R34
G1 X105.194 Y124.615 E.00451
G1 X105.194 Y111.323 E.41676
G1 X105.243 Y111.196 E.00427
G1 X106.352 Y109.97 E.05183
G1 X106.352 Y105.783 E.13128
G1 X106.408 Y105.649 E.00455
G1 X106.54 Y105.594 E.00448
G1 X116.908 Y105.594 E.32508
G1 X117.082 Y105.711 E.00657
G1 X119.186 Y110.81 E.17295
G1 X124.287 Y112.916 E.17303
G1 X124.404 Y113.09 E.00657
G1 X124.404 Y123.397 E.32317
M204 S1000
G1 X124.506 Y123.559 F10800
;WIPE_START
G1 F8640
G1 X124.349 Y123.59 E-.04634
G1 X124.215 Y123.646 E-.03353
G1 X121.096 Y123.646 E-.72013
;WIPE_END
G1 Z.6 F720
G1 X143.596 Y105.255 F10800
G1 Z.2 F720
G1 E.8 F2100
M204 S800
;TYPE:Perimeter
;WIDTH:0.450381
G1 F1200
G1 X143.875 Y105.38 E.01036
;WIDTH:0.419999
G1 X144.026 Y105.644 E.00954
G1 X144.043 Y105.783 E.00439
G1 X144.043 Y109.829 E.12686
G1 X145.038 Y110.948 E.04695
G1 X145.142 Y111.116 E.0062
G1 X145.181 Y111.324 E.00664
G1 X145.181 Y124.615 E.41673
G1 X145.101 Y124.906 E.00946
G1 X144.906 Y125.101 E.00865
G1 X144.615 Y125.181 E.00946
G1 X131.325 Y125.181 E.4167
G1 X131.115 Y125.141 E.0067
G1 X130.945 Y125.035 E.00628
G1 X129.827 Y124.023 E.04728
G1 X125.782 Y124.023 E.12683
G1 X125.528 Y123.963 E.00818
G1 X125.381 Y123.856 E.0057
;WIDTH:0.449381
G1 X125.202 Y123.457 E.01478
G1 X125.202 Y113.09 E.35038
G1 X125.422 Y112.654 E.01651
;WIDTH:0.419999
G1 X125.567 Y112.567 E.0053
G1 X130.523 Y110.521 E.16811
G1 X132.567 Y105.567 E.16803
G1 X132.653 Y105.423 E.00526
;WIDTH:0.450381
G1 X133.09 Y105.202 E.01659
G1 X143.477 Y105.202 E.35192
G1 X143.541 Y105.23 E.00237
M204 S1000
G1 X143.477 Y105.594 F10800
M204 S800
;TYPE:External perimeter
;WIDTH:0.419999
G1 F1200
G1 X143.61 Y105.648 E.0045
G1 X143.666 Y105.783 E.00458
G1 X143.666 Y109.972 E.13134
G1 X144.756 Y111.199 E.05146
G1 X144.804 Y111.324 E.0042
G1 X144.804 Y124.615 E.41673
G1 X144.749 Y124.749 E.00454
G1 X144.615 Y124.804 E.00454
G1 X131.325 Y124.804 E.4167
G1 X131.198 Y124.755 E.00427
G1 X129.972 Y123.646 E.05183
G1 X125.782 Y123.646 E.13137
G1 X125.649 Y123.59 E.00452
G1 X125.594 Y123.457 E.00451
G1 X125.594 Y113.09 E.32505
G1 X125.711 Y112.916 E.00657
G1 X130.812 Y110.81 E.17303
G1 X132.915 Y105.711 E.17294
G1 X133.073 Y105.595 E.00615
G1 X143.417 Y105.594 E.32433
M204 S1000
G1 X143.578 Y105.492 F10800
;WIPE_START
G1 F8640
G1 X143.61 Y105.648 E-.04628
G1 X143.666 Y105.783 E-.03375
G1 X143.666 Y108.901 E-.71997
;WIPE_END
G1 Z.6 F720
G1 X145.157 Y85.294 F10800
G1 Z.2 F720
G1 E.8 F2100
M204 S800
;TYPE:Perimeter
G1 F1200
G1 X145.181 Y85.381 E.00283
G1 X145.181 Y98.672 E.41673
G1 X145.142 Y98.88 E.00664
G1 X144.696 Y99.432 E.02225
G1 X144.043 Y100.167 E.03083
G1 X144.043 Y104.213 E.12686
G1 X143.982 Y104.469 E.00825
G1 X143.875 Y104.616 E.0057
;WIDTH:0.450381
G1 X143.477 Y104.794 E.01477
G1 X133.09 Y104.794 E.35192
G1 X132.653 Y104.573 E.01659
;WIDTH:0.419999
G1 X132.567 Y104.429 E.00526
G1 X130.523 Y99.475 E.16803
G1 X125.567 Y97.429 E.16811
G1 X125.422 Y97.342 E.0053
;WIDTH:0.449381
G1 X125.202 Y96.906 E.01651
G1 X125.202 Y86.539 E.35038
G1 X125.381 Y86.14 E.01478
;WIDTH:0.419999
G1 X125.645 Y85.99 E.00952
G1 X125.782 Y85.973 E.00433
G1 X129.827 Y85.973 E.12683
G1 X130.945 Y84.961 E.04728
G1 X131.227 Y84.823 E.00984
G1 X131.325 Y84.815 E.00308
G1 X144.616 Y84.815 E.41673
G1 X144.906 Y84.895 E.00943
G1 X145.101 Y85.09 E.00865
G1 X145.141 Y85.236 E.00475
M204 S1000
G1 X144.804 Y85.381 F10800
M204 S800
;TYPE:External perimeter
G1 F1200
G1 X144.804 Y98.672 E.41673
G1 X144.756 Y98.797 E.0042
G1 X143.666 Y100.024 E.05146
G1 X143.666 Y104.213 E.13134
G1 X143.61 Y104.348 E.00458
G1 X143.477 Y104.402 E.0045
G1 X133.09 Y104.402 E.32568
G1 X132.944 Y104.333 E.00506
G1 X132.915 Y104.285 E.00176
G1 X130.812 Y99.186 E.17294
G1 X125.711 Y97.08 E.17303
G1 X125.595 Y96.923 E.00612
G1 X125.594 Y86.539 E.32558
G1 X125.698 Y86.37 E.00622
G1 X125.782 Y86.35 E.00271
G1 X129.972 Y86.35 E.13137
G1 X131.198 Y85.241 E.05183
G1 X131.325 Y85.192 E.00427
G1 X144.615 Y85.192 E.4167
G1 X144.749 Y85.247 E.00454
G1 X144.781 Y85.325 E.00264
M204 S1000
G1 X145.19 Y85.484 F10800
;WIPE_START
G1 F8640
G1 X144.787 Y88.79 E-.8
;WIPE_END
G1 Z.6 F720
G1 X104.817 Y85.714 F10800
G1 Z.2 F720
G1 E.8 F2100
M204 S800
;TYPE:Perimeter
G1 F1200
G1 X104.817 Y85.381 E.01044
G1 X104.898 Y85.089 E.0095
G1 X105.094 Y84.894 E.00867
G1 X105.382 Y84.815 E.00936
G1 X118.673 Y84.815 E.41673
G1 X118.883 Y84.855 E.0067
G1 X119.053 Y84.961 E.00628
G1 X120.171 Y85.973 E.04728
G1 X124.216 Y85.973 E.12683
G1 X124.469 Y86.033 E.00815
G1 X124.616 Y86.14 E.0057
;WIDTH:0.449381
G1 X124.796 Y86.539 E.01479
G1 X124.796 Y96.906 E.35038
G1 X124.575 Y97.342 E.01652
;WIDTH:0.419999
G1 X124.431 Y97.429 E.00528
G1 X119.475 Y99.475 E.16811
G1 X117.431 Y104.429 E.16803
M73 P3 R34
G1 X117.344 Y104.573 E.00528
;WIDTH:0.450381
G1 X116.908 Y104.794 E.01656
G1 X106.54 Y104.794 E.35127
G1 X106.142 Y104.615 E.01479
;WIDTH:0.419999
G1 X105.992 Y104.352 E.00949
G1 X105.975 Y104.213 E.00439
G1 X105.975 Y100.171 E.12673
G1 X104.963 Y99.053 E.04728
G1 X104.825 Y98.771 E.00984
G1 X104.817 Y98.673 E.00308
G1 X104.817 Y85.774 E.40444
M204 S1000
G1 X105.194 Y85.381 F10800
M204 S800
;TYPE:External perimeter
G1 F1200
G1 X105.25 Y85.247 E.00455
G1 X105.382 Y85.192 E.00448
G1 X118.673 Y85.192 E.41673
G1 X118.8 Y85.241 E.00427
G1 X120.026 Y86.35 E.05183
G1 X124.215 Y86.35 E.13134
G1 X124.349 Y86.406 E.00455
G1 X124.404 Y86.539 E.00451
G1 X124.404 Y96.906 E.32505
G1 X124.335 Y97.052 E.00506
G1 X119.186 Y99.186 E.17476
G1 X117.082 Y104.285 E.17295
G1 X116.908 Y104.402 E.00657
G1 X106.54 Y104.402 E.32508
G1 X106.408 Y104.347 E.00448
G1 X106.352 Y104.213 E.00455
G1 X106.352 Y100.026 E.13128
G1 X105.243 Y98.8 E.05183
G1 X105.194 Y98.673 E.00427
G1 X105.194 Y85.441 E.41488
M204 S1000
G1 X105.091 Y85.278 F10800
;WIPE_START
G1 F8640
G1 X105.25 Y85.247 E-.04662
G1 X105.382 Y85.192 E-.03302
G1 X108.502 Y85.192 E-.72036
;WIPE_END
G1 Z.6 F720
G1 X129.093 Y99.007 F10800
G1 Z.2 F720
G1 E.8 F2100
M204 S800
;TYPE:Solid infill
;WIDTH:0.428404
G1 F1200
G1 X130.678 Y100.592 E.07185
G1 X131.061 Y101.52 E.03218
G1 X128.477 Y98.936 E.11713
G1 X127.549 Y98.553 E.03218
G1 X131.444 Y102.448 E.17656
G1 X131.826 Y103.376 E.03217
G1 X126.621 Y98.17 E.23597
G1 X125.693 Y97.787 E.03218
G1 X132.209 Y104.303 E.29537
G1 X132.308 Y104.544 E.00835
G1 X132.439 Y104.762 E.00815
G1 X132.836 Y104.998 E.0148
G1 X132.537 Y105.176 E.01115
G1 X124.821 Y97.461 E.34974
G1 X124.764 Y97.556 E.00355
G1 X124.515 Y97.7 E.00922
G1 X132.296 Y105.481 E.35271
G1 X132.137 Y105.867 E.01338
G1 X124.13 Y97.859 E.36298
G1 X123.744 Y98.019 E.01339
G1 X131.978 Y106.253 E.37325
G1 X131.819 Y106.639 E.01338
G1 X123.358 Y98.178 E.38354
G1 X122.972 Y98.337 E.01338
G1 X131.66 Y107.025 E.39383
G1 X131.5 Y107.411 E.01339
G1 X122.586 Y98.497 E.40407
G1 X122.2 Y98.656 E.01338
G1 X131.341 Y107.797 E.41436
G1 X131.182 Y108.183 E.01338
G1 X121.814 Y98.815 E.42465
G1 X121.428 Y98.974 E.01338
G1 X131.023 Y108.569 E.43494
G1 X130.863 Y108.955 E.01339
G1 X121.042 Y99.134 E.44519
G1 X120.657 Y99.293 E.01335
G1 X130.704 Y109.341 E.45545
G1 X130.545 Y109.726 E.01335
G1 X120.271 Y99.452 E.46572
G1 X119.885 Y99.611 E.01338
G1 X130.386 Y110.112 E.47601
G1 X130.307 Y110.305 E.00668
G1 X130.113 Y110.385 E.00673
G1 X119.612 Y99.884 E.47601
G1 X119.453 Y100.27 E.01338
G1 X129.727 Y110.544 E.46572
G1 X129.341 Y110.703 E.01338
G1 X119.294 Y100.656 E.45543
G1 X119.134 Y101.042 E.01339
G1 X128.955 Y110.862 E.44516
G1 X128.569 Y111.022 E.01339
G1 X118.975 Y101.427 E.43492
G1 X118.816 Y101.813 E.01338
G1 X128.184 Y111.181 E.42465
G1 X127.798 Y111.34 E.01338
M73 P4 R34
G1 X118.657 Y102.199 E.41436
G1 X118.498 Y102.585 E.01338
G1 X127.412 Y111.5 E.40409
G1 X127.026 Y111.659 E.01338
G1 X118.338 Y102.971 E.39383
G1 X118.179 Y103.357 E.01338
G1 X126.64 Y111.818 E.38354
G1 X126.254 Y111.977 E.01338
G1 X118.02 Y103.743 E.37325
G1 X117.861 Y104.129 E.01338
G1 X125.868 Y112.137 E.36298
G1 X125.482 Y112.296 E.01338
G1 X117.701 Y104.515 E.35271
G1 X117.557 Y104.765 E.00925
G1 X117.458 Y104.817 E.00358
G1 X125.18 Y112.539 E.35004
G1 X124.999 Y112.886 E.01254
G1 X124.767 Y112.441 E.01609
G1 X124.546 Y112.308 E.00827
G1 X124.305 Y112.209 E.00835
G1 X117.789 Y105.693 E.29537
G1 X118.172 Y106.621 E.03218
G1 X123.377 Y111.826 E.23594
G1 X122.449 Y111.443 E.03218
G1 X118.554 Y107.549 E.17654
G1 X118.937 Y108.477 E.03218
G1 X121.52 Y111.06 E.11709
G1 X120.592 Y110.676 E.03219
G1 X119.008 Y109.092 E.0718
M204 S1000
;WIPE_START
G1 F8640
G1 X120.592 Y110.676 E-.51725
G1 X121.52 Y111.06 E-.2319
G1 X121.364 Y110.904 E-.05085
;WIPE_END
G1 Z.6 F720
G1 X149.102 Y81.662 F10800
G1 Z.2 F720
G1 E.8 F2100
M204 S800
;WIDTH:0.422047
G1 F1200
G1 X148.505 Y81.065 E.02662
G1 X147.968 Y81.065 E.01693
G1 X148.932 Y82.029 E.04298
G1 X148.932 Y82.565 E.0169
G1 X147.432 Y81.065 E.06687
G1 X146.896 Y81.064 E.0169
G1 X148.932 Y83.101 E.09079
G1 X148.932 Y83.637 E.0169
G1 X146.359 Y81.064 E.11471
G1 X145.823 Y81.064 E.0169
G1 X148.932 Y84.174 E.13863
G1 X148.932 Y84.71 E.0169
G1 X145.286 Y81.064 E.16255
G1 X144.75 Y81.064 E.0169
G1 X148.932 Y85.246 E.18644
G1 X148.932 Y85.782 E.0169
G1 X144.214 Y81.063 E.21036
G1 X143.677 Y81.063 E.01693
G1 X148.932 Y86.318 E.23428
G1 X148.932 Y86.855 E.01693
G1 X143.141 Y81.063 E.2582
G1 X142.605 Y81.063 E.0169
G1 X148.932 Y87.391 E.2821
G1 X148.932 Y87.927 E.0169
G1 X142.068 Y81.063 E.30601
G1 X141.532 Y81.062 E.0169
G1 X148.933 Y88.463 E.32995
G1 X148.933 Y88.999 E.0169
M73 P4 R33
G1 X145.464 Y85.531 E.15463
G1 X145.464 Y85.374 E.00495
G1 X145.433 Y85.151 E.0071
G1 X145.345 Y84.945 E.00706
G1 X145.216 Y84.78 E.0066
G1 X145.051 Y84.652 E.00658
G1 X144.845 Y84.563 E.00707
G1 X144.622 Y84.532 E.0071
G1 X144.465 Y84.532 E.00495
G1 X140.995 Y81.062 E.1547
G1 X140.459 Y81.062 E.0169
G1 X143.929 Y84.532 E.1547
G1 X143.393 Y84.532 E.0169
G1 X139.923 Y81.062 E.1547
G1 X139.386 Y81.062 E.01693
G1 X142.857 Y84.532 E.15472
G1 X142.321 Y84.532 E.0169
G1 X138.85 Y81.061 E.15475
G1 X138.314 Y81.061 E.0169
G1 X141.784 Y84.532 E.15472
G1 X141.248 Y84.532 E.0169
G1 X137.777 Y81.061 E.15475
G1 X137.241 Y81.061 E.0169
G1 X140.712 Y84.532 E.15475
G1 X140.176 Y84.532 E.0169
G1 X136.704 Y81.061 E.15477
G1 X136.168 Y81.06 E.0169
G1 X139.64 Y84.532 E.15479
G1 X139.104 Y84.532 E.0169
G1 X135.632 Y81.06 E.15479
G1 X135.095 Y81.06 E.01693
G1 X138.567 Y84.532 E.15479
G1 X138.031 Y84.532 E.0169
G1 X134.559 Y81.06 E.15479
G1 X134.023 Y81.06 E.0169
G1 X137.495 Y84.532 E.15479
G1 X136.959 Y84.532 E.0169
G1 X133.486 Y81.059 E.15483
G1 X132.95 Y81.059 E.0169
G1 X136.423 Y84.532 E.15483
G1 X135.887 Y84.532 E.0169
G1 X132.414 Y81.059 E.15483
G1 X131.877 Y81.059 E.01693
G1 X135.35 Y84.532 E.15483
G1 X134.814 Y84.532 E.0169
G1 X131.341 Y81.059 E.15483
G1 X130.804 Y81.058 E.01693
G1 X134.278 Y84.532 E.15488
G1 X133.742 Y84.532 E.0169
G1 X130.268 Y81.058 E.15488
G1 X129.732 Y81.058 E.0169
G1 X133.206 Y84.532 E.15488
G1 X132.67 Y84.532 E.0169
G1 X129.195 Y81.058 E.1549
G1 X128.659 Y81.058 E.0169
G1 X132.133 Y84.532 E.15488
G1 X131.597 Y84.532 E.0169
G1 X128.123 Y81.057 E.1549
G1 X127.586 Y81.057 E.01693
G1 X131.097 Y84.568 E.15653
G1 X131.006 Y84.593 E.00298
G1 X130.75 Y84.757 E.00958
G1 X127.05 Y81.057 E.16495
G1 X126.513 Y81.057 E.01693
G1 X130.468 Y85.011 E.1763
G1 X130.187 Y85.266 E.01196
G1 X125.977 Y81.057 E.18767
G1 X125.441 Y81.056 E.0169
G1 X129.905 Y85.521 E.19904
G1 X129.718 Y85.69 E.00795
G1 X129.539 Y85.691 E.00564
G1 X124.904 Y81.056 E.20664
G1 X124.368 Y81.056 E.0169
G1 X129.004 Y85.692 E.20668
G1 X128.47 Y85.694 E.01683
M73 P5 R33
G1 X123.832 Y81.056 E.20677
G1 X123.295 Y81.056 E.01693
G1 X127.935 Y85.695 E.20684
G1 X127.4 Y85.697 E.01687
G1 X122.759 Y81.055 E.20693
G1 X122.223 Y81.055 E.0169
G1 X126.865 Y85.698 E.20697
G1 X126.331 Y85.7 E.01683
G1 X121.686 Y81.055 E.20709
G1 X121.15 Y81.055 E.0169
G1 X125.796 Y85.701 E.20713
G1 X125.637 Y85.701 E.00501
G1 X125.365 Y85.806 E.00919
G1 X120.613 Y81.055 E.21183
