; generated by PrusaSlicer 2.5.0-alpha2+linux-x64-GTK3 on 2022-08-22 at 03:17:35 UTC



; 



; external perimeters extrusion width = 0.45mm

; perimeters extrusion width = 0.45mm

; infill extrusion width = 0.45mm

; solid infill extrusion width = 0.45mm

; top infill extrusion width = 0.40mm

; first layer extrusion width = 0.42mm



M73 P0 R47

M107

;TYPE:Custom

M862.3 P "MK2.5" ; printer model check

M862.1 P0.4 ; nozzle diameter check

M115 U3.9.1 ; tell printer latest fw version

G90 ; use absolute coordinates

M83 ; extruder relative mode

M104 S215 ; set extruder temp

M140 S60 ; set bed temp

M190 S60 ; wait for bed temp

M109 S215 ; wait for extruder temp

G28 W ; home all without mesh bed level

G80 ; mesh bed leveling

G1 Y-3.0 F1000.0 ; go outside print area

G92 E0.0

G1 X60.0 E9.0 F1000.0 ; intro line

G1 X100.0 E12.5 F1000.0 ; intro line

G92 E0.0

G21 ; set units to millimeters

G90 ; use absolute coordinates

M83 ; use relative distances for extrusion

M900 K0.05 ; Filament gcode LA 1.5

M900 K30 ; Filament gcode LA 1.0

M107

;LAYER_CHANGE

;Z:0.2

;HEIGHT:0.2

;BEFORE_LAYER_CHANGE

G92 E0.0

;0.2





G1 E-.8 F2100

G1 Z.6 F10800

;AFTER_LAYER_CHANGE

;0.2

;CURRENT_Z: 0.2

G1 X97.82 Y78.498

G1 Z.2

G1 E.8 F2100

M204 S1000

;TYPE:Skirt/Brim

;WIDTH:0.42

G1 F1200

G1 X98.865 Y77.621 E.04278

G1 X99.805 Y77.428 E.03007

G1 X150.197 Y77.426 E1.58003

G1 X151.504 Y77.817 E.04278

G1 X152.381 Y78.863 E.04278

G1 X152.574 Y79.803 E.03008

G1 X152.574 Y130.197 E1.58009

G1 X152.182 Y131.504 E.04278

G1 X151.136 Y132.381 E.04278

G1 X150.197 Y132.574 E.03008

G1 X99.805 Y132.572 E1.58001

G1 X98.498 Y132.18 E.04278

G1 X97.622 Y131.134 E.04278

G1 X97.428 Y130.195 E.03007

G1 X97.428 Y79.805 E1.57995

G1 X97.802 Y78.555 E.0409

;WIPE_START

G1 F8640

G1 X98.865 Y77.621 E-.32671

G1 X99.805 Y77.428 E-.22146

G1 X100.722 Y77.428 E-.21183

;WIPE_END

G1 E-.04 F2100

G1 Z.8 F10800

G1 X107.452 Y80.958

G1 Z.2

G1 E.8 F2100

;TYPE:Perimeter

;WIDTH:0.419999

G1 F1200

G1 X107.504 Y80.962 E.00162

G1 X108.027 Y80.986 E.01643

G1 X115.402 Y80.989 E.23123

G1 X115.955 Y80.99 E.01735

G1 X116.485 Y80.979 E.01661

G1 X117.172 Y80.95 E.02157

G1 X117.118 Y81.013 E.00261

G1 X117.099 Y81.169 E.0049

G1 X117.03 Y82.081 E.02868

G1 X117.012 Y82.601 E.01631

G1 X117.012 Y86.393 E.11891

G1 X117.026 Y87.149 E.02369

G1 X117.135 Y87.375 E.00788

G1 X117.325 Y87.528 E.00764

G1 X117.577 Y87.588 E.00815

G1 X123.62 Y87.588 E.18947

G1 X123.67 Y87.586 E.00155

G1 X123.944 Y87.487 E.00914

G1 X124.131 Y87.266 E.00906

G1 X124.186 Y87.022 E.00786

G1 X124.181 Y82.133 E.15328

G1 X124.162 Y81.901 E.0073

G1 X124.074 Y80.977 E.02909

G1 X124.142 Y80.963 E.00215

G1 X125.121 Y80.989 E.03071

G1 X125.937 Y80.953 E.02561

G1 X125.918 Y81.013 E.00198

G1 X125.846 Y81.632 E.01954

G1 X125.817 Y82.133 E.01573

G1 X125.812 Y87.022 E.15328

G1 X125.867 Y87.266 E.00786

G1 X125.969 Y87.413 E.00561

G1 X126.116 Y87.524 E.00576

G1 X126.377 Y87.588 E.00846

G1 X132.42 Y87.588 E.18947

G1 X132.491 Y87.584 E.0022

G1 X132.72 Y87.502 E.00764

G1 X132.918 Y87.291 E.00908

G1 X132.986 Y87.022 E.00868

G1 X132.986 Y86.392 E.01978

G1 X132.986 Y82.601 E.11887

G1 X132.985 Y82.581 E.00062

G1 X132.949 Y81.6 E.03077

G1 X132.88 Y81.013 E.01852

G1 X132.813 Y80.949 E.00291

G1 X133.093 Y80.972 E.00881

G1 X133.594 Y80.987 E.0157

G1 X141.373 Y80.989 E.24391

G1 X141.883 Y80.978 E.01599

G1 X142.569 Y80.953 E.02154

G1 X142.517 Y81.013 E.00251

G1 X142.449 Y81.599 E.0185

G1 X142.417 Y82.13 E.01668

G1 X142.412 Y84.637 E.07861

G1 X142.424 Y84.757 E.00379

G1 X142.499 Y84.94 E.0062

G1 X142.689 Y85.125 E.00832

G1 X143.162 Y85.256 E.01536

G1 X143.631 Y85.466 E.01612

G1 X144.05 Y85.77 E.01622

G1 X144.395 Y86.153 E.01616

G1 X144.652 Y86.597 E.01608

G1 X144.734 Y86.85 E.00834

G1 X144.928 Y87.358 E.01706

G1 X145.139 Y87.533 E.00859

G1 X145.385 Y87.588 E.0079

G1 X147.871 Y87.583 E.07795

G1 X147.921 Y87.58 E.00158

G1 X148.973 Y87.484 E.0331

G1 X149.059 Y87.411 E.00355

G1 X149.02 Y87.841 E.01353

G1 X149.012 Y88.351 E.01598

G1 X149.013 Y95.874 E.23588

G1 X149.015 Y96.337 E.01453

G1 X149.072 Y97.208 E.02737

G1 X148.987 Y97.119 E.00386

G1 X148.367 Y97.048 E.01955

G1 X147.867 Y97.019 E.01572

G1 X143.605 Y97.015 E.13364

G1 X142.852 Y97.028 E.02362

G1 X142.625 Y97.137 E.00789

G1 X142.472 Y97.327 E.00764

G1 X142.412 Y97.58 E.00815

G1 X142.412 Y103.622 E.18947

G1 X142.414 Y103.672 E.00155

G1 X142.513 Y103.946 E.00914

G1 X142.734 Y104.133 E.00906

G1 X142.978 Y104.188 E.00786

G1 X147.867 Y104.183 E.15328

G1 X148.101 Y104.164 E.00738

M73 P0 R46

G1 X149.036 Y104.079 E.02943

G1 X149.038 Y104.145 E.00209

G1 X149.012 Y105.124 E.03068

G1 X149.047 Y105.938 E.02556

G1 X148.989 Y105.92 E.00191

G1 X148.422 Y105.851 E.01791

G1 X147.906 Y105.819 E.01621

G1 X142.978 Y105.814 E.15451

G1 X142.734 Y105.869 E.00786

G1 X142.587 Y105.971 E.00561

G1 X142.476 Y106.118 E.00576

G1 X142.412 Y106.38 E.00846

G1 X142.412 Y112.422 E.18947

G1 X142.414 Y112.472 E.00155

G1 X142.498 Y112.722 E.00828

G1 X142.709 Y112.92 E.00908

G1 X142.978 Y112.988 E.0087

G1 X147.867 Y112.983 E.15328

G1 X147.918 Y112.98 E.0016

G1 X148.972 Y112.884 E.03321

G1 X149.051 Y112.818 E.00321

G1 X149.03 Y113.075 E.00811

G1 X149.011 Y114.124 E.0329

G1 X149.015 Y121.403 E.2282

G1 X149.018 Y122.032 E.01974

G1 X149.063 Y122.581 E.01727

G1 X148.992 Y122.52 E.00293

G1 X148.412 Y122.448 E.01835

G1 X147.906 Y122.419 E.01588

G1 X145.363 Y122.414 E.07973

G1 X145.243 Y122.426 E.00379

G1 X145.06 Y122.501 E.00619

G1 X144.882 Y122.68 E.00793

G1 X144.745 Y123.161 E.01567

G1 X144.534 Y123.631 E.01614

G1 X144.23 Y124.05 E.01622

G1 X143.847 Y124.395 E.01616

G1 X143.403 Y124.652 E.01608

G1 X143.149 Y124.734 E.00838

G1 X142.642 Y124.928 E.01702

G1 X142.467 Y125.139 E.0086

G1 X142.412 Y125.385 E.00789

G1 X142.417 Y127.873 E.07799

G1 X142.42 Y127.923 E.00159

G1 X142.516 Y128.975 E.03311

G1 X142.606 Y129.061 E.00391

G1 X142.442 Y129.051 E.00514

G1 X141.868 Y129.015 E.01802

G1 X138.789 Y129.016 E.09654

G1 X133.495 Y129.016 E.16601

G1 X132.87 Y129.041 E.01962

G1 X132.88 Y128.989 E.00168

G1 X132.952 Y128.37 E.01954

G1 X132.981 Y127.869 E.01573

G1 X132.985 Y123.608 E.13361

G1 X132.972 Y122.853 E.02365

G1 X132.863 Y122.627 E.00788

G1 X132.673 Y122.474 E.00764

G1 X132.42 Y122.414 E.00815

G1 X126.377 Y122.414 E.18947

G1 X126.304 Y122.419 E.0023

G1 X126.054 Y122.515 E.00841

G1 X125.867 Y122.736 E.00906

G1 X125.812 Y122.98 E.00786

G1 X125.817 Y127.869 E.15328

G1 X125.836 Y128.102 E.00734

G1 X125.924 Y129.027 E.02914

G1 X125.856 Y129.039 E.00217

G1 X124.71 Y129.018 E.03592

G1 X124.023 Y129.054 E.02159

G1 X124.08 Y128.989 E.00272

G1 X124.152 Y128.37 E.01953

G1 X124.181 Y127.869 E.01573

G1 X124.186 Y122.98 E.15328

G1 X124.131 Y122.736 E.00786

G1 X124.029 Y122.589 E.00561

G1 X123.882 Y122.478 E.00576

G1 X123.62 Y122.414 E.00846

G1 X117.577 Y122.414 E.18947

G1 X117.507 Y122.418 E.0022

G1 X117.278 Y122.5 E.00764

G1 X117.08 Y122.711 E.00908

G1 X117.012 Y122.98 E.0087

G1 X117.017 Y127.869 E.15328

G1 X117.055 Y128.306 E.01377

G1 X117.117 Y128.974 E.02103

G1 X117.197 Y129.054 E.00355

G1 X116.89 Y129.029 E.00966

G1 X116.372 Y129.014 E.01626

G1 X108.873 Y129.01 E.23513

G1 X108.867 Y129.01 E.0002

M73 P1 R46

G1 X108.1 Y129.018 E.02402

G1 X107.462 Y129.045 E.02004

G1 X107.479 Y128.989 E.00186

G1 X107.552 Y128.371 E.0195

G1 X107.581 Y127.871 E.01569

G1 X107.586 Y125.363 E.07865

G1 X107.573 Y125.243 E.00379

G1 X107.499 Y125.06 E.00617

G1 X107.319 Y124.882 E.00795

G1 X106.838 Y124.744 E.0157

G1 X106.368 Y124.535 E.01612

G1 X105.951 Y124.233 E.01617

G1 X105.605 Y123.848 E.01621

G1 X105.348 Y123.403 E.01612

G1 X105.268 Y123.156 E.00814

G1 X105.071 Y122.644 E.01719

G1 X104.86 Y122.469 E.00859

G1 X104.615 Y122.414 E.00789

G1 X102.075 Y122.419 E.07962

G1 X102.021 Y122.422 E.00169

G1 X101.023 Y122.52 E.03145

G1 X100.937 Y122.602 E.00373

G1 X100.985 Y122.029 E.01802

G1 X100.99 Y114.201 E.24545

G1 X100.99 Y114.193 E.00025

G1 X100.981 Y113.506 E.02155

G1 X100.944 Y112.823 E.02144

G1 X101.011 Y112.881 E.0028

G1 X101.63 Y112.954 E.01953

G1 X102.131 Y112.983 E.01574

G1 X106.394 Y112.987 E.13368

G1 X107.146 Y112.974 E.02358

G1 X107.373 Y112.865 E.00789

G1 X107.526 Y112.675 E.00764

G1 X107.586 Y112.422 E.00815

G1 X107.586 Y106.38 E.18947

G1 X107.581 Y106.306 E.0023

G1 X107.484 Y106.056 E.00841

G1 X107.264 Y105.869 E.00906

G1 X107.02 Y105.814 E.00786

G1 X102.131 Y105.82 E.15328

G1 X101.907 Y105.824 E.00704

G1 X100.962 Y105.927 E.02979

G1 X100.962 Y105.869 E.00179

G1 X100.978 Y104.739 E.03545

G1 X100.929 Y104.009 E.02295

G1 X101.011 Y104.081 E.00344

G1 X101.63 Y104.154 E.01953

G1 X102.131 Y104.183 E.01574

G1 X107.02 Y104.188 E.15328

G1 X107.264 Y104.133 E.00786

G1 X107.411 Y104.031 E.00561

G1 X107.522 Y103.884 E.00576

G1 X107.586 Y103.623 E.00846

G1 X107.586 Y97.58 E.18947

G1 X107.582 Y97.509 E.0022

G1 X107.5 Y97.28 E.00764

G1 X107.289 Y97.082 E.00908

G1 X107.02 Y97.014 E.0087

G1 X101.971 Y97.02 E.1583

G1 X101.468 Y97.072 E.01584

G1 X100.96 Y97.106 E.01596

G1 X100.985 Y96.588 E.01626

G1 X100.99 Y88.759 E.24548

G1 X100.99 Y88.75 E.00029

G1 X100.98 Y88.107 E.02017

G1 X100.946 Y87.425 E.02141

G1 X101.011 Y87.481 E.00271

G1 X101.629 Y87.554 E.0195

G1 X102.128 Y87.583 E.01569

G1 X104.637 Y87.588 E.07866

G1 X104.757 Y87.576 E.00379

G1 X104.94 Y87.501 E.00617

G1 X105.125 Y87.31 E.00835

G1 X105.256 Y86.837 E.01539

G1 X105.465 Y86.368 E.01609

G1 X105.767 Y85.951 E.01617

G1 X106.152 Y85.605 E.01621

G1 X106.597 Y85.348 E.01612

G1 X106.889 Y85.253 E.00964

G1 X107.356 Y85.071 E.0157

G1 X107.53 Y84.861 E.00857

G1 X107.586 Y84.615 E.00792

G1 X107.581 Y82.129 E.07794

G1 X107.578 Y82.078 E.00159

G1 X107.523 Y81.484 E.01871

G1 X107.46 Y81.018 E.01475

;WIPE_START

G1 F8640

G1 X107.504 Y80.962 E-.01637

;WIPE_END

G1 E-.78363 F2100

G1 Z.8 F10800

G1 X100.584 Y80.586

G1 Z.2

G1 E.8 F2100

;TYPE:External perimeter

;WIDTH:0.46536

G1 F1200

G1 X101.19 Y80.515 E.02144

;WIDTH:0.42002

G1 X103.893 Y80.514 E.08477

;WIDTH:0.420027

G1 X104.1 Y80.514 E.00649

G1 X106.528 Y80.514 E.07612

;WIDTH:0.419997

G1 X106.957 Y80.537 E.01347

;WIDTH:0.419999

G1 X107.522 Y80.585 E.01777

G1 X108.027 Y80.609 E.01587

G1 X115.402 Y80.612 E.23124

G1 X115.948 Y80.613 E.01711

G1 X116.477 Y80.602 E.01661

G1 X117.034 Y80.584 E.01747

;WIDTH:0.420002

G1 X117.879 Y80.514 E.02658

G1 X123.155 Y80.514 E.16542

;WIDTH:0.419996

G1 X123.559 Y80.536 E.01269

;WIDTH:0.419999

G1 X124.152 Y80.586 E.01866

G1 X125.104 Y80.612 E.02988

G1 X125.849 Y80.579 E.02335

G1 X126.532 Y80.515 E.02152

;WIDTH:0.419997

G1 X132.143 Y80.514 E.17592

G1 X132.365 Y80.528 E.00699

;WIDTH:0.419999

G1 X132.965 Y80.583 E.01887

G1 X133.593 Y80.61 E.01972

G1 X141.373 Y80.612 E.24393

G1 X141.874 Y80.601 E.01571

G1 X142.436 Y80.585 E.01764

;WIDTH:0.42

G1 X143.316 Y80.513 E.02769

G1 X145.895 Y80.514 E.08084

;WIDTH:0.419688

G1 X146.1 Y80.514 E.00642

;WIDTH:0.419669

G1 X148.855 Y80.514 E.08632

;WIDTH:0.419361

G1 X148.871 Y80.515 E.00049

;WIDTH:0.465416

G1 X149.415 Y80.584 E.01928

G1 X149.487 Y81.208 E.02208

;WIDTH:0.420049

G1 X149.487 Y83.873 E.08357

;WIDTH:0.420056

G1 X149.487 Y84.127 E.00794

G1 X149.487 Y86.52 E.07505

;WIDTH:0.419995

G1 X149.487 Y86.523 E.0001

G1 X149.473 Y87.037 E.01613

;WIDTH:0.419999

G1 X149.421 Y87.592 E.01747

G1 X149.389 Y88.351 E.02381

G1 X149.39 Y95.874 E.23588

G1 X149.391 Y96.312 E.01376

G1 X149.438 Y97.023 E.02234

G1 X149.487 Y97.78 E.02376

;WIDTH:0.419995

G1 X149.487 Y103.13 E.16775

G1 X149.457 Y103.623 E.01549

;WIDTH:0.419999

G1 X149.415 Y104.156 E.01676

G1 X149.389 Y105.107 E.02985

G1 X149.421 Y105.853 E.02339

G1 X149.485 Y106.529 E.02132

;WIDTH:0.419996

G1 X149.487 Y112.118 E.17521

G1 X149.464 Y112.43 E.00982

;WIDTH:0.419999

G1 X149.407 Y113.083 E.02055

G1 X149.388 Y114.057 E.03054

G1 X149.393 Y121.877 E.24519

G1 X149.429 Y122.431 E.01741

;WIDTH:0.420003

G1 X149.487 Y123.453 E.03211

G1 X149.487 Y125.874 E.07588

;WIDTH:0.419974

G1 X149.487 Y126.126 E.00793

;WIDTH:0.420087

G1 X149.486 Y128.806 E.08404

G1 X149.486 Y128.821 E.00046

;WIDTH:0.465465

G1 X149.416 Y129.418 E.02111

G1 X148.795 Y129.488 E.02199

;WIDTH:0.420019

G1 X146.099 Y129.488 E.08451

G1 X145.895 Y129.488 E.00642

;WIDTH:0.420002

G1 X143.38 Y129.488 E.07884

G1 X143.044 Y129.472 E.01054

;WIDTH:0.419999

G1 X142.418 Y129.427 E.01969

G1 X141.868 Y129.393 E.01727

G1 X138.789 Y129.393 E.09654

G1 X133.495 Y129.393 E.16601

G1 X132.946 Y129.415 E.01723

G1 X132.387 Y129.479 E.01763

;WIDTH:0.42

G1 X131.868 Y129.488 E.01629

G1 X126.884 Y129.488 E.15627

;WIDTH:0.419998

G1 X126.441 Y129.464 E.01389

;WIDTH:0.419999

G1 X125.846 Y129.416 E.01873

G1 X124.72 Y129.395 E.0353

G1 X124.165 Y129.42 E.01742

G1 X123.362 Y129.488 E.02529

G1 X117.888 Y129.488 E.17164

;WIDTH:0.419998

G1 X117.635 Y129.472 E.00793

;WIDTH:0.419999

G1 X116.879 Y129.406 E.02381

G1 X116.372 Y129.391 E.01589

G1 X108.873 Y129.387 E.23513

G1 X108.639 Y129.39 E.00733

G1 X107.86 Y129.398 E.02442

G1 X107.359 Y129.43 E.01574

;WIDTH:0.419618

G1 X106.861 Y129.487 E.0157

;WIDTH:0.419313

G1 X104.1 Y129.486 E.08641

;WIDTH:0.419125

G1 X103.894 Y129.486 E.00645

;WIDTH:0.419113

G1 X101.127 Y129.486 E.08657

;WIDTH:0.419023

G1 X101.11 Y129.485 E.00051

;WIDTH:0.465327

G1 X100.584 Y129.416 E.01863

G1 X100.513 Y128.814 E.0213

;WIDTH:0.419951

G1 X100.513 Y126.13 E.08415

G1 X100.513 Y125.87 E.00812

;WIDTH:0.420005

G1 X100.512 Y123.5 E.07433

G1 X100.521 Y123.012 E.0153

;WIDTH:0.419999

G1 X100.608 Y122.029 E.03094

G1 X100.613 Y114.201 E.24545

G1 X100.613 Y114.198 E.00008

G1 X100.604 Y113.511 E.02155

G1 X100.578 Y112.97 E.01696

G1 X100.513 Y112.226 E.02343

;WIDTH:0.42

G1 X100.512 Y106.876 E.16774

G1 X100.536 Y106.443 E.01359

;WIDTH:0.419999

G1 X100.585 Y105.859 E.01838

G1 X100.61 Y104.893 E.03032

G1 X100.562 Y104.175 E.02254

G1 X100.513 Y103.424 E.02362

;WIDTH:0.42

G1 X100.512 Y98.069 E.16788

G1 X100.536 Y97.643 E.01338

;WIDTH:0.419999

G1 X100.584 Y97.088 E.01748

G1 X100.608 Y96.588 E.01569

G1 X100.613 Y88.759 E.24548

G1 X100.613 Y88.756 E.0001

G1 X100.603 Y88.113 E.02017

G1 X100.58 Y87.568 E.01709

G1 X100.512 Y86.793 E.0244

;WIDTH:0.419997

G1 X100.512 Y86.784 E.00026

G1 X100.513 Y84.129 E.08325

;WIDTH:0.419493

G1 X100.513 Y83.871 E.0081

;WIDTH:0.419445

G1 X100.514 Y81.129 E.08585

;WIDTH:0.41899

G1 X100.515 Y81.112 E.00051

;WIDTH:0.46536

G1 X100.576 Y80.646 E.01653

G1 X100.928 Y80.931 F10800

G1 F1200

G1 X101.19 Y80.892 E.00929

;WIDTH:0.42002

G1 X103.893 Y80.891 E.08477

;WIDTH:0.427124

G1 X103.997 Y80.935 E.00359

G1 X104.1 Y80.891 E.00359

;WIDTH:0.420027

G1 X106.528 Y80.891 E.07612

;WIDTH:0.419997

G1 X106.931 Y80.899 E.01264

;WIDTH:0.419999

G1 X107.106 Y81.062 E.0075

G1 X107.203 Y82.113 E.03308

G1 X107.204 Y82.13 E.00053

G1 X107.209 Y84.616 E.07794

G1 X107.144 Y84.759 E.00493

G1 X106.443 Y85.002 E.02326

G1 X105.929 Y85.299 E.0186

G1 X105.485 Y85.697 E.0187

G1 X105.136 Y86.179 E.01866

G1 X104.895 Y86.72 E.01858

G1 X104.781 Y87.146 E.0138

G1 X104.638 Y87.211 E.00494

G1 X102.129 Y87.206 E.07866

G1 X101.307 Y87.137 E.02589

G1 X101.056 Y87.107 E.00792

G1 X100.893 Y86.936 E.0074

;WIDTH:0.419997

G1 X100.889 Y86.785 E.00474

G1 X100.89 Y84.129 E.08325

;WIDTH:0.430583

G1 X100.941 Y84 E.00449

G1 X100.89 Y83.871 E.00449

;WIDTH:0.419445

G1 X100.89 Y81.129 E.08585

;WIDTH:0.46536

G1 X100.917 Y80.99 E.00496

;WIPE_START

G1 F8640

G1 X101.19 Y80.892 E-.06701

;WIPE_END

G1 E-.73299 F2100

G1 Z.8 F10800

G1 X101.056 Y103.707

G1 Z.2

G1 E.8 F2100

;WIDTH:0.419999

G1 F1200

G1 X100.892 Y103.532 E.00752

;WIDTH:0.419836

G1 X100.89 Y103.424 E.00339

;WIDTH:0.42

G1 X100.889 Y98.069 E.16788

G1 X100.897 Y97.683 E.01212

;WIDTH:0.419999

G1 X101.058 Y97.495 E.00775

G1 X101.951 Y97.399 E.02818

G1 X101.971 Y97.397 E.00063

