; generated by PrusaSlicer 2.6.0-alpha6+linux-x64-GTK3 on 2023-05-08 at 03:34:15 UTC

; 

; external perimeters extrusion width = 0.45mm
; perimeters extrusion width = 0.45mm
; infill extrusion width = 0.45mm
; solid infill extrusion width = 0.45mm
; top infill extrusion width = 0.40mm
; first layer extrusion width = 0.42mm

M73 P0 R48
M201 X9000 Y9000 Z500 E10000 ; sets maximum accelerations, mm/sec^2
M203 X500 Y500 Z12 E120 ; sets maximum feedrates, mm / sec
M204 S2000 T1500 ; sets acceleration (S) and retract acceleration (R), mm/sec^2
M205 X10.00 Y10.00 Z0.20 E4.50 ; sets the jerk limits, mm/sec
M205 S0 T0 ; sets the minimum extruding and travel feed rate, mm/sec
;TYPE:Custom
M862.3 P "MK2.5" ; printer model check
M862.1 P0.4 ; nozzle diameter check
M115 U3.11.0 ; tell printer latest fw version
G90 ; use absolute coordinates
M83 ; extruder relative mode
M104 S215 ; set extruder temp
M140 S60 ; set bed temp
M190 S60 ; wait for bed temp
M109 S215 ; wait for extruder temp
G28 W ; home all without mesh bed level
G80 ; mesh bed leveling

G1 Z0.2 F720
G1 Y-3 F1000 ; go outside print area
G92 E0
G1 X60 E9 F1000 ; intro line
G1 X100 E12.5 F1000 ; intro line

G92 E0
G21 ; set units to millimeters
G90 ; use absolute coordinates
M83 ; use relative distances for extrusion
M900 K0.05 ; Filament gcode LA 1.5
M900 K30 ; Filament gcode LA 1.0
M107
;LAYER_CHANGE
;Z:0.2
;HEIGHT:0.2
;BEFORE_LAYER_CHANGE
G92 E0.0
;0.2


M73 P0 R47
G1 E-.8 F2100
G1 Z.4 F720
;AFTER_LAYER_CHANGE
;0.2
;CURRENT_Z: 0.2
G1 X97.82 Y78.498 F10800
G1 Z.2 F720
G1 E.8 F2100
M204 S800
;TYPE:Skirt/Brim
;WIDTH:0.42
G1 F1200
G1 X98.865 Y77.621 E.04277
G1 X99.805 Y77.428 E.03009
G1 X150.197 Y77.426 E1.58001
G1 X151.504 Y77.817 E.04277
G1 X152.381 Y78.863 E.0428
G1 X152.574 Y79.803 E.03009
G1 X152.574 Y130.197 E1.58007
G1 X152.182 Y131.504 E.04278
G1 X151.136 Y132.381 E.0428
G1 X150.197 Y132.574 E.03006
G1 X99.805 Y132.572 E1.58001
G1 X98.498 Y132.18 E.04278
G1 X97.622 Y131.134 E.04278
G1 X97.428 Y130.195 E.03006
G1 X97.428 Y79.805 E1.57994
G1 X97.802 Y78.555 E.04091
M204 S1000
; printing object axoblock-test-files-e-dungeon-tile.stl id:0 copy 0
;WIPE_START
G1 F8640
G1 X98.865 Y77.621 E-.32674
G1 X99.805 Y77.428 E-.22158
G1 X100.895 Y77.428 E-.25168
;WIPE_END
G1 Z.6 F720
G1 X107.452 Y80.958 F10800
G1 Z.2 F720
G1 E.8 F2100
M204 S800
;TYPE:Perimeter
;WIDTH:0.419999
G1 F1200
G1 X108.027 Y80.986 E.01805
G1 X115.955 Y80.99 E.24858
G1 X117.172 Y80.95 E.03818
G1 X117.118 Y81.013 E.0026
G1 X117.099 Y81.169 E.00493
G1 X117.03 Y82.081 E.02868
G1 X117.012 Y82.601 E.01631
G1 X117.026 Y87.149 E.1426
G1 X117.135 Y87.375 E.00787
G1 X117.325 Y87.528 E.00765
G1 X117.577 Y87.588 E.00812
G1 X123.62 Y87.588 E.18947
G1 X123.67 Y87.586 E.00157
G1 X123.944 Y87.487 E.00913
G1 X124.131 Y87.266 E.00908
G1 X124.186 Y87.022 E.00784
G1 X124.181 Y82.133 E.15329
G1 X124.074 Y80.977 E.0364
G1 X124.142 Y80.963 E.00218
G1 X125.121 Y80.989 E.03071
G1 X125.937 Y80.953 E.02561
G1 X125.846 Y81.632 E.02148
G1 X125.817 Y82.133 E.01573
G1 X125.812 Y87.022 E.15329
G1 X125.867 Y87.266 E.00784
G1 X125.969 Y87.413 E.00561
G1 X126.116 Y87.524 E.00578
G1 X126.377 Y87.588 E.00843
G1 X132.42 Y87.588 E.18947
G1 X132.491 Y87.584 E.00223
G1 X132.72 Y87.502 E.00763
G1 X132.918 Y87.291 E.00907
G1 X132.986 Y87.022 E.0087
G1 X132.985 Y82.581 E.13924
G1 X132.949 Y81.6 E.03078
G1 X132.88 Y81.013 E.01853
G1 X132.813 Y80.949 E.00291
G1 X133.591 Y80.987 E.02442
G1 X141.373 Y80.989 E.244
G1 X142.57 Y80.953 E.03755
G1 X142.517 Y81.013 E.00251
G1 X142.449 Y81.599 E.0185
G1 X142.417 Y82.13 E.01668
G1 X142.412 Y84.637 E.07861
G1 X142.424 Y84.757 E.00378
G1 X142.499 Y84.94 E.0062
G1 X142.689 Y85.125 E.00831
G1 X143.162 Y85.256 E.01539
G1 X143.631 Y85.466 E.01611
G1 X144.05 Y85.77 E.01623
G1 X144.395 Y86.153 E.01616
G1 X144.652 Y86.597 E.01609
G1 X144.928 Y87.358 E.02538
G1 X145.139 Y87.533 E.0086
G1 X145.385 Y87.588 E.0079
G1 X147.871 Y87.583 E.07795
G1 X148.973 Y87.484 E.03469
G1 X149.059 Y87.411 E.00354
G1 X149.02 Y87.841 E.01354
G1 X149.012 Y88.351 E.01599
G1 X149.013 Y95.874 E.23588
G1 X149.015 Y96.337 E.01452
G1 X149.072 Y97.208 E.02737
G1 X148.987 Y97.119 E.00386
G1 X148.367 Y97.048 E.01957
G1 X147.867 Y97.019 E.0157
G1 X142.852 Y97.028 E.15724
G1 X142.625 Y97.137 E.0079
G1 X142.472 Y97.327 E.00765
G1 X142.412 Y97.58 E.00815
G1 X142.412 Y103.622 E.18944
G1 X142.414 Y103.672 E.00157
G1 X142.513 Y103.946 E.00913
G1 X142.734 Y104.133 E.00908
G1 X142.978 Y104.188 E.00784
G1 X147.867 Y104.183 E.15329
G1 X149.036 Y104.079 E.0368
G1 X149.012 Y105.124 E.03277
G1 X149.047 Y105.938 E.02555
G1 X148.422 Y105.851 E.01979
G1 X147.906 Y105.819 E.01621
G1 X142.978 Y105.814 E.15451
G1 X142.734 Y105.869 E.00784
G1 X142.587 Y105.971 E.00561
G1 X142.476 Y106.118 E.00578
G1 X142.412 Y106.38 E.00846
G1 X142.412 Y112.422 E.18944
G1 X142.498 Y112.722 E.00979
G1 X142.709 Y112.92 E.00907
G1 X142.978 Y112.988 E.0087
G1 X147.867 Y112.983 E.15329
G1 X148.972 Y112.884 E.03479
G1 X149.051 Y112.818 E.00323
G1 X149.011 Y114.057 E.03887
G1 X149.015 Y121.535 E.23447
G1 X149.018 Y122.032 E.01558
G1 X149.061 Y122.556 E.01648
G1 X148.671 Y122.457 E.01262
G1 X148.131 Y122.419 E.01697
G1 X145.243 Y122.427 E.09055
G1 X145.06 Y122.501 E.00619
G1 X144.882 Y122.68 E.00792
G1 X144.745 Y123.161 E.01568
G1 X144.534 Y123.631 E.01615
G1 X144.23 Y124.05 E.01623
G1 X143.847 Y124.395 E.01616
G1 X143.403 Y124.652 E.01609
G1 X142.642 Y124.928 E.02538
G1 X142.467 Y125.139 E.0086
G1 X142.412 Y125.385 E.0079
G1 X142.42 Y127.923 E.07958
G1 X142.516 Y128.975 E.03312
G1 X142.606 Y129.061 E.0039
G1 X141.868 Y129.015 E.02318
G1 X133.495 Y129.016 E.26253
G1 X132.87 Y129.041 E.01961
G1 X132.952 Y128.37 E.0212
G1 X132.981 Y127.869 E.01573
G1 X132.972 Y122.853 E.15727
G1 X132.863 Y122.627 E.00787
G1 X132.673 Y122.474 E.00765
G1 X132.42 Y122.414 E.00815
G1 X126.377 Y122.414 E.18947
G1 X126.304 Y122.419 E.00229
G1 X126.054 Y122.515 E.0084
G1 X125.867 Y122.736 E.00908
G1 X125.812 Y122.98 E.00784
G1 X125.817 Y127.869 E.15329
G1 X125.924 Y129.027 E.03646
G1 X124.71 Y129.018 E.03807
G1 X124.023 Y129.054 E.02157
G1 X124.08 Y128.989 E.00271
G1 X124.152 Y128.37 E.01954
G1 X124.181 Y127.869 E.01573
G1 X124.186 Y122.98 E.15329
G1 X124.131 Y122.736 E.00784
G1 X124.029 Y122.589 E.00561
G1 X123.882 Y122.478 E.00578
G1 X123.62 Y122.414 E.00846
G1 X117.577 Y122.414 E.18947
G1 X117.507 Y122.418 E.0022
G1 X117.278 Y122.5 E.00763
G1 X117.08 Y122.711 E.00907
G1 X117.012 Y122.98 E.0087
G1 X117.017 Y127.869 E.15329
G1 X117.117 Y128.974 E.03479
G1 X117.197 Y129.054 E.00355
G1 X116.372 Y129.014 E.0259
G1 X108.873 Y129.01 E.23513
G1 X107.462 Y129.045 E.04425
G1 X107.552 Y128.371 E.02132
G1 X107.581 Y127.871 E.0157
G1 X107.573 Y125.243 E.0824
G1 X107.499 Y125.06 E.00619
M73 P1 R47
G1 X107.319 Y124.882 E.00794
G1 X106.838 Y124.744 E.01569
G1 X106.368 Y124.535 E.01613
G1 X105.951 Y124.233 E.01614
G1 X105.605 Y123.848 E.01623
G1 X105.348 Y123.403 E.01611
G1 X105.071 Y122.644 E.02533
G1 X104.86 Y122.469 E.0086
G1 X104.615 Y122.414 E.00787
G1 X102.021 Y122.422 E.08133
G1 X101.023 Y122.52 E.03144
G1 X100.937 Y122.602 E.00373
G1 X100.985 Y122.029 E.01803
G1 X100.99 Y114.201 E.24544
G1 X100.981 Y113.506 E.02179
G1 X100.944 Y112.823 E.02145
G1 X101.011 Y112.881 E.00278
G1 X101.63 Y112.954 E.01954
G1 X102.131 Y112.983 E.01573
G1 X107.146 Y112.974 E.15724
G1 X107.373 Y112.865 E.0079
G1 X107.526 Y112.675 E.00765
G1 X107.586 Y112.422 E.00815
G1 X107.586 Y106.38 E.18944
G1 X107.581 Y106.306 E.00233
G1 X107.484 Y106.056 E.00841
G1 X107.264 Y105.869 E.00905
G1 X107.02 Y105.814 E.00784
G1 X101.907 Y105.824 E.16031
G1 X100.962 Y105.927 E.02981
G1 X100.986 Y104.867 E.03324
G1 X100.929 Y104.009 E.02696
G1 X101.011 Y104.081 E.00342
G1 X101.63 Y104.154 E.01954
G1 X102.131 Y104.183 E.01573
G1 X107.02 Y104.188 E.15329
G1 X107.264 Y104.133 E.00784
G1 X107.411 Y104.031 E.00561
G1 X107.522 Y103.884 E.00578
G1 X107.586 Y103.623 E.00843
G1 X107.586 Y97.58 E.18947
G1 X107.582 Y97.509 E.00223
G1 X107.5 Y97.28 E.00763
G1 X107.289 Y97.082 E.00907
G1 X107.02 Y97.014 E.0087
G1 X101.971 Y97.02 E.15831
G1 X100.96 Y97.106 E.03181
G1 X100.985 Y96.588 E.01626
G1 X100.99 Y88.759 E.24547
G1 X100.946 Y87.425 E.04185
G1 X101.011 Y87.481 E.00269
G1 X101.629 Y87.554 E.01951
G1 X102.128 Y87.583 E.01567
G1 X104.637 Y87.588 E.07867
G1 X104.757 Y87.576 E.00378
G1 X104.94 Y87.501 E.0062
G1 X105.125 Y87.31 E.00834
G1 X105.256 Y86.837 E.01539
G1 X105.465 Y86.368 E.0161
G1 X105.767 Y85.951 E.01614
G1 X106.152 Y85.605 E.01623
G1 X106.597 Y85.348 E.01611
G1 X107.356 Y85.071 E.02533
G1 X107.53 Y84.861 E.00855
G1 X107.586 Y84.615 E.00791
G1 X107.581 Y82.129 E.07795
G1 X107.523 Y81.484 E.02031
G1 X107.46 Y81.018 E.01474
M204 S1000
;WIPE_START
G1 F8640
G1 X108.027 Y80.986 E-.13113
G1 X110.924 Y80.987 E-.66887
;WIPE_END
G1 Z.6 F720
G1 X100.584 Y80.586 F10800
G1 Z.2 F720
G1 E.8 F2100
M204 S800
;TYPE:External perimeter
;WIDTH:0.465361
G1 F1200
G1 X101.19 Y80.515 E.02143
;WIDTH:0.42
G1 X106.528 Y80.514 E.16737
G1 X108.027 Y80.609 E.04709
G1 X115.948 Y80.613 E.24836
G1 X117.034 Y80.584 E.03406
G1 X117.879 Y80.514 E.02659
G1 X123.155 Y80.514 E.16543
G1 X124.152 Y80.586 E.03134
G1 X125.104 Y80.612 E.02986
G1 X125.849 Y80.579 E.02338
G1 X126.521 Y80.515 E.02117
G1 X132.143 Y80.514 E.17627
G1 X132.965 Y80.583 E.02586
G1 X133.593 Y80.61 E.01971
G1 X141.373 Y80.612 E.24394
G1 X142.436 Y80.585 E.03334
G1 X143.316 Y80.513 E.02768
G1 X145.895 Y80.514 E.08086
;WIDTH:0.419669
G1 X148.855 Y80.514 E.09273
;WIDTH:0.419361
G1 X148.871 Y80.515 E.0005
;WIDTH:0.465416
G1 X149.415 Y80.584 E.01926
G1 X149.487 Y81.208 E.02207
;WIDTH:0.419974
G1 X149.487 Y86.523 E.16664
G1 X149.473 Y87.037 E.01612
G1 X149.421 Y87.592 E.01748
G1 X149.389 Y88.348 E.02372
G1 X149.391 Y96.312 E.24969
G1 X149.487 Y97.78 E.04612
G1 X149.487 Y103.13 E.16773
G1 X149.415 Y104.156 E.03225
G1 X149.389 Y105.107 E.02983
G1 X149.421 Y105.853 E.02341
G1 X149.485 Y106.529 E.02129
G1 X149.487 Y112.118 E.17523
G1 X149.407 Y113.083 E.03036
G1 X149.388 Y114.057 E.03054
G1 X149.393 Y121.622 E.23718
G1 X149.487 Y123.453 E.05748
G1 X149.487 Y126.126 E.0838
;WIDTH:0.420086
G1 X149.486 Y128.821 E.08452
;WIDTH:0.465464
G1 X149.416 Y129.418 E.02112
G1 X148.795 Y129.488 E.02196
;WIDTH:0.419999
G1 X143.38 Y129.488 E.16978
G1 X141.868 Y129.393 E.0475
G1 X133.495 Y129.393 E.26253
G1 X132.946 Y129.415 E.01723
G1 X132.387 Y129.479 E.01764
G1 X131.869 Y129.488 E.01624
G1 X126.884 Y129.488 E.1563
G1 X125.846 Y129.416 E.03262
G1 X124.72 Y129.395 E.03531
G1 X123.362 Y129.488 E.04268
G1 X117.888 Y129.488 E.17163
G1 X116.879 Y129.406 E.03174
G1 X116.372 Y129.391 E.0159
G1 X108.873 Y129.387 E.23513
G1 X107.86 Y129.398 E.03176
G1 X107.359 Y129.43 E.01574
;WIDTH:0.419618
G1 X106.861 Y129.487 E.0157
;WIDTH:0.419313
G1 X104.1 Y129.486 E.08641
;WIDTH:0.419126
G1 X103.894 Y129.486 E.00644
;WIDTH:0.419023
G1 X101.11 Y129.485 E.08706
;WIDTH:0.465327
G1 X100.584 Y129.416 E.01863
G1 X100.513 Y128.814 E.02129
;WIDTH:0.419999
G1 X100.512 Y123.5 E.16662
G1 X100.521 Y123.012 E.0153
G1 X100.608 Y122.029 E.03094
G1 X100.613 Y114.201 E.24544
G1 X100.578 Y112.97 E.03861
G1 X100.513 Y112.226 E.02342
G1 X100.512 Y106.876 E.16775
G1 X100.585 Y105.859 E.03197
G1 X100.61 Y104.893 E.0303
G1 X100.513 Y103.424 E.04616
G1 X100.512 Y98.069 E.1679
G1 X100.608 Y96.588 E.04653
G1 X100.613 Y88.759 E.24547
G1 X100.58 Y87.568 E.03736
G1 X100.512 Y86.793 E.02439
;WIDTH:0.419997
G1 X100.513 Y84.129 E.08353
;WIDTH:0.419445
G1 X100.514 Y81.129 E.09392
;WIDTH:0.41899
G1 X100.515 Y81.112 E.00053
;WIDTH:0.465361
G1 X100.576 Y80.646 E.01651
M204 S1000
G1 X100.928 Y80.931 F10800
M204 S800
G1 F1200
G1 X101.19 Y80.892 E.0093
;WIDTH:0.42002
G1 X103.894 Y80.891 E.08479
;WIDTH:0.427124
G1 X103.997 Y80.935 E.00358
G1 X104.1 Y80.891 E.00358
;WIDTH:0.420028
G1 X106.931 Y80.899 E.08877
G1 X107.106 Y81.062 E.0075
G1 X107.204 Y82.13 E.03363
G1 X107.209 Y84.616 E.07795
G1 X107.144 Y84.759 E.00493
G1 X106.443 Y85.002 E.02326
G1 X105.929 Y85.299 E.01861
G1 X105.485 Y85.697 E.0187
G1 X105.136 Y86.179 E.01866
G1 X104.895 Y86.72 E.01857
G1 X104.781 Y87.146 E.01383
G1 X104.638 Y87.211 E.00493
G1 X102.129 Y87.206 E.07867
G1 X101.056 Y87.107 E.03379
G1 X100.893 Y86.936 E.00741
G1 X100.89 Y84.129 E.08802
;WIDTH:0.430584
G1 X100.941 Y84 E.00447
G1 X100.89 Y83.871 E.00447
;WIDTH:0.419445
G1 X100.89 Y81.129 E.08585
;WIDTH:0.465361
G1 X100.917 Y80.99 E.00497
M204 S1000
;WIPE_START
G1 F8640
G1 X101.19 Y80.892 E-.06697
G1 X103.894 Y80.891 E-.62436
G1 X103.997 Y80.935 E-.02586
G1 X104.1 Y80.891 E-.02586
G1 X104.347 Y80.892 E-.05695
;WIPE_END
G1 Z.6 F720
G1 X107.209 Y103.623 F10800
G1 Z.2 F720
G1 E.8 F2100
M204 S800
;WIDTH:0.419999
G1 F1200
G1 X107.151 Y103.759 E.00464
G1 X107.02 Y103.811 E.00442
G1 X102.131 Y103.806 E.15329
G1 X101.056 Y103.707 E.03385
G1 X100.892 Y103.532 E.00752
;WIDTH:0.419836
G1 X100.89 Y103.424 E.00339
;WIDTH:0.42
G1 X100.897 Y97.683 E.18001
;WIDTH:0.419999
G1 X101.058 Y97.495 E.00776
G1 X101.971 Y97.397 E.02879
G1 X107.02 Y97.391 E.15831
G1 X107.162 Y97.455 E.00488
G1 X107.209 Y97.58 E.00419
G1 X107.209 Y103.563 E.18759
M204 S1000
G1 X107.313 Y103.728 F10800
;WIPE_START
G1 F8640
G1 X107.151 Y103.759 E-.0472
G1 X107.02 Y103.811 E-.03254
G1 X103.901 Y103.808 E-.72026
;WIPE_END
G1 Z.6 F720
G1 X101.056 Y112.507 F10800
G1 Z.2 F720
G1 E.8 F2100
M204 S800
G1 F1200
G1 X100.893 Y112.336 E.00741
;WIDTH:0.419773
G1 X100.89 Y112.226 E.00345
;WIDTH:0.42
G1 X100.897 Y106.483 E.18007
;WIDTH:0.419999
G1 X101.058 Y106.295 E.00776
G1 X101.951 Y106.199 E.02816
G1 X107.02 Y106.191 E.15893
G1 X107.175 Y106.272 E.00548
G1 X107.209 Y106.38 E.00355
G1 X107.209 Y112.422 E.18944
G1 X107.138 Y112.57 E.00515
G1 X107.02 Y112.611 E.00392
G1 X102.131 Y112.606 E.15329
G1 X101.115 Y112.514 E.03199
M204 S1000
G1 X100.849 Y112.62 F10800
;WIPE_START
G1 F8640
G1 X100.893 Y112.336 E-.0657
G1 X100.89 Y112.226 E-.02541
G1 X100.894 Y109.156 E-.70889
;WIPE_END
G1 Z.6 F720
G1 X123.7 Y105.833 F10800
G1 Z.2 F720
G1 E.8 F2100
M204 S800
;TYPE:Perimeter
G1 F1200
G1 X123.873 Y105.874 E.00557
G1 X124.02 Y105.98 E.00568
G1 X124.126 Y106.127 E.00568
G1 X124.186 Y106.38 E.00815
G1 X124.186 Y112.422 E.18944
G1 X124.131 Y112.667 E.00787
G1 X123.944 Y112.887 E.00905
G1 X123.694 Y112.983 E.0084
G1 X123.62 Y112.988 E.00233
G1 X117.577 Y112.988 E.18947
G1 X117.325 Y112.928 E.00812
G1 X117.125 Y112.762 E.00815
G1 X117.016 Y112.493 E.0091
G1 X117.012 Y112.422 E.00223
G1 X117.012 Y106.38 E.18944
G1 X117.076 Y106.118 E.00846
G1 X117.186 Y105.971 E.00576
G1 X117.333 Y105.869 E.00561
G1 X117.577 Y105.814 E.00784
G1 X123.641 Y105.819 E.19013
M204 S1000
G1 X123.62 Y106.191 F10800
M204 S800
;TYPE:External perimeter
G1 F1200
G1 X123.754 Y106.246 E.00454
G1 X123.809 Y106.38 E.00454
G1 X123.809 Y112.422 E.18944
G1 X123.757 Y112.553 E.00442
G1 X123.62 Y112.611 E.00466
G1 X117.577 Y112.611 E.18947
G1 X117.436 Y112.547 E.00486
G1 X117.389 Y112.422 E.00419
G1 X117.389 Y106.38 E.18944
G1 X117.447 Y106.243 E.00466
G1 X117.577 Y106.191 E.00439
G1 X123.56 Y106.191 E.18759
M204 S1000
G1 X123.722 Y106.089 F10800
;WIPE_START
G1 F8640
G1 X123.754 Y106.246 E-.04656
G1 X123.809 Y106.38 E-.03345
G1 X123.809 Y109.498 E-.71999
;WIPE_END
G1 Z.6 F720
G1 X126.298 Y105.833 F10800
G1 Z.2 F720
G1 E.8 F2100
M204 S800
;TYPE:Perimeter
G1 F1200
G1 X126.377 Y105.814 E.00255
G1 X132.42 Y105.814 E.18947
G1 X132.665 Y105.869 E.00787
G1 X132.885 Y106.056 E.00905
G1 X132.981 Y106.306 E.0084
G1 X132.986 Y106.38 E.00233
G1 X132.986 Y112.422 E.18944
G1 X132.926 Y112.675 E.00815
G1 X132.76 Y112.875 E.00815
G1 X132.491 Y112.984 E.0091
G1 X132.42 Y112.988 E.00223
G1 X126.377 Y112.988 E.18947
G1 X126.116 Y112.924 E.00843
G1 X125.969 Y112.814 E.00576
G1 X125.867 Y112.667 E.00561
G1 X125.812 Y112.422 E.00787
G1 X125.812 Y106.38 E.18944
G1 X125.872 Y106.127 E.00815
G1 X125.978 Y105.98 E.00568
G1 X126.125 Y105.874 E.00568
G1 X126.24 Y105.846 E.00371
M204 S1000
G1 X126.377 Y106.191 F10800
M204 S800
;TYPE:External perimeter
G1 F1200
G1 X132.42 Y106.191 E.18947
G1 X132.575 Y106.272 E.00548
G1 X132.609 Y106.38 E.00355
G1 X132.609 Y112.422 E.18944
G1 X132.545 Y112.564 E.00488
