; generated by PrusaSlicer 2.3.0+linux-x64 on 2021-02-06 at 03:20:34 UTC

; 

; external perimeters extrusion width = 0.45mm
; perimeters extrusion width = 0.45mm
; infill extrusion width = 0.45mm
; solid infill extrusion width = 0.45mm
; top infill extrusion width = 0.40mm
; first layer extrusion width = 0.42mm

M73 P0 R14
M201 X9000 Y9000 Z500 E10000 ; sets maximum accelerations, mm/sec^2
M203 X500 Y500 Z12 E120 ; sets maximum feedrates, mm/sec
M204 P2000 R1500 T2000 ; sets acceleration (P, T) and retract acceleration (R), mm/sec^2
M205 X10.00 Y10.00 Z0.20 E4.50 ; sets the jerk limits, mm/sec
M205 S0 T0 ; sets the minimum extruding and travel feed rate, mm/sec
M107
;TYPE:Custom
M862.3 P "MK2.5" ; printer model check
M862.1 P0.4 ; nozzle diameter check
M115 U3.9.1 ; tell printer latest fw version
G90 ; use absolute coordinates
M83 ; extruder relative mode
M104 S215 ; set extruder temp
M140 S60 ; set bed temp
M190 S60 ; wait for bed temp
M109 S215 ; wait for extruder temp
G28 W ; home all without mesh bed level
G80 ; mesh bed leveling
G1 Y-3.0 F1000.0 ; go outside print area
G92 E0.0
G1 X60.0 E9.0 F1000.0 ; intro line
G1 X100.0 E12.5 F1000.0 ; intro line
G92 E0.0
G21 ; set units to millimeters
G90 ; use absolute coordinates
M83 ; use relative distances for extrusion
M900 K0.05 ; Filament gcode LA 1.5
M900 K30 ; Filament gcode LA 1.0
;LAYER_CHANGE
;Z:0.2
;HEIGHT:0.2
;BEFORE_LAYER_CHANGE
G92 E0.0
;0.2


G1 E-0.80000 F2100.000
G1 Z0.600 F10800.000
;AFTER_LAYER_CHANGE
;0.2
;CURRENT_Z: 0.2
G1 X113.186 Y96.300
G1 Z0.200
G1 E0.80000 F2100.000
M204 S1000
;TYPE:Skirt
;WIDTH:0.42
G1 F1200.000
G1 X114.049 Y95.029 E0.04817
G1 X114.743 Y94.301 E0.03154
G1 X115.337 Y93.805 E0.02424
G1 X116.679 Y92.993 E0.04920
G1 X118.142 Y92.472 E0.04868
G1 X118.925 Y92.321 E0.02502
G1 X119.949 Y92.246 E0.03218
G1 X130.004 Y92.246 E0.31528
G1 X131.152 Y92.332 E0.03609
G1 X132.315 Y92.600 E0.03743
G1 X133.606 Y93.136 E0.04382
G1 X134.614 Y93.768 E0.03731
G1 X135.490 Y94.524 E0.03628
G1 X136.263 Y95.429 E0.03731
G1 X136.982 Y96.628 E0.04382
G1 X137.410 Y97.716 E0.03666
G1 X137.660 Y98.800 E0.03488
G1 X137.747 Y99.679 E0.02771
G1 X137.746 Y110.350 E0.33458
M73 P1 R14
G1 X137.662 Y111.188 E0.02643
G1 X137.438 Y112.190 E0.03218
G1 X136.814 Y113.700 E0.05124
G1 X136.263 Y114.571 E0.03231
G1 X135.747 Y115.206 E0.02565
G1 X135.163 Y115.785 E0.02579
G1 X134.357 Y116.414 E0.03205
G1 X132.916 Y117.185 E0.05124
G1 X131.942 Y117.507 E0.03218
G1 X131.148 Y117.669 E0.02540
G1 X130.018 Y117.754 E0.03552
G1 X119.597 Y117.744 E0.32676
G1 X118.799 Y117.660 E0.02514
G1 X117.802 Y117.436 E0.03205
G1 X116.300 Y116.814 E0.05098
G1 X115.429 Y116.263 E0.03231
G1 X114.794 Y115.747 E0.02566
G1 X114.218 Y115.166 E0.02566
G1 X113.586 Y114.357 E0.03218
G1 X112.815 Y112.916 E0.05124
G1 X112.493 Y111.942 E0.03218
G1 X112.331 Y111.148 E0.02540
G1 X112.246 Y110.018 E0.03551
G1 X112.256 Y99.597 E0.32676
G1 X112.340 Y98.799 E0.02514
G1 X112.564 Y97.802 E0.03205
G1 X113.163 Y96.355 E0.04910
;WIPE_START
G1 F8640.000
G1 X114.049 Y95.029 E-0.36829
G1 X114.743 Y94.301 E-0.23229
G1 X115.273 Y93.858 E-0.15942
;WIPE_END
G1 E-0.04000 F2100.000
G1 Z0.800 F10800.000
G1 X114.536 Y95.044
G1 Z0.200
G1 E0.80000 F2100.000
G1 F1200.000
G1 X115.641 Y94.048 E0.04665
G1 X116.899 Y93.307 E0.04577
G1 X118.511 Y92.775 E0.05323
G1 X119.968 Y92.623 E0.04593
G1 X130.004 Y92.623 E0.31466
G1 X131.130 Y92.710 E0.03542
G1 X132.430 Y93.035 E0.04201
G1 X133.470 Y93.490 E0.03558
G1 X134.397 Y94.076 E0.03439
G1 X135.250 Y94.818 E0.03546
G1 X136.101 Y95.853 E0.04202
G1 X136.665 Y96.838 E0.03558
G1 X137.061 Y97.865 E0.03450
G1 X137.290 Y98.871 E0.03237
G1 X137.370 Y99.696 E0.02599
G1 X137.369 Y110.353 E0.33414
G1 X137.288 Y111.138 E0.02472
G1 X137.061 Y112.137 E0.03213
G1 X136.795 Y112.871 E0.02449
G1 X136.344 Y113.765 E0.03141
G1 X135.431 Y114.992 E0.04795
G1 X134.719 Y115.670 E0.03081
G1 X134.096 Y116.135 E0.02437
G1 X133.431 Y116.530 E0.02425
G1 X132.533 Y116.928 E0.03081
G1 X131.035 Y117.304 E0.04843
G1 X130.013 Y117.377 E0.03213
G1 X119.601 Y117.366 E0.32645
G1 X118.614 Y117.245 E0.03117
G1 X117.860 Y117.060 E0.02437
G1 X117.129 Y116.795 E0.02436
G1 X116.238 Y116.346 E0.03129
G1 X115.008 Y115.431 E0.04807
G1 X114.330 Y114.719 E0.03081
G1 X113.865 Y114.096 E0.02437
G1 X113.470 Y113.431 E0.02425
G1 X113.072 Y112.533 E0.03081
G1 X112.696 Y111.035 E0.04843
G1 X112.623 Y110.013 E0.03212
G1 X112.634 Y99.601 E0.32644
G1 X112.755 Y98.611 E0.03129
G1 X112.941 Y97.856 E0.02437
G1 X113.205 Y97.129 E0.02425
G1 X113.656 Y96.235 E0.03141
G1 X114.500 Y95.092 E0.04453
;WIPE_START
G1 F8640.000
G1 X115.641 Y94.048 E-0.35713
G1 X116.899 Y93.307 E-0.33706
G1 X117.170 Y93.218 E-0.06580
;WIPE_END
G1 E-0.04000 F2100.000
G1 Z0.800 F10800.000
G1 X116.035 Y98.581
G1 Z0.200
G1 E0.80000 F2100.000
;TYPE:Perimeter
G1 F1200.000
G1 X116.289 Y98.008 E0.01965
G1 X116.498 Y97.660 E0.01273
G1 X116.744 Y97.328 E0.01296
G1 X117.022 Y97.022 E0.01296
G1 X117.323 Y96.749 E0.01275
G1 X117.825 Y96.394 E0.01929
G1 X118.200 Y96.192 E0.01334
G1 X118.581 Y96.034 E0.01293
G1 X118.977 Y95.914 E0.01296
G1 X119.375 Y95.835 E0.01273
G1 X120.024 Y95.787 E0.02041
G1 X130.195 Y95.792 E0.31892
M73 P2 R14
G1 X130.815 Y95.868 E0.01956
G1 X131.426 Y96.037 E0.01988
G1 X131.801 Y96.192 E0.01273
G1 X132.159 Y96.384 E0.01273
G1 X132.672 Y96.745 E0.01965
G1 X133.126 Y97.177 E0.01965
G1 X133.383 Y97.491 E0.01273
G1 X133.609 Y97.829 E0.01273
G1 X133.894 Y98.395 E0.01988
G1 X134.031 Y98.777 E0.01273
G1 X134.131 Y99.178 E0.01296
G1 X134.192 Y99.587 E0.01296
G1 X134.213 Y100.017 E0.01348
G1 X134.207 Y110.199 E0.31927
G1 X134.129 Y110.829 E0.01989
G1 X134.033 Y111.216 E0.01251
G1 X133.807 Y111.801 E0.01965
G1 X133.498 Y112.346 E0.01965
G1 X133.256 Y112.672 E0.01273
G1 X132.983 Y112.973 E0.01273
G1 X132.503 Y113.387 E0.01988
G1 X132.165 Y113.613 E0.01273
G1 X131.801 Y113.808 E0.01296
G1 X131.419 Y113.966 E0.01296
G1 X131.030 Y114.084 E0.01273
G1 X130.406 Y114.192 E0.01988
G1 X129.983 Y114.213 E0.01326
G1 X119.793 Y114.207 E0.31950
G1 X119.389 Y114.167 E0.01274
G1 X118.778 Y114.030 E0.01965
G1 X118.199 Y113.807 E0.01943
G1 X117.654 Y113.498 E0.01965
G1 X117.328 Y113.256 E0.01273
G1 X117.022 Y112.978 E0.01296
G1 X116.749 Y112.678 E0.01273
G1 X116.388 Y112.165 E0.01965
G1 X116.106 Y111.605 E0.01965
G1 X115.969 Y111.223 E0.01273
G1 X115.869 Y110.822 E0.01296
G1 X115.808 Y110.413 E0.01296
G1 X115.787 Y109.983 E0.01348
G1 X115.793 Y99.801 E0.31927
G1 X115.870 Y99.178 E0.01966
G1 X116.019 Y98.639 E0.01755
G1 X115.655 Y98.539 F10800.000
;TYPE:External perimeter
G1 F1200.000
G1 X115.954 Y97.834 E0.02398
G1 X116.184 Y97.450 E0.01404
G1 X116.452 Y97.088 E0.01412
G1 X116.755 Y96.755 E0.01412
G1 X117.087 Y96.454 E0.01405
G1 X117.627 Y96.072 E0.02073
G1 X118.038 Y95.851 E0.01465
G1 X118.454 Y95.679 E0.01411
G1 X118.885 Y95.548 E0.01412
G1 X119.324 Y95.461 E0.01404
G1 X120.010 Y95.410 E0.02157
G1 X130.208 Y95.415 E0.31976
G1 X130.448 Y95.432 E0.00752
G1 X130.893 Y95.498 E0.01411
G1 X131.549 Y95.680 E0.02133
G1 X131.962 Y95.851 E0.01404
G1 X132.357 Y96.062 E0.01404
G1 X132.911 Y96.452 E0.02125
G1 X133.402 Y96.920 E0.02125
G1 X133.686 Y97.266 E0.01404
G1 X133.935 Y97.638 E0.01404
G1 X134.241 Y98.246 E0.02133
G1 X134.392 Y98.668 E0.01404
G1 X134.502 Y99.105 E0.01412
G1 X134.568 Y99.550 E0.01412
G1 X134.590 Y100.008 E0.01436
G1 X134.584 Y110.223 E0.32028
G1 X134.501 Y110.898 E0.02134
G1 X134.393 Y111.330 E0.01396
G1 X134.149 Y111.962 E0.02125
G1 X133.815 Y112.552 E0.02125
G1 X133.548 Y112.912 E0.01404
G1 X133.247 Y113.243 E0.01404
G1 X132.732 Y113.688 E0.02133
G1 X132.360 Y113.937 E0.01404
G1 X131.962 Y114.149 E0.01412
G1 X131.546 Y114.321 E0.01412
G1 X131.118 Y114.451 E0.01404
G1 X130.447 Y114.568 E0.02133
G1 X129.992 Y114.590 E0.01428
G1 X119.775 Y114.584 E0.32037
G1 X119.329 Y114.540 E0.01404
G1 X118.668 Y114.392 E0.02125
G1 X118.038 Y114.149 E0.02117
G1 X117.448 Y113.815 E0.02125
G1 X117.088 Y113.548 E0.01404
G1 X116.755 Y113.245 E0.01412
G1 X116.454 Y112.914 E0.01404
G1 X116.064 Y112.359 E0.02125
G1 X115.759 Y111.754 E0.02125
G1 X115.608 Y111.332 E0.01404
G1 X115.498 Y110.895 E0.01412
G1 X115.432 Y110.450 E0.01412
G1 X115.410 Y109.992 E0.01436
G1 X115.416 Y99.777 E0.32028
G1 X115.499 Y99.105 E0.02125
G1 X115.639 Y98.596 E0.01654
G1 X116.048 Y98.462 F10800.000
;WIPE_START
G1 F8640.000
G1 X115.954 Y97.834 E-0.19034
G1 X116.184 Y97.450 E-0.10340
G1 X116.452 Y97.088 E-0.10400
G1 X116.755 Y96.755 E-0.10400
G1 X117.087 Y96.454 E-0.10344
G1 X117.627 Y96.072 E-0.15265
G1 X117.635 Y96.068 E-0.00216
;WIPE_END
G1 E-0.04000 F2100.000
G1 Z0.800 F10800.000
G1 X133.590 Y98.043
G1 Z0.200
G1 E0.80000 F2100.000
;TYPE:Solid infill
;WIDTH:0.422105
G1 F1200.000
G1 X132.492 Y96.964 E0.04856
G1 X132.010 Y96.625 E0.01856
G1 X131.680 Y96.448 E0.01182
G1 X131.309 Y96.298 E0.01263
G1 X133.698 Y98.687 E0.10655
G1 X133.760 Y98.859 E0.00576
G1 X133.879 Y99.404 E0.01758
G1 X130.601 Y96.127 E0.14615
G1 X130.178 Y96.075 E0.01344
G1 X130.013 Y96.075 E0.00519
G1 X133.928 Y99.990 E0.17457
G1 X133.930 Y100.528 E0.01695
G1 X129.477 Y96.075 E0.19855
G1 X128.940 Y96.075 E0.01692
G1 X133.930 Y101.064 E0.22246
G1 X133.929 Y101.600 E0.01690
G1 X128.404 Y96.074 E0.24637
M73 P3 R14
G1 X127.867 Y96.074 E0.01692
G1 X133.929 Y102.136 E0.27028
G1 X133.929 Y102.672 E0.01690
G1 X127.331 Y96.074 E0.29419
G1 X126.794 Y96.073 E0.01692
G1 X133.928 Y103.207 E0.31810
G1 X133.928 Y103.743 E0.01690
G1 X126.258 Y96.073 E0.34201
G1 X125.721 Y96.073 E0.01692
G1 X133.928 Y104.279 E0.36592
G1 X133.927 Y104.815 E0.01690
G1 X125.185 Y96.073 E0.38983
G1 X124.648 Y96.072 E0.01692
G1 X133.927 Y105.351 E0.41374
G1 X133.927 Y105.887 E0.01690
G1 X124.112 Y96.072 E0.43765
G1 X123.575 Y96.072 E0.01692
G1 X133.926 Y106.423 E0.46156
G1 X133.926 Y106.959 E0.01690
G1 X123.039 Y96.071 E0.48547
G1 X122.502 Y96.071 E0.01692
G1 X133.926 Y107.495 E0.50938
G1 X133.926 Y108.031 E0.01690
G1 X121.965 Y96.071 E0.53329
G1 X121.429 Y96.071 E0.01692
G1 X133.925 Y108.567 E0.55720
M73 P4 R14
G1 X133.925 Y109.103 E0.01690
G1 X120.892 Y96.070 E0.58111
G1 X120.356 Y96.070 E0.01692
G1 X133.925 Y109.639 E0.60502
G1 X133.924 Y110.175 E0.01690
G1 X119.834 Y96.085 E0.62827
G1 X119.343 Y96.130 E0.01556
G1 X133.866 Y110.653 E0.64758
G1 X133.771 Y111.094 E0.01424
G1 X118.908 Y96.231 E0.66277
G1 X118.510 Y96.369 E0.01327
G1 X133.626 Y111.485 E0.67398
G1 X133.551 Y111.679 E0.00657
G1 X133.454 Y111.850 E0.00617
G1 X118.146 Y96.542 E0.68256
G1 X117.815 Y96.747 E0.01228
G1 X133.260 Y112.192 E0.68868
M73 P5 R14
G1 X133.031 Y112.499 E0.01208
G1 X117.500 Y96.970 E0.69249
G1 X117.220 Y97.224 E0.01193
G1 X132.775 Y112.779 E0.69360
G1 X132.487 Y113.028 E0.01199
G1 X116.965 Y97.505 E0.69213
G1 X116.736 Y97.813 E0.01208
G1 X132.184 Y113.260 E0.68880
G1 X131.849 Y113.462 E0.01232
G1 X116.536 Y98.149 E0.68278
G1 X116.371 Y98.520 E0.01281
G1 X131.484 Y113.633 E0.67386
G1 X131.086 Y113.771 E0.01328
G1 X116.235 Y98.920 E0.66221
G1 X116.148 Y99.234 E0.01026
G1 X116.133 Y99.355 E0.00384
G1 X130.642 Y113.864 E0.64697
M73 P6 R14
G1 X130.374 Y113.911 E0.00858
G1 X130.163 Y113.921 E0.00667
G1 X116.076 Y99.834 E0.62815
G1 X116.075 Y100.370 E0.01690
G1 X129.636 Y113.930 E0.60465
G1 X129.099 Y113.930 E0.01692
G1 X116.075 Y100.905 E0.58074
M73 P6 R13
G1 X116.075 Y101.441 E0.01690
G1 X128.563 Y113.929 E0.55683
G1 X128.026 Y113.929 E0.01692
G1 X116.074 Y101.977 E0.53292
G1 X116.074 Y102.513 E0.01690
G1 X127.490 Y113.929 E0.50900
G1 X126.953 Y113.928 E0.01692
G1 X116.074 Y103.049 E0.48509
G1 X116.074 Y103.585 E0.01690
G1 X126.416 Y113.928 E0.46118
G1 X125.880 Y113.928 E0.01692
G1 X116.073 Y104.121 E0.43727
G1 X116.073 Y104.657 E0.01690
G1 X125.343 Y113.927 E0.41336
M73 P7 R13
G1 X124.807 Y113.927 E0.01692
G1 X116.073 Y105.193 E0.38945
G1 X116.072 Y105.729 E0.01690
G1 X124.270 Y113.927 E0.36554
G1 X123.734 Y113.927 E0.01692
G1 X116.072 Y106.265 E0.34163
G1 X116.072 Y106.801 E0.01690
G1 X123.197 Y113.926 E0.31772
G1 X122.661 Y113.926 E0.01692
G1 X116.071 Y107.337 E0.29381
G1 X116.071 Y107.873 E0.01690
G1 X122.124 Y113.926 E0.26989
G1 X121.587 Y113.925 E0.01692
G1 X116.071 Y108.409 E0.24598
G1 X116.070 Y108.945 E0.01690
G1 X121.051 Y113.925 E0.22207
G1 X120.514 Y113.925 E0.01692
G1 X116.070 Y109.481 E0.19816
G1 X116.072 Y110.019 E0.01696
G1 X119.978 Y113.924 E0.17416
G1 X119.807 Y113.924 E0.00537
G1 X119.396 Y113.879 E0.01305
G1 X116.123 Y110.605 E0.14596
G1 X116.240 Y111.141 E0.01727
G1 X116.306 Y111.325 E0.00619
G1 X118.664 Y113.683 E0.10512
G1 X118.321 Y113.551 E0.01160
G1 X117.809 Y113.260 E0.01856
G1 X117.507 Y113.037 E0.01182
G1 X117.234 Y112.789 E0.01166
G1 X116.418 Y111.973 E0.03636
M106 S255
;LAYER_CHANGE
;Z:0.4
;HEIGHT:0.2
;BEFORE_LAYER_CHANGE
G92 E0.0
;0.4


;WIPE_START
G1 F8640.000
G1 X117.234 Y112.789 E-0.26629
G1 X117.507 Y113.037 E-0.08536
G1 X117.809 Y113.260 E-0.08656
G1 X118.321 Y113.551 E-0.13591
G1 X118.664 Y113.683 E-0.08492
G1 X118.355 Y113.374 E-0.10096
;WIPE_END
G1 E-0.04000 F2100.000
G1 Z0.800 F10800.000
;AFTER_LAYER_CHANGE
;0.4
;CURRENT_Z: 0.4
M104 S210 ; set temperature
G1 X116.300 Y116.814
G1 Z0.400
G1 E0.80000 F2100.000
;TYPE:Skirt
;WIDTH:0.42
G1 F3000.000
G1 X115.429 Y116.263 E0.03231
G1 X114.794 Y115.747 E0.02566
G1 X114.218 Y115.166 E0.02566
G1 X113.586 Y114.357 E0.03218
G1 X112.815 Y112.916 E0.05124
G1 X112.493 Y111.942 E0.03218
G1 X112.331 Y111.148 E0.02540
G1 X112.246 Y110.018 E0.03551
G1 X112.256 Y99.597 E0.32676
G1 X112.340 Y98.799 E0.02514
G1 X112.564 Y97.802 E0.03205
G1 X113.186 Y96.300 E0.05098
G1 X114.049 Y95.029 E0.04817
G1 X114.743 Y94.301 E0.03154
G1 X115.337 Y93.805 E0.02424
G1 X116.679 Y92.993 E0.04920
G1 X118.142 Y92.472 E0.04868
G1 X118.925 Y92.321 E0.02502
G1 X119.949 Y92.246 E0.03218
G1 X130.004 Y92.246 E0.31528
G1 X131.152 Y92.332 E0.03609
G1 X132.315 Y92.600 E0.03743
G1 X133.606 Y93.136 E0.04382
G1 X134.614 Y93.768 E0.03731
G1 X135.490 Y94.524 E0.03628
G1 X136.263 Y95.429 E0.03731
G1 X136.982 Y96.628 E0.04382
G1 X137.410 Y97.716 E0.03666
G1 X137.660 Y98.800 E0.03488
G1 X137.747 Y99.679 E0.02771
G1 X137.746 Y110.350 E0.33458
G1 X137.662 Y111.188 E0.02643
G1 X137.438 Y112.190 E0.03218
G1 X136.814 Y113.700 E0.05124
G1 X136.263 Y114.571 E0.03231
G1 X135.747 Y115.206 E0.02565
G1 X135.163 Y115.785 E0.02579
G1 X134.357 Y116.414 E0.03205
G1 X132.916 Y117.185 E0.05124
G1 X131.942 Y117.507 E0.03218
G1 X131.148 Y117.669 E0.02540
G1 X130.018 Y117.754 E0.03552
G1 X119.597 Y117.744 E0.32676
G1 X118.799 Y117.660 E0.02514
G1 X117.802 Y117.436 E0.03205
G1 X116.355 Y116.837 E0.04910
G1 X116.238 Y116.346 F10800.000
G1 F3000.000
G1 X115.008 Y115.431 E0.04807
G1 X114.330 Y114.719 E0.03081
G1 X113.865 Y114.096 E0.02437
G1 X113.470 Y113.431 E0.02425
G1 X113.072 Y112.533 E0.03081
G1 X112.696 Y111.035 E0.04843
G1 X112.623 Y110.013 E0.03212
G1 X112.634 Y99.601 E0.32644
G1 X112.755 Y98.611 E0.03129
G1 X112.941 Y97.856 E0.02437
G1 X113.205 Y97.129 E0.02425
G1 X113.656 Y96.235 E0.03141
G1 X114.536 Y95.044 E0.04641
G1 X115.641 Y94.048 E0.04665
G1 X116.899 Y93.307 E0.04577
G1 X118.511 Y92.775 E0.05323
G1 X119.968 Y92.623 E0.04593
G1 X130.004 Y92.623 E0.31466
M73 P8 R13
G1 X131.130 Y92.710 E0.03542
G1 X132.430 Y93.035 E0.04201
G1 X133.470 Y93.490 E0.03558
G1 X134.397 Y94.076 E0.03439
G1 X135.250 Y94.818 E0.03546
G1 X136.101 Y95.853 E0.04202
G1 X136.665 Y96.838 E0.03558
G1 X137.061 Y97.865 E0.03450
G1 X137.290 Y98.871 E0.03237
G1 X137.370 Y99.696 E0.02599
G1 X137.369 Y110.353 E0.33414
G1 X137.288 Y111.138 E0.02472
G1 X137.061 Y112.137 E0.03213
G1 X136.795 Y112.871 E0.02449
G1 X136.344 Y113.765 E0.03141
G1 X135.431 Y114.992 E0.04795
G1 X134.719 Y115.670 E0.03081
G1 X134.096 Y116.135 E0.02437
G1 X133.431 Y116.530 E0.02425
G1 X132.533 Y116.928 E0.03081
G1 X131.035 Y117.304 E0.04843
G1 X130.013 Y117.377 E0.03213
G1 X119.601 Y117.366 E0.32645
G1 X118.614 Y117.245 E0.03117
G1 X117.860 Y117.060 E0.02437
G1 X117.129 Y116.795 E0.02436
G1 X116.292 Y116.373 E0.02941
;WIPE_START
G1 F8640.000
G1 X115.008 Y115.431 E-0.36768
G1 X114.330 Y114.719 E-0.22692
G1 X113.901 Y114.145 E-0.16539
;WIPE_END
G1 E-0.04000 F2100.000
G1 Z1.000 F10800.000
G1 X118.133 Y113.947
G1 Z0.400
G1 E0.80000 F2100.000
M204 S800
