; generated by PrusaSlicer 2.5.0+linux-x64-GTK3 on 2022-09-09 at 20:22:38 UTC

; 

; external perimeters extrusion width = 0.45mm
; perimeters extrusion width = 0.45mm
; infill extrusion width = 0.45mm
; solid infill extrusion width = 0.45mm
; top infill extrusion width = 0.40mm
; first layer extrusion width = 0.42mm

M73 P0 R12
M201 X9000 Y9000 Z500 E10000 ; sets maximum accelerations, mm/sec^2
M203 X500 Y500 Z12 E120 ; sets maximum feedrates, mm / sec
M204 P2000 R1500 T2000 ; sets acceleration (P, T) and retract acceleration (R), mm/sec^2
M205 X10.00 Y10.00 Z0.20 E4.50 ; sets the jerk limits, mm/sec
M205 S0 T0 ; sets the minimum extruding and travel feed rate, mm/sec
M107
;TYPE:Custom
M862.3 P "MK2.5" ; printer model check
M862.1 P0.4 ; nozzle diameter check
M115 U3.11.0 ; tell printer latest fw version
G90 ; use absolute coordinates
M83 ; extruder relative mode
M104 S215 ; set extruder temp
M140 S60 ; set bed temp
M190 S60 ; wait for bed temp
M109 S215 ; wait for extruder temp
G28 W ; home all without mesh bed level
G80 ; mesh bed leveling

G1 Z0.2 F720
G1 Y-3 F1000 ; go outside print area
G92 E0
G1 X60 E9 F1000 ; intro line
G1 X100 E12.5 F1000 ; intro line

G92 E0
G21 ; set units to millimeters
G90 ; use absolute coordinates
M83 ; use relative distances for extrusion
M900 K0.05 ; Filament gcode LA 1.5
M900 K30 ; Filament gcode LA 1.0
M107
;LAYER_CHANGE
;Z:0.2
;HEIGHT:0.2
;BEFORE_LAYER_CHANGE
G92 E0.0
;0.2


G1 E-.8 F2100
G1 Z.4 F720
;AFTER_LAYER_CHANGE
;0.2
;CURRENT_Z: 0.2
G1 X114.21 Y94.843 F10800
G1 Z.2 F720
G1 E.8 F2100
M204 S800
;TYPE:Skirt/Brim
;WIDTH:0.42
G1 F1200
G1 X115.327 Y93.813 E.04766
G1 X116.624 Y93.02 E.04766
G1 X118.182 Y92.463 E.05187
G1 X119.932 Y92.247 E.05531
G1 X130.068 Y92.247 E.31778
G1 X131.446 Y92.382 E.04344
M73 P1 R12
G1 X132.548 Y92.677 E.03577
G1 X133.715 Y93.194 E.04
G1 X134.673 Y93.813 E.03577
G1 X135.53 Y94.565 E.03577
G1 X136.409 Y95.636 E.04344
G1 X136.98 Y96.624 E.03577
G1 X137.4 Y97.685 E.03577
G1 X137.618 Y98.554 E.02809
G1 X137.747 Y99.687 E.03576
G1 X137.747 Y110.313 E.33317
G1 X137.66 Y111.204 E.02808
G1 X137.439 Y112.186 E.03155
G1 X137.137 Y113.03 E.02809
G1 X136.685 Y113.928 E.03154
G1 X135.699 Y115.257 E.05187
G1 X134.364 Y116.409 E.05531
G1 X132.905 Y117.189 E.05188
G1 X131.95 Y117.505 E.03153
G1 X131.071 Y117.679 E.02809
G1 X130 Y117.754 E.03365
G1 X119.552 Y117.741 E.32759
G1 X117.814 Y117.439 E.05532
G1 X116.97 Y117.137 E.02809
G1 X116.072 Y116.685 E.03154
G1 X115.327 Y116.187 E.02809
G1 X114.565 Y115.53 E.03154
G1 X113.516 Y114.251 E.05187
G1 X112.723 Y112.676 E.05531
G1 X112.321 Y111.071 E.05187
G1 X112.246 Y110 E.03365
G1 X112.259 Y99.552 E.32759
G1 X112.561 Y97.814 E.05531
G1 X112.863 Y96.97 E.02809
G1 X113.315 Y96.072 E.03154
G1 X114.174 Y94.892 E.04578
M204 S1000
G1 X114.485 Y95.122 F10800
M204 S800
G1 F1200
G1 X114.574 Y95.003 E.00465
G1 X115.653 Y94.04 E.04534
G1 X117.123 Y93.207 E.05299
G1 X118.504 Y92.777 E.04534
G1 X119.942 Y92.624 E.04534
G1 X130.058 Y92.624 E.3172
G1 X131.382 Y92.754 E.0417
G1 X132.43 Y93.035 E.03403
G1 X133.529 Y93.522 E.03768
G1 X134.441 Y94.11 E.03403
G1 X135.257 Y94.825 E.03403
G1 X136.101 Y95.853 E.0417
G1 X136.643 Y96.793 E.03403
G1 X137.076 Y97.915 E.03767
G1 X137.288 Y98.86 E.03039
G1 X137.376 Y99.942 E.03402
G1 X137.37 Y110.304 E.3249
G1 X137.288 Y111.14 E.02634
G1 X137.076 Y112.086 E.03039
G1 X136.793 Y112.877 E.02635
G1 X136.357 Y113.742 E.03038
G1 X135.89 Y114.441 E.02635
G1 X135.257 Y115.175 E.03038
G1 X134.05 Y116.166 E.04898
G1 X132.54 Y116.926 E.05299
G1 X131.025 Y117.305 E.04898
G1 X130 Y117.377 E.0322
G1 X119.58 Y117.365 E.32672
G1 X117.914 Y117.076 E.053
G1 X117.123 Y116.793 E.02635
G1 X116.258 Y116.357 E.03038
G1 X115.559 Y115.89 E.02635
G1 X114.825 Y115.257 E.03038
G1 X113.834 Y114.05 E.04898
G1 X113.074 Y112.54 E.05299
G1 X112.695 Y111.025 E.04898
G1 X112.623 Y110 E.0322
G1 X112.635 Y99.58 E.32672
G1 X112.924 Y97.914 E.05299
M73 P2 R12
G1 X113.207 Y97.123 E.02635
G1 X113.643 Y96.258 E.03038
G1 X114.45 Y95.17 E.04245
M204 S1000
; printing object Cabel_Holder_simplified.stl id:0 copy 0
;WIPE_START
G1 F8640
G1 X114.574 Y95.003 E-.0481
G1 X115.653 Y94.04 E-.33392
G1 X117.077 Y93.234 E-.37798
;WIPE_END
G1 E-.04 F2100
G1 Z.6 F720
G1 X131.017 Y114.086 F10800
G1 Z.2 F720
G1 E.8 F2100
M204 S800
;TYPE:Perimeter
;WIDTH:0.419999
G1 F1200
G1 X130.66 Y114.148 E.01134
G1 X129.983 Y114.213 E.02132
G1 X119.801 Y114.207 E.31927
G1 X119.178 Y114.13 E.01966
G1 X118.581 Y113.965 E.01943
G1 X118.021 Y113.717 E.01922
G1 X117.329 Y113.254 E.02609
G1 X116.741 Y112.666 E.02609
G1 X116.392 Y112.17 E.01901
G1 X116.033 Y111.412 E.0263
G1 X115.871 Y110.828 E.019
G1 X115.787 Y109.969 E.02705
G1 X115.793 Y99.801 E.31883
G1 X115.87 Y99.178 E.01967
G1 X115.977 Y98.79 E.01263
G1 X116.19 Y98.205 E.01951
G1 X116.495 Y97.666 E.01942
G1 X116.895 Y97.179 E.01978
G1 X117.323 Y96.749 E.01901
G1 X117.814 Y96.402 E.01885
G1 X118.582 Y96.036 E.02669
G1 X119.389 Y95.834 E.02607
G1 X120.024 Y95.787 E.01997
G1 X130.181 Y95.792 E.31847
G1 X130.822 Y95.87 E.02025
G1 X131.419 Y96.035 E.01941
G1 X131.979 Y96.283 E.01922
G1 X132.676 Y96.749 E.0263
G1 X133.115 Y97.167 E.01901
G1 X133.615 Y97.841 E.0263
G1 X133.888 Y98.382 E.01901
G1 X134.129 Y99.179 E.02609
G1 X134.213 Y100.031 E.02684
G1 X134.207 Y110.199 E.31883
G1 X134.13 Y110.822 E.01966
G1 X133.965 Y111.419 E.01943
G1 X133.717 Y111.979 E.01922
G1 X133.366 Y112.505 E.01982
G1 X132.983 Y112.973 E.01896
G1 X132.514 Y113.378 E.01944
G1 X131.8 Y113.806 E.02609
G1 X131.073 Y114.066 E.02421
M204 S1000
G1 X131.113 Y114.452 F10800
M204 S800
;TYPE:External perimeter
G1 F1200
G1 X130.725 Y114.52 E.01236
G1 X129.992 Y114.59 E.02306
G1 X119.777 Y114.584 E.32028
G1 X119.105 Y114.501 E.02125
G1 X118.454 Y114.321 E.02117
G1 X117.838 Y114.048 E.02111
G1 X117.089 Y113.547 E.02827
G1 X116.451 Y112.91 E.02827
G1 X116.065 Y112.361 E.02104
G1 X115.678 Y111.544 E.02834
G1 X115.499 Y110.897 E.02104
G1 X115.41 Y109.988 E.02865
G1 X115.416 Y99.777 E.32014
G1 X115.499 Y99.105 E.02126
G1 X115.613 Y98.69 E.0135
G1 X115.85 Y98.04 E.02169
G1 X116.183 Y97.452 E.02118
G1 X116.604 Y96.939 E.02079
G1 X117.087 Y96.454 E.02147
G1 X117.623 Y96.075 E.02058
G1 X118.454 Y95.679 E.02888
G1 X119.329 Y95.46 E.02826
G1 X120.01 Y95.41 E.02142
G1 X130.204 Y95.415 E.31961
G1 X130.895 Y95.499 E.02184
G1 X131.546 Y95.679 E.02117
G1 X132.162 Y95.952 E.02111
G1 X132.913 Y96.454 E.02834
G1 X133.399 Y96.917 E.02104
G1 X133.937 Y97.642 E.02834
G1 X134.239 Y98.242 E.02104
G1 X134.501 Y99.105 E.02827
G1 X134.59 Y100.012 E.02859
G1 X134.584 Y110.223 E.32014
G1 X134.501 Y110.895 E.02125
G1 X134.321 Y111.546 E.02117
G1 X134.048 Y112.162 E.02111
G1 X133.679 Y112.714 E.02084
G1 X133.247 Y113.243 E.02142
G1 X132.735 Y113.685 E.02119
G1 X131.962 Y114.148 E.02827
M73 P3 R12
G1 X131.17 Y114.432 E.02639
M204 S1000
G1 X130.834 Y114.173 F10800
;WIPE_START
G1 F8640
G1 X130.725 Y114.52 E-.10471
G1 X129.992 Y114.59 E-.16984
G1 X127.89 Y114.589 E-.48544
;WIPE_END
G1 E-.04 F2100
G1 Z.6 F720
G1 X131.94 Y96.393 F10800
G1 Z.2 F720
G1 E.8 F2100
M204 S800
;TYPE:Solid infill
;WIDTH:0.421721
G1 F1200
G1 X132.905 Y97.358 E.04299
G1 X133.373 Y97.99 E.02476
G1 X133.624 Y98.488 E.01756
G1 X133.679 Y98.668 E.00592
G1 X131.309 Y96.298 E.10555
G1 X130.767 Y96.148 E.01771
G1 X130.604 Y96.128 E.00519
G1 X133.866 Y99.391 E.14531
G1 X133.924 Y99.985 E.0188
G1 X130.015 Y96.075 E.17414
G1 X129.479 Y96.075 E.01688
G1 X133.93 Y100.526 E.19827
G1 X133.93 Y101.061 E.01686
G1 X128.943 Y96.075 E.22213
G1 X128.407 Y96.074 E.01688
G1 X133.929 Y101.597 E.24599
G1 X133.929 Y102.132 E.01686
G1 X127.871 Y96.074 E.26985
G1 X127.335 Y96.074 E.01688
G1 X133.929 Y102.667 E.29371
G1 X133.928 Y103.203 E.01686
G1 X126.799 Y96.073 E.31757
G1 X126.263 Y96.073 E.01688
G1 X133.928 Y103.738 E.34144
G1 X133.928 Y104.274 E.01686
G1 X125.727 Y96.073 E.3653
G1 X125.191 Y96.073 E.01688
G1 X133.927 Y104.809 E.38916
G1 X133.927 Y105.344 E.01686
G1 X124.655 Y96.072 E.41302
G1 X124.119 Y96.072 E.01688
G1 X133.927 Y105.88 E.43688
G1 X133.926 Y106.415 E.01686
G1 X123.583 Y96.072 E.46074
G1 X123.047 Y96.071 E.01688
M73 P4 R12
G1 X133.926 Y106.951 E.4846
G1 X133.926 Y107.486 E.01686
G1 X122.511 Y96.071 E.50847
G1 X121.975 Y96.071 E.01688
G1 X133.926 Y108.021 E.53233
G1 X133.925 Y108.557 E.01686
G1 X121.439 Y96.071 E.55619
G1 X120.903 Y96.07 E.01688
G1 X133.925 Y109.092 E.58005
G1 X133.925 Y109.628 E.01686
G1 X120.367 Y96.07 E.60391
G1 X119.851 Y96.09 E.01626
G1 X133.924 Y110.163 E.62688
G1 X133.868 Y110.642 E.01519
G1 X119.358 Y96.133 E.64629
G1 X118.93 Y96.24 E.01391
M73 P5 R12
G1 X133.766 Y111.077 E.66087
G1 X133.698 Y111.323 E.00806
G1 X133.63 Y111.476 E.00527
G1 X118.529 Y96.375 E.67269
G1 X118.166 Y96.547 E.01266
G1 X133.465 Y111.847 E.68149
G1 X133.25 Y112.168 E.01216
G1 X117.824 Y96.741 E.68717
G1 X117.51 Y96.963 E.01211
G1 X133.036 Y112.489 E.6916
G1 X132.783 Y112.772 E.01195
G1 X117.229 Y97.218 E.69285
G1 X116.988 Y97.512 E.01199
G1 X132.496 Y113.02 E.6908
G1 X132.347 Y113.148 E.00617
M73 P6 R12
G1 X132.185 Y113.245 E.00596
G1 X116.746 Y97.806 E.68772
G1 X116.729 Y97.827 E.00084
M73 P6 R11
G1 X116.549 Y98.145 E.01151
G1 X131.85 Y113.446 E.68158
G1 X131.679 Y113.549 E.0063
G1 X131.486 Y113.618 E.00643
G1 X116.373 Y98.504 E.67322
G1 X116.299 Y98.683 E.0061
G1 X116.238 Y98.905 E.00725
G1 X131.092 Y113.759 E.66164
G1 X130.944 Y113.812 E.00493
G1 X130.658 Y113.861 E.00914
G1 X116.135 Y99.338 E.64694
G1 X116.076 Y99.815 E.01513
G1 X130.181 Y113.92 E.62831
G1 X129.656 Y113.93 E.01657
G1 X116.075 Y100.35 E.60492
G1 X116.075 Y100.885 E.01686
M73 P7 R11
G1 X129.12 Y113.93 E.58105
G1 X128.584 Y113.929 E.01688
G1 X116.075 Y101.421 E.55719
G1 X116.074 Y101.956 E.01686
G1 X128.048 Y113.929 E.53333
G1 X127.512 Y113.929 E.01688
G1 X116.074 Y102.491 E.50947
G1 X116.074 Y103.027 E.01686
G1 X126.976 Y113.928 E.4856
G1 X126.44 Y113.928 E.01688
G1 X116.074 Y103.562 E.46174
G1 X116.073 Y104.098 E.01686
G1 X125.903 Y113.928 E.43788
G1 X125.367 Y113.927 E.01688
G1 X116.073 Y104.633 E.41402
G1 X116.073 Y105.168 E.01686
G1 X124.831 Y113.927 E.39015
G1 X124.295 Y113.927 E.01688
G1 X116.072 Y105.704 E.36629
G1 X116.072 Y106.239 E.01686
M73 P8 R11
G1 X123.759 Y113.927 E.34243
G1 X123.223 Y113.926 E.01688
G1 X116.072 Y106.775 E.31857
G1 X116.071 Y107.31 E.01686
G1 X122.687 Y113.926 E.2947
G1 X122.151 Y113.926 E.01688
G1 X116.071 Y107.845 E.27084
G1 X116.071 Y108.381 E.01686
G1 X121.615 Y113.925 E.24698
G1 X121.079 Y113.925 E.01688
G1 X116.07 Y108.916 E.22312
G1 X116.07 Y109.452 E.01686
G1 X120.543 Y113.925 E.19925
G1 X120.007 Y113.924 E.01688
G1 X116.073 Y109.99 E.17524
G1 X116.132 Y110.584 E.0188
G1 X119.423 Y113.876 E.1466
G1 X119.234 Y113.852 E.006
G1 X118.722 Y113.711 E.01672
G1 X116.289 Y111.278 E.10837
G1 X116.637 Y112.028 E.02603
G1 X116.955 Y112.479 E.0174
G1 X118.107 Y113.631 E.05131
M204 S1000
; stop printing object Cabel_Holder_simplified.stl id:0 copy 0
M106 S84.15
;LAYER_CHANGE
;Z:0.4
;HEIGHT:0.2
;BEFORE_LAYER_CHANGE
G92 E0.0
;0.4


;WIPE_START
G1 F8640
G1 X116.955 Y112.479 E-.37615
G1 X116.637 Y112.028 E-.12755
G1 X116.289 Y111.278 E-.19083
G1 X116.49 Y111.478 E-.06547
;WIPE_END
G1 E-.04 F2100
G1 Z.6 F720
;AFTER_LAYER_CHANGE
;0.4
;CURRENT_Z: 0.4
M104 S210 ; set temperature
G1 X113.003 Y113.233 F10800
G1 Z.4 F720
G1 E.8 F2100
;TYPE:Skirt/Brim
;WIDTH:0.42
G1 F3000
G1 X112.723 Y112.676 E.01957
G1 X112.321 Y111.071 E.05187
G1 X112.246 Y110 E.03365
G1 X112.259 Y99.552 E.32759
G1 X112.561 Y97.814 E.05531
G1 X112.863 Y96.97 E.02809
G1 X113.315 Y96.072 E.03154
G1 X114.21 Y94.843 E.04766
G1 X115.327 Y93.813 E.04766
G1 X116.624 Y93.02 E.04766
G1 X118.182 Y92.463 E.05187
G1 X119.932 Y92.247 E.05531
G1 X130.068 Y92.247 E.31778
G1 X131.446 Y92.382 E.04344
G1 X132.548 Y92.677 E.03577
G1 X133.715 Y93.194 E.04
G1 X134.673 Y93.813 E.03577
G1 X135.53 Y94.565 E.03577
G1 X136.409 Y95.636 E.04344
G1 X136.98 Y96.624 E.03577
G1 X137.4 Y97.685 E.03577
G1 X137.618 Y98.554 E.02809
G1 X137.747 Y99.687 E.03576
G1 X137.747 Y110.313 E.33317
G1 X137.66 Y111.204 E.02808
G1 X137.439 Y112.186 E.03155
G1 X137.137 Y113.03 E.02809
G1 X136.685 Y113.928 E.03154
G1 X135.699 Y115.257 E.05187
G1 X134.364 Y116.409 E.05531
G1 X132.905 Y117.189 E.05188
G1 X131.95 Y117.505 E.03153
G1 X131.071 Y117.679 E.02809
G1 X130 Y117.754 E.03365
G1 X119.552 Y117.741 E.32759
G1 X117.814 Y117.439 E.05532
G1 X116.97 Y117.137 E.02809
G1 X116.072 Y116.685 E.03154
G1 X115.327 Y116.187 E.02809
G1 X114.565 Y115.53 E.03154
G1 X113.516 Y114.251 E.05187
G1 X113.03 Y113.287 E.03386
G1 X113.365 Y113.118 F10800
G1 F3000
G1 X113.074 Y112.54 E.0203
G1 X112.695 Y111.025 E.04898
G1 X112.623 Y110 E.0322
G1 X112.635 Y99.58 E.32672
G1 X112.924 Y97.914 E.05299
G1 X113.207 Y97.123 E.02635
G1 X113.643 Y96.258 E.03038
G1 X114.574 Y95.003 E.04898
G1 X115.653 Y94.04 E.04534
G1 X117.123 Y93.207 E.05299
G1 X118.504 Y92.777 E.04534
G1 X119.942 Y92.624 E.04534
G1 X130.058 Y92.624 E.3172
G1 X131.382 Y92.754 E.0417
G1 X132.43 Y93.035 E.03403
G1 X133.529 Y93.522 E.03768
G1 X134.441 Y94.11 E.03403
M73 P9 R11
G1 X135.257 Y94.825 E.03403
G1 X136.101 Y95.853 E.0417
G1 X136.643 Y96.793 E.03403
G1 X137.076 Y97.915 E.03767
G1 X137.288 Y98.86 E.03039
G1 X137.376 Y99.942 E.03402
G1 X137.37 Y110.304 E.3249
G1 X137.288 Y111.14 E.02634
G1 X137.076 Y112.086 E.03039
G1 X136.793 Y112.877 E.02635
G1 X136.357 Y113.742 E.03038
G1 X135.89 Y114.441 E.02635
G1 X135.257 Y115.175 E.03038
G1 X134.05 Y116.166 E.04898
G1 X132.54 Y116.926 E.05299
G1 X131.025 Y117.305 E.04898
G1 X130 Y117.377 E.0322
G1 X119.58 Y117.365 E.32672
G1 X117.914 Y117.076 E.053
G1 X117.123 Y116.793 E.02635
G1 X116.258 Y116.357 E.03038
G1 X115.559 Y115.89 E.02635
G1 X114.825 Y115.257 E.03038
G1 X113.834 Y114.05 E.04898
G1 X113.392 Y113.172 E.03082
; printing object Cabel_Holder_simplified.stl id:0 copy 0
;WIPE_START
G1 F8640
G1 X113.074 Y112.54 E-.16331
G1 X112.695 Y111.025 E-.3607
G1 X112.623 Y110.005 E-.23599
;WIPE_END
G1 E-.04 F2100
G1 Z.8 F720
G1 X131.054 Y114.237 F10800
G1 Z.4 F720
G1 E.8 F2100
M204 S800
;TYPE:Perimeter
;WIDTH:0.449999
G1 F3000
G1 X130.684 Y114.301 E.0127
G1 X129.985 Y114.368 E.02378
G1 X119.794 Y114.362 E.34495
G1 X119.148 Y114.282 E.02201
G1 X118.529 Y114.111 E.02174
G1 X117.948 Y113.854 E.0215
G1 X117.534 Y113.577 E.01687
G1 X117.054 Y113.217 E.02029
G1 X116.623 Y112.751 E.02149
G1 X116.258 Y112.252 E.02094
G1 X115.969 Y111.677 E.02176
G1 X115.719 Y110.852 E.02921
G1 X115.632 Y109.97 E.03
G1 X115.638 Y99.794 E.34444
G1 X115.718 Y99.148 E.02201
G1 X115.889 Y98.529 E.02174
G1 X116.146 Y97.948 E.0215
G1 X116.511 Y97.402 E.02223
G1 X116.907 Y96.918 E.02117
G1 X117.394 Y96.498 E.02176
G1 X118.134 Y96.054 E.02921
G1 X118.745 Y95.835 E.02198
G1 X119.352 Y95.682 E.02118
G1 X120.023 Y95.632 E.02279
G1 X130.136 Y95.636 E.34231
G1 X130.854 Y95.718 E.02446
G1 X131.471 Y95.889 E.02166
G1 X132.052 Y96.146 E.0215
G1 X132.775 Y96.63 E.02946
G1 X133.23 Y97.063 E.02125
G1 X133.748 Y97.762 E.02946
G1 X134.031 Y98.323 E.02125
G1 X134.281 Y99.148 E.02921
G1 X134.368 Y100.03 E.03
G1 X134.362 Y110.206 E.34445
G1 X134.282 Y110.852 E.02201
G1 X134.111 Y111.471 E.02174
G1 X133.854 Y112.052 E.0215
G1 X133.489 Y112.598 E.02223
G1 X133.093 Y113.082 E.02117
G1 X132.606 Y113.502 E.02176
G1 X131.866 Y113.946 E.02921
G1 X131.11 Y114.216 E.02718
M204 S1000
G1 X131.158 Y114.632 F10800
M204 S800
;TYPE:External perimeter
G1 F2400
G1 X130.754 Y114.702 E.01389
G1 X129.995 Y114.775 E.02581
G1 X119.769 Y114.769 E.34614
G1 X119.069 Y114.683 E.02387
G1 X118.392 Y114.495 E.02378
G1 X117.751 Y114.212 E.0237
G1 X117.176 Y113.827 E.02342
G1 X116.781 Y113.519 E.01697
G1 X116.315 Y113.017 E.02318
G1 X115.906 Y112.457 E.02347
G1 X115.59 Y111.829 E.02379
G1 X115.318 Y110.931 E.03175
G1 X115.225 Y109.99 E.03203
G1 X115.231 Y99.769 E.34597
G1 X115.317 Y99.069 E.02387
G1 X115.505 Y98.392 E.02378
G1 X115.788 Y97.751 E.0237
G1 X116.173 Y97.176 E.02342
G1 X116.622 Y96.626 E.02405
G1 X117.154 Y96.167 E.02379
G1 X117.959 Y95.684 E.03175
G1 X118.608 Y95.452 E.02334
G1 X119.297 Y95.277 E.02405
G1 X120.008 Y95.225 E.02415
G1 X130.159 Y95.229 E.34361
G1 X130.932 Y95.318 E.02632
