; generated by PrusaSlicer 2.6.0-alpha6+linux-x64-GTK3 on 2023-05-08 at 03:34:03 UTC

; 

; external perimeters extrusion width = 0.45mm
; perimeters extrusion width = 0.45mm
; infill extrusion width = 0.45mm
; solid infill extrusion width = 0.45mm
; top infill extrusion width = 0.40mm
; first layer extrusion width = 0.42mm

M73 P0 R12
M201 X9000 Y9000 Z500 E10000 ; sets maximum accelerations, mm/sec^2
M203 X500 Y500 Z12 E120 ; sets maximum feedrates, mm / sec
M204 S2000 T1500 ; sets acceleration (S) and retract acceleration (R), mm/sec^2
M205 X10.00 Y10.00 Z0.20 E4.50 ; sets the jerk limits, mm/sec
M205 S0 T0 ; sets the minimum extruding and travel feed rate, mm/sec
;TYPE:Custom
M862.3 P "MK2.5" ; printer model check
M862.1 P0.4 ; nozzle diameter check
M115 U3.11.0 ; tell printer latest fw version
G90 ; use absolute coordinates
M83 ; extruder relative mode
M104 S215 ; set extruder temp
M140 S60 ; set bed temp
M190 S60 ; wait for bed temp
M109 S215 ; wait for extruder temp
G28 W ; home all without mesh bed level
G80 ; mesh bed leveling

G1 Z0.2 F720
G1 Y-3 F1000 ; go outside print area
G92 E0
G1 X60 E9 F1000 ; intro line
G1 X100 E12.5 F1000 ; intro line

G92 E0
G21 ; set units to millimeters
G90 ; use absolute coordinates
M83 ; use relative distances for extrusion
M900 K0.05 ; Filament gcode LA 1.5
M900 K30 ; Filament gcode LA 1.0
M107
;LAYER_CHANGE
;Z:0.2
;HEIGHT:0.2
;BEFORE_LAYER_CHANGE
G92 E0.0
;0.2


G1 E-.8 F2100
G1 Z.4 F720
;AFTER_LAYER_CHANGE
;0.2
;CURRENT_Z: 0.2
G1 X114.301 Y94.743 F10800
G1 Z.2 F720
G1 E.8 F2100
M204 S800
;TYPE:Skirt/Brim
;WIDTH:0.42
G1 F1200
G1 X115.436 Y93.732 E.04766
G1 X116.746 Y92.962 E.04764
G1 X118.182 Y92.463 E.04767
G1 X119.932 Y92.247 E.05529
G1 X130.068 Y92.247 E.31781
G1 X131.374 Y92.37 E.04113
M73 P1 R12
G1 X132.548 Y92.677 E.03805
G1 X133.595 Y93.13 E.03577
G1 X134.673 Y93.813 E.04001
G1 X135.53 Y94.565 E.03575
G1 X136.409 Y95.636 E.04344
G1 X136.98 Y96.624 E.03578
G1 X137.4 Y97.685 E.03578
G1 X137.618 Y98.554 E.02809
G1 X137.747 Y99.687 E.03575
G1 X137.747 Y110.313 E.33317
G1 X137.66 Y111.204 E.02807
G1 X137.439 Y112.186 E.03156
G1 X137.137 Y113.03 E.02811
G1 X136.685 Y113.928 E.03152
G1 X136.187 Y114.673 E.0281
G1 X135.53 Y115.435 E.03155
G1 X134.251 Y116.484 E.05186
G1 X132.676 Y117.277 E.05529
G1 X131.071 Y117.679 E.05188
G1 X130 Y117.754 E.03366
G1 X119.552 Y117.741 E.32759
G1 X117.814 Y117.439 E.05531
G1 X116.97 Y117.137 E.02811
G1 X116.072 Y116.685 E.03152
G1 X115.327 Y116.187 E.0281
G1 X114.565 Y115.53 E.03155
G1 X113.516 Y114.251 E.05186
G1 X112.723 Y112.676 E.05529
G1 X112.321 Y111.071 E.05188
G1 X112.246 Y110 E.03366
G1 X112.259 Y99.552 E.32759
G1 X112.561 Y97.814 E.05531
G1 X112.863 Y96.97 E.02811
G1 X113.315 Y96.072 E.03152
G1 X114.265 Y94.791 E.05
M204 S1000
G1 X114.565 Y95.014 F10800
M204 S800
G1 F1200
G1 X115.653 Y94.04 E.04579
G1 X117.123 Y93.207 E.05298
G1 X118.504 Y92.777 E.04535
G1 X119.942 Y92.624 E.04534
G1 X130.058 Y92.624 E.31718
G1 X131.309 Y92.741 E.0394
G1 X132.43 Y93.035 E.03634
G1 X133.426 Y93.467 E.03404
G1 X134.441 Y94.11 E.03767
G1 X135.257 Y94.825 E.03402
G1 X136.101 Y95.853 E.0417
G1 X136.643 Y96.793 E.03402
G1 X137.076 Y97.915 E.03771
G1 X137.288 Y98.86 E.03037
G1 X137.376 Y99.942 E.03404
G1 X137.37 Y110.304 E.32489
G1 X137.288 Y111.14 E.02634
G1 X137.076 Y112.086 E.0304
G1 X136.793 Y112.877 E.02634
G1 X136.357 Y113.742 E.03037
G1 X135.89 Y114.441 E.02636
G1 X135.257 Y115.175 E.03039
G1 X134.05 Y116.166 E.04897
G1 X132.54 Y116.926 E.053
G1 X131.025 Y117.305 E.04897
G1 X130 Y117.377 E.03222
G1 X119.58 Y117.365 E.32671
G1 X117.914 Y117.076 E.05302
G1 X117.123 Y116.793 E.02634
G1 X116.258 Y116.357 E.03037
G1 X115.559 Y115.89 E.02636
G1 X114.825 Y115.257 E.03039
G1 X113.834 Y114.05 E.04897
G1 X113.074 Y112.54 E.053
G1 X112.695 Y111.025 E.04897
G1 X112.623 Y110 E.03222
G1 X112.635 Y99.58 E.32671
G1 X112.924 Y97.914 E.05302
M73 P2 R12
G1 X113.207 Y97.123 E.02634
G1 X113.643 Y96.258 E.03037
G1 X114.53 Y95.062 E.04669
M204 S1000
; printing object Cabel_Holder_simplified.stl id:0 copy 0
;WIPE_START
G1 F8640
G1 X115.653 Y94.04 E-.35061
G1 X117.123 Y93.207 E-.39014
G1 X117.368 Y93.131 E-.05925
;WIPE_END
G1 Z.6 F720
G1 X131.017 Y114.086 F10800
G1 Z.2 F720
G1 E.8 F2100
M204 S800
;TYPE:Perimeter
;WIDTH:0.419999
G1 F1200
G1 X130.66 Y114.148 E.01136
G1 X129.983 Y114.213 E.02132
G1 X119.801 Y114.207 E.31925
G1 X119.178 Y114.13 E.01968
G1 X118.581 Y113.965 E.01942
G1 X118.021 Y113.717 E.0192
G1 X117.495 Y113.366 E.01983
G1 X117.027 Y112.983 E.01896
G1 X116.622 Y112.514 E.01943
G1 X116.19 Y111.794 E.02633
G1 X115.978 Y111.246 E.01842
G1 X115.869 Y110.704 E.01733
G1 X115.792 Y110.086 E.01953
G1 X115.793 Y99.801 E.32248
G1 X115.87 Y99.178 E.01968
G1 X116.035 Y98.581 E.01942
G1 X116.275 Y98.037 E.01864
G1 X116.746 Y97.329 E.02666
G1 X117.329 Y96.746 E.02585
G1 X117.719 Y96.485 E.01471
G1 X118.22 Y96.188 E.01826
G1 X118.794 Y95.975 E.0192
G1 X119.375 Y95.835 E.01874
G1 X120.024 Y95.787 E.0204
G1 X130.181 Y95.792 E.31847
G1 X130.822 Y95.87 E.02025
G1 X131.419 Y96.035 E.01942
G1 X131.979 Y96.283 E.0192
G1 X132.676 Y96.749 E.02629
G1 X133.115 Y97.167 E.01901
G1 X133.615 Y97.841 E.02631
G1 X133.888 Y98.382 E.019
G1 X134.129 Y99.179 E.02611
G1 X134.213 Y100.031 E.02684
G1 X134.207 Y110.199 E.31881
G1 X134.13 Y110.822 E.01968
G1 X133.965 Y111.419 E.01942
G1 X133.717 Y111.979 E.0192
G1 X133.366 Y112.503 E.01977
G1 X132.983 Y112.973 E.01901
G1 X132.528 Y113.367 E.01887
G1 X131.799 Y113.806 E.02668
G1 X131.073 Y114.066 E.02418
M204 S1000
G1 X131.113 Y114.452 F10800
M204 S800
;TYPE:External perimeter
G1 F1200
G1 X130.725 Y114.52 E.01235
G1 X129.992 Y114.59 E.02309
G1 X119.777 Y114.584 E.32028
G1 X119.105 Y114.501 E.02123
G1 X118.454 Y114.321 E.02118
G1 X117.838 Y114.048 E.02113
G1 X117.286 Y113.679 E.02082
G1 X116.757 Y113.247 E.02141
G1 X116.315 Y112.735 E.02121
G1 X115.85 Y111.96 E.02834
G1 X115.615 Y111.352 E.02044
G1 X115.432 Y110.445 E.02901
G1 X115.41 Y109.992 E.01422
G1 X115.416 Y99.777 E.32028
G1 X115.499 Y99.105 E.02123
G1 X115.679 Y98.454 E.02118
G1 X115.943 Y97.856 E.0205
G1 X116.453 Y97.089 E.02888
G1 X117.089 Y96.453 E.0282
G1 X117.509 Y96.172 E.01584
G1 X118.059 Y95.847 E.02003
G1 X118.676 Y95.617 E.02065
G1 X119.324 Y95.461 E.0209
G1 X120.01 Y95.41 E.02157
G1 X130.204 Y95.415 E.31963
G1 X130.895 Y95.499 E.02183
G1 X131.546 Y95.679 E.02118
G1 X132.162 Y95.952 E.02113
G1 X132.913 Y96.454 E.02832
G1 X133.399 Y96.917 E.02105
G1 X133.937 Y97.642 E.02831
G1 X134.239 Y98.242 E.02106
G1 X134.501 Y99.105 E.02828
G1 X134.59 Y100.012 E.02857
G1 X134.584 Y110.223 E.32016
G1 X134.501 Y110.895 E.02123
M73 P3 R12
G1 X134.321 Y111.546 E.02118
G1 X134.048 Y112.162 E.02113
G1 X133.68 Y112.713 E.02077
G1 X133.247 Y113.244 E.02148
G1 X132.751 Y113.673 E.02056
G1 X131.962 Y114.148 E.02888
G1 X131.17 Y114.432 E.02638
M204 S1000
G1 X130.834 Y114.174 F10800
;WIPE_START
G1 F8640
G1 X130.725 Y114.52 E-.10474
G1 X129.992 Y114.59 E-.17002
G1 X127.717 Y114.589 E-.52524
;WIPE_END
G1 Z.6 F720
G1 X131.939 Y96.393 F10800
G1 Z.2 F720
G1 E.8 F2100
M204 S800
;TYPE:Solid infill
;WIDTH:0.422091
G1 F1200
G1 X132.906 Y97.359 E.04309
G1 X133.373 Y97.99 E.02475
G1 X133.624 Y98.488 E.01758
G1 X133.679 Y98.669 E.00596
G1 X131.308 Y96.298 E.10572
G1 X130.767 Y96.148 E.0177
G1 X130.602 Y96.128 E.00524
G1 X133.866 Y99.392 E.14553
G1 X133.924 Y99.987 E.01885
G1 X130.013 Y96.075 E.1744
G1 X129.476 Y96.075 E.01693
G1 X133.93 Y100.528 E.19857
G1 X133.93 Y101.064 E.0169
G1 X128.94 Y96.075 E.22247
G1 X128.403 Y96.074 E.01693
G1 X133.929 Y101.6 E.24639
G1 X133.929 Y102.136 E.0169
G1 X127.867 Y96.074 E.27029
G1 X127.33 Y96.074 E.01693
G1 X133.929 Y102.672 E.29421
G1 X133.928 Y103.208 E.0169
G1 X126.794 Y96.073 E.31811
G1 X126.257 Y96.073 E.01693
G1 X133.928 Y103.744 E.34203
G1 X133.928 Y104.28 E.0169
G1 X125.721 Y96.073 E.36593
G1 X125.184 Y96.073 E.01693
G1 X133.927 Y104.816 E.38983
G1 X133.927 Y105.352 E.0169
G1 X124.648 Y96.072 E.41375
G1 X124.111 Y96.072 E.01693
G1 X133.927 Y105.887 E.43765
G1 X133.926 Y106.423 E.0169
M73 P4 R12
G1 X123.575 Y96.072 E.46153
G1 X123.038 Y96.071 E.01693
M73 P4 R11
G1 X133.926 Y106.959 E.48547
G1 X133.926 Y107.495 E.0169
G1 X122.502 Y96.071 E.50937
G1 X121.965 Y96.071 E.01693
G1 X133.926 Y108.031 E.53329
G1 X133.925 Y108.567 E.0169
G1 X121.429 Y96.071 E.55717
G1 X120.892 Y96.07 E.01693
G1 X133.925 Y109.103 E.58111
G1 X133.925 Y109.639 E.0169
G1 X120.356 Y96.07 E.60501
G1 X119.84 Y96.091 E.01628
G1 X133.924 Y110.175 E.62797
G1 X133.866 Y110.653 E.01518
M73 P5 R11
G1 X119.343 Y96.13 E.64755
G1 X118.911 Y96.234 E.01401
G1 X133.764 Y111.087 E.66226
G1 X133.698 Y111.323 E.00773
G1 X133.626 Y111.485 E.00559
G1 X118.508 Y96.368 E.67405
G1 X118.145 Y96.541 E.01268
G1 X133.459 Y111.855 E.68281
G1 X133.245 Y112.176 E.01216
G1 X117.824 Y96.755 E.68759
G1 X117.503 Y96.971 E.0122
G1 X133.023 Y112.508 E.69238
G1 X132.775 Y112.779 E.01158
G1 X117.235 Y97.239 E.69289
G1 X116.967 Y97.508 E.01197
M73 P6 R11
G1 X132.488 Y113.028 E.69202
G1 X132.362 Y113.137 E.00525
G1 X132.174 Y113.25 E.00692
G1 X116.753 Y97.829 E.68759
G1 X116.539 Y98.152 E.01222
G1 X131.839 Y113.452 E.68219
G1 X131.678 Y113.549 E.00593
G1 X131.473 Y113.622 E.00686
G1 X116.371 Y98.52 E.67336
G1 X116.302 Y98.676 E.00538
G1 X116.235 Y98.92 E.00798
G1 X131.078 Y113.764 E.66184
G1 X130.944 Y113.812 E.00449
G1 X130.643 Y113.864 E.00963
G1 X116.133 Y99.354 E.64697
G1 X116.076 Y99.833 E.01521
G1 X130.163 Y113.921 E.62813
G1 X129.636 Y113.93 E.01662
M73 P7 R11
G1 X116.075 Y100.369 E.60465
G1 X116.075 Y100.905 E.0169
G1 X129.099 Y113.93 E.58073
G1 X128.563 Y113.929 E.0169
G1 X116.075 Y101.441 E.55681
G1 X116.074 Y101.977 E.0169
G1 X128.026 Y113.929 E.53291
G1 X127.49 Y113.929 E.0169
G1 X116.074 Y102.513 E.50901
G1 X116.074 Y103.049 E.0169
G1 X126.953 Y113.928 E.48507
G1 X126.417 Y113.928 E.0169
G1 X116.074 Y103.585 E.46117
G1 X116.073 Y104.121 E.0169
G1 X125.88 Y113.928 E.43727
G1 X125.344 Y113.927 E.0169
G1 X116.073 Y104.657 E.41335
G1 X116.073 Y105.193 E.0169
M73 P8 R11
G1 X124.807 Y113.927 E.38943
G1 X124.271 Y113.927 E.0169
G1 X116.072 Y105.729 E.36555
G1 X116.072 Y106.265 E.0169
G1 X123.734 Y113.927 E.34163
G1 X123.198 Y113.926 E.0169
G1 X116.072 Y106.8 E.31773
G1 X116.071 Y107.336 E.0169
G1 X122.661 Y113.926 E.29383
G1 X122.124 Y113.926 E.01693
G1 X116.071 Y107.872 E.26991
G1 X116.071 Y108.408 E.0169
G1 X121.588 Y113.925 E.24599
G1 X121.051 Y113.925 E.01693
G1 X116.07 Y108.944 E.22209
G1 X116.07 Y109.48 E.0169
G1 X120.515 Y113.925 E.19819
G1 X119.978 Y113.924 E.01693
G1 X116.072 Y110.018 E.17416
G1 X116.089 Y110.363 E.01089
G1 X116.141 Y110.624 E.00839
G1 X119.389 Y113.871 E.1448
G1 X119.234 Y113.852 E.00492
G1 X118.681 Y113.699 E.01809
G1 X116.316 Y111.334 E.10545
G1 X116.445 Y111.669 E.01132
G1 X116.852 Y112.347 E.02493
G1 X117.224 Y112.779 E.01797
G1 X118.036 Y113.591 E.03621
M204 S1000
; stop printing object Cabel_Holder_simplified.stl id:0 copy 0
M106 S84.15
;LAYER_CHANGE
;Z:0.4
;HEIGHT:0.2
;BEFORE_LAYER_CHANGE
G92 E0.0
;0.4


;WIPE_START
G1 F8640
G1 X117.224 Y112.779 E-.26516
G1 X116.852 Y112.347 E-.13164
G1 X116.445 Y111.669 E-.18259
G1 X116.316 Y111.334 E-.08289
G1 X116.738 Y111.756 E-.13772
;WIPE_END
G1 Z.6 F720
;AFTER_LAYER_CHANGE
;0.4
;CURRENT_Z: 0.4
M104 S210 ; set temperature
G1 X113.165 Y113.554 F10800
G1 Z.4 F720
G1 E.8 F2100
;TYPE:Skirt/Brim
;WIDTH:0.42
G1 F3000
G1 X112.723 Y112.676 E.03082
G1 X112.321 Y111.071 E.05188
G1 X112.246 Y110 E.03366
G1 X112.259 Y99.552 E.32759
G1 X112.561 Y97.814 E.05531
G1 X112.863 Y96.97 E.02811
G1 X113.315 Y96.072 E.03152
G1 X114.301 Y94.743 E.05189
G1 X115.436 Y93.732 E.04766
G1 X116.746 Y92.962 E.04764
G1 X118.182 Y92.463 E.04767
G1 X119.932 Y92.247 E.05529
G1 X130.068 Y92.247 E.31781
G1 X131.374 Y92.37 E.04113
G1 X132.548 Y92.677 E.03805
G1 X133.595 Y93.13 E.03577
G1 X134.673 Y93.813 E.04001
G1 X135.53 Y94.565 E.03575
G1 X136.409 Y95.636 E.04344
G1 X136.98 Y96.624 E.03578
G1 X137.4 Y97.685 E.03578
G1 X137.618 Y98.554 E.02809
G1 X137.747 Y99.687 E.03575
G1 X137.747 Y110.313 E.33317
G1 X137.66 Y111.204 E.02807
M73 P9 R11
G1 X137.439 Y112.186 E.03156
G1 X137.137 Y113.03 E.02811
G1 X136.685 Y113.928 E.03152
G1 X136.187 Y114.673 E.0281
G1 X135.53 Y115.435 E.03155
G1 X134.251 Y116.484 E.05186
G1 X132.676 Y117.277 E.05529
G1 X131.071 Y117.679 E.05188
G1 X130 Y117.754 E.03366
G1 X119.552 Y117.741 E.32759
G1 X117.814 Y117.439 E.05531
G1 X116.97 Y117.137 E.02811
G1 X116.072 Y116.685 E.03152
G1 X115.327 Y116.187 E.0281
G1 X114.565 Y115.53 E.03155
G1 X113.516 Y114.251 E.05186
G1 X113.192 Y113.608 E.02258
G1 X113.527 Y113.439 F10800
G1 F3000
G1 X113.074 Y112.54 E.03156
G1 X112.695 Y111.025 E.04897
G1 X112.623 Y110 E.03222
G1 X112.635 Y99.58 E.32671
G1 X112.924 Y97.914 E.05302
G1 X113.207 Y97.123 E.02634
G1 X113.643 Y96.258 E.03037
G1 X114.574 Y95.003 E.04899
G1 X115.653 Y94.04 E.04535
G1 X117.123 Y93.207 E.05298
G1 X118.504 Y92.777 E.04535
G1 X119.942 Y92.624 E.04534
G1 X130.058 Y92.624 E.31718
G1 X131.309 Y92.741 E.0394
G1 X132.43 Y93.035 E.03634
G1 X133.426 Y93.467 E.03404
G1 X134.441 Y94.11 E.03767
G1 X135.257 Y94.825 E.03402
G1 X136.101 Y95.853 E.0417
G1 X136.643 Y96.793 E.03402
G1 X137.076 Y97.915 E.03771
G1 X137.288 Y98.86 E.03037
G1 X137.376 Y99.942 E.03404
G1 X137.37 Y110.304 E.32489
G1 X137.288 Y111.14 E.02634
G1 X137.076 Y112.086 E.0304
G1 X136.793 Y112.877 E.02634
G1 X136.357 Y113.742 E.03037
G1 X135.89 Y114.441 E.02636
G1 X135.257 Y115.175 E.03039
G1 X134.05 Y116.166 E.04897
G1 X132.54 Y116.926 E.053
G1 X131.025 Y117.305 E.04897
G1 X130 Y117.377 E.03222
G1 X119.58 Y117.365 E.32671
G1 X117.914 Y117.076 E.05302
G1 X117.123 Y116.793 E.02634
G1 X116.258 Y116.357 E.03037
G1 X115.559 Y115.89 E.02636
G1 X114.825 Y115.257 E.03039
G1 X113.834 Y114.05 E.04897
G1 X113.554 Y113.493 E.01955
; printing object Cabel_Holder_simplified.stl id:0 copy 0
;WIPE_START
G1 F8640
G1 X113.074 Y112.54 E-.24639
G1 X112.695 Y111.025 E-.3606
G1 X112.636 Y110.191 E-.19301
;WIPE_END
G1 Z.8 F720
G1 X131.054 Y114.237 F10800
G1 Z.4 F720
G1 E.8 F2100
M204 S800
;TYPE:Perimeter
;WIDTH:0.449999
G1 F3000
G1 X130.684 Y114.301 E.01271
G1 X129.985 Y114.368 E.02377
G1 X119.794 Y114.362 E.34495
G1 X119.148 Y114.282 E.02203
G1 X118.529 Y114.111 E.02174
G1 X117.948 Y113.854 E.0215
G1 X117.511 Y113.561 E.01781
G1 X117.05 Y113.213 E.01955
G1 X116.665 Y112.804 E.01901
G1 X116.261 Y112.255 E.02307
G1 X115.886 Y111.462 E.02969
G1 X115.795 Y111.141 E.01129
G1 X115.689 Y110.649 E.01704
G1 X115.638 Y110.096 E.0188
G1 X115.638 Y99.794 E.34871
G1 X115.718 Y99.148 E.02203
G1 X115.889 Y98.529 E.02174
G1 X116.146 Y97.948 E.0215
G1 X116.626 Y97.231 E.02921
G1 X117.237 Y96.619 E.02927
G1 X117.536 Y96.407 E.01241
G1 X118.122 Y96.058 E.02309
G1 X118.745 Y95.835 E.0224
G1 X119.352 Y95.682 E.02119
G1 X120.023 Y95.632 E.02278
G1 X130.136 Y95.636 E.34231
G1 X130.854 Y95.718 E.02446
G1 X131.466 Y95.888 E.0215
G1 X132.191 Y96.225 E.02706
G1 X132.772 Y96.627 E.02391
G1 X133.23 Y97.063 E.0214
G1 X133.748 Y97.762 E.02945
G1 X134.031 Y98.323 E.02127
G1 X134.281 Y99.148 E.02918
G1 X134.368 Y100.03 E.03
G1 X134.362 Y110.206 E.34445
G1 X134.282 Y110.852 E.02203
G1 X134.111 Y111.471 E.02174
G1 X133.854 Y112.052 E.0215
G1 X133.489 Y112.598 E.02223
G1 X133.093 Y113.082 E.02117
G1 X132.606 Y113.502 E.02177
G1 X131.866 Y113.946 E.02921
G1 X131.11 Y114.216 E.02717
M204 S1000
G1 X131.158 Y114.632 F10800
M204 S800
;TYPE:External perimeter
G1 F2400
G1 X130.754 Y114.702 E.01388
G1 X129.995 Y114.775 E.02581
G1 X119.769 Y114.769 E.34614
G1 X119.069 Y114.683 E.02387
G1 X118.392 Y114.495 E.02378
G1 X117.751 Y114.212 E.02372
G1 X117.181 Y113.83 E.02323
G1 X116.625 Y113.378 E.02425
G1 X116.208 Y112.899 E.0215
G1 X115.907 Y112.458 E.01807
G1 X115.504 Y111.606 E.0319
G1 X115.404 Y111.251 E.01248
G1 X115.287 Y110.713 E.01864
G1 X115.231 Y110.116 E.0203
G1 X115.231 Y99.769 E.35023
G1 X115.317 Y99.069 E.02387
G1 X115.505 Y98.392 E.02378
G1 X115.788 Y97.751 E.02372
G1 X116.31 Y96.971 E.03177
G1 X116.973 Y96.308 E.03174
G1 X117.487 Y95.942 E.02136
G1 X117.955 Y95.686 E.01806
G1 X118.608 Y95.452 E.02348
G1 X119.297 Y95.277 E.02406
G1 X120.008 Y95.225 E.02413
