; generated by PrusaSlicer 2.6.0-alpha6+linux-x64-GTK3 on 2023-05-08 at 03:34:02 UTC

; 

; external perimeters extrusion width = 0.45mm
; perimeters extrusion width = 0.45mm
; infill extrusion width = 0.45mm
; solid infill extrusion width = 0.45mm
; top infill extrusion width = 0.40mm
; first layer extrusion width = 0.42mm

M73 P0 R12
M201 X9000 Y9000 Z500 E10000 ; sets maximum accelerations, mm/sec^2
M203 X500 Y500 Z12 E120 ; sets maximum feedrates, mm / sec
M204 S2000 T1500 ; sets acceleration (S) and retract acceleration (R), mm/sec^2
M205 X10.00 Y10.00 Z0.20 E4.50 ; sets the jerk limits, mm/sec
M205 S0 T0 ; sets the minimum extruding and travel feed rate, mm/sec
;TYPE:Custom
M862.3 P "MK2.5" ; printer model check
M862.1 P0.4 ; nozzle diameter check
M115 U3.11.0 ; tell printer latest fw version
G90 ; use absolute coordinates
M83 ; extruder relative mode
M104 S215 ; set extruder temp
M140 S60 ; set bed temp
M190 S60 ; wait for bed temp
M109 S215 ; wait for extruder temp
G28 W ; home all without mesh bed level
G80 ; mesh bed leveling

G1 Z0.2 F720
G1 Y-3 F1000 ; go outside print area
G92 E0
G1 X60 E9 F1000 ; intro line
G1 X100 E12.5 F1000 ; intro line

G92 E0
G21 ; set units to millimeters
G90 ; use absolute coordinates
M83 ; use relative distances for extrusion
M900 K0.05 ; Filament gcode LA 1.5
M900 K30 ; Filament gcode LA 1.0
M107
;LAYER_CHANGE
;Z:0.2
;HEIGHT:0.2
;BEFORE_LAYER_CHANGE
G92 E0.0
;0.2


G1 E-.8 F2100
G1 Z.4 F720
;AFTER_LAYER_CHANGE
;0.2
;CURRENT_Z: 0.2
G1 X114.21 Y94.843 F10800
G1 Z.2 F720
G1 E.8 F2100
M204 S800
;TYPE:Skirt/Brim
;WIDTH:0.42
G1 F1200
G1 X115.436 Y93.732 E.05188
G1 X116.746 Y92.962 E.04764
G1 X118.182 Y92.463 E.04767
G1 X119.932 Y92.247 E.05529
G1 X130.068 Y92.247 E.31781
G1 X131.422 Y92.378 E.04265
M73 P1 R12
G1 X132.548 Y92.677 E.03653
G1 X133.595 Y93.13 E.03577
G1 X134.564 Y93.732 E.03577
G1 X135.435 Y94.47 E.03579
G1 X136.268 Y95.436 E.03999
G1 X136.98 Y96.624 E.04343
G1 X137.4 Y97.685 E.03578
G1 X137.639 Y98.675 E.03193
G1 X137.747 Y99.687 E.03191
G1 X137.747 Y110.313 E.33317
G1 X137.659 Y111.204 E.02807
G1 X137.439 Y112.186 E.03155
G1 X137.137 Y113.03 E.02811
G1 X136.685 Y113.928 E.03152
G1 X135.699 Y115.257 E.05189
G1 X134.364 Y116.409 E.05529
G1 X133.595 Y116.87 E.02811
G1 X132.676 Y117.277 E.03151
G1 X131.071 Y117.679 E.05188
G1 X130 Y117.754 E.03366
G1 X119.552 Y117.741 E.32759
G1 X117.814 Y117.439 E.05531
G1 X116.97 Y117.137 E.02811
G1 X116.072 Y116.685 E.03152
G1 X114.743 Y115.699 E.05189
G1 X113.591 Y114.364 E.05529
G1 X113.13 Y113.595 E.02811
G1 X112.749 Y112.744 E.02923
G1 X112.321 Y111.071 E.05415
G1 X112.246 Y110 E.03366
G1 X112.259 Y99.552 E.32759
G1 X112.561 Y97.814 E.05531
G1 X112.863 Y96.97 E.02811
G1 X113.315 Y96.072 E.03152
G1 X114.174 Y94.892 E.04576
M204 S1000
G1 X114.485 Y95.122 F10800
M204 S800
G1 F1200
G1 X114.574 Y95.003 E.00466
G1 X115.653 Y94.04 E.04535
G1 X117.101 Y93.217 E.05222
G1 X118.504 Y92.777 E.0461
G1 X119.942 Y92.624 E.04534
G1 X130.058 Y92.624 E.31718
G1 X131.358 Y92.75 E.04095
G1 X132.43 Y93.035 E.03478
G1 X133.426 Y93.467 E.03404
G1 X134.441 Y94.11 E.03767
G1 X135.257 Y94.825 E.03402
G1 X136.101 Y95.853 E.0417
G1 X136.693 Y96.899 E.03768
G1 X137.076 Y97.915 E.03404
G1 X137.288 Y98.86 E.03037
G1 X137.376 Y99.942 E.03404
G1 X137.37 Y110.304 E.32489
G1 X137.288 Y111.14 E.02634
G1 X137.076 Y112.085 E.03037
G1 X136.793 Y112.877 E.02637
G1 X136.357 Y113.742 E.03037
G1 X135.89 Y114.441 E.02636
G1 X135.257 Y115.175 E.03039
G1 X134.05 Y116.166 E.04897
G1 X132.54 Y116.926 E.053
G1 X131.025 Y117.305 E.04897
G1 X130 Y117.377 E.03222
G1 X119.58 Y117.365 E.32671
G1 X117.915 Y117.076 E.05299
G1 X117.123 Y116.793 E.02637
G1 X116.258 Y116.357 E.03037
G1 X115.003 Y115.426 E.04899
G1 X113.899 Y114.147 E.05298
G1 X113.467 Y113.426 E.02635
G1 X113.101 Y112.609 E.02807
G1 X112.695 Y111.025 E.05127
G1 X112.623 Y110 E.03222
M73 P2 R12
G1 X112.635 Y99.58 E.32671
G1 X112.754 Y98.618 E.03039
G1 X112.958 Y97.803 E.02634
G1 X113.643 Y96.258 E.05299
G1 X114.45 Y95.17 E.04247
M204 S1000
; printing object Cabel_Holder.stl id:0 copy 0
;WIPE_START
G1 F8640
G1 X114.574 Y95.003 E-.04803
G1 X115.653 Y94.04 E-.33394
G1 X117.101 Y93.217 E-.38458
G1 X117.239 Y93.174 E-.03345
;WIPE_END
G1 Z.6 F720
G1 X130.909 Y114.105 F10800
G1 Z.2 F720
G1 E.8 F2100
M204 S800
;TYPE:Perimeter
;WIDTH:0.419999
G1 F1200
G1 X130.66 Y114.148 E.00792
G1 X129.983 Y114.213 E.02132
G1 X119.801 Y114.207 E.31925
G1 X119.178 Y114.13 E.01968
G1 X118.581 Y113.965 E.01942
G1 X118.037 Y113.725 E.01864
G1 X117.497 Y113.366 E.02033
G1 X117.027 Y112.983 E.01901
G1 X116.633 Y112.528 E.01887
G1 X116.298 Y111.972 E.02035
G1 X116.037 Y111.426 E.01897
G1 X115.871 Y110.828 E.01946
G1 X115.787 Y109.969 E.02706
G1 X115.793 Y99.801 E.31881
G1 X115.87 Y99.178 E.01968
G1 X116.035 Y98.581 E.01942
G1 X116.275 Y98.037 E.01864
G1 X116.75 Y97.323 E.02689
G1 X117.167 Y96.885 E.01896
G1 X117.836 Y96.389 E.02611
G1 X118.582 Y96.036 E.02588
G1 X119.389 Y95.834 E.02608
G1 X120.024 Y95.787 E.01996
G1 X130.181 Y95.792 E.31847
G1 X130.822 Y95.87 E.02025
G1 X131.412 Y96.033 E.01919
G1 X132.171 Y96.392 E.02633
G1 X132.666 Y96.741 E.01899
G1 X133.259 Y97.334 E.02629
G1 X133.612 Y97.835 E.01922
G1 X133.888 Y98.382 E.01921
G1 X134.129 Y99.179 E.02611
G1 X134.213 Y100.031 E.02684
G1 X134.207 Y110.199 E.31881
G1 X134.13 Y110.822 E.01968
G1 X133.965 Y111.419 E.01942
G1 X133.717 Y111.979 E.0192
G1 X133.366 Y112.505 E.01983
G1 X132.983 Y112.973 E.01896
G1 X132.514 Y113.378 E.01943
G1 X131.8 Y113.806 E.0261
G1 X130.968 Y114.095 E.02762
M204 S1000
G1 X130.974 Y114.476 F10800
M204 S800
;TYPE:External perimeter
G1 F1200
G1 X130.725 Y114.52 E.00793
G1 X129.992 Y114.59 E.02309
G1 X119.777 Y114.584 E.32028
G1 X119.105 Y114.501 E.02123
G1 X118.454 Y114.321 E.02118
G1 X117.856 Y114.057 E.0205
G1 X117.289 Y113.68 E.02135
G1 X116.756 Y113.247 E.02153
G1 X116.327 Y112.751 E.02056
G1 X115.975 Y112.166 E.02141
G1 X115.68 Y111.549 E.02144
G1 X115.499 Y110.897 E.02122
G1 X115.41 Y109.988 E.02864
G1 X115.416 Y99.777 E.32016
G1 X115.499 Y99.105 E.02123
G1 X115.679 Y98.454 E.02118
G1 X115.943 Y97.856 E.0205
G1 X116.454 Y97.087 E.02895
G1 X116.917 Y96.601 E.02105
G1 X117.641 Y96.064 E.02826
G1 X118.454 Y95.679 E.0282
G1 X119.329 Y95.46 E.02828
G1 X120.01 Y95.41 E.02141
G1 X130.204 Y95.415 E.31963
G1 X130.895 Y95.499 E.02183
G1 X131.544 Y95.678 E.02111
G1 X132.361 Y96.065 E.02834
G1 X132.91 Y96.451 E.02104
G1 X133.549 Y97.09 E.02833
G1 X133.936 Y97.641 E.02111
G1 X134.239 Y98.242 E.0211
G1 X134.501 Y99.105 E.02828
G1 X134.59 Y100.012 E.02857
G1 X134.584 Y110.223 E.32016
G1 X134.501 Y110.895 E.02123
M73 P3 R12
G1 X134.321 Y111.546 E.02118
G1 X134.048 Y112.162 E.02113
G1 X133.679 Y112.714 E.02082
G1 X133.247 Y113.244 E.02144
G1 X132.735 Y113.685 E.02119
G1 X131.962 Y114.148 E.02825
G1 X131.113 Y114.452 E.02827
G1 X131.033 Y114.466 E.00255
M204 S1000
G1 X130.802 Y114.291 F10800
;WIPE_START
G1 F8640
G1 X130.725 Y114.52 E-.0722
G1 X129.992 Y114.59 E-.17002
G1 X127.576 Y114.589 E-.55778
;WIPE_END
G1 Z.6 F720
G1 X131.925 Y96.401 F10800
G1 Z.2 F720
G1 E.8 F2100
M204 S800
;TYPE:Solid infill
;WIDTH:0.421819
G1 F1200
G1 X133.045 Y97.521 E.0499
G1 X133.369 Y97.981 E.01773
G1 X133.624 Y98.488 E.01788
G1 X133.689 Y98.7 E.00699
G1 X131.277 Y96.289 E.10745
G1 X130.767 Y96.148 E.01667
G1 X130.577 Y96.125 E.00603
G1 X133.868 Y99.416 E.14663
G1 X133.927 Y100.01 E.01881
G1 X129.992 Y96.075 E.17533
G1 X129.455 Y96.075 E.01692
G1 X133.93 Y100.549 E.19936
G1 X133.929 Y101.085 E.01689
G1 X128.919 Y96.075 E.22322
G1 X128.383 Y96.074 E.01689
G1 X133.929 Y101.62 E.24711
G1 X133.929 Y102.156 E.01689
G1 X127.847 Y96.074 E.27099
G1 X127.311 Y96.074 E.01689
G1 X133.929 Y102.691 E.29485
G1 X133.928 Y103.227 E.01689
G1 X126.775 Y96.073 E.31873
G1 X126.239 Y96.073 E.01689
G1 X133.928 Y103.762 E.34259
G1 X133.928 Y104.298 E.01689
M73 P3 R11
G1 X125.703 Y96.073 E.36647
G1 X125.166 Y96.073 E.01692
G1 X133.927 Y104.833 E.39033
G1 X133.927 Y105.369 E.01689
G1 X124.63 Y96.072 E.41423
G1 X124.094 Y96.072 E.01689
G1 X133.927 Y105.905 E.43812
G1 X133.926 Y106.44 E.01686
M73 P4 R11
G1 X123.558 Y96.072 E.46195
G1 X123.022 Y96.071 E.01689
G1 X133.926 Y106.976 E.48586
G1 X133.926 Y107.511 E.01686
G1 X122.486 Y96.071 E.50972
G1 X121.95 Y96.071 E.01689
G1 X133.926 Y108.047 E.5336
G1 X133.925 Y108.582 E.01686
G1 X121.414 Y96.071 E.55744
G1 X120.877 Y96.07 E.01692
G1 X133.925 Y109.118 E.58136
G1 X133.925 Y109.653 E.01686
G1 X120.341 Y96.07 E.60522
G1 X119.827 Y96.091 E.01621
G1 X133.924 Y110.188 E.6281
G1 X133.865 Y110.665 E.01514
M73 P5 R11
G1 X119.338 Y96.138 E.64726
G1 X118.909 Y96.245 E.01393
G1 X133.761 Y111.097 E.66174
G1 X133.698 Y111.323 E.00739
G1 X133.622 Y111.494 E.0059
G1 X118.51 Y96.383 E.6733
G1 X118.147 Y96.555 E.01266
G1 X133.455 Y111.862 E.68204
G1 X133.24 Y112.184 E.0122
G1 X117.814 Y96.757 E.68734
G1 X117.506 Y96.985 E.01207
G1 X133.023 Y112.508 E.6915
G1 X132.769 Y112.784 E.01182
G1 X117.222 Y97.237 E.69271
G1 X116.963 Y97.514 E.01195
M73 P6 R11
G1 X132.481 Y113.033 E.69144
G1 X132.347 Y113.148 E.00556
G1 X132.168 Y113.255 E.00657
G1 X116.749 Y97.836 E.687
G1 X116.535 Y98.158 E.01218
G1 X131.833 Y113.456 E.68161
G1 X131.679 Y113.549 E.00567
G1 X131.466 Y113.625 E.00713
G1 X116.368 Y98.527 E.6727
G1 X116.302 Y98.676 E.00513
G1 X116.233 Y98.927 E.0082
G1 X131.072 Y113.766 E.66116
G1 X130.944 Y113.812 E.00429
G1 X130.635 Y113.865 E.00988
G1 X116.132 Y99.362 E.64619
G1 X116.076 Y99.842 E.01523
G1 X130.155 Y113.921 E.6273
G1 X129.628 Y113.93 E.01661
M73 P7 R11
G1 X116.075 Y100.378 E.60384
G1 X116.075 Y100.913 E.01686
G1 X129.092 Y113.93 E.57998
G1 X128.555 Y113.929 E.01692
G1 X116.075 Y101.449 E.55605
G1 X116.074 Y101.984 E.01686
G1 X128.019 Y113.929 E.53222
G1 X127.483 Y113.929 E.01689
G1 X116.074 Y102.52 E.50834
G1 X116.074 Y103.055 E.01686
G1 X126.947 Y113.928 E.48445
G1 X126.411 Y113.928 E.01689
G1 X116.074 Y103.591 E.46057
G1 X116.073 Y104.126 E.01686
G1 X125.875 Y113.928 E.43673
G1 X125.338 Y113.927 E.01692
M73 P8 R11
G1 X116.073 Y104.662 E.41281
G1 X116.073 Y105.197 E.01686
G1 X124.802 Y113.927 E.38895
G1 X124.266 Y113.927 E.01689
G1 X116.072 Y105.733 E.36509
G1 X116.072 Y106.269 E.01689
G1 X123.73 Y113.927 E.34121
G1 X123.194 Y113.926 E.01689
G1 X116.072 Y106.804 E.31733
G1 X116.071 Y107.34 E.01689
G1 X122.658 Y113.926 E.29347
G1 X122.122 Y113.926 E.01689
G1 X116.071 Y107.875 E.26961
G1 X116.071 Y108.411 E.01689
G1 X121.585 Y113.925 E.24568
G1 X121.049 Y113.925 E.01689
G1 X116.07 Y108.946 E.22184
G1 X116.07 Y109.482 E.01689
G1 X120.513 Y113.925 E.19796
G1 X119.977 Y113.924 E.01689
G1 X116.077 Y110.024 E.17377
G1 X116.135 Y110.618 E.0188
G1 X119.388 Y113.871 E.14494
G1 X119.234 Y113.852 E.00489
G1 X118.68 Y113.699 E.01811
G1 X116.301 Y111.32 E.106
G1 X116.44 Y111.66 E.01157
G1 X116.863 Y112.362 E.02582
G1 X117.224 Y112.779 E.01738
G1 X118.028 Y113.583 E.03582
M204 S1000
; stop printing object Cabel_Holder.stl id:0 copy 0
M106 S84.15
;LAYER_CHANGE
;Z:0.4
;HEIGHT:0.2
;BEFORE_LAYER_CHANGE
G92 E0.0
;0.4


;WIPE_START
G1 F8640
G1 X117.224 Y112.779 E-.26254
G1 X116.863 Y112.362 E-.12735
G1 X116.44 Y111.66 E-.18925
G1 X116.301 Y111.32 E-.08481
G1 X116.718 Y111.737 E-.13605
;WIPE_END
G1 Z.6 F720
;AFTER_LAYER_CHANGE
;0.4
;CURRENT_Z: 0.4
M104 S210 ; set temperature
G1 X113.259 Y113.81 F10800
G1 Z.4 F720
G1 E.8 F2100
;TYPE:Skirt/Brim
;WIDTH:0.42
G1 F3000
G1 X113.13 Y113.595 E.00786
G1 X112.749 Y112.744 E.02923
G1 X112.321 Y111.071 E.05415
G1 X112.246 Y110 E.03366
G1 X112.259 Y99.552 E.32759
G1 X112.561 Y97.814 E.05531
G1 X112.863 Y96.97 E.02811
G1 X113.315 Y96.072 E.03152
G1 X114.21 Y94.843 E.04767
G1 X115.436 Y93.732 E.05188
G1 X116.746 Y92.962 E.04764
G1 X118.182 Y92.463 E.04767
G1 X119.932 Y92.247 E.05529
G1 X130.068 Y92.247 E.31781
G1 X131.422 Y92.378 E.04265
G1 X132.548 Y92.677 E.03653
G1 X133.595 Y93.13 E.03577
G1 X134.564 Y93.732 E.03577
G1 X135.435 Y94.47 E.03579
M73 P9 R11
G1 X136.268 Y95.436 E.03999
G1 X136.98 Y96.624 E.04343
G1 X137.4 Y97.685 E.03578
G1 X137.639 Y98.675 E.03193
G1 X137.747 Y99.687 E.03191
G1 X137.747 Y110.313 E.33317
G1 X137.659 Y111.204 E.02807
G1 X137.439 Y112.186 E.03155
G1 X137.137 Y113.03 E.02811
G1 X136.685 Y113.928 E.03152
G1 X135.699 Y115.257 E.05189
G1 X134.364 Y116.409 E.05529
G1 X133.595 Y116.87 E.02811
G1 X132.676 Y117.277 E.03151
G1 X131.071 Y117.679 E.05188
G1 X130 Y117.754 E.03366
G1 X119.552 Y117.741 E.32759
G1 X117.814 Y117.439 E.05531
G1 X116.97 Y117.137 E.02811
G1 X116.072 Y116.685 E.03152
G1 X114.743 Y115.699 E.05189
G1 X113.591 Y114.364 E.05529
G1 X113.29 Y113.861 E.01838
G1 X113.612 Y113.668 F10800
G1 F3000
G1 X113.467 Y113.426 E.00885
G1 X113.101 Y112.609 E.02807
G1 X112.695 Y111.025 E.05127
G1 X112.623 Y110 E.03222
G1 X112.635 Y99.58 E.32671
G1 X112.754 Y98.618 E.03039
G1 X112.958 Y97.803 E.02634
G1 X113.643 Y96.258 E.05299
G1 X114.574 Y95.003 E.04899
G1 X115.653 Y94.04 E.04535
G1 X117.101 Y93.217 E.05222
G1 X118.504 Y92.777 E.0461
G1 X119.942 Y92.624 E.04534
G1 X130.058 Y92.624 E.31718
G1 X131.358 Y92.75 E.04095
G1 X132.43 Y93.035 E.03478
G1 X133.426 Y93.467 E.03404
G1 X134.441 Y94.11 E.03767
G1 X135.257 Y94.825 E.03402
G1 X136.101 Y95.853 E.0417
G1 X136.693 Y96.899 E.03768
G1 X137.076 Y97.915 E.03404
G1 X137.288 Y98.86 E.03037
G1 X137.376 Y99.942 E.03404
G1 X137.37 Y110.304 E.32489
G1 X137.288 Y111.14 E.02634
G1 X137.076 Y112.085 E.03037
G1 X136.793 Y112.877 E.02637
G1 X136.357 Y113.742 E.03037
G1 X135.89 Y114.441 E.02636
G1 X135.257 Y115.175 E.03039
G1 X134.05 Y116.166 E.04897
G1 X132.54 Y116.926 E.053
G1 X131.025 Y117.305 E.04897
G1 X130 Y117.377 E.03222
G1 X119.58 Y117.365 E.32671
G1 X117.915 Y117.076 E.05299
G1 X117.123 Y116.793 E.02637
G1 X116.258 Y116.357 E.03037
G1 X115.003 Y115.426 E.04899
G1 X113.899 Y114.147 E.05298
G1 X113.643 Y113.719 E.01564
; printing object Cabel_Holder.stl id:0 copy 0
;WIPE_START
G1 F8640
G1 X113.467 Y113.426 E-.07892
G1 X113.101 Y112.609 E-.20671
G1 X112.695 Y111.025 E-.37757
G1 X112.653 Y110.434 E-.1368
;WIPE_END
G1 Z.8 F720
G1 X130.885 Y114.273 F10800
G1 Z.4 F720
G1 E.8 F2100
M204 S800
;TYPE:Perimeter
;WIDTH:0.449999
G1 F3000
G1 X129.97 Y114.368 E.03114
G1 X119.794 Y114.362 E.34445
G1 X119.148 Y114.282 E.02203
G1 X118.721 Y114.164 E.015
G1 X118.14 Y113.951 E.02095
G1 X117.581 Y113.634 E.02175
G1 X116.907 Y113.081 E.02951
G1 X116.665 Y112.804 E.01245
G1 X116.261 Y112.255 E.02307
G1 X115.887 Y111.464 E.02962
G1 X115.72 Y110.859 E.02124
G1 X115.632 Y109.97 E.03024
G1 X115.638 Y100.064 E.33531
G1 X115.679 Y99.46 E.02049
G1 X115.812 Y98.806 E.02259
G1 X116.039 Y98.184 E.02241
G1 X116.363 Y97.584 E.02308
G1 X116.7 Y97.174 E.01796
G1 X117.091 Y96.749 E.01955
G1 X117.536 Y96.407 E.019
G1 X118.122 Y96.058 E.02309
G1 X118.745 Y95.835 E.0224
G1 X119.352 Y95.682 E.02119
G1 X120.023 Y95.632 E.02278
G1 X130.136 Y95.636 E.34231
G1 X130.854 Y95.718 E.02446
G1 X131.466 Y95.888 E.0215
G1 X132.191 Y96.225 E.02706
G1 X132.766 Y96.622 E.02365
G1 X133.379 Y97.236 E.02937
G1 X133.745 Y97.755 E.0215
G1 X134.031 Y98.323 E.02153
G1 X134.281 Y99.148 E.02918
G1 X134.368 Y100.03 E.03
G1 X134.362 Y110.206 E.34445
G1 X134.282 Y110.852 E.02203
G1 X134.164 Y111.279 E.015
G1 X133.951 Y111.86 E.02095
G1 X133.634 Y112.419 E.02175
G1 X133.082 Y113.092 E.02946
G1 X132.606 Y113.502 E.02126
G1 X132.043 Y113.84 E.02223
G1 X131.478 Y114.109 E.02118
G1 X130.943 Y114.257 E.01879
M204 S1000
G1 X130.994 Y114.665 F10800
M204 S800
;TYPE:External perimeter
G1 F2400
G1 X129.99 Y114.775 E.03419
G1 X119.769 Y114.769 E.34597
G1 X119.069 Y114.683 E.02387
G1 X118.612 Y114.556 E.01606
G1 X117.961 Y114.317 E.02347
G1 X117.349 Y113.971 E.0238
G1 X116.622 Y113.374 E.03184
G1 X116.208 Y112.899 E.02133
G1 X115.907 Y112.458 E.01807
G1 X115.504 Y111.606 E.0319
G1 X115.318 Y110.934 E.0236
G1 X115.225 Y109.99 E.03211
G1 X115.231 Y99.769 E.34597
G1 X115.317 Y99.069 E.02387
G1 X115.505 Y98.391 E.02382
G1 X115.758 Y97.811 E.02142
G1 X116.028 Y97.351 E.01805
G1 X116.464 Y96.819 E.02328
G1 X116.969 Y96.311 E.02425
G1 X117.487 Y95.942 E.02153
G1 X117.955 Y95.686 E.01806
G1 X118.608 Y95.452 E.02348
G1 X119.297 Y95.277 E.02406
G1 X120.008 Y95.225 E.02413
