; generated by PrusaSlicer 2.5.0+linux-x64-GTK3 on 2022-09-09 at 20:22:37 UTC

; 

; external perimeters extrusion width = 0.45mm
; perimeters extrusion width = 0.45mm
; infill extrusion width = 0.45mm
; solid infill extrusion width = 0.45mm
; top infill extrusion width = 0.40mm
; first layer extrusion width = 0.42mm

M73 P0 R12
M201 X9000 Y9000 Z500 E10000 ; sets maximum accelerations, mm/sec^2
M203 X500 Y500 Z12 E120 ; sets maximum feedrates, mm / sec
M204 P2000 R1500 T2000 ; sets acceleration (P, T) and retract acceleration (R), mm/sec^2
M205 X10.00 Y10.00 Z0.20 E4.50 ; sets the jerk limits, mm/sec
M205 S0 T0 ; sets the minimum extruding and travel feed rate, mm/sec
M107
;TYPE:Custom
M862.3 P "MK2.5" ; printer model check
M862.1 P0.4 ; nozzle diameter check
M115 U3.11.0 ; tell printer latest fw version
G90 ; use absolute coordinates
M83 ; extruder relative mode
M104 S215 ; set extruder temp
M140 S60 ; set bed temp
M190 S60 ; wait for bed temp
M109 S215 ; wait for extruder temp
G28 W ; home all without mesh bed level
G80 ; mesh bed leveling

G1 Z0.2 F720
G1 Y-3 F1000 ; go outside print area
G92 E0
G1 X60 E9 F1000 ; intro line
G1 X100 E12.5 F1000 ; intro line

G92 E0
G21 ; set units to millimeters
G90 ; use absolute coordinates
M83 ; use relative distances for extrusion
M900 K0.05 ; Filament gcode LA 1.5
M900 K30 ; Filament gcode LA 1.0
M107
;LAYER_CHANGE
;Z:0.2
;HEIGHT:0.2
;BEFORE_LAYER_CHANGE
G92 E0.0
;0.2


G1 E-.8 F2100
G1 Z.4 F720
;AFTER_LAYER_CHANGE
;0.2
;CURRENT_Z: 0.2
G1 X114.21 Y94.843 F10800
G1 Z.2 F720
G1 E.8 F2100
M204 S800
;TYPE:Skirt/Brim
;WIDTH:0.42
G1 F1200
G1 X115.327 Y93.813 E.04766
G1 X116.746 Y92.962 E.05187
G1 X118.182 Y92.463 E.04766
G1 X119.932 Y92.247 E.05531
G1 X130.068 Y92.247 E.31778
G1 X131.374 Y92.37 E.04114
M73 P1 R12
G1 X132.548 Y92.677 E.03807
G1 X133.595 Y93.13 E.03577
G1 X134.673 Y93.813 E.03999
G1 X135.53 Y94.565 E.03577
G1 X136.409 Y95.636 E.04344
G1 X136.98 Y96.624 E.03577
G1 X137.4 Y97.685 E.03577
G1 X137.639 Y98.675 E.03193
G1 X137.747 Y99.687 E.03193
G1 X137.747 Y110.313 E.33317
G1 X137.659 Y111.204 E.02809
G1 X137.439 Y112.186 E.03154
G1 X137.137 Y113.03 E.02809
G1 X136.685 Y113.928 E.03154
G1 X135.699 Y115.257 E.05187
G1 X134.364 Y116.409 E.05531
G1 X133.595 Y116.87 E.02809
G1 X132.699 Y117.268 E.03077
G1 X131.071 Y117.679 E.05264
G1 X130 Y117.754 E.03366
G1 X119.552 Y117.741 E.32759
G1 X117.814 Y117.439 E.05531
G1 X116.97 Y117.137 E.02809
G1 X116.072 Y116.685 E.03154
G1 X114.743 Y115.699 E.05187
G1 X113.591 Y114.364 E.05531
G1 X113.13 Y113.595 E.02809
G1 X112.767 Y112.79 E.0277
G1 X112.495 Y111.949 E.0277
G1 X112.321 Y111.071 E.02809
G1 X112.246 Y110 E.03366
G1 X112.259 Y99.552 E.32759
G1 X112.561 Y97.814 E.05531
G1 X112.863 Y96.97 E.02809
G1 X113.315 Y96.072 E.03154
G1 X114.174 Y94.892 E.04578
M204 S1000
G1 X114.485 Y95.122 F10800
M204 S800
G1 F1200
G1 X114.574 Y95.003 E.00465
G1 X115.653 Y94.041 E.04534
G1 X116.899 Y93.307 E.04534
G1 X118.504 Y92.777 E.05299
G1 X119.942 Y92.624 E.04534
G1 X130.058 Y92.624 E.3172
G1 X131.309 Y92.741 E.0394
G1 X132.43 Y93.035 E.03633
G1 X133.426 Y93.467 E.03403
G1 X134.441 Y94.11 E.03768
G1 X135.257 Y94.825 E.03403
G1 X136.101 Y95.853 E.0417
G1 X136.693 Y96.899 E.03768
G1 X137.076 Y97.915 E.03403
G1 X137.305 Y98.975 E.03403
G1 X137.376 Y99.942 E.03038
G1 X137.37 Y110.304 E.32489
G1 X137.288 Y111.14 E.02635
G1 X137.076 Y112.085 E.03038
G1 X136.793 Y112.877 E.02635
G1 X136.357 Y113.742 E.03038
G1 X135.89 Y114.441 E.02635
G1 X135.257 Y115.175 E.03038
G1 X134.05 Y116.166 E.04898
G1 X132.54 Y116.926 E.05299
G1 X131.025 Y117.305 E.04898
G1 X130 Y117.377 E.03221
G1 X119.58 Y117.365 E.32672
G1 X117.915 Y117.076 E.05299
G1 X117.123 Y116.793 E.02635
G1 X116.258 Y116.357 E.03038
G1 X115.559 Y115.89 E.02635
G1 X114.879 Y115.308 E.02807
G1 X113.834 Y114.05 E.05127
G1 X113.074 Y112.54 E.05299
G1 X112.695 Y111.025 E.04898
G1 X112.623 Y110 E.03221
G1 X112.635 Y99.58 E.32672
G1 X112.754 Y98.618 E.03038
M73 P2 R12
G1 X112.958 Y97.803 E.02635
G1 X113.643 Y96.258 E.05299
G1 X114.45 Y95.17 E.04245
M204 S1000
; printing object Cabel_Holder.stl id:0 copy 0
;WIPE_START
G1 F8640
G1 X114.574 Y95.003 E-.04811
G1 X115.653 Y94.041 E-.3339
G1 X116.899 Y93.307 E-.33391
G1 X117.08 Y93.247 E-.04408
;WIPE_END
G1 E-.04 F2100
G1 Z.6 F720
G1 X132.164 Y113.611 F10800
G1 Z.2 F720
G1 E.8 F2100
M204 S800
;TYPE:Perimeter
;WIDTH:0.419999
G1 F1200
G1 X131.766 Y113.799 E.01379
G1 X131.201 Y114.032 E.01917
G1 X130.665 Y114.147 E.0172
G1 X129.983 Y114.213 E.02146
G1 X119.801 Y114.207 E.31927
G1 X119.178 Y114.13 E.01966
G1 X118.767 Y114.016 E.0134
G1 X118.206 Y113.811 E.01873
G1 X117.66 Y113.502 E.01965
G1 X117.177 Y113.124 E.01922
G1 X116.618 Y112.508 E.02609
G1 X116.297 Y111.972 E.01961
G1 X116.037 Y111.426 E.01896
G1 X115.871 Y110.828 E.01944
G1 X115.787 Y109.969 E.02705
G1 X115.793 Y99.801 E.31883
G1 X115.87 Y99.178 E.01966
G1 X116.035 Y98.581 E.01944
G1 X116.275 Y98.037 E.01862
G1 X116.635 Y97.496 E.02037
G1 X117.017 Y97.027 E.01898
G1 X117.486 Y96.622 E.01944
G1 X118.2 Y96.194 E.02609
G1 X118.789 Y95.983 E.01961
G1 X119.375 Y95.835 E.01895
G1 X120.024 Y95.787 E.02041
G1 X130.181 Y95.792 E.31847
G1 X130.822 Y95.87 E.02025
G1 X131.413 Y96.033 E.01921
G1 X132.155 Y96.383 E.02573
G1 X132.667 Y96.741 E.01959
G1 X133.248 Y97.32 E.02571
G1 X133.612 Y97.835 E.01979
G1 X133.888 Y98.382 E.0192
G1 X134.129 Y99.179 E.02609
G1 X134.213 Y100.031 E.02684
G1 X134.207 Y109.938 E.31064
G1 X134.168 Y110.517 E.01821
G1 X134.045 Y111.13 E.01959
G1 X133.887 Y111.61 E.01584
G1 X133.597 Y112.171 E.01981
G1 X133.26 Y112.667 E.01879
G1 X132.846 Y113.103 E.01885
G1 X132.212 Y113.576 E.0248
M204 S1000
G1 X132.359 Y113.936 F10800
M204 S800
;TYPE:External perimeter
G1 F1200
G1 X131.927 Y114.14 E.01497
G1 X131.31 Y114.393 E.02091
G1 X130.729 Y114.519 E.01865
G1 X129.992 Y114.59 E.0232
G1 X119.777 Y114.584 E.32028
G1 X119.105 Y114.501 E.02125
G1 X118.666 Y114.38 E.01427
G1 X118.04 Y114.15 E.02091
G1 X117.45 Y113.816 E.02125
G1 X116.92 Y113.402 E.02111
G1 X116.314 Y112.734 E.02827
G1 X115.974 Y112.165 E.02077
G1 X115.68 Y111.549 E.02142
G1 X115.499 Y110.897 E.02119
G1 X115.41 Y109.988 E.02866
G1 X115.416 Y99.777 E.32014
G1 X115.499 Y99.105 E.02125
G1 X115.679 Y98.454 E.02118
G1 X115.943 Y97.856 E.0205
G1 X116.321 Y97.288 E.02139
G1 X116.753 Y96.756 E.02147
G1 X117.265 Y96.315 E.02119
G1 X118.038 Y95.852 E.02827
G1 X118.662 Y95.628 E.02078
G1 X119.324 Y95.46 E.02142
G1 X120.01 Y95.41 E.02157
G1 X130.204 Y95.415 E.31961
G1 X130.895 Y95.499 E.02184
G1 X131.544 Y95.678 E.02111
G1 X132.345 Y96.056 E.02775
G1 X132.91 Y96.451 E.02163
G1 X133.537 Y97.076 E.02775
G1 X133.936 Y97.641 E.02169
G1 X134.239 Y98.242 E.02111
G1 X134.501 Y99.105 E.02827
G1 X134.59 Y100.012 E.02859
G1 X134.584 Y110.223 E.32014
G1 X134.501 Y110.895 E.02125
G1 X134.408 Y111.231 E.01091
G1 X134.235 Y111.754 E.01729
G1 X133.925 Y112.357 E.02126
G1 X133.549 Y112.91 E.02095
M73 P3 R12
G1 X133.097 Y113.386 E.02058
G1 X132.407 Y113.9 E.027
M204 S1000
G1 X132.011 Y113.739 F10800
;WIPE_START
G1 F8640
G1 X131.927 Y114.14 E-.12384
G1 X131.31 Y114.393 E-.15397
G1 X130.729 Y114.519 E-.13733
G1 X129.992 Y114.59 E-.17088
G1 X129.239 Y114.59 E-.17399
;WIPE_END
G1 E-.04 F2100
G1 Z.6 F720
G1 X133.612 Y98.086 F10800
G1 Z.2 F720
G1 E.8 F2100
M204 S800
;TYPE:Solid infill
;WIDTH:0.421731
G1 F1200
G1 X132.485 Y96.959 E.0502
G1 X132.013 Y96.628 E.01815
G1 X131.28 Y96.29 E.02541
G1 X133.688 Y98.697 E.10724
G1 X133.85 Y99.234 E.01766
G1 X133.868 Y99.414 E.00569
G1 X130.58 Y96.125 E.14647
G1 X130.164 Y96.075 E.0132
G1 X129.994 Y96.075 E.00535
G1 X133.926 Y100.008 E.17518
G1 X133.93 Y100.547 E.01698
G1 X129.458 Y96.075 E.1992
G1 X128.922 Y96.075 E.01688
G1 X133.93 Y101.082 E.22306
G1 X133.929 Y101.618 E.01686
G1 X128.386 Y96.074 E.24693
G1 X127.85 Y96.074 E.01688
G1 X133.929 Y102.153 E.27079
G1 X133.929 Y102.688 E.01686
G1 X127.314 Y96.074 E.29465
G1 X126.778 Y96.073 E.01688
G1 X133.928 Y103.224 E.31851
G1 X133.928 Y103.759 E.01686
G1 X126.242 Y96.073 E.34238
G1 X125.706 Y96.073 E.01688
G1 X133.928 Y104.295 E.36624
G1 X133.927 Y104.83 E.01686
G1 X125.17 Y96.073 E.3901
G1 X124.634 Y96.072 E.01688
G1 X133.927 Y105.365 E.41397
G1 X133.927 Y105.901 E.01686
G1 X124.098 Y96.072 E.43783
G1 X123.562 Y96.072 E.01688
G1 X133.926 Y106.436 E.46169
G1 X133.926 Y106.972 E.01686
M73 P4 R12
G1 X123.026 Y96.071 E.48555
G1 X122.49 Y96.071 E.01688
G1 X133.926 Y107.507 E.50942
G1 X133.926 Y108.043 E.01686
G1 X121.954 Y96.071 E.53328
G1 X121.418 Y96.071 E.01688
G1 X133.925 Y108.578 E.55714
G1 X133.925 Y109.113 E.01686
G1 X120.882 Y96.07 E.581
G1 X120.346 Y96.07 E.01688
G1 X133.925 Y109.649 E.60487
G1 X133.924 Y110.184 E.01686
G1 X119.831 Y96.091 E.62777
G1 X119.335 Y96.131 E.01567
G1 X133.865 Y110.661 E.64723
G1 X133.762 Y111.093 E.014
M73 P5 R12
G1 X118.909 Y96.241 E.66161
G1 X118.515 Y96.382 E.0132
G1 X133.628 Y111.495 E.67323
G1 X133.452 Y111.854 E.0126
G1 X118.151 Y96.553 E.68158
G1 X117.816 Y96.754 E.0123
G1 X133.257 Y112.196 E.68785
G1 X133.027 Y112.501 E.01205
G1 X117.505 Y96.979 E.69144
G1 X117.217 Y97.227 E.01196
G1 X132.766 Y112.776 E.69263
G1 X132.658 Y112.89 E.00497
G1 X132.478 Y113.024 E.00704
G1 X116.965 Y97.51 E.69106
G1 X116.751 Y97.832 E.01217
M73 P6 R12
G1 X132.172 Y113.253 E.68692
G1 X132.017 Y113.368 E.00606
M73 P6 R11
G1 X131.836 Y113.453 E.00631
G1 X116.537 Y98.154 E.68151
G1 X116.37 Y98.523 E.01275
G1 X131.473 Y113.625 E.67276
G1 X131.304 Y113.705 E.00589
G1 X131.084 Y113.772 E.00724
G1 X116.234 Y98.922 E.66148
G1 X116.148 Y99.234 E.01017
G1 X116.133 Y99.357 E.00391
G1 X130.64 Y113.864 E.64625
G1 X130.374 Y113.911 E.0085
G1 X130.161 Y113.921 E.00673
G1 X116.076 Y99.836 E.62744
G1 X116.075 Y100.371 E.01686
G1 X129.634 Y113.93 E.60398
G1 X129.098 Y113.93 E.01688
M73 P7 R11
G1 X116.075 Y100.906 E.58012
G1 X116.075 Y101.442 E.01686
G1 X128.562 Y113.929 E.55626
G1 X128.026 Y113.929 E.01688
G1 X116.074 Y101.977 E.53239
G1 X116.074 Y102.513 E.01686
G1 X127.49 Y113.929 E.50853
G1 X126.954 Y113.928 E.01688
G1 X116.074 Y103.048 E.48467
G1 X116.074 Y103.584 E.01686
G1 X126.418 Y113.928 E.4608
G1 X125.882 Y113.928 E.01688
G1 X116.073 Y104.119 E.43694
G1 X116.073 Y104.654 E.01686
G1 X125.346 Y113.927 E.41307
G1 X124.81 Y113.927 E.01688
G1 X116.073 Y105.19 E.38921
G1 X116.072 Y105.725 E.01686
G1 X124.274 Y113.927 E.36535
G1 X123.738 Y113.927 E.01688
M73 P8 R11
G1 X116.072 Y106.261 E.34148
G1 X116.072 Y106.796 E.01686
G1 X123.202 Y113.926 E.31762
G1 X122.666 Y113.926 E.01688
G1 X116.071 Y107.331 E.29375
G1 X116.071 Y107.867 E.01686
G1 X122.13 Y113.926 E.26989
G1 X121.594 Y113.925 E.01688
G1 X116.071 Y108.402 E.24603
G1 X116.07 Y108.938 E.01686
G1 X121.058 Y113.925 E.22216
G1 X120.522 Y113.925 E.01688
G1 X116.07 Y109.473 E.1983
G1 X116.076 Y110.014 E.01705
G1 X119.986 Y113.924 E.17418
G1 X119.818 Y113.924 E.00528
G1 X119.398 Y113.873 E.01333
G1 X116.134 Y110.608 E.1454
G1 X116.151 Y110.776 E.00531
G1 X116.298 Y111.308 E.01737
G1 X118.692 Y113.702 E.10668
G1 X118.33 Y113.556 E.01231
G1 X117.818 Y113.266 E.01854
G1 X117.372 Y112.918 E.01781
G1 X116.433 Y111.979 E.04182
M204 S1000
; stop printing object Cabel_Holder.stl id:0 copy 0
M106 S84.15
;LAYER_CHANGE
;Z:0.4
;HEIGHT:0.2
;BEFORE_LAYER_CHANGE
G92 E0.0
;0.4


;WIPE_START
G1 F8640
G1 X117.372 Y112.918 E-.30657
G1 X117.818 Y113.266 E-.13058
G1 X118.33 Y113.556 E-.1359
G1 X118.692 Y113.702 E-.09025
G1 X118.396 Y113.406 E-.09671
;WIPE_END
G1 E-.04 F2100
G1 Z.6 F720
;AFTER_LAYER_CHANGE
;0.4
;CURRENT_Z: 0.4
M104 S210 ; set temperature
G1 X116.61 Y116.956 F10800
G1 Z.4 F720
G1 E.8 F2100
;TYPE:Skirt/Brim
;WIDTH:0.42
G1 F3000
G1 X116.072 Y116.685 E.01887
G1 X114.743 Y115.699 E.05187
G1 X113.591 Y114.364 E.05531
G1 X113.13 Y113.595 E.02809
G1 X112.767 Y112.79 E.0277
G1 X112.495 Y111.949 E.0277
G1 X112.321 Y111.071 E.02809
G1 X112.246 Y110 E.03366
G1 X112.259 Y99.552 E.32759
G1 X112.561 Y97.814 E.05531
G1 X112.863 Y96.97 E.02809
G1 X113.315 Y96.072 E.03154
G1 X114.21 Y94.843 E.04766
G1 X115.327 Y93.813 E.04766
G1 X116.746 Y92.962 E.05187
G1 X118.182 Y92.463 E.04766
G1 X119.932 Y92.247 E.05531
G1 X130.068 Y92.247 E.31778
G1 X131.374 Y92.37 E.04114
G1 X132.548 Y92.677 E.03807
G1 X133.595 Y93.13 E.03577
G1 X134.673 Y93.813 E.03999
G1 X135.53 Y94.565 E.03577
G1 X136.409 Y95.636 E.04344
G1 X136.98 Y96.624 E.03577
G1 X137.4 Y97.685 E.03577
G1 X137.639 Y98.675 E.03193
G1 X137.747 Y99.687 E.03193
G1 X137.747 Y110.313 E.33317
G1 X137.659 Y111.204 E.02809
G1 X137.439 Y112.186 E.03154
G1 X137.137 Y113.03 E.02809
G1 X136.685 Y113.928 E.03154
G1 X135.699 Y115.257 E.05187
G1 X134.364 Y116.409 E.05531
G1 X133.595 Y116.87 E.02809
G1 X132.699 Y117.268 E.03077
G1 X131.071 Y117.679 E.05264
G1 X130 Y117.754 E.03366
G1 X119.552 Y117.741 E.32759
G1 X117.814 Y117.439 E.05531
G1 X116.97 Y117.137 E.02809
G1 X116.663 Y116.983 E.01079
G1 X116.833 Y116.646 F10800
G1 F3000
G1 X116.258 Y116.357 E.02017
G1 X115.559 Y115.89 E.02635
G1 X114.879 Y115.308 E.02807
G1 X113.834 Y114.05 E.05127
G1 X113.074 Y112.54 E.05299
G1 X112.695 Y111.025 E.04898
G1 X112.623 Y110 E.03221
G1 X112.635 Y99.58 E.32672
G1 X112.754 Y98.618 E.03038
G1 X112.958 Y97.803 E.02635
G1 X113.643 Y96.258 E.05299
G1 X114.574 Y95.003 E.04898
G1 X115.653 Y94.041 E.04534
G1 X116.899 Y93.307 E.04534
G1 X118.504 Y92.777 E.05299
G1 X119.942 Y92.624 E.04534
G1 X130.058 Y92.624 E.3172
G1 X131.309 Y92.741 E.0394
M73 P9 R11
G1 X132.43 Y93.035 E.03633
G1 X133.426 Y93.467 E.03403
G1 X134.441 Y94.11 E.03768
G1 X135.257 Y94.825 E.03403
G1 X136.101 Y95.853 E.0417
G1 X136.693 Y96.899 E.03768
G1 X137.076 Y97.915 E.03403
G1 X137.305 Y98.975 E.03403
G1 X137.376 Y99.942 E.03038
G1 X137.37 Y110.304 E.32489
G1 X137.288 Y111.14 E.02635
G1 X137.076 Y112.085 E.03038
G1 X136.793 Y112.877 E.02635
G1 X136.357 Y113.742 E.03038
G1 X135.89 Y114.441 E.02635
G1 X135.257 Y115.175 E.03038
G1 X134.05 Y116.166 E.04898
G1 X132.54 Y116.926 E.05299
G1 X131.025 Y117.305 E.04898
G1 X130 Y117.377 E.03221
G1 X119.58 Y117.365 E.32672
G1 X117.915 Y117.076 E.05299
G1 X117.123 Y116.793 E.02635
G1 X116.886 Y116.673 E.00832
; printing object Cabel_Holder.stl id:0 copy 0
;WIPE_START
G1 F8640
G1 X116.258 Y116.357 E-.16242
G1 X115.559 Y115.89 E-.19406
G1 X114.879 Y115.308 E-.20675
G1 X114.334 Y114.652 E-.19678
;WIPE_END
G1 E-.04 F2100
G1 Z.8 F720
G1 X132.253 Y113.737 F10800
G1 Z.4 F720
G1 E.8 F2100
M204 S800
;TYPE:Perimeter
;WIDTH:0.449999
G1 F3000
G1 X131.831 Y113.939 E.01584
G1 X131.245 Y114.181 E.02146
G1 X130.689 Y114.3 E.01926
G1 X129.985 Y114.368 E.02394
G1 X120.064 Y114.362 E.33582
G1 X119.46 Y114.321 E.02047
G1 X118.806 Y114.188 E.02259
G1 X118.184 Y113.961 E.02241
G1 X117.584 Y113.637 E.02308
G1 X117.073 Y113.217 E.02239
G1 X116.629 Y112.776 E.02117
G1 X116.259 Y112.251 E.02176
G1 X115.887 Y111.464 E.02946
G1 X115.72 Y110.859 E.02125
G1 X115.632 Y109.97 E.03024
G1 X115.638 Y99.794 E.34444
G1 X115.718 Y99.148 E.02202
G1 X115.836 Y98.721 E.01502
G1 X116.049 Y98.14 E.02093
G1 X116.366 Y97.581 E.02176
G1 X116.7 Y97.174 E.01782
G1 X117.091 Y96.749 E.01954
G1 X117.536 Y96.407 E.01902
G1 X118.122 Y96.058 E.02308
G1 X118.745 Y95.835 E.02239
G1 X119.352 Y95.682 E.02118
G1 X120.023 Y95.632 E.02279
G1 X130.136 Y95.636 E.34231
G1 X130.854 Y95.718 E.02446
G1 X131.464 Y95.887 E.02141
G1 X132.251 Y96.259 E.02946
G1 X132.764 Y96.621 E.02125
G1 X133.379 Y97.236 E.02946
G1 X133.742 Y97.751 E.02131
G1 X134.088 Y98.472 E.02709
G1 X134.281 Y99.144 E.02364
G1 X134.368 Y100.03 E.03016
G1 X134.362 Y109.95 E.33578
G1 X134.32 Y110.564 E.02083
G1 X134.18 Y111.263 E.02412
G1 X133.947 Y111.867 E.0219
G1 X133.728 Y112.253 E.01502
G1 X133.38 Y112.764 E.02093
G1 X132.937 Y113.23 E.02176
G1 X132.302 Y113.701 E.02679
M204 S1000
G1 X132.496 Y114.064 F10800
M204 S800
;TYPE:External perimeter
G1 F2400
G1 X131.831 Y114.39 E.02506
G1 X131.363 Y114.57 E.01697
G1 X130.758 Y114.701 E.02095
G1 X129.995 Y114.775 E.02597
G1 X119.769 Y114.769 E.34614
G1 X119.069 Y114.683 E.02387
G1 X118.391 Y114.495 E.0238
G1 X117.811 Y114.242 E.02142
G1 X117.351 Y113.972 E.01806
G1 X116.815 Y113.532 E.02347
G1 X116.311 Y113.031 E.02405
G1 X115.906 Y112.456 E.0238
G1 X115.504 Y111.606 E.03183
