; generated by PrusaSlicer 2.8.0 on 2024-09-21 at 14:29:08 UTC

; 

; external perimeters extrusion width = 0.45mm
; perimeters extrusion width = 0.45mm
; infill extrusion width = 0.45mm
; solid infill extrusion width = 0.45mm
; top infill extrusion width = 0.40mm
; first layer extrusion width = 0.42mm

M73 P0 R12
M201 X9000 Y9000 Z500 E10000 ; sets maximum accelerations, mm/sec^2
M203 X500 Y500 Z12 E120 ; sets maximum feedrates, mm / sec
M204 S2000 T1500 ; sets acceleration (S) and retract acceleration (R), mm/sec^2
M205 X10.00 Y10.00 Z0.20 E4.50 ; sets the jerk limits, mm/sec
M205 S0 T0 ; sets the minimum extruding and travel feed rate, mm/sec

; printing object Cabel_Holder_simplified.stl id:0 copy 0
; stop printing object Cabel_Holder_simplified.stl id:0 copy 0

;TYPE:Custom
M862.3 P "MK2.5" ; printer model check
M862.1 P0.4 ; nozzle diameter check
M115 U3.11.0 ; tell printer latest fw version
G90 ; use absolute coordinates
M83 ; extruder relative mode
M104 S215 ; set extruder temp
M140 S60 ; set bed temp
M190 S60 ; wait for bed temp
M109 S215 ; wait for extruder temp
G28 W ; home all without mesh bed level
G80 ; mesh bed leveling

G1 Z0.2 F720
G1 Y-3 F1000 ; go outside print area
G92 E0
G1 X60 E9 F1000 ; intro line
G1 X100 E12.5 F1000 ; intro line

G92 E0
G21 ; set units to millimeters
G90 ; use absolute coordinates
M83 ; use relative distances for extrusion
M900 K0.05 ; Filament gcode LA 1.5
M900 K30 ; Filament gcode LA 1.0
M107
;LAYER_CHANGE
;Z:0.2
;HEIGHT:0.2
G1 E-.8 F2100
G1 Z.6 F720
G1 X114.437 Y94.873 F10800
G1 Z.2 F720
G1 E.8 F2100
M204 S800
;TYPE:Skirt/Brim
;WIDTH:0.42
G1 F1200
G1 X115.544 Y93.886 E.0465
G1 X116.822 Y93.135 E.04648
G1 X118.223 Y92.647 E.04652
G1 X119.937 Y92.435 E.05415
G1 X130.063 Y92.435 E.31749
G1 X131.342 Y92.556 E.04028
M73 P1 R12
G1 X132.489 Y92.856 E.03717
G1 X133.511 Y93.299 E.03492
G1 X134.557 Y93.961 E.03881
G1 X135.394 Y94.695 E.03491
G1 X136.255 Y95.745 E.04258
G1 X136.865 Y96.822 E.03881
G1 X137.257 Y97.864 E.03491
G1 X137.474 Y98.828 E.03098
G1 X137.565 Y99.937 E.03489
G1 X137.559 Y110.308 E.32518
G1 X137.474 Y111.172 E.02722
G1 X137.257 Y112.136 E.03098
G1 X136.965 Y112.953 E.0272
G1 X136.521 Y113.835 E.03096
G1 X135.563 Y115.127 E.05043
G1 X134.255 Y116.255 E.05416
G1 X132.837 Y117.013 E.05041
G1 X131.899 Y117.323 E.03097
G1 X131.048 Y117.492 E.0272
G1 X130 Y117.566 E.03294
G1 X119.566 Y117.553 E.32715
G1 X117.864 Y117.257 E.05417
G1 X117.047 Y116.965 E.0272
G1 X116.165 Y116.521 E.03096
G1 X115.443 Y116.039 E.02722
G1 X114.695 Y115.394 E.03097
G1 X113.675 Y114.15 E.05044
G1 X112.899 Y112.608 E.05413
G1 X112.508 Y111.048 E.05043
G1 X112.434 Y110 E.03294
G1 X112.447 Y99.566 E.32715
G1 X112.743 Y97.864 E.05417
G1 X113.035 Y97.047 E.0272
G1 X113.479 Y96.165 E.03096
G1 X114.401 Y94.921 E.04855
M204 S1000
G1 X114.401 Y94.921 F10800
G1 X114.702 Y95.144
M204 S800
G1 F1200
G1 X114.71 Y95.133 E.00043
G1 X115.761 Y94.195 E.04417
G1 X117.2 Y93.38 E.05185
G1 X118.545 Y92.961 E.04417
G1 X119.946 Y92.812 E.04418
G1 X130.054 Y92.812 E.31693
G1 X131.277 Y92.927 E.03852
G1 X132.371 Y93.214 E.03546
G1 X133.341 Y93.636 E.03317
G1 X134.325 Y94.259 E.03652
G1 X135.121 Y94.955 E.03315
G1 X135.947 Y95.962 E.04084
G1 X136.475 Y96.878 E.03315
G1 X136.894 Y97.965 E.03653
G1 X137.102 Y98.892 E.02979
G1 X137.188 Y99.946 E.03316
G1 X137.182 Y110.299 E.32461
G1 X137.102 Y111.108 E.02549
G1 X136.894 Y112.035 E.02979
G1 X136.62 Y112.8 E.02548
G1 X136.193 Y113.649 E.0298
G1 X135.741 Y114.325 E.0255
G1 X135.121 Y115.045 E.02979
G1 X133.949 Y116.006 E.04752
G1 X132.472 Y116.75 E.05185
G1 X131.002 Y117.118 E.04751
G1 X130 Y117.189 E.0315
G1 X119.594 Y117.177 E.32627
G1 X117.965 Y116.894 E.05184
G1 X117.2 Y116.62 E.02548
G1 X116.351 Y116.193 E.0298
G1 X115.133 Y115.29 E.04754
G1 X114.053 Y114.038 E.05184
G1 X113.339 Y112.701 E.04752
G1 X113.041 Y111.799 E.02979
G1 X112.882 Y111.002 E.02548
G1 X112.811 Y110 E.0315
G1 X112.823 Y99.594 E.32627
G1 X113.106 Y97.965 E.05184
M73 P2 R12
G1 X113.38 Y97.2 E.02548
G1 X113.807 Y96.351 E.0298
G1 X114.666 Y95.192 E.04523
M204 S1000
;WIPE_START
G1 F8640
G1 X114.702 Y95.144 E-.01385
G1 X114.71 Y95.133 E-.00314
G1 X115.761 Y94.195 E-.32527
G1 X117.2 Y93.38 E-.38186
G1 X117.514 Y93.282 E-.07588
;WIPE_END
G1 Z.6 F720
; printing object Cabel_Holder_simplified.stl id:0 copy 0
G1 X115.93 Y98.96 F10800
G1 Z.2 F720
G1 E.8 F2100
M204 S800
;TYPE:Perimeter
;WIDTH:0.419999
G1 F1200
G1 X116.035 Y98.581 E.01233
G1 X116.283 Y98.021 E.0192
G1 X116.746 Y97.329 E.02611
G1 X117.329 Y96.746 E.02585
G1 X117.719 Y96.485 E.01471
G1 X118.22 Y96.188 E.01826
G1 X118.794 Y95.975 E.0192
G1 X119.375 Y95.835 E.01874
G1 X120.024 Y95.787 E.0204
G1 X130.181 Y95.792 E.31847
G1 X130.822 Y95.87 E.02025
G1 X131.419 Y96.035 E.01942
G1 X131.979 Y96.283 E.0192
G1 X132.676 Y96.749 E.02629
G1 X133.115 Y97.167 E.01901
G1 X133.615 Y97.841 E.02631
G1 X133.888 Y98.382 E.019
G1 X134.129 Y99.179 E.02611
G1 X134.213 Y100.25 E.03368
G1 X134.207 Y110.199 E.31194
G1 X134.13 Y110.822 E.01968
G1 X133.965 Y111.419 E.01942
G1 X133.717 Y111.979 E.0192
G1 X133.366 Y112.503 E.01977
G1 X132.983 Y112.973 E.01901
G1 X132.528 Y113.367 E.01887
G1 X131.799 Y113.806 E.02668
G1 X131.017 Y114.086 E.02604
G1 X130.66 Y114.148 E.01136
G1 X129.983 Y114.213 E.02132
G1 X119.801 Y114.207 E.31925
G1 X119.178 Y114.13 E.01968
G1 X118.581 Y113.965 E.01942
G1 X118.021 Y113.717 E.0192
G1 X117.497 Y113.366 E.01977
G1 X117.027 Y112.983 E.01901
G1 X116.633 Y112.528 E.01887
G1 X116.298 Y111.972 E.02035
G1 X116.037 Y111.426 E.01897
G1 X115.871 Y110.828 E.01946
G1 X115.787 Y109.969 E.02706
G1 X115.793 Y99.801 E.31881
G1 X115.87 Y99.178 E.01968
G1 X115.914 Y99.018 E.0052
M204 S1000
G1 X115.914 Y99.018 F10800
G1 X115.562 Y98.878
M204 S800
;TYPE:External perimeter
G1 F1200
G1 X115.679 Y98.454 E.01379
G1 X115.952 Y97.838 E.02113
G1 X116.453 Y97.089 E.02825
G1 X117.089 Y96.453 E.0282
G1 X117.509 Y96.172 E.01584
G1 X118.059 Y95.847 E.02003
G1 X118.676 Y95.617 E.02065
G1 X119.324 Y95.461 E.0209
G1 X120.01 Y95.41 E.02157
G1 X130.204 Y95.415 E.31963
G1 X130.895 Y95.499 E.02183
G1 X131.546 Y95.679 E.02118
G1 X132.162 Y95.952 E.02113
G1 X132.913 Y96.454 E.02832
G1 X133.399 Y96.917 E.02105
G1 X133.937 Y97.642 E.02831
G1 X134.239 Y98.242 E.02106
G1 X134.501 Y99.105 E.02828
G1 X134.59 Y100.25 E.03601
G1 X134.584 Y110.223 E.3127
G1 X134.501 Y110.895 E.02123
G1 X134.321 Y111.546 E.02118
G1 X134.048 Y112.162 E.02113
G1 X133.68 Y112.713 E.02077
G1 X133.247 Y113.244 E.02148
G1 X132.751 Y113.673 E.02056
G1 X131.962 Y114.148 E.02888
G1 X131.113 Y114.452 E.02827
G1 X130.725 Y114.52 E.01235
G1 X129.992 Y114.59 E.02309
G1 X119.777 Y114.584 E.32028
G1 X119.105 Y114.501 E.02123
G1 X118.454 Y114.321 E.02118
G1 X117.838 Y114.048 E.02113
G1 X117.287 Y113.68 E.02077
G1 X116.756 Y113.247 E.02148
G1 X116.327 Y112.751 E.02056
G1 X115.975 Y112.166 E.02141
G1 X115.68 Y111.549 E.02144
G1 X115.499 Y110.897 E.02122
G1 X115.41 Y109.988 E.02864
G1 X115.416 Y99.777 E.32016
G1 X115.499 Y99.105 E.02123
G1 X115.546 Y98.935 E.00553
M204 S1000
;WIPE_START
G1 F8640
G1 X115.562 Y98.878 E-.01367
G1 X115.679 Y98.454 E-.10156
G1 X115.952 Y97.838 E-.15558
G1 X116.453 Y97.089 E-.20807
G1 X117.089 Y96.453 E-.20768
G1 X117.498 Y96.179 E-.11344
;WIPE_END
G1 Z.6 F720
G1 X131.939 Y96.393 F10800
G1 Z.2 F720
M73 P3 R12
G1 E.8 F2100
M204 S800
;TYPE:Solid infill
;WIDTH:0.422091
G1 F1200
G1 X132.906 Y97.359 E.04309
G1 X133.373 Y97.99 E.02475
G1 X133.624 Y98.488 E.01758
G1 X133.679 Y98.669 E.00596
G1 X131.308 Y96.298 E.10572
G1 X130.767 Y96.148 E.0177
G1 X130.602 Y96.128 E.00524
G1 X133.866 Y99.392 E.14553
G1 X133.924 Y99.987 E.01885
G1 X130.013 Y96.075 E.1744
G1 X129.476 Y96.075 E.01693
G1 X133.93 Y100.528 E.19857
G1 X133.93 Y101.064 E.0169
G1 X128.94 Y96.075 E.22247
G1 X128.403 Y96.074 E.01693
G1 X133.929 Y101.6 E.24639
G1 X133.929 Y102.136 E.0169
G1 X127.867 Y96.074 E.27029
G1 X127.33 Y96.074 E.01693
G1 X133.929 Y102.672 E.29421
G1 X133.928 Y103.208 E.0169
G1 X126.794 Y96.073 E.31811
G1 X126.257 Y96.073 E.01693
G1 X133.928 Y103.744 E.34203
G1 X133.928 Y104.28 E.0169
G1 X125.721 Y96.073 E.36593
G1 X125.184 Y96.073 E.01693
G1 X133.927 Y104.816 E.38983
G1 X133.927 Y105.352 E.0169
G1 X124.648 Y96.072 E.41375
G1 X124.111 Y96.072 E.01693
G1 X133.927 Y105.887 E.43765
G1 X133.926 Y106.423 E.0169
G1 X123.575 Y96.072 E.46153
G1 X123.038 Y96.071 E.01693
M73 P4 R12
G1 X133.926 Y106.959 E.48547
G1 X133.926 Y107.495 E.0169
G1 X122.502 Y96.071 E.50937
G1 X121.965 Y96.071 E.01693
G1 X133.926 Y108.031 E.53329
G1 X133.925 Y108.567 E.0169
G1 X121.429 Y96.071 E.55717
G1 X120.892 Y96.07 E.01693
G1 X133.925 Y109.103 E.58111
G1 X133.925 Y109.639 E.0169
G1 X120.356 Y96.07 E.60501
G1 X119.84 Y96.091 E.01628
G1 X133.924 Y110.175 E.62797
G1 X133.866 Y110.653 E.01518
G1 X119.343 Y96.13 E.64755
G1 X118.911 Y96.234 E.01401
M73 P5 R12
G1 X133.764 Y111.087 E.66226
G1 X133.698 Y111.323 E.00773
G1 X133.626 Y111.485 E.00559
G1 X118.508 Y96.368 E.67405
G1 X118.145 Y96.541 E.01268
G1 X133.459 Y111.855 E.68281
G1 X133.245 Y112.176 E.01216
G1 X117.824 Y96.755 E.68759
G1 X117.503 Y96.971 E.0122
G1 X133.023 Y112.508 E.69238
G1 X132.775 Y112.779 E.01158
G1 X117.235 Y97.239 E.69289
G1 X116.967 Y97.508 E.01197
G1 X132.488 Y113.028 E.69202
G1 X132.362 Y113.137 E.00525
M73 P6 R12
G1 X132.174 Y113.25 E.00692
G1 X116.752 Y97.829 E.68761
G1 X116.537 Y98.15 E.01218
G1 X131.839 Y113.452 E.68228
G1 X131.678 Y113.549 E.00593
G1 X131.473 Y113.622 E.00686
G1 X116.371 Y98.52 E.67336
G1 X116.302 Y98.677 E.00541
M73 P6 R11
G1 X116.235 Y98.92 E.00795
G1 X131.078 Y113.764 E.66184
G1 X130.944 Y113.812 E.00449
G1 X130.643 Y113.864 E.00963
G1 X116.133 Y99.354 E.64697
G1 X116.076 Y99.833 E.01521
G1 X130.163 Y113.921 E.62813
G1 X129.636 Y113.93 E.01662
G1 X116.075 Y100.369 E.60465
G1 X116.075 Y100.905 E.0169
G1 X129.099 Y113.93 E.58073
G1 X128.563 Y113.929 E.0169
M73 P7 R11
G1 X116.075 Y101.441 E.55681
G1 X116.074 Y101.977 E.0169
G1 X128.026 Y113.929 E.53291
G1 X127.49 Y113.929 E.0169
G1 X116.074 Y102.513 E.50901
G1 X116.074 Y103.049 E.0169
G1 X126.953 Y113.928 E.48507
G1 X126.417 Y113.928 E.0169
G1 X116.074 Y103.585 E.46117
G1 X116.073 Y104.121 E.0169
G1 X125.88 Y113.928 E.43727
G1 X125.344 Y113.927 E.0169
G1 X116.073 Y104.657 E.41335
G1 X116.073 Y105.193 E.0169
G1 X124.807 Y113.927 E.38943
G1 X124.271 Y113.927 E.0169
G1 X116.072 Y105.729 E.36555
G1 X116.072 Y106.265 E.0169
M73 P8 R11
G1 X123.734 Y113.927 E.34163
G1 X123.198 Y113.926 E.0169
G1 X116.072 Y106.8 E.31773
G1 X116.071 Y107.336 E.0169
G1 X122.661 Y113.926 E.29383
G1 X122.124 Y113.926 E.01693
G1 X116.071 Y107.872 E.26991
G1 X116.071 Y108.408 E.0169
G1 X121.588 Y113.925 E.24599
G1 X121.051 Y113.925 E.01693
G1 X116.07 Y108.944 E.22209
G1 X116.07 Y109.48 E.0169
G1 X120.515 Y113.925 E.19819
G1 X119.978 Y113.924 E.01693
G1 X116.076 Y110.023 E.17396
G1 X116.135 Y110.617 E.01882
G1 X119.389 Y113.871 E.14509
G1 X119.234 Y113.852 E.00492
G1 X118.681 Y113.699 E.01809
G1 X116.301 Y111.319 E.10612
G1 X116.44 Y111.66 E.01161
G1 X116.863 Y112.362 E.02584
G1 X117.223 Y112.778 E.01734
G1 X118.036 Y113.591 E.03625
M204 S1000
M106 S84.15
;LAYER_CHANGE
;Z:0.4
;HEIGHT:0.2
;BEFORE_LAYER_CHANGE
G92 E0.0
;0.4


;WIPE_START
G1 F8640
G1 X117.223 Y112.778 E-.26548
G1 X116.863 Y112.362 E-.12703
G1 X116.44 Y111.66 E-.18925
G1 X116.301 Y111.319 E-.08503
G1 X116.709 Y111.727 E-.13321
;WIPE_END
G1 Z.4 F720
;AFTER_LAYER_CHANGE
;0.4
;CURRENT_Z: 0.4
M104 S210 ; set temperature
; stop printing object Cabel_Holder_simplified.stl id:0 copy 0
G1 Z.8
G1 X113.315 Y113.435 F10800
G1 Z.4 F720
G1 E.8 F2100
;TYPE:Skirt/Brim
;WIDTH:0.42
G1 F3000
G1 X112.899 Y112.608 E.02903
G1 X112.508 Y111.048 E.05043
G1 X112.434 Y110 E.03294
G1 X112.447 Y99.566 E.32715
G1 X112.743 Y97.864 E.05417
G1 X113.035 Y97.047 E.0272
G1 X113.479 Y96.165 E.03096
G1 X114.437 Y94.873 E.05043
G1 X115.544 Y93.886 E.0465
G1 X116.822 Y93.135 E.04648
G1 X118.223 Y92.647 E.04652
G1 X119.937 Y92.435 E.05415
G1 X130.063 Y92.435 E.31749
G1 X131.342 Y92.556 E.04028
G1 X132.489 Y92.856 E.03717
G1 X133.511 Y93.299 E.03492
G1 X134.557 Y93.961 E.03881
G1 X135.394 Y94.695 E.03491
G1 X136.255 Y95.745 E.04258
G1 X136.865 Y96.822 E.03881
G1 X137.257 Y97.864 E.03491
G1 X137.474 Y98.828 E.03098
G1 X137.565 Y99.937 E.03489
G1 X137.559 Y110.308 E.32518
G1 X137.474 Y111.172 E.02722
G1 X137.257 Y112.136 E.03098
G1 X136.965 Y112.953 E.0272
G1 X136.521 Y113.835 E.03096
G1 X135.563 Y115.127 E.05043
G1 X134.255 Y116.255 E.05416
G1 X132.837 Y117.013 E.05041
G1 X131.899 Y117.323 E.03097
G1 X131.048 Y117.492 E.0272
G1 X130 Y117.566 E.03294
G1 X119.566 Y117.553 E.32715
G1 X117.864 Y117.257 E.05417
G1 X117.047 Y116.965 E.0272
G1 X116.165 Y116.521 E.03096
G1 X115.443 Y116.039 E.02722
G1 X114.695 Y115.394 E.03097
G1 X113.675 Y114.15 E.05044
G1 X113.342 Y113.489 E.02321
G1 X113.667 Y113.315 F10800
G1 F3000
G1 X113.339 Y112.701 E.02183
G1 X113.041 Y111.799 E.02979
G1 X112.882 Y111.002 E.02548
G1 X112.811 Y110 E.0315
G1 X112.823 Y99.594 E.32627
G1 X113.106 Y97.965 E.05184
G1 X113.38 Y97.2 E.02548
G1 X113.807 Y96.351 E.0298
G1 X114.71 Y95.133 E.04754
G1 X115.761 Y94.195 E.04417
G1 X117.2 Y93.38 E.05185
G1 X118.545 Y92.961 E.04417
G1 X119.946 Y92.812 E.04418
G1 X130.054 Y92.812 E.31693
G1 X131.277 Y92.927 E.03852
G1 X132.371 Y93.214 E.03546
G1 X133.341 Y93.636 E.03317
G1 X134.325 Y94.259 E.03652
G1 X135.121 Y94.955 E.03315
G1 X135.947 Y95.962 E.04084
G1 X136.475 Y96.878 E.03315
G1 X136.894 Y97.965 E.03653
G1 X137.102 Y98.892 E.02979
G1 X137.188 Y99.946 E.03316
G1 X137.182 Y110.299 E.32461
G1 X137.102 Y111.108 E.02549
G1 X136.894 Y112.035 E.02979
G1 X136.62 Y112.8 E.02548
G1 X136.193 Y113.649 E.0298
G1 X135.741 Y114.325 E.0255
G1 X135.121 Y115.045 E.02979
M73 P9 R11
G1 X133.949 Y116.006 E.04752
G1 X132.472 Y116.75 E.05185
G1 X131.002 Y117.118 E.04751
G1 X130 Y117.189 E.0315
G1 X119.594 Y117.177 E.32627
G1 X117.965 Y116.894 E.05184
G1 X117.2 Y116.62 E.02548
G1 X116.351 Y116.193 E.0298
G1 X115.133 Y115.29 E.04754
G1 X114.053 Y114.038 E.05184
G1 X113.695 Y113.368 E.02382
;WIPE_START
G1 F8640
G1 X113.667 Y113.315 E-.01384
G1 X113.339 Y112.701 E-.16074
G1 X113.041 Y111.799 E-.21935
G1 X112.882 Y111.002 E-.18766
G1 X112.816 Y110.058 E-.21841
;WIPE_END
G1 Z.8 F720
; printing object Cabel_Holder_simplified.stl id:0 copy 0
G1 X115.771 Y98.957 F10800
G1 Z.4 F720
G1 E.8 F2100
M204 S800
;TYPE:Perimeter
;WIDTH:0.449999
G1 F3000
G1 X115.889 Y98.529 E.01503
G1 X116.146 Y97.948 E.0215
G1 X116.626 Y97.231 E.02921
G1 X117.237 Y96.619 E.02927
G1 X117.536 Y96.407 E.01241
G1 X118.122 Y96.058 E.02309
G1 X118.745 Y95.835 E.0224
G1 X119.352 Y95.682 E.02119
G1 X120.023 Y95.632 E.02278
G1 X130.136 Y95.636 E.34231
G1 X130.854 Y95.718 E.02446
G1 X131.471 Y95.889 E.02167
G1 X132.052 Y96.146 E.0215
G1 X132.775 Y96.63 E.02945
G1 X133.23 Y97.063 E.02126
G1 X133.748 Y97.762 E.02945
G1 X134.031 Y98.323 E.02127
G1 X134.281 Y99.148 E.02918
G1 X134.368 Y100.259 E.03772
G1 X134.362 Y109.935 E.32752
G1 X134.307 Y110.655 E.02444
G1 X134.181 Y111.26 E.02092
G1 X133.947 Y111.867 E.02202
G1 X133.634 Y112.419 E.02148
G1 X133.082 Y113.092 E.02946
G1 X132.606 Y113.502 E.02126
G1 X131.866 Y113.946 E.02921
G1 X131.054 Y114.237 E.0292
G1 X130.684 Y114.301 E.01271
G1 X129.985 Y114.368 E.02377
G1 X119.794 Y114.362 E.34495
G1 X119.148 Y114.282 E.02203
G1 X118.529 Y114.111 E.02174
G1 X117.948 Y113.854 E.0215
G1 X117.231 Y113.374 E.02921
G1 X116.621 Y112.764 E.0292
G1 X116.259 Y112.251 E.02125
G1 X115.886 Y111.462 E.02954
G1 X115.795 Y111.141 E.01129
G1 X115.689 Y110.649 E.01704
G1 X115.632 Y109.985 E.02256
G1 X115.638 Y99.794 E.34495
G1 X115.718 Y99.148 E.02203
G1 X115.755 Y99.015 E.00467
M204 S1000
G1 X115.755 Y99.015 F10800
G1 X115.378 Y98.848
M204 S800
;TYPE:External perimeter
G1 F2400
G1 X115.505 Y98.392 E.01602
G1 X115.788 Y97.751 E.02372
G1 X116.31 Y96.971 E.03177
G1 X116.973 Y96.308 E.03174
G1 X117.487 Y95.942 E.02136
G1 X117.955 Y95.686 E.01806
G1 X118.608 Y95.452 E.02348
G1 X119.297 Y95.277 E.02406
G1 X120.008 Y95.225 E.02413
G1 X130.159 Y95.229 E.3436
G1 X130.932 Y95.318 E.02634
G1 X131.608 Y95.505 E.02374
G1 X132.249 Y95.788 E.02372
