; generated by PrusaSlicer 2.6.0-alpha6+linux-x64-GTK3 on 2023-05-08 at 03:34:01 UTC

; 

; external perimeters extrusion width = 0.45mm
; perimeters extrusion width = 0.45mm
; infill extrusion width = 0.45mm
; solid infill extrusion width = 0.45mm
; top infill extrusion width = 0.40mm
; first layer extrusion width = 0.42mm

M73 P0 R12
M201 X9000 Y9000 Z500 E10000 ; sets maximum accelerations, mm/sec^2
M203 X500 Y500 Z12 E120 ; sets maximum feedrates, mm / sec
M204 S2000 T1500 ; sets acceleration (S) and retract acceleration (R), mm/sec^2
M205 X10.00 Y10.00 Z0.20 E4.50 ; sets the jerk limits, mm/sec
M205 S0 T0 ; sets the minimum extruding and travel feed rate, mm/sec
;TYPE:Custom
M862.3 P "MK2.5" ; printer model check
M862.1 P0.4 ; nozzle diameter check
M115 U3.11.0 ; tell printer latest fw version
G90 ; use absolute coordinates
M83 ; extruder relative mode
M104 S215 ; set extruder temp
M140 S60 ; set bed temp
M190 S60 ; wait for bed temp
M109 S215 ; wait for extruder temp
G28 W ; home all without mesh bed level
G80 ; mesh bed leveling

G1 Z0.2 F720
G1 Y-3 F1000 ; go outside print area
G92 E0
G1 X60 E9 F1000 ; intro line
G1 X100 E12.5 F1000 ; intro line

G92 E0
G21 ; set units to millimeters
G90 ; use absolute coordinates
M83 ; use relative distances for extrusion
M900 K0.05 ; Filament gcode LA 1.5
M900 K30 ; Filament gcode LA 1.0
M107
;LAYER_CHANGE
;Z:0.2
;HEIGHT:0.2
;BEFORE_LAYER_CHANGE
G92 E0.0
;0.2


G1 E-.8 F2100
G1 Z.4 F720
;AFTER_LAYER_CHANGE
;0.2
;CURRENT_Z: 0.2
G1 X113.97 Y95.289 F10800
G1 Z.2 F720
G1 E.8 F2100
M204 S800
;TYPE:Skirt/Brim
;WIDTH:0.42
G1 F1200
G1 X115.625 Y93.714 E.07163
G1 X116.96 Y92.914 E.0488
G1 X118.303 Y92.448 E.04457
G1 X119.932 Y92.247 E.05146
G1 X130.068 Y92.247 E.31781
G1 X131.349 Y92.373 E.04036
M73 P1 R12
G1 X132.658 Y92.732 E.04256
G1 X133.757 Y93.219 E.03769
G1 X134.653 Y93.799 E.03347
G1 X135.454 Y94.503 E.03344
G1 X136.271 Y95.498 E.04037
G1 X136.806 Y96.422 E.03348
G1 X137.412 Y97.858 E.04887
G1 X137.599 Y98.569 E.02305
G1 X137.754 Y100 E.04513
G1 X137.748 Y110.288 E.32257
G1 X137.52 Y111.828 E.04881
G1 X136.964 Y113.282 E.04881
G1 X136.387 Y114.276 E.03604
G1 X136.02 Y114.72 E.01806
G1 X134.634 Y116.08 E.06088
G1 X134.11 Y116.493 E.02092
G1 X132.863 Y117.175 E.04456
G1 X130.66 Y117.698 E.07099
G1 X130 Y117.754 E.02077
G1 X119.81 Y117.75 E.3195
G1 X117.65 Y117.344 E.06891
G1 X116.497 Y116.864 E.03916
G1 X115.155 Y115.919 E.05146
G1 X113.504 Y114.101 E.077
G1 X112.773 Y112.713 E.04919
G1 X112.335 Y111.131 E.05147
G1 X112.246 Y110 E.03557
G1 X112.246 Y100 E.31354
G1 X112.469 Y98.29 E.05407
G1 X112.704 Y97.516 E.02536
G1 X113.387 Y96.098 E.04935
G1 X113.935 Y95.338 E.02938
M204 S1000
G1 X114.236 Y95.557 F10800
M204 S800
G1 F1200
G1 X115.951 Y93.942 E.07386
G1 X117.315 Y93.169 E.04916
G1 X118.601 Y92.767 E.04225
G1 X119.942 Y92.624 E.04228
G1 X130.058 Y92.624 E.31718
G1 X131.284 Y92.744 E.03862
G1 X132.539 Y93.09 E.04082
G1 X133.571 Y93.547 E.03539
G1 X134.421 Y94.096 E.03173
G1 X135.181 Y94.763 E.0317
G1 X135.963 Y95.715 E.03863
G1 X136.469 Y96.592 E.03175
G1 X137.063 Y98.002 E.04797
G1 X137.224 Y98.616 E.0199
G1 X137.377 Y100 E.04366
G1 X137.371 Y110.279 E.32229
G1 X137.156 Y111.727 E.0459
G1 X136.636 Y113.096 E.04592
G1 X136.075 Y114.064 E.03508
G1 X135.756 Y114.451 E.01573
G1 X134.37 Y115.811 E.06088
G1 X133.893 Y116.184 E.01899
G1 X132.71 Y116.83 E.04226
G1 X130.586 Y117.328 E.0684
G1 X119.819 Y117.373 E.33759
G1 X117.733 Y116.976 E.06658
G1 X116.682 Y116.536 E.03572
G1 X115.401 Y115.634 E.04912
G1 X113.815 Y113.889 E.07394
G1 X113.045 Y112.371 E.05337
G1 X112.689 Y110.951 E.0459
M73 P2 R12
G1 X112.623 Y110 E.02989
G1 X112.623 Y100 E.31354
G1 X112.842 Y98.345 E.05234
G1 X113.045 Y97.677 E.02189
G1 X113.712 Y96.29 E.04826
G1 X114.201 Y95.606 E.02636
M204 S1000
; printing object Cabel_Holder_simplified_3dless_com_simplified.stl id:0 copy 0
;WIPE_START
G1 F8640
G1 X115.951 Y93.942 E-.55759
G1 X116.864 Y93.424 E-.24241
;WIPE_END
G1 Z.6 F720
G1 X116.392 Y112.032 F10800
G1 Z.2 F720
G1 E.8 F2100
M204 S800
;TYPE:Perimeter
;WIDTH:0.419999
G1 F1200
G1 X116.071 Y111.417 E.02175
G1 X115.861 Y110.724 E.0227
G1 X115.787 Y109.969 E.02379
G1 X115.787 Y100.058 E.31075
G1 X115.955 Y98.925 E.03591
G1 X116.453 Y97.872 E.03652
G1 X116.825 Y97.547 E.01549
G1 X117.668 Y96.616 E.03938
G1 X118.431 Y96.141 E.02818
G1 X118.939 Y95.953 E.01698
G1 X119.448 Y95.829 E.01643
G1 X120.024 Y95.787 E.01811
G1 X130.175 Y95.792 E.31828
G1 X130.722 Y95.86 E.01728
G1 X131.526 Y96.089 E.02621
G1 X132.021 Y96.308 E.01697
G1 X132.637 Y96.72 E.02324
G1 X133.023 Y97.087 E.0167
G1 X133.464 Y97.682 E.02322
G1 X133.706 Y98.164 E.01691
G1 X133.872 Y98.669 E.01667
G1 X134.102 Y99.148 E.01666
G1 X134.213 Y100.048 E.02843
G1 X134.208 Y109.954 E.3106
G1 X134.17 Y110.479 E.0165
G1 X134.038 Y111.094 E.01972
G1 X133.861 Y111.575 E.01607
G1 X133.492 Y112.221 E.02333
G1 X133.21 Y112.443 E.01125
G1 X132.199 Y113.504 E.04595
G1 X131.958 Y113.656 E.00893
G1 X131.5 Y113.903 E.01632
G1 X129.945 Y114.213 E.04972
G1 X120.055 Y114.213 E.31009
G1 X118.514 Y113.906 E.04927
G1 X117.908 Y113.581 E.02156
G1 X117.509 Y113.27 E.01586
G1 X116.708 Y112.294 E.03959
G1 X116.439 Y112.07 E.01098
M204 S1000
G1 X116.096 Y112.28 F10800
M204 S800
;TYPE:External perimeter
G1 F1200
G1 X115.72 Y111.56 E.02547
G1 X115.49 Y110.798 E.02496
G1 X115.41 Y109.988 E.02552
G1 X115.41 Y100.03 E.31223
G1 X115.59 Y98.814 E.03854
G1 X116.221 Y97.526 E.04497
G1 X116.545 Y97.294 E.01249
G1 X117.42 Y96.328 E.04087
G1 X117.806 Y96.071 E.01454
G1 X118.27 Y95.8 E.01685
G1 X118.821 Y95.594 E.01844
G1 X119.397 Y95.455 E.01858
G1 X120.01 Y95.41 E.01927
G1 X130.198 Y95.415 E.31944
G1 X130.797 Y95.489 E.01892
G1 X131.655 Y95.734 E.02798
G1 X132.204 Y95.977 E.01882
G1 X132.874 Y96.425 E.02527
G1 X133.306 Y96.837 E.01872
G1 X133.786 Y97.484 E.02526
G1 X134.056 Y98.019 E.01879
G1 X134.23 Y98.551 E.01755
G1 X134.468 Y99.033 E.01685
G1 X134.59 Y100.025 E.03134
G1 X134.585 Y109.954 E.31132
G1 X134.544 Y110.525 E.01795
M73 P2 R11
G1 X134.401 Y111.195 E.02148
G1 X134.2 Y111.741 E.01824
G1 X133.781 Y112.476 E.02653
G1 X133.482 Y112.703 E.01177
G1 X132.44 Y113.798 E.04739
G1 X132.159 Y113.975 E.01041
G1 X131.619 Y114.264 E.0192
G1 X129.982 Y114.59 E.05233
G1 X120.018 Y114.59 E.31241
M73 P3 R11
G1 X118.385 Y114.265 E.05221
G1 X117.702 Y113.898 E.02431
G1 X117.245 Y113.542 E.01816
G1 X116.417 Y112.533 E.04092
G1 X116.144 Y112.317 E.01091
M204 S1000
G1 X116.281 Y111.925 F10800
;WIPE_START
G1 F8640
G1 X115.72 Y111.56 E-.20034
G1 X115.49 Y110.798 E-.18379
G1 X115.41 Y109.988 E-.18794
G1 X115.41 Y109.001 E-.22793
;WIPE_END
G1 Z.6 F720
G1 X131.917 Y96.386 F10800
G1 Z.2 F720
G1 E.8 F2100
M204 S800
;TYPE:Solid infill
;WIDTH:0.426084
G1 F1200
G1 X132.821 Y97.29 E.04073
G1 X133.222 Y97.831 E.02146
G1 X133.444 Y98.272 E.01573
G1 X133.535 Y98.546 E.0092
G1 X131.311 Y96.322 E.10021
G1 X130.665 Y96.138 E.0214
G1 X130.574 Y96.126 E.00292
G1 X133.848 Y99.401 E.14754
G1 X133.924 Y100.019 E.01984
G1 X129.98 Y96.075 E.17771
G1 X129.438 Y96.075 E.01727
G1 X133.93 Y100.566 E.20237
G1 X133.93 Y101.108 E.01727
G1 X128.896 Y96.074 E.22682
G1 X128.354 Y96.074 E.01727
G1 X133.929 Y101.65 E.25122
G1 X133.929 Y102.191 E.01724
G1 X127.812 Y96.074 E.27561
G1 X127.27 Y96.074 E.01727
G1 X133.929 Y102.733 E.30004
G1 X133.928 Y103.274 E.01724
G1 X126.727 Y96.073 E.32446
G1 X126.185 Y96.073 E.01727
G1 X133.928 Y103.816 E.34888
G1 X133.928 Y104.358 E.01727
G1 X125.643 Y96.073 E.3733
G1 X125.101 Y96.073 E.01727
G1 X133.928 Y104.899 E.3977
G1 X133.927 Y105.441 E.01727
G1 X124.559 Y96.072 E.42212
G1 X124.017 Y96.072 E.01727
M73 P4 R11
G1 X133.927 Y105.982 E.44652
G1 X133.927 Y106.524 E.01727
G1 X123.474 Y96.072 E.47096
G1 X122.932 Y96.071 E.01727
G1 X133.926 Y107.066 E.49538
G1 X133.926 Y107.607 E.01724
G1 X122.39 Y96.071 E.51978
G1 X121.848 Y96.071 E.01727
G1 X133.926 Y108.149 E.5442
G1 X133.926 Y108.69 E.01724
G1 X121.306 Y96.071 E.5686
G1 X120.764 Y96.07 E.01727
G1 X133.925 Y109.232 E.59302
G1 X133.925 Y109.774 E.01727
G1 X120.222 Y96.07 E.61744
G1 X119.707 Y96.097 E.01643
G1 X133.908 Y110.298 E.63986
G1 X133.835 Y110.767 E.01512
M73 P5 R11
G1 X119.229 Y96.161 E.6581
G1 X118.817 Y96.291 E.01376
G1 X133.715 Y111.189 E.67126
G1 X133.544 Y111.56 E.01302
G1 X118.435 Y96.451 E.68077
G1 X118.106 Y96.664 E.01249
G1 X133.347 Y111.905 E.68672
G1 X133.275 Y112.031 E.00462
G1 X133.083 Y112.182 E.00778
G1 X117.796 Y96.896 E.68877
G1 X117.539 Y97.18 E.0122
G1 X132.81 Y112.452 E.68809
G1 X132.546 Y112.73 E.01221
G1 X117.281 Y97.464 E.68782
G1 X117.023 Y97.748 E.01222
M73 P6 R11
G1 X132.282 Y113.007 E.68753
G1 X132.018 Y113.284 E.01219
G1 X116.718 Y97.985 E.68935
G1 X116.542 Y98.351 E.01294
G1 X131.685 Y113.494 E.6823
G1 X131.41 Y113.633 E.00982
G1 X131.303 Y113.654 E.00347
G1 X116.367 Y98.718 E.67297
G1 X116.229 Y99.008 E.01023
G1 X116.214 Y99.107 E.00319
G1 X130.851 Y113.744 E.6595
G1 X130.399 Y113.834 E.01468
G1 X116.144 Y99.579 E.64229
G1 X116.074 Y100.051 E.0152
M73 P7 R11
G1 X129.947 Y113.924 E.62508
G1 X129.412 Y113.93 E.01705
G1 X116.07 Y100.588 E.60115
G1 X116.07 Y101.13 E.01727
G1 X128.87 Y113.93 E.57673
G1 X128.328 Y113.93 E.01727
G1 X116.07 Y101.672 E.55231
G1 X116.07 Y102.214 E.01727
G1 X127.786 Y113.93 E.52789
G1 X127.244 Y113.93 E.01727
G1 X116.07 Y102.756 E.50347
G1 X116.07 Y103.298 E.01727
G1 X126.702 Y113.93 E.47905
G1 X126.16 Y113.93 E.01727
G1 X116.07 Y103.84 E.45463
G1 X116.07 Y104.382 E.01727
G1 X125.618 Y113.93 E.43021
G1 X125.077 Y113.93 E.01724
M73 P8 R11
G1 X116.07 Y104.923 E.40583
G1 X116.07 Y105.465 E.01727
G1 X124.535 Y113.93 E.38141
G1 X123.993 Y113.93 E.01727
G1 X116.07 Y106.007 E.35699
G1 X116.07 Y106.549 E.01727
G1 X123.451 Y113.93 E.33257
G1 X122.909 Y113.93 E.01727
G1 X116.07 Y107.091 E.30815
G1 X116.07 Y107.633 E.01727
G1 X122.367 Y113.93 E.28372
G1 X121.825 Y113.93 E.01727
G1 X116.07 Y108.175 E.2593
G1 X116.07 Y108.717 E.01727
G1 X121.283 Y113.93 E.23488
G1 X120.742 Y113.93 E.01724
G1 X116.07 Y109.258 E.21051
G1 X116.07 Y109.8 E.01727
G1 X120.2 Y113.93 E.18609
G1 X120.083 Y113.93 E.00373
G1 X119.552 Y113.824 E.01725
G1 X116.112 Y110.384 E.155
G1 X116.14 Y110.668 E.00909
G1 X116.264 Y111.078 E.01365
G1 X118.876 Y113.69 E.11769
G1 X118.611 Y113.637 E.00861
G1 X118.063 Y113.343 E.01981
G1 X117.72 Y113.076 E.01385
G1 X116.349 Y111.705 E.06177
M204 S1000
; stop printing object Cabel_Holder_simplified_3dless_com_simplified.stl id:0 copy 0
M106 S84.15
;LAYER_CHANGE
;Z:0.4
;HEIGHT:0.2
;BEFORE_LAYER_CHANGE
G92 E0.0
;0.4


;WIPE_START
G1 F8640
G1 X117.72 Y113.076 E-.44769
G1 X118.063 Y113.343 E-.10037
G1 X118.611 Y113.637 E-.14359
G1 X118.876 Y113.69 E-.0624
G1 X118.735 Y113.549 E-.04595
;WIPE_END
G1 Z.6 F720
;AFTER_LAYER_CHANGE
;0.4
;CURRENT_Z: 0.4
M104 S210 ; set temperature
G1 X117.23 Y117.169 F10800
G1 Z.4 F720
G1 E.8 F2100
;TYPE:Skirt/Brim
;WIDTH:0.42
G1 F3000
G1 X116.497 Y116.864 E.02489
G1 X115.155 Y115.919 E.05146
G1 X113.504 Y114.101 E.077
G1 X112.773 Y112.713 E.04919
G1 X112.335 Y111.131 E.05147
G1 X112.246 Y110 E.03557
G1 X112.246 Y100 E.31354
G1 X112.469 Y98.29 E.05407
G1 X112.704 Y97.516 E.02536
G1 X113.387 Y96.098 E.04935
G1 X113.97 Y95.289 E.03127
G1 X115.625 Y93.714 E.07163
G1 X116.96 Y92.914 E.0488
G1 X118.303 Y92.448 E.04457
G1 X119.932 Y92.247 E.05146
G1 X130.068 Y92.247 E.31781
G1 X131.349 Y92.373 E.04036
G1 X132.658 Y92.732 E.04256
G1 X133.757 Y93.219 E.03769
G1 X134.653 Y93.799 E.03347
G1 X135.454 Y94.503 E.03344
G1 X136.271 Y95.498 E.04037
G1 X136.806 Y96.422 E.03348
M73 P9 R11
G1 X137.412 Y97.858 E.04887
G1 X137.599 Y98.569 E.02305
G1 X137.754 Y100 E.04513
G1 X137.748 Y110.288 E.32257
G1 X137.52 Y111.828 E.04881
G1 X136.964 Y113.282 E.04881
G1 X136.387 Y114.276 E.03604
G1 X136.02 Y114.72 E.01806
G1 X134.634 Y116.08 E.06088
G1 X134.11 Y116.493 E.02092
G1 X132.863 Y117.175 E.04456
G1 X130.66 Y117.698 E.07099
G1 X130 Y117.754 E.02077
G1 X119.81 Y117.75 E.3195
G1 X117.65 Y117.344 E.06891
G1 X117.285 Y117.192 E.0124
G1 X117.429 Y116.849 F10800
G1 F3000
G1 X116.682 Y116.536 E.02539
G1 X115.401 Y115.634 E.04912
G1 X113.815 Y113.889 E.07394
G1 X113.045 Y112.371 E.05337
G1 X112.689 Y110.951 E.0459
G1 X112.623 Y110 E.02989
G1 X112.623 Y100 E.31354
G1 X112.842 Y98.345 E.05234
G1 X113.045 Y97.677 E.02189
G1 X113.712 Y96.29 E.04826
G1 X114.236 Y95.557 E.02825
G1 X115.951 Y93.942 E.07386
G1 X117.315 Y93.169 E.04916
G1 X118.601 Y92.767 E.04225
G1 X119.942 Y92.624 E.04228
G1 X130.058 Y92.624 E.31718
G1 X131.284 Y92.744 E.03862
G1 X132.539 Y93.09 E.04082
G1 X133.571 Y93.547 E.03539
G1 X134.421 Y94.096 E.03173
G1 X135.181 Y94.763 E.0317
G1 X135.963 Y95.715 E.03863
G1 X136.469 Y96.592 E.03175
G1 X137.063 Y98.002 E.04797
G1 X137.224 Y98.616 E.0199
G1 X137.377 Y100 E.04366
G1 X137.371 Y110.279 E.32229
G1 X137.156 Y111.727 E.0459
G1 X136.636 Y113.096 E.04592
G1 X136.075 Y114.064 E.03508
G1 X135.756 Y114.451 E.01573
G1 X134.37 Y115.811 E.06088
G1 X133.893 Y116.184 E.01899
G1 X132.71 Y116.83 E.04226
G1 X130.586 Y117.328 E.0684
G1 X119.819 Y117.373 E.33759
G1 X117.733 Y116.976 E.06658
G1 X117.484 Y116.872 E.00846
; printing object Cabel_Holder_simplified_3dless_com_simplified.stl id:0 copy 0
;WIPE_START
G1 F8640
G1 X116.682 Y116.536 E-.20078
G1 X115.401 Y115.634 E-.36176
G1 X114.709 Y114.873 E-.23746
;WIPE_END
G1 Z.8 F720
G1 X116.405 Y112.094 F10800
G1 Z.4 F720
G1 E.8 F2100
M204 S800
;TYPE:Perimeter
;WIDTH:0.449999
G1 F3000
G1 X116.105 Y111.584 E.02003
G1 X115.852 Y111.097 E.01858
G1 X115.684 Y110.489 E.02135
G1 X115.632 Y109.984 E.01718
G1 X115.632 Y100.047 E.33636
G1 X115.762 Y99.169 E.03004
G1 X116.149 Y98.352 E.0306
G1 X116.515 Y97.733 E.02434
G1 X117.557 Y96.982 E.04348
G1 X118.196 Y96.276 E.03223
G1 X118.465 Y96.097 E.01094
G1 X118.896 Y95.854 E.01675
G1 X119.441 Y95.691 E.01925
G1 X120.023 Y95.632 E.0198
G1 X130.126 Y95.636 E.34197
G1 X130.711 Y95.723 E.02002
G1 X131.785 Y96.049 E.03799
G1 X132.306 Y96.295 E.0195
G1 X132.763 Y96.634 E.01926
G1 X133.175 Y97.113 E.02139
G1 X133.481 Y97.656 E.0211
G1 X133.67 Y98.199 E.01946
G1 X134.282 Y99.344 E.04395
G1 X134.368 Y100.039 E.0237
G1 X134.364 Y109.957 E.33571
G1 X134.312 Y110.552 E.02022
G1 X134.118 Y111.168 E.02186
G1 X133.484 Y112.277 E.04324
G1 X132.527 Y113.006 E.04072
G1 X131.749 Y113.823 E.03819
G1 X131.205 Y114.129 E.02113
G1 X130.011 Y114.366 E.0412
G1 X119.989 Y114.366 E.33923
G1 X118.795 Y114.129 E.0412
G1 X118.459 Y113.96 E.01273
G1 X118.015 Y113.631 E.01871
G1 X117.314 Y112.8 E.0368
G1 X116.452 Y112.131 E.03693
M204 S1000
G1 X116.08 Y112.344 F10800
M204 S800
;TYPE:External perimeter
G1 F2400
G1 X115.597 Y111.495 E.03306
G1 X115.399 Y111.024 E.01729
G1 X115.277 Y110.528 E.01729
G1 X115.225 Y109.994 E.01816
G1 X115.225 Y100.017 E.33771
G1 X115.368 Y99.05 E.03309
G1 X115.789 Y98.161 E.0333
G1 X116.209 Y97.451 E.02792
G1 X117.255 Y96.708 E.04343
G1 X117.928 Y95.966 E.03391
G1 X118.461 Y95.61 E.0217
G1 X118.88 Y95.431 E.01542
G1 X119.362 Y95.292 E.01698
G1 X120.008 Y95.225 E.02198
G1 X130.156 Y95.229 E.3435
G1 X130.801 Y95.325 E.02207
G1 X131.932 Y95.668 E.04
G1 X132.517 Y95.945 E.02191
G1 X133.034 Y96.328 E.02178
G1 X133.507 Y96.878 E.02455
G1 X133.859 Y97.5 E.02419
G1 X134.029 Y98.007 E.0181
G1 X134.677 Y99.219 E.04652
G1 X134.775 Y100.014 E.02711
G1 X134.771 Y109.758 E.32982
G1 X134.746 Y110.357 E.02029
G1 X134.63 Y110.906 E.01899
G1 X134.463 Y111.394 E.01746
G1 X133.84 Y112.477 E.04229
G1 X133.729 Y112.603 E.00568
G1 X132.822 Y113.286 E.03843
G1 X132.195 Y113.945 E.03079
G1 X131.85 Y114.245 E.01548
G1 X131.339 Y114.517 E.01959
G1 X130.051 Y114.773 E.04445
G1 X119.949 Y114.773 E.34194
G1 X118.661 Y114.517 E.04445
G1 X118.245 Y114.308 E.01576
G1 X117.733 Y113.928 E.02158
G1 X117.064 Y113.121 E.03548
G1 X116.12 Y112.388 E.04045
M204 S1000
G1 X116.248 Y111.981 F10800
;WIPE_START
G1 F8640
G1 X115.597 Y111.495 E-.23896
G1 X115.399 Y111.024 E-.11797
G1 X115.277 Y110.528 E-.11794
G1 X115.225 Y109.994 E-.12389
G1 X115.225 Y109.122 E-.20124
;WIPE_END
G1 Z.8 F720
G1 X130.63 Y114.119 F10800
G1 Z.4 F720
G1 E.8 F2100
M204 S2000
;TYPE:Solid infill
;WIDTH:0.451739
G1 F3000
G1 X133.904 Y110.844 E.15742
G1 X134.012 Y110.488 E.01265
