; generated by PrusaSlicer 2.8.0 on 2024-09-21 at 14:29:10 UTC

; 

; external perimeters extrusion width = 0.45mm
; perimeters extrusion width = 0.45mm
; infill extrusion width = 0.45mm
; solid infill extrusion width = 0.45mm
; top infill extrusion width = 0.40mm
; first layer extrusion width = 0.42mm

M73 P0 R12
M201 X9000 Y9000 Z500 E10000 ; sets maximum accelerations, mm/sec^2
M203 X500 Y500 Z12 E120 ; sets maximum feedrates, mm / sec
M204 S2000 T1500 ; sets acceleration (S) and retract acceleration (R), mm/sec^2
M205 X10.00 Y10.00 Z0.20 E4.50 ; sets the jerk limits, mm/sec
M205 S0 T0 ; sets the minimum extruding and travel feed rate, mm/sec

; printing object Cabel_Holder.stl id:0 copy 0
; stop printing object Cabel_Holder.stl id:0 copy 0

;TYPE:Custom
M862.3 P "MK2.5" ; printer model check
M862.1 P0.4 ; nozzle diameter check
M115 U3.11.0 ; tell printer latest fw version
G90 ; use absolute coordinates
M83 ; extruder relative mode
M104 S215 ; set extruder temp
M140 S60 ; set bed temp
M190 S60 ; wait for bed temp
M109 S215 ; wait for extruder temp
G28 W ; home all without mesh bed level
G80 ; mesh bed leveling

G1 Z0.2 F720
G1 Y-3 F1000 ; go outside print area
G92 E0
G1 X60 E9 F1000 ; intro line
G1 X100 E12.5 F1000 ; intro line

G92 E0
G21 ; set units to millimeters
G90 ; use absolute coordinates
M83 ; use relative distances for extrusion
M900 K0.05 ; Filament gcode LA 1.5
M900 K30 ; Filament gcode LA 1.0
M107
;LAYER_CHANGE
;Z:0.2
;HEIGHT:0.2
G1 E-.8 F2100
G1 Z.6 F720
G1 X114.353 Y94.966 F10800
G1 Z.2 F720
G1 E.8 F2100
M204 S800
;TYPE:Skirt/Brim
;WIDTH:0.42
G1 F1200
G1 X115.443 Y93.961 E.04649
G1 X116.709 Y93.188 E.04651
G1 X118.223 Y92.647 E.05041
G1 X119.937 Y92.435 E.05415
G1 X130.063 Y92.435 E.31749
G1 X131.39 Y92.564 E.0418
M73 P1 R12
G1 X132.489 Y92.856 E.03565
G1 X133.511 Y93.299 E.03492
G1 X134.557 Y93.961 E.03881
G1 X135.394 Y94.695 E.03491
G1 X136.255 Y95.745 E.04258
G1 X136.812 Y96.709 E.03491
G1 X137.257 Y97.864 E.03881
G1 X137.474 Y98.828 E.03098
G1 X137.565 Y99.937 E.03489
G1 X137.559 Y110.308 E.32518
G1 X137.474 Y111.172 E.02722
G1 X137.257 Y112.136 E.03098
G1 X136.965 Y112.953 E.0272
G1 X136.521 Y113.835 E.03096
G1 X135.563 Y115.127 E.05043
G1 X134.255 Y116.255 E.05416
G1 X133.511 Y116.701 E.0272
G1 X132.608 Y117.101 E.03097
G1 X131.048 Y117.492 E.05043
G1 X130 Y117.566 E.03294
G1 X119.566 Y117.553 E.32715
G1 X117.864 Y117.257 E.05417
G1 X117.047 Y116.965 E.0272
G1 X116.165 Y116.521 E.03096
G1 X114.873 Y115.563 E.05043
G1 X113.745 Y114.255 E.05416
G1 X113.299 Y113.511 E.0272
G1 X112.943 Y112.722 E.02714
G1 X112.677 Y111.899 E.02712
G1 X112.508 Y111.048 E.0272
G1 X112.434 Y110 E.03294
G1 X112.447 Y99.566 E.32715
G1 X112.568 Y98.586 E.03096
G1 X112.779 Y97.744 E.02722
G1 X113.479 Y96.165 E.05416
G1 X114.317 Y95.015 E.04462
M204 S1000
G1 X114.317 Y95.015 F10800
G1 X114.621 Y95.236
M204 S800
G1 F1200
G1 X114.638 Y95.213 E.0009
G1 X115.761 Y94.195 E.04752
G1 X117.177 Y93.39 E.05107
G1 X118.545 Y92.961 E.04495
G1 X119.946 Y92.812 E.04418
G1 X130.054 Y92.812 E.31693
G1 X131.326 Y92.936 E.04007
G1 X132.371 Y93.214 E.0339
G1 X133.341 Y93.636 E.03317
G1 X134.325 Y94.259 E.03652
G1 X135.121 Y94.955 E.03315
G1 X135.947 Y95.962 E.04084
G1 X136.475 Y96.878 E.03315
G1 X136.894 Y97.965 E.03653
G1 X137.102 Y98.892 E.02979
G1 X137.188 Y99.946 E.03316
G1 X137.182 Y110.299 E.32461
G1 X137.102 Y111.108 E.02549
G1 X136.894 Y112.035 E.02979
G1 X136.62 Y112.8 E.02548
G1 X136.193 Y113.649 E.0298
G1 X135.29 Y114.867 E.04754
G1 X134.038 Y115.947 E.05184
G1 X132.701 Y116.661 E.04752
G1 X131.799 Y116.959 E.02979
G1 X131.002 Y117.118 E.02548
G1 X130 Y117.189 E.0315
G1 X119.594 Y117.177 E.32627
G1 X117.965 Y116.894 E.05184
G1 X117.2 Y116.62 E.02548
G1 X116.351 Y116.193 E.0298
G1 X115.133 Y115.29 E.04754
G1 X114.053 Y114.038 E.05184
G1 X113.277 Y112.541 E.05287
G1 X112.882 Y111.002 E.04982
G1 X112.811 Y110 E.0315
G1 X112.823 Y99.594 E.32627
G1 X113.106 Y97.965 E.05184
M73 P2 R12
G1 X113.38 Y97.2 E.02548
G1 X113.807 Y96.351 E.0298
G1 X114.585 Y95.285 E.04138
M204 S1000
;WIPE_START
G1 F8640
G1 X114.621 Y95.236 E-.01404
G1 X114.638 Y95.213 E-.0066
G1 X115.761 Y94.195 E-.34999
G1 X117.177 Y93.39 E-.3761
G1 X117.397 Y93.321 E-.05327
;WIPE_END
G1 Z.6 F720
; printing object Cabel_Holder.stl id:0 copy 0
G1 X115.93 Y98.96 F10800
G1 Z.2 F720
G1 E.8 F2100
M204 S800
;TYPE:Perimeter
;WIDTH:0.419999
G1 F1200
G1 X116.035 Y98.581 E.01233
G1 X116.275 Y98.037 E.01864
G1 X116.746 Y97.329 E.02666
G1 X117.334 Y96.741 E.02607
G1 X117.829 Y96.392 E.01899
G1 X118.582 Y96.036 E.02612
G1 X119.389 Y95.834 E.02608
G1 X120.024 Y95.787 E.01996
G1 X130.181 Y95.792 E.31847
G1 X130.822 Y95.87 E.02025
G1 X131.413 Y96.033 E.01922
G1 X132.155 Y96.383 E.02572
G1 X132.666 Y96.741 E.01956
G1 X133.259 Y97.334 E.02629
G1 X133.612 Y97.835 E.01922
G1 X133.888 Y98.382 E.01921
G1 X134.129 Y99.179 E.02611
G1 X134.213 Y100.25 E.03368
G1 X134.207 Y109.938 E.30376
G1 X134.154 Y110.631 E.02179
G1 X134.033 Y111.216 E.01873
G1 X133.807 Y111.801 E.01966
G1 X133.505 Y112.334 E.01921
G1 X132.973 Y112.982 E.02629
G1 X132.514 Y113.378 E.01901
G1 X131.8 Y113.806 E.0261
G1 X131.017 Y114.086 E.02607
G1 X130.66 Y114.148 E.01136
G1 X129.983 Y114.213 E.02132
G1 X119.801 Y114.207 E.31925
G1 X119.178 Y114.13 E.01968
G1 X118.767 Y114.016 E.01337
G1 X118.206 Y113.811 E.01873
G1 X117.666 Y113.505 E.01946
G1 X117.178 Y113.104 E.0198
G1 X116.749 Y112.678 E.01896
G1 X116.392 Y112.171 E.01944
G1 X116.201 Y111.766 E.01404
G1 X115.968 Y111.201 E.01916
G1 X115.853 Y110.665 E.01719
G1 X115.787 Y109.983 E.02148
G1 X115.793 Y99.801 E.31925
G1 X115.87 Y99.178 E.01968
G1 X115.914 Y99.018 E.0052
M204 S1000
G1 X115.914 Y99.018 F10800
G1 X115.562 Y98.878
M204 S800
;TYPE:External perimeter
G1 F1200
G1 X115.679 Y98.454 E.01379
G1 X115.943 Y97.856 E.0205
G1 X116.453 Y97.089 E.02888
G1 X117.09 Y96.451 E.02827
G1 X117.639 Y96.065 E.02104
G1 X118.454 Y95.679 E.02827
G1 X119.329 Y95.46 E.02828
G1 X120.01 Y95.41 E.02141
G1 X130.204 Y95.415 E.31963
G1 X130.895 Y95.499 E.02183
G1 X131.544 Y95.678 E.02111
G1 X132.345 Y96.056 E.02777
G1 X132.91 Y96.451 E.02162
G1 X133.549 Y97.09 E.02833
G1 X133.936 Y97.641 E.02111
G1 X134.239 Y98.242 E.0211
G1 X134.501 Y99.105 E.02828
G1 X134.59 Y100.25 E.03601
G1 X134.584 Y109.938 E.30376
G1 X134.528 Y110.677 E.02324
G1 X134.393 Y111.33 E.02091
G1 X134.149 Y111.962 E.02124
G1 X133.817 Y112.548 E.02112
G1 X133.244 Y113.247 E.02834
G1 X132.735 Y113.685 E.02105
G1 X131.962 Y114.148 E.02825
G1 X131.113 Y114.452 E.02827
G1 X130.725 Y114.52 E.01235
G1 X129.992 Y114.59 E.02309
G1 X119.777 Y114.584 E.32028
G1 X119.105 Y114.501 E.02123
G1 X118.666 Y114.38 E.01428
G1 X118.04 Y114.15 E.02091
G1 X117.452 Y113.817 E.02119
G1 X116.938 Y113.395 E.02085
G1 X116.454 Y112.914 E.02139
G1 X116.065 Y112.361 E.0212
G1 X115.86 Y111.927 E.01505
G1 X115.607 Y111.31 E.02091
G1 X115.481 Y110.729 E.01864
G1 X115.41 Y109.992 E.02322
G1 X115.416 Y99.777 E.32028
G1 X115.499 Y99.105 E.02123
G1 X115.546 Y98.935 E.00553
M204 S1000
;WIPE_START
G1 F8640
G1 X115.562 Y98.878 E-.01367
G1 X115.679 Y98.454 E-.10156
G1 X115.943 Y97.856 E-.15094
G1 X116.453 Y97.089 E-.21268
G1 X117.09 Y96.451 E-.20817
G1 X117.49 Y96.169 E-.11298
;WIPE_END
G1 Z.6 F720
G1 X131.922 Y96.398 F10800
G1 Z.2 F720
M73 P3 R12
G1 E.8 F2100
M204 S800
;TYPE:Solid infill
;WIDTH:0.421812
G1 F1200
G1 X133.045 Y97.521 E.05004
G1 X133.369 Y97.981 E.01773
G1 X133.624 Y98.488 E.01788
G1 X133.689 Y98.7 E.00699
G1 X131.277 Y96.289 E.10744
G1 X130.767 Y96.148 E.01667
G1 X130.577 Y96.125 E.00603
G1 X133.868 Y99.416 E.14663
G1 X133.927 Y100.01 E.01881
G1 X129.992 Y96.075 E.17532
G1 X129.456 Y96.075 E.01689
G1 X133.93 Y100.549 E.19934
G1 X133.929 Y101.085 E.01689
G1 X128.919 Y96.075 E.22322
G1 X128.383 Y96.074 E.01689
G1 X133.929 Y101.62 E.2471
G1 X133.929 Y102.156 E.01689
G1 X127.847 Y96.074 E.27098
G1 X127.311 Y96.074 E.01689
G1 X133.929 Y102.691 E.29484
G1 X133.928 Y103.227 E.01689
G1 X126.775 Y96.073 E.31872
G1 X126.239 Y96.073 E.01689
G1 X133.928 Y103.762 E.34258
G1 X133.928 Y104.298 E.01689
G1 X125.703 Y96.073 E.36646
G1 X125.167 Y96.073 E.01689
G1 X133.927 Y104.833 E.3903
G1 X133.927 Y105.369 E.01689
G1 X124.63 Y96.072 E.41423
G1 X124.094 Y96.072 E.01689
G1 X133.927 Y105.904 E.43809
G1 X133.926 Y106.44 E.01689
G1 X123.558 Y96.072 E.46194
G1 X123.022 Y96.071 E.01689
M73 P4 R12
G1 X133.926 Y106.975 E.48583
G1 X133.926 Y107.511 E.01689
G1 X122.486 Y96.071 E.50971
G1 X121.95 Y96.071 E.01689
G1 X133.926 Y108.047 E.53359
G1 X133.925 Y108.582 E.01686
G1 X121.414 Y96.071 E.55743
G1 X120.878 Y96.07 E.01689
G1 X133.925 Y109.118 E.58133
G1 X133.925 Y109.653 E.01686
G1 X120.342 Y96.07 E.60519
G1 X119.827 Y96.091 E.01624
G1 X133.924 Y110.188 E.62809
G1 X133.865 Y110.665 E.01514
G1 X119.338 Y96.138 E.64725
G1 X118.909 Y96.245 E.01393
M73 P5 R12
G1 X133.769 Y111.105 E.66208
G1 X133.622 Y111.494 E.0131
G1 X118.511 Y96.382 E.67329
G1 X118.147 Y96.555 E.0127
G1 X133.45 Y111.857 E.6818
G1 X133.271 Y112.173 E.01144
G1 X133.252 Y112.196 E.00094
G1 X117.809 Y96.752 E.68808
G1 X117.498 Y96.977 E.01209
G1 X133.011 Y112.49 E.69118
G1 X132.769 Y112.784 E.012
G1 X117.23 Y97.245 E.69234
G1 X116.963 Y97.514 E.01194
G1 X132.481 Y113.032 E.6914
G1 X132.347 Y113.148 E.00558
M73 P6 R12
G1 X132.168 Y113.255 E.00657
G1 X116.749 Y97.836 E.68699
G1 X116.535 Y98.157 E.01215
G1 X131.833 Y113.456 E.68162
G1 X131.679 Y113.549 E.00567
M73 P6 R11
G1 X131.466 Y113.625 E.00712
G1 X116.368 Y98.527 E.67269
G1 X116.302 Y98.676 E.00513
G1 X116.233 Y98.927 E.0082
G1 X131.072 Y113.766 E.66115
G1 X130.944 Y113.812 E.00429
G1 X130.635 Y113.865 E.00988
G1 X116.132 Y99.362 E.64618
G1 X116.076 Y99.842 E.01522
G1 X130.155 Y113.921 E.62729
G1 X129.628 Y113.93 E.01661
G1 X116.075 Y100.377 E.60385
G1 X116.075 Y100.913 E.01689
G1 X129.092 Y113.93 E.57997
G1 X128.556 Y113.929 E.01689
M73 P7 R11
G1 X116.075 Y101.448 E.55609
G1 X116.074 Y101.984 E.01689
G1 X128.02 Y113.929 E.53223
G1 X127.483 Y113.929 E.01692
G1 X116.074 Y102.519 E.50835
G1 X116.074 Y103.055 E.01689
G1 X126.947 Y113.928 E.48444
G1 X126.411 Y113.928 E.01689
G1 X116.074 Y103.59 E.46059
G1 X116.073 Y104.126 E.01689
G1 X125.875 Y113.928 E.43673
G1 X125.339 Y113.927 E.01689
G1 X116.073 Y104.661 E.41284
G1 X116.073 Y105.197 E.01689
G1 X124.803 Y113.927 E.38896
G1 X124.267 Y113.927 E.01689
G1 X116.072 Y105.733 E.3651
G1 X116.072 Y106.268 E.01686
M73 P8 R11
G1 X123.731 Y113.927 E.34125
G1 X123.194 Y113.926 E.01692
G1 X116.072 Y106.804 E.31732
G1 X116.071 Y107.339 E.01686
G1 X122.658 Y113.926 E.29348
G1 X122.122 Y113.926 E.01689
G1 X116.071 Y107.875 E.2696
G1 X116.071 Y108.41 E.01686
G1 X121.586 Y113.925 E.24572
G1 X121.05 Y113.925 E.01689
G1 X116.07 Y108.946 E.22186
G1 X116.07 Y109.481 E.01686
G1 X120.514 Y113.925 E.198
G1 X119.978 Y113.924 E.01689
G1 X116.072 Y110.019 E.17401
G1 X116.089 Y110.374 E.0112
G1 X116.131 Y110.614 E.00768
G1 X119.389 Y113.871 E.14514
G1 X119.234 Y113.852 E.00492
G1 X118.681 Y113.699 E.01808
G1 X116.303 Y111.322 E.10593
G1 X116.637 Y112.028 E.02461
G1 X116.97 Y112.5 E.0182
G1 X117.202 Y112.756 E.01088
G1 X118.022 Y113.576 E.03653
M204 S1000
M106 S84.15
;LAYER_CHANGE
;Z:0.4
;HEIGHT:0.2
;BEFORE_LAYER_CHANGE
G92 E0.0
;0.4


;WIPE_START
G1 F8640
G1 X117.202 Y112.756 E-.26777
G1 X116.97 Y112.5 E-.07977
G1 X116.637 Y112.028 E-.13338
G1 X116.303 Y111.322 E-.18034
G1 X116.728 Y111.747 E-.13874
;WIPE_END
G1 Z.4 F720
;AFTER_LAYER_CHANGE
;0.4
;CURRENT_Z: 0.4
M104 S210 ; set temperature
; stop printing object Cabel_Holder.stl id:0 copy 0
G1 Z.8
G1 X113.427 Y113.725 F10800
G1 Z.4 F720
G1 E.8 F2100
;TYPE:Skirt/Brim
;WIDTH:0.42
G1 F3000
G1 X113.299 Y113.511 E.00782
G1 X112.943 Y112.722 E.02714
G1 X112.677 Y111.899 E.02712
G1 X112.508 Y111.048 E.0272
G1 X112.434 Y110 E.03294
G1 X112.447 Y99.566 E.32715
G1 X112.568 Y98.586 E.03096
G1 X112.779 Y97.744 E.02722
G1 X113.479 Y96.165 E.05416
G1 X114.353 Y94.966 E.04652
G1 X115.443 Y93.961 E.04649
G1 X116.709 Y93.188 E.04651
G1 X118.223 Y92.647 E.05041
G1 X119.937 Y92.435 E.05415
G1 X130.063 Y92.435 E.31749
G1 X131.39 Y92.564 E.0418
G1 X132.489 Y92.856 E.03565
G1 X133.511 Y93.299 E.03492
G1 X134.557 Y93.961 E.03881
G1 X135.394 Y94.695 E.03491
G1 X136.255 Y95.745 E.04258
G1 X136.812 Y96.709 E.03491
G1 X137.257 Y97.864 E.03881
G1 X137.474 Y98.828 E.03098
G1 X137.565 Y99.937 E.03489
G1 X137.559 Y110.308 E.32518
G1 X137.474 Y111.172 E.02722
G1 X137.257 Y112.136 E.03098
G1 X136.965 Y112.953 E.0272
G1 X136.521 Y113.835 E.03096
G1 X135.563 Y115.127 E.05043
G1 X134.255 Y116.255 E.05416
G1 X133.511 Y116.701 E.0272
G1 X132.608 Y117.101 E.03097
G1 X131.048 Y117.492 E.05043
G1 X130 Y117.566 E.03294
G1 X119.566 Y117.553 E.32715
G1 X117.864 Y117.257 E.05417
G1 X117.047 Y116.965 E.0272
G1 X116.165 Y116.521 E.03096
G1 X114.873 Y115.563 E.05043
G1 X113.745 Y114.255 E.05416
G1 X113.458 Y113.777 E.01748
G1 X113.458 Y113.777 F10800
G1 X113.82 Y113.589
G1 F3000
G1 X113.277 Y112.541 E.03701
G1 X112.882 Y111.002 E.04982
G1 X112.811 Y110 E.0315
G1 X112.823 Y99.594 E.32627
G1 X113.106 Y97.965 E.05184
G1 X113.38 Y97.2 E.02548
G1 X113.807 Y96.351 E.0298
G1 X114.638 Y95.213 E.04418
G1 X115.761 Y94.195 E.04752
G1 X117.177 Y93.39 E.05107
G1 X118.545 Y92.961 E.04495
G1 X119.946 Y92.812 E.04418
G1 X130.054 Y92.812 E.31693
G1 X131.326 Y92.936 E.04007
G1 X132.371 Y93.214 E.0339
G1 X133.341 Y93.636 E.03317
G1 X134.325 Y94.259 E.03652
G1 X135.121 Y94.955 E.03315
G1 X135.947 Y95.962 E.04084
G1 X136.475 Y96.878 E.03315
G1 X136.894 Y97.965 E.03653
G1 X137.102 Y98.892 E.02979
G1 X137.188 Y99.946 E.03316
G1 X137.182 Y110.299 E.32461
G1 X137.102 Y111.108 E.02549
G1 X136.894 Y112.035 E.02979
G1 X136.62 Y112.8 E.02548
M73 P9 R11
G1 X136.193 Y113.649 E.0298
G1 X135.29 Y114.867 E.04754
G1 X134.038 Y115.947 E.05184
G1 X132.701 Y116.661 E.04752
G1 X131.799 Y116.959 E.02979
G1 X131.002 Y117.118 E.02548
G1 X130 Y117.189 E.0315
G1 X119.594 Y117.177 E.32627
G1 X117.965 Y116.894 E.05184
G1 X117.2 Y116.62 E.02548
G1 X116.351 Y116.193 E.0298
G1 X115.133 Y115.29 E.04754
G1 X114.053 Y114.038 E.05184
G1 X113.848 Y113.642 E.01398
;WIPE_START
G1 F8640
G1 X113.82 Y113.589 E-.01384
G1 X113.277 Y112.541 E-.27254
G1 X112.882 Y111.002 E-.36688
G1 X112.837 Y110.368 E-.14674
;WIPE_END
G1 Z.8 F720
; printing object Cabel_Holder.stl id:0 copy 0
G1 X115.779 Y98.959 F10800
G1 Z.4 F720
G1 E.8 F2100
M204 S800
;TYPE:Perimeter
;WIDTH:0.449999
G1 F3000
G1 X115.81 Y98.808 E.00522
G1 X116.051 Y98.137 E.02413
G1 X116.366 Y97.581 E.02163
G1 X116.7 Y97.174 E.01782
G1 X117.091 Y96.749 E.01955
G1 X117.536 Y96.407 E.019
G1 X118.122 Y96.058 E.02309
G1 X118.745 Y95.835 E.0224
G1 X119.352 Y95.682 E.02119
G1 X120.023 Y95.632 E.02278
G1 X130.136 Y95.636 E.34231
G1 X130.854 Y95.718 E.02446
G1 X131.466 Y95.888 E.0215
G1 X132.191 Y96.225 E.02706
G1 X132.766 Y96.622 E.02365
G1 X133.379 Y97.236 E.02937
G1 X133.745 Y97.755 E.0215
G1 X134.031 Y98.323 E.02153
G1 X134.281 Y99.148 E.02918
G1 X134.368 Y100.259 E.03772
G1 X134.362 Y110.206 E.33669
G1 X134.282 Y110.852 E.02203
G1 X134.164 Y111.279 E.015
G1 X133.951 Y111.86 E.02095
G1 X133.634 Y112.419 E.02175
G1 X133.081 Y113.093 E.02951
G1 X132.804 Y113.335 E.01245
G1 X132.255 Y113.739 E.02307
G1 X131.464 Y114.113 E.02962
G1 X130.859 Y114.28 E.02124
G1 X129.97 Y114.368 E.03024
G1 X119.794 Y114.362 E.34445
G1 X119.148 Y114.282 E.02203
G1 X118.721 Y114.164 E.015
G1 X118.14 Y113.951 E.02095
G1 X117.581 Y113.634 E.02175
G1 X116.907 Y113.081 E.02951
G1 X116.665 Y112.804 E.01245
G1 X116.261 Y112.255 E.02307
G1 X115.886 Y111.462 E.02969
G1 X115.795 Y111.141 E.01129
G1 X115.689 Y110.649 E.01704
G1 X115.632 Y109.985 E.02256
G1 X115.638 Y100.064 E.33581
G1 X115.681 Y99.443 E.02107
G1 X115.767 Y99.018 E.01468
M204 S1000
G1 X115.767 Y99.018 F10800
G1 X115.377 Y98.848
M204 S800
;TYPE:External perimeter
G1 F2400
G1 X115.483 Y98.457 E.01371
G1 X115.683 Y97.96 E.01813
G1 X116.029 Y97.349 E.02377
G1 X116.464 Y96.819 E.02321
G1 X116.969 Y96.311 E.02425
G1 X117.487 Y95.942 E.02153
G1 X117.955 Y95.686 E.01806
G1 X118.608 Y95.452 E.02348
G1 X119.297 Y95.277 E.02406
G1 X120.008 Y95.225 E.02413
G1 X130.159 Y95.229 E.3436
G1 X130.932 Y95.318 E.02634
