; generated by PrusaSlicer 2.5.0+linux-x64-GTK3 on 2022-09-09 at 20:22:37 UTC

; 

; external perimeters extrusion width = 0.45mm
; perimeters extrusion width = 0.45mm
; infill extrusion width = 0.45mm
; solid infill extrusion width = 0.45mm
; top infill extrusion width = 0.40mm
; first layer extrusion width = 0.42mm

M73 P0 R12
M201 X9000 Y9000 Z500 E10000 ; sets maximum accelerations, mm/sec^2
M203 X500 Y500 Z12 E120 ; sets maximum feedrates, mm / sec
M204 P2000 R1500 T2000 ; sets acceleration (P, T) and retract acceleration (R), mm/sec^2
M205 X10.00 Y10.00 Z0.20 E4.50 ; sets the jerk limits, mm/sec
M205 S0 T0 ; sets the minimum extruding and travel feed rate, mm/sec
M107
;TYPE:Custom
M862.3 P "MK2.5" ; printer model check
M862.1 P0.4 ; nozzle diameter check
M115 U3.11.0 ; tell printer latest fw version
G90 ; use absolute coordinates
M83 ; extruder relative mode
M104 S215 ; set extruder temp
M140 S60 ; set bed temp
M190 S60 ; wait for bed temp
M109 S215 ; wait for extruder temp
G28 W ; home all without mesh bed level
G80 ; mesh bed leveling

G1 Z0.2 F720
G1 Y-3 F1000 ; go outside print area
G92 E0
G1 X60 E9 F1000 ; intro line
G1 X100 E12.5 F1000 ; intro line

G92 E0
G21 ; set units to millimeters
G90 ; use absolute coordinates
M83 ; use relative distances for extrusion
M900 K0.05 ; Filament gcode LA 1.5
M900 K30 ; Filament gcode LA 1.0
M107
;LAYER_CHANGE
;Z:0.2
;HEIGHT:0.2
;BEFORE_LAYER_CHANGE
G92 E0.0
;0.2


G1 E-.8 F2100
G1 Z.4 F720
;AFTER_LAYER_CHANGE
;0.2
;CURRENT_Z: 0.2
G1 X113.97 Y95.289 F10800
G1 Z.2 F720
G1 E.8 F2100
M204 S800
;TYPE:Skirt/Brim
;WIDTH:0.42
G1 F1200
G1 X115.625 Y93.714 E.07162
G1 X116.838 Y92.972 E.04459
G1 X118.303 Y92.448 E.0488
G1 X119.932 Y92.247 E.05147
G1 X130.068 Y92.247 E.31778
G1 X131.349 Y92.373 E.04036
M73 P1 R12
G1 X132.658 Y92.732 E.04256
G1 X133.757 Y93.219 E.03769
G1 X134.653 Y93.799 E.03346
G1 X135.454 Y94.503 E.03346
G1 X136.271 Y95.498 E.04036
G1 X136.806 Y96.422 E.03346
G1 X137.412 Y97.858 E.04888
G1 X137.599 Y98.569 E.02305
G1 X137.754 Y100 E.04512
G1 X137.748 Y110.288 E.32259
G1 X137.52 Y111.828 E.0488
G1 X136.964 Y113.282 E.04878
G1 X136.387 Y114.276 E.03605
G1 X136.02 Y114.72 E.01805
G1 X134.634 Y116.08 E.0609
G1 X134.11 Y116.493 E.0209
G1 X132.863 Y117.175 E.04458
G1 X130.66 Y117.698 E.07099
G1 X130 Y117.754 E.02077
G1 X119.81 Y117.75 E.31951
G1 X117.65 Y117.344 E.0689
G1 X116.497 Y116.864 E.03917
G1 X115.155 Y115.919 E.05147
G1 X113.504 Y114.101 E.07699
G1 X112.773 Y112.713 E.04918
G1 X112.335 Y111.131 E.05147
G1 X112.246 Y110 E.03558
G1 X112.246 Y100 E.31354
G1 X112.469 Y98.29 E.05408
G1 X112.704 Y97.516 E.02534
G1 X113.387 Y96.098 E.04935
G1 X113.935 Y95.338 E.02939
M204 S1000
G1 X114.236 Y95.557 F10800
M204 S800
G1 F1200
G1 X115.951 Y93.942 E.07386
G1 X117.315 Y93.169 E.04915
G1 X118.601 Y92.767 E.04227
G1 X119.942 Y92.624 E.04226
G1 X130.058 Y92.624 E.3172
G1 X131.284 Y92.744 E.03862
G1 X132.539 Y93.09 E.04082
G1 X133.571 Y93.547 E.03537
G1 X134.421 Y94.096 E.03172
G1 X135.181 Y94.763 E.03172
G1 X135.963 Y95.715 E.03862
G1 X136.469 Y96.592 E.03172
G1 X137.063 Y98.002 E.04798
G1 X137.224 Y98.616 E.0199
G1 X137.377 Y100 E.04367
G1 X137.371 Y110.279 E.3223
G1 X137.156 Y111.727 E.04591
G1 X136.636 Y113.096 E.04589
G1 X136.075 Y114.064 E.03509
G1 X135.756 Y114.451 E.01571
G1 X134.37 Y115.811 E.0609
G1 X133.893 Y116.184 E.01899
G1 X132.71 Y116.83 E.04226
G1 X130.586 Y117.328 E.06839
G1 X119.819 Y117.373 E.33761
G1 X117.733 Y116.976 E.06659
G1 X116.682 Y116.536 E.0357
G1 X115.401 Y115.634 E.04915
G1 X113.815 Y113.889 E.0739
G1 X113.045 Y112.371 E.05337
G1 X112.689 Y110.951 E.04591
G1 X112.623 Y110 E.0299
G1 X112.623 Y100 E.31354
G1 X112.842 Y98.345 E.05235
M73 P2 R12
G1 X113.045 Y97.677 E.02187
G1 X113.712 Y96.29 E.04826
G1 X114.201 Y95.606 E.02637
M204 S1000
; printing object Cabel_Holder_simplified_3dless_com_simplified.stl id:0 copy 0
;WIPE_START
G1 F8640
G1 X115.951 Y93.942 E-.55755
G1 X116.714 Y93.51 E-.20245
;WIPE_END
G1 E-.04 F2100
G1 Z.6 F720
G1 X116.392 Y112.032 F10800
G1 Z.2 F720
G1 E.8 F2100
M204 S800
;TYPE:Perimeter
;WIDTH:0.419999
G1 F1200
G1 X116.071 Y111.417 E.02175
G1 X115.861 Y110.724 E.02272
G1 X115.787 Y109.969 E.02377
G1 X115.787 Y100.058 E.31076
G1 X115.955 Y98.925 E.03592
G1 X116.453 Y97.872 E.03653
G1 X116.825 Y97.547 E.01546
G1 X117.668 Y96.616 E.03939
G1 X118.431 Y96.141 E.02819
G1 X118.939 Y95.953 E.01698
G1 X119.448 Y95.829 E.01642
G1 X120.024 Y95.787 E.0181
G1 X130.175 Y95.792 E.31827
G1 X130.722 Y95.86 E.01728
G1 X131.526 Y96.089 E.02622
G1 X132.021 Y96.308 E.01698
G1 X132.637 Y96.72 E.02323
G1 X133.023 Y97.087 E.0167
G1 X133.464 Y97.682 E.02323
G1 X133.706 Y98.164 E.01689
G1 X133.872 Y98.669 E.01668
G1 X134.102 Y99.148 E.01667
G1 X134.213 Y100.048 E.02843
G1 X134.208 Y109.954 E.3106
G1 X134.17 Y110.479 E.01649
G1 X134.038 Y111.094 E.01973
G1 X133.861 Y111.575 E.01608
G1 X133.492 Y112.221 E.02331
G1 X133.21 Y112.443 E.01127
G1 X132.199 Y113.504 E.04595
G1 X131.958 Y113.656 E.00893
G1 X131.5 Y113.903 E.01632
G1 X129.945 Y114.213 E.04972
G1 X120.055 Y114.213 E.31007
G1 X118.514 Y113.906 E.04927
G1 X117.908 Y113.581 E.02155
G1 X117.509 Y113.27 E.01585
G1 X116.708 Y112.294 E.0396
G1 X116.439 Y112.07 E.01098
M204 S1000
G1 X116.096 Y112.28 F10800
M204 S800
;TYPE:External perimeter
G1 F1200
G1 X115.721 Y111.56 E.02546
G1 X115.49 Y110.798 E.02499
G1 X115.41 Y109.988 E.02551
G1 X115.41 Y100.03 E.31221
G1 X115.59 Y98.814 E.03855
G1 X116.221 Y97.526 E.04496
G1 X116.545 Y97.294 E.01251
G1 X117.42 Y96.328 E.04085
G1 X117.806 Y96.071 E.01454
G1 X118.27 Y95.8 E.01685
G1 X118.821 Y95.594 E.01843
G1 X119.397 Y95.455 E.0186
G1 X120.01 Y95.41 E.01926
G1 X130.198 Y95.415 E.31943
G1 X130.797 Y95.489 E.01892
G1 X131.655 Y95.734 E.02796
G1 X132.204 Y95.977 E.01883
G1 X132.874 Y96.425 E.02526
G1 X133.306 Y96.837 E.01874
G1 X133.786 Y97.484 E.02526
G1 X134.056 Y98.019 E.01879
G1 X134.23 Y98.551 E.01756
G1 X134.468 Y99.033 E.01682
G1 X134.59 Y100.025 E.03136
G1 X134.585 Y109.954 E.31133
G1 X134.544 Y110.525 E.01793
G1 X134.401 Y111.195 E.02147
G1 X134.2 Y111.741 E.01827
G1 X133.781 Y112.476 E.02651
G1 X133.482 Y112.703 E.01177
G1 X132.44 Y113.798 E.0474
G1 X132.159 Y113.975 E.0104
G1 X131.619 Y114.264 E.01921
G1 X129.982 Y114.59 E.05235
G1 X120.018 Y114.59 E.3124
G1 X118.385 Y114.265 E.0522
M73 P3 R12
G1 X117.702 Y113.898 E.02432
G1 X117.245 Y113.542 E.01817
G1 X116.417 Y112.533 E.04092
G1 X116.144 Y112.317 E.01092
M204 S1000
G1 X116.281 Y111.925 F10800
;WIPE_START
G1 F8640
G1 X115.721 Y111.56 E-.2002
G1 X115.49 Y110.798 E-.18405
G1 X115.41 Y109.988 E-.18788
G1 X115.41 Y109.174 E-.18787
;WIPE_END
G1 E-.04 F2100
G1 Z.6 F720
G1 X131.917 Y96.386 F10800
G1 Z.2 F720
G1 E.8 F2100
M204 S800
;TYPE:Solid infill
;WIDTH:0.426084
G1 F1200
G1 X132.821 Y97.29 E.04075
G1 X133.222 Y97.831 E.02145
G1 X133.444 Y98.272 E.01572
G1 X133.535 Y98.546 E.00921
G1 X131.311 Y96.322 E.10023
G1 X130.665 Y96.138 E.02138
G1 X130.574 Y96.126 E.00295
G1 X133.848 Y99.401 E.14754
G1 X133.924 Y100.019 E.01984
G1 X129.98 Y96.075 E.17771
G1 X129.438 Y96.075 E.01727
G1 X133.93 Y100.566 E.20238
G1 X133.93 Y101.108 E.01726
G1 X128.896 Y96.074 E.2268
G1 X128.354 Y96.074 E.01727
G1 X133.929 Y101.65 E.25121
G1 X133.929 Y102.191 E.01726
G1 X127.812 Y96.074 E.27563
G1 X127.27 Y96.074 E.01727
G1 X133.929 Y102.733 E.30004
G1 X133.928 Y103.274 E.01726
G1 X126.727 Y96.073 E.32446
G1 X126.185 Y96.073 E.01727
G1 X133.928 Y103.816 E.34887
G1 X133.928 Y104.358 E.01726
G1 X125.643 Y96.073 E.37329
G1 X125.101 Y96.072 E.01727
G1 X133.928 Y104.899 E.39771
G1 X133.927 Y105.441 E.01726
G1 X124.559 Y96.072 E.42212
G1 X124.017 Y96.072 E.01727
G1 X133.927 Y105.982 E.44654
G1 X133.927 Y106.524 E.01726
M73 P4 R12
G1 X123.474 Y96.072 E.47095
G1 X122.932 Y96.071 E.01727
G1 X133.926 Y107.066 E.49537
G1 X133.926 Y107.607 E.01726
G1 X122.39 Y96.071 E.51978
G1 X121.848 Y96.071 E.01727
G1 X133.926 Y108.149 E.5442
G1 X133.926 Y108.69 E.01726
G1 X121.306 Y96.071 E.56861
G1 X120.764 Y96.07 E.01727
G1 X133.925 Y109.232 E.59303
G1 X133.925 Y109.774 E.01726
G1 X120.222 Y96.07 E.61744
G1 X119.707 Y96.097 E.01642
M73 P4 R11
G1 X133.908 Y110.298 E.63984
G1 X133.835 Y110.767 E.01512
G1 X119.229 Y96.161 E.65808
G1 X118.817 Y96.291 E.01377
M73 P5 R11
G1 X133.715 Y111.189 E.67126
G1 X133.544 Y111.56 E.01302
G1 X118.435 Y96.451 E.68075
G1 X118.106 Y96.664 E.01249
G1 X133.347 Y111.905 E.6867
G1 X133.275 Y112.031 E.00462
G1 X133.083 Y112.182 E.0078
G1 X117.796 Y96.896 E.68876
G1 X117.539 Y97.18 E.01222
G1 X132.81 Y112.452 E.6881
G1 X132.546 Y112.73 E.01221
G1 X117.281 Y97.464 E.68781
G1 X117.023 Y97.748 E.01222
M73 P6 R11
G1 X132.282 Y113.007 E.68752
G1 X132.018 Y113.284 E.01217
G1 X116.718 Y97.985 E.68937
G1 X116.542 Y98.351 E.01295
G1 X131.685 Y113.494 E.68229
G1 X131.41 Y113.633 E.0098
G1 X131.303 Y113.654 E.00348
G1 X116.367 Y98.718 E.67298
G1 X116.229 Y99.008 E.01023
G1 X116.214 Y99.107 E.00319
G1 X130.851 Y113.744 E.65951
G1 X130.399 Y113.834 E.01468
G1 X116.144 Y99.579 E.6423
G1 X116.074 Y100.051 E.0152
G1 X129.947 Y113.924 E.62509
G1 X129.412 Y113.93 E.01707
G1 X116.07 Y100.588 E.60114
M73 P7 R11
G1 X116.07 Y101.13 E.01726
G1 X128.87 Y113.93 E.57672
G1 X128.328 Y113.93 E.01726
G1 X116.07 Y101.672 E.55231
G1 X116.07 Y102.214 E.01726
G1 X127.786 Y113.93 E.52789
G1 X127.244 Y113.93 E.01726
G1 X116.07 Y102.756 E.50348
G1 X116.07 Y103.298 E.01726
G1 X126.702 Y113.93 E.47906
G1 X126.16 Y113.93 E.01726
G1 X116.07 Y103.84 E.45464
G1 X116.07 Y104.381 E.01726
G1 X125.618 Y113.93 E.43023
G1 X125.077 Y113.93 E.01726
G1 X116.07 Y104.923 E.40581
G1 X116.07 Y105.465 E.01726
G1 X124.535 Y113.93 E.3814
G1 X123.993 Y113.93 E.01726
M73 P8 R11
G1 X116.07 Y106.007 E.35698
G1 X116.07 Y106.549 E.01726
G1 X123.451 Y113.93 E.33257
G1 X122.909 Y113.93 E.01726
G1 X116.07 Y107.091 E.30815
G1 X116.07 Y107.633 E.01726
G1 X122.367 Y113.93 E.28374
G1 X121.825 Y113.93 E.01726
G1 X116.07 Y108.175 E.25932
G1 X116.07 Y108.716 E.01726
G1 X121.283 Y113.93 E.23491
G1 X120.742 Y113.93 E.01726
G1 X116.07 Y109.258 E.21049
G1 X116.07 Y109.8 E.01726
G1 X120.2 Y113.93 E.18608
G1 X120.083 Y113.93 E.00371
G1 X119.552 Y113.824 E.01725
G1 X116.112 Y110.384 E.155
G1 X116.14 Y110.668 E.0091
G1 X116.264 Y111.078 E.01363
G1 X118.876 Y113.69 E.11768
G1 X118.611 Y113.637 E.00861
G1 X118.063 Y113.343 E.01979
G1 X117.72 Y113.076 E.01385
G1 X116.349 Y111.705 E.06178
M204 S1000
; stop printing object Cabel_Holder_simplified_3dless_com_simplified.stl id:0 copy 0
M106 S84.15
;LAYER_CHANGE
;Z:0.4
;HEIGHT:0.2
;BEFORE_LAYER_CHANGE
G92 E0.0
;0.4


;WIPE_START
G1 F8640
G1 X117.72 Y113.076 E-.44771
G1 X118.063 Y113.343 E-.1004
G1 X118.611 Y113.637 E-.14343
G1 X118.876 Y113.69 E-.06241
G1 X118.857 Y113.671 E-.00605
;WIPE_END
G1 E-.04 F2100
G1 Z.6 F720
;AFTER_LAYER_CHANGE
;0.4
;CURRENT_Z: 0.4
M104 S210 ; set temperature
G1 X118.149 Y117.438 F10800
G1 Z.4 F720
G1 E.8 F2100
;TYPE:Skirt/Brim
;WIDTH:0.42
G1 F3000
G1 X117.65 Y117.344 E.01591
G1 X116.497 Y116.864 E.03917
G1 X115.155 Y115.919 E.05147
G1 X113.504 Y114.101 E.07699
G1 X112.773 Y112.713 E.04918
G1 X112.335 Y111.131 E.05147
G1 X112.246 Y110 E.03558
G1 X112.246 Y100 E.31354
G1 X112.469 Y98.29 E.05408
G1 X112.704 Y97.516 E.02534
G1 X113.387 Y96.098 E.04935
G1 X113.97 Y95.289 E.03127
G1 X115.625 Y93.714 E.07162
G1 X116.838 Y92.972 E.04459
G1 X118.303 Y92.448 E.0488
G1 X119.932 Y92.247 E.05147
G1 X130.068 Y92.247 E.31778
G1 X131.349 Y92.373 E.04036
G1 X132.658 Y92.732 E.04256
G1 X133.757 Y93.219 E.03769
G1 X134.653 Y93.799 E.03346
G1 X135.454 Y94.503 E.03346
G1 X136.271 Y95.498 E.04036
G1 X136.806 Y96.422 E.03346
G1 X137.412 Y97.858 E.04888
G1 X137.599 Y98.569 E.02305
G1 X137.754 Y100 E.04512
G1 X137.748 Y110.288 E.32259
G1 X137.52 Y111.828 E.0488
G1 X136.964 Y113.282 E.04878
G1 X136.387 Y114.276 E.03605
G1 X136.02 Y114.72 E.01805
G1 X134.634 Y116.08 E.0609
G1 X134.11 Y116.493 E.0209
G1 X132.863 Y117.175 E.04458
G1 X130.66 Y117.698 E.07099
G1 X130 Y117.754 E.02077
G1 X119.81 Y117.75 E.31951
G1 X118.208 Y117.449 E.05111
G1 X118.278 Y117.08 F10800
G1 F3000
G1 X117.733 Y116.976 E.01741
G1 X116.682 Y116.536 E.0357
G1 X115.401 Y115.634 E.04915
G1 X113.815 Y113.889 E.0739
G1 X113.045 Y112.371 E.05337
G1 X112.689 Y110.951 E.04591
G1 X112.623 Y110 E.0299
G1 X112.623 Y100 E.31354
G1 X112.842 Y98.345 E.05235
G1 X113.045 Y97.677 E.02187
G1 X113.712 Y96.29 E.04826
G1 X114.236 Y95.557 E.02825
G1 X115.951 Y93.942 E.07386
G1 X117.315 Y93.169 E.04915
M73 P9 R11
G1 X118.601 Y92.767 E.04227
G1 X119.942 Y92.624 E.04226
G1 X130.058 Y92.624 E.3172
G1 X131.284 Y92.744 E.03862
G1 X132.539 Y93.09 E.04082
G1 X133.571 Y93.547 E.03537
G1 X134.421 Y94.096 E.03172
G1 X135.181 Y94.763 E.03172
G1 X135.963 Y95.715 E.03862
G1 X136.469 Y96.592 E.03172
G1 X137.063 Y98.002 E.04798
G1 X137.224 Y98.616 E.0199
G1 X137.377 Y100 E.04367
G1 X137.371 Y110.279 E.3223
G1 X137.156 Y111.727 E.04591
G1 X136.636 Y113.096 E.04589
G1 X136.075 Y114.064 E.03509
G1 X135.756 Y114.451 E.01571
G1 X134.37 Y115.811 E.0609
G1 X133.893 Y116.184 E.01899
G1 X132.71 Y116.83 E.04226
G1 X130.586 Y117.328 E.06839
G1 X119.819 Y117.373 E.33761
G1 X118.337 Y117.091 E.0473
; printing object Cabel_Holder_simplified_3dless_com_simplified.stl id:0 copy 0
;WIPE_START
G1 F8640
G1 X117.733 Y116.976 E-.14204
G1 X116.682 Y116.536 E-.26288
G1 X115.425 Y115.651 E-.35508
;WIPE_END
G1 E-.04 F2100
G1 Z.8 F720
G1 X116.405 Y112.094 F10800
G1 Z.4 F720
G1 E.8 F2100
M204 S800
;TYPE:Perimeter
;WIDTH:0.449999
G1 F3000
G1 X116.105 Y111.584 E.02002
G1 X115.852 Y111.097 E.01858
G1 X115.684 Y110.489 E.02136
G1 X115.632 Y109.984 E.01715
G1 X115.632 Y100.047 E.33638
G1 X115.762 Y99.169 E.03002
G1 X116.149 Y98.352 E.03061
G1 X116.515 Y97.733 E.02433
G1 X117.557 Y96.982 E.04348
G1 X118.196 Y96.276 E.03223
G1 X118.465 Y96.097 E.01094
G1 X118.896 Y95.854 E.01673
G1 X119.441 Y95.691 E.01928
G1 X120.023 Y95.632 E.01979
G1 X130.126 Y95.636 E.34195
G1 X130.711 Y95.723 E.02004
G1 X131.785 Y96.049 E.03798
G1 X132.306 Y96.295 E.01952
G1 X132.763 Y96.634 E.01926
G1 X133.175 Y97.113 E.02136
G1 X133.481 Y97.656 E.02111
G1 X133.67 Y98.199 E.01945
G1 X134.282 Y99.344 E.04395
G1 X134.368 Y100.039 E.0237
G1 X134.364 Y109.957 E.33573
G1 X134.312 Y110.552 E.0202
G1 X134.118 Y111.168 E.02185
G1 X133.484 Y112.277 E.04326
G1 X132.527 Y113.006 E.04071
G1 X131.749 Y113.823 E.0382
G1 X131.205 Y114.129 E.02111
G1 X130.011 Y114.366 E.04121
G1 X119.989 Y114.366 E.33926
G1 X118.795 Y114.129 E.04121
G1 X118.459 Y113.96 E.0127
G1 X118.015 Y113.631 E.01871
G1 X117.314 Y112.8 E.03681
G1 X116.452 Y112.131 E.03693
M204 S1000
G1 X116.08 Y112.344 F10800
M204 S800
;TYPE:External perimeter
G1 F2400
G1 X115.597 Y111.495 E.03307
G1 X115.399 Y111.024 E.01729
G1 X115.277 Y110.528 E.01729
G1 X115.225 Y109.994 E.01815
G1 X115.225 Y100.017 E.33774
G1 X115.368 Y99.05 E.03308
G1 X115.789 Y98.161 E.03329
G1 X116.209 Y97.451 E.02793
G1 X117.255 Y96.708 E.04342
G1 X117.928 Y95.966 E.03393
G1 X118.461 Y95.61 E.02169
G1 X118.88 Y95.431 E.01541
G1 X119.362 Y95.292 E.01699
G1 X120.008 Y95.225 E.02199
G1 X130.156 Y95.229 E.34348
G1 X130.801 Y95.325 E.02207
G1 X131.932 Y95.668 E.04002
G1 X132.517 Y95.945 E.02189
G1 X133.034 Y96.328 E.0218
G1 X133.507 Y96.878 E.02457
G1 X133.859 Y97.5 E.02415
G1 X134.029 Y98.007 E.01811
G1 X134.677 Y99.219 E.04651
G1 X134.775 Y100.014 E.02712
G1 X134.771 Y109.758 E.32982
G1 X134.746 Y110.357 E.0203
G1 X134.63 Y110.906 E.01902
G1 X134.463 Y111.394 E.01746
G1 X133.84 Y112.477 E.04228
G1 X133.729 Y112.603 E.00569
G1 X132.822 Y113.286 E.03842
G1 X132.195 Y113.945 E.03077
G1 X131.85 Y114.245 E.01549
G1 X131.339 Y114.517 E.01958
G1 X130.051 Y114.773 E.04444
G1 X119.949 Y114.773 E.34197
G1 X118.661 Y114.517 E.04444
G1 X118.245 Y114.308 E.01576
G1 X117.733 Y113.928 E.02159
G1 X117.064 Y113.121 E.03545
G1 X116.12 Y112.388 E.04047
M204 S1000
G1 X116.248 Y111.981 F10800
;WIPE_START
G1 F8640
G1 X115.597 Y111.495 E-.23888
G1 X115.399 Y111.024 E-.11795
G1 X115.277 Y110.528 E-.11795
G1 X115.225 Y109.994 E-.12384
G1 X115.225 Y109.296 E-.16138
;WIPE_END
G1 E-.04 F2100
G1 Z.8 F720
G1 X130.63 Y114.119 F10800
G1 Z.4 F720
G1 E.8 F2100
M204 S2000
;TYPE:Solid infill
