; generated by PrusaSlicer 2.3.0+linux-x64 on 2021-07-10 at 15:42:31 UTC



; 



; external perimeters extrusion width = 0.45mm

; perimeters extrusion width = 0.45mm

; infill extrusion width = 0.45mm

; solid infill extrusion width = 0.45mm

; top infill extrusion width = 0.40mm

; first layer extrusion width = 0.42mm



M73 P0 R16

M201 X9000 Y9000 Z500 E10000 ; sets maximum accelerations, mm/sec^2

M203 X500 Y500 Z12 E120 ; sets maximum feedrates, mm/sec

M204 P2000 R1500 T2000 ; sets acceleration (P, T) and retract acceleration (R), mm/sec^2

M205 X10.00 Y10.00 Z0.20 E4.50 ; sets the jerk limits, mm/sec

M205 S0 T0 ; sets the minimum extruding and travel feed rate, mm/sec

M107

;TYPE:Custom

M862.3 P "MK2.5" ; printer model check

M862.1 P0.4 ; nozzle diameter check

M115 U3.9.1 ; tell printer latest fw version

G90 ; use absolute coordinates

M83 ; extruder relative mode

M104 S215 ; set extruder temp

M140 S60 ; set bed temp

M190 S60 ; wait for bed temp

M109 S215 ; wait for extruder temp

G28 W ; home all without mesh bed level

G80 ; mesh bed leveling

G1 Y-3.0 F1000.0 ; go outside print area

G92 E0.0

G1 X60.0 E9.0 F1000.0 ; intro line

G1 X100.0 E12.5 F1000.0 ; intro line

G92 E0.0

G21 ; set units to millimeters

G90 ; use absolute coordinates

M83 ; use relative distances for extrusion

M900 K0.05 ; Filament gcode LA 1.5

M900 K30 ; Filament gcode LA 1.0

;LAYER_CHANGE

;Z:0.2

;HEIGHT:0.2

;BEFORE_LAYER_CHANGE

G92 E0.0

;0.2





G1 E-0.80000 F2100.000

G1 Z0.600 F10800.000

;AFTER_LAYER_CHANGE

;0.2

;CURRENT_Z: 0.2

G1 X84.026 Y66.359

G1 Z0.200

G1 E0.80000 F2100.000

M204 S1000

;TYPE:Skirt

;WIDTH:0.42

G1 F1200.000

G1 X84.987 Y65.171 E0.04792

G1 X86.326 Y64.048 E0.05481

G1 X87.765 Y63.273 E0.05125

G1 X89.350 Y62.787 E0.05196

G1 X90.919 Y62.624 E0.04947

G1 X159.004 Y62.623 E2.13475

M73 P1 R16

G1 X160.633 Y62.784 E0.05134

G1 X162.205 Y63.260 E0.05149

G1 X163.650 Y64.032 E0.05137

G1 X164.907 Y65.060 E0.05090

G1 X165.960 Y66.339 E0.05196

G1 X166.729 Y67.769 E0.05090

G1 X167.211 Y69.342 E0.05161

G1 X167.371 Y70.828 E0.04684

G1 X167.376 Y139.076 E2.13988

G1 X167.214 Y140.644 E0.04943

G1 X166.743 Y142.198 E0.05090

G1 X165.974 Y143.641 E0.05125

G1 X165.013 Y144.829 E0.04792

G1 X163.674 Y145.952 E0.05481

G1 X162.224 Y146.732 E0.05161

G1 X160.639 Y147.215 E0.05196

G1 X159.005 Y147.377 E0.05149

G1 X90.924 Y147.376 E2.13463

G1 X89.356 Y147.214 E0.04943

G1 X87.802 Y146.743 E0.05090

G1 X86.359 Y145.974 E0.05125

M73 P2 R16

G1 X85.171 Y145.013 E0.04792

G1 X84.048 Y143.674 E0.05481

G1 X83.268 Y142.224 E0.05161

G1 X82.785 Y140.639 E0.05196

G1 X82.623 Y139.005 E0.05149

G1 X82.624 Y70.924 E2.13463

M73 P2 R15

G1 X82.786 Y69.356 E0.04943

G1 X83.257 Y67.802 E0.05090

G1 X83.998 Y66.412 E0.04937

;WIPE_START

G1 F8640.000

G1 X84.987 Y65.171 E-0.36648

G1 X86.293 Y64.076 E-0.39352

;WIPE_END

G1 E-0.04000 F2100.000

G1 Z0.800 F10800.000

G1 X112.797 Y136.880

G1 Z0.200

G1 E0.80000 F2100.000

;TYPE:Perimeter

G1 F1200.000

G1 X113.276 Y136.748 E0.01560

G1 X113.667 Y136.709 E0.01231

G1 X114.114 Y136.753 E0.01408

G1 X114.543 Y136.883 E0.01408

G1 X114.939 Y137.095 E0.01408

G1 X115.287 Y137.380 E0.01408

G1 X115.571 Y137.727 E0.01408

G1 X115.783 Y138.123 E0.01408

G1 X115.914 Y138.553 E0.01408

G1 X115.958 Y139.000 E0.01408

G1 X115.914 Y139.447 E0.01408

G1 X115.783 Y139.877 E0.01408

G1 X115.571 Y140.273 E0.01408

G1 X115.287 Y140.620 E0.01408

G1 X114.939 Y140.905 E0.01408

G1 X114.543 Y141.117 E0.01408

G1 X114.114 Y141.247 E0.01408

G1 X113.667 Y141.291 E0.01408

G1 X113.220 Y141.247 E0.01408

G1 X112.790 Y141.117 E0.01408

G1 X112.394 Y140.905 E0.01408

G1 X112.047 Y140.620 E0.01408

G1 X111.762 Y140.273 E0.01408

G1 X111.550 Y139.877 E0.01408

G1 X111.420 Y139.447 E0.01408

G1 X111.376 Y139.000 E0.01408

G1 X111.420 Y138.553 E0.01408

G1 X111.550 Y138.123 E0.01408

G1 X111.762 Y137.727 E0.01408

G1 X112.047 Y137.380 E0.01408

G1 X112.394 Y137.095 E0.01408

G1 X112.744 Y136.908 E0.01243

G1 X112.921 Y137.241 F10800.000

;TYPE:External perimeter

G1 F1200.000

G1 X113.345 Y137.120 E0.01382

G1 X113.667 Y137.088 E0.01013

G1 X114.040 Y137.125 E0.01175

G1 X114.398 Y137.234 E0.01175

G1 X114.729 Y137.410 E0.01175

G1 X115.019 Y137.648 E0.01175

G1 X115.256 Y137.938 E0.01175

G1 X115.433 Y138.268 E0.01175

G1 X115.542 Y138.627 E0.01175

G1 X115.579 Y139.000 E0.01175

G1 X115.542 Y139.373 E0.01175

G1 X115.433 Y139.732 E0.01175

G1 X115.256 Y140.062 E0.01175

G1 X115.019 Y140.352 E0.01175

G1 X114.729 Y140.590 E0.01175

G1 X114.398 Y140.766 E0.01175

G1 X114.040 Y140.875 E0.01175

G1 X113.667 Y140.912 E0.01175

G1 X113.294 Y140.875 E0.01175

G1 X112.935 Y140.766 E0.01175

G1 X112.604 Y140.590 E0.01175

G1 X112.315 Y140.352 E0.01175

G1 X112.077 Y140.062 E0.01175

G1 X111.900 Y139.732 E0.01175

G1 X111.791 Y139.373 E0.01175

G1 X111.755 Y139.000 E0.01175

G1 X111.791 Y138.627 E0.01175

G1 X111.900 Y138.268 E0.01175

G1 X112.077 Y137.938 E0.01175

G1 X112.315 Y137.648 E0.01175

G1 X112.604 Y137.410 E0.01175

G1 X112.868 Y137.269 E0.00939

G1 X112.978 Y136.845 F10800.000

;WIPE_START

G1 F8640.000

G1 X113.345 Y137.120 E-0.11535

G1 X113.667 Y137.088 E-0.07459

G1 X114.040 Y137.125 E-0.08655

G1 X114.398 Y137.234 E-0.08654

G1 X114.729 Y137.410 E-0.08655

G1 X115.019 Y137.648 E-0.08655

G1 X115.256 Y137.938 E-0.08655

G1 X115.433 Y138.268 E-0.08655

G1 X115.497 Y138.479 E-0.05078

;WIPE_END

G1 E-0.04000 F2100.000

G1 Z0.800 F10800.000

G1 X111.673 Y134.187

G1 Z0.200

G1 E0.80000 F2100.000

;TYPE:Perimeter

G1 F1200.000

G1 X112.650 Y133.891 E0.03202

G1 X113.667 Y133.791 E0.03202

G1 X114.683 Y133.891 E0.03202

G1 X115.660 Y134.187 E0.03202

G1 X116.561 Y134.669 E0.03202

G1 X117.350 Y135.317 E0.03202

G1 X117.998 Y136.106 E0.03202

G1 X118.479 Y137.007 E0.03202

G1 X118.776 Y137.984 E0.03202

G1 X118.876 Y139.000 E0.03202

G1 X118.776 Y140.016 E0.03202

G1 X118.479 Y140.993 E0.03202

G1 X117.998 Y141.894 E0.03202

G1 X117.350 Y142.683 E0.03202

G1 X116.561 Y143.331 E0.03202

G1 X115.660 Y143.813 E0.03202

G1 X114.683 Y144.109 E0.03202

G1 X113.667 Y144.209 E0.03202

G1 X112.650 Y144.109 E0.03202

G1 X111.673 Y143.813 E0.03202

G1 X110.773 Y143.331 E0.03202

G1 X109.983 Y142.683 E0.03202

G1 X109.335 Y141.894 E0.03202

G1 X108.854 Y140.993 E0.03202

G1 X108.558 Y140.016 E0.03202

G1 X108.458 Y139.000 E0.03202

G1 X108.558 Y137.984 E0.03202

G1 X108.854 Y137.007 E0.03202

G1 X109.335 Y136.106 E0.03202

G1 X109.983 Y135.317 E0.03202

G1 X110.773 Y134.669 E0.03202

G1 X111.620 Y134.216 E0.03014

G1 X111.443 Y133.883 F10800.000

;TYPE:External perimeter

G1 F1200.000

G1 X111.528 Y133.837 E0.00305

G1 X112.576 Y133.519 E0.03435

G1 X113.667 Y133.412 E0.03435

G1 X114.757 Y133.519 E0.03435

G1 X115.805 Y133.837 E0.03435

G1 X116.771 Y134.354 E0.03435

G1 X117.618 Y135.049 E0.03435

G1 X118.313 Y135.895 E0.03435

G1 X118.829 Y136.862 E0.03435

G1 X119.147 Y137.910 E0.03435

G1 X119.255 Y139.000 E0.03435

G1 X119.147 Y140.090 E0.03435

G1 X118.829 Y141.138 E0.03435

G1 X118.313 Y142.105 E0.03435

G1 X117.618 Y142.951 E0.03435

G1 X116.771 Y143.646 E0.03435

G1 X115.805 Y144.163 E0.03435

G1 X114.757 Y144.481 E0.03435

G1 X113.667 Y144.588 E0.03435

G1 X112.576 Y144.481 E0.03435

M73 P3 R15

G1 X111.528 Y144.163 E0.03435

G1 X110.562 Y143.646 E0.03435

G1 X109.715 Y142.951 E0.03435

G1 X109.020 Y142.105 E0.03435

G1 X108.504 Y141.138 E0.03435

G1 X108.186 Y140.090 E0.03435

G1 X108.079 Y139.000 E0.03435

G1 X108.186 Y137.910 E0.03435

G1 X108.504 Y136.862 E0.03435

G1 X109.020 Y135.895 E0.03435

G1 X109.715 Y135.049 E0.03435

G1 X110.562 Y134.354 E0.03435

G1 X111.390 Y133.911 E0.02942

G1 X111.527 Y133.932 F10800.000

;WIPE_START

G1 F8640.000

G1 X111.528 Y133.837 E-0.03628

G1 X112.576 Y133.519 E-0.25294

G1 X113.667 Y133.412 E-0.25294

G1 X114.606 Y133.504 E-0.21783

;WIPE_END

G1 E-0.04000 F2100.000

G1 Z0.800 F10800.000

G1 X118.021 Y136.390

G1 Z0.200

G1 E0.80000 F2100.000

;TYPE:Solid infill

;WIDTH:0.421764

G1 F1200.000

G1 X117.149 Y135.517 E0.03886

G1 X116.403 Y134.905 E0.03041

G1 X115.543 Y134.447 E0.03067

G1 X118.219 Y137.123 E0.11921

G1 X118.452 Y137.892 E0.02532

G1 X114.774 Y134.214 E0.16386

G1 X114.627 Y134.170 E0.00483

G1 X114.147 Y134.122 E0.01522

G1 X118.544 Y138.520 E0.19592

G1 X118.592 Y139.000 E0.01519

G1 X118.582 Y139.094 E0.00297

G1 X113.573 Y134.084 E0.22317

G1 X113.085 Y134.132 E0.01544

G1 X118.534 Y139.582 E0.24276

G1 X118.497 Y139.961 E0.01200

G1 X118.469 Y140.052 E0.00301

G1 X112.614 Y134.197 E0.26083

G1 X112.203 Y134.322 E0.01353

G1 X114.437 Y136.556 E0.09950

G1 X114.169 Y136.474 E0.00882

G1 X113.782 Y136.436 E0.01226

G1 X111.792 Y134.447 E0.08863

G1 X111.442 Y134.632 E0.01249

G1 X113.273 Y136.464 E0.08161

G1 X112.847 Y136.573 E0.01387

G1 X111.092 Y134.819 E0.07815

G1 X110.931 Y134.905 E0.00578

G1 X110.773 Y135.035 E0.00643

G1 X112.471 Y136.733 E0.07567

G1 X112.236 Y136.859 E0.00840

G1 X112.140 Y136.938 E0.00391

G1 X110.478 Y135.276 E0.07402

G1 X110.184 Y135.518 E0.01199

G1 X111.846 Y137.179 E0.07402

G1 X111.604 Y137.473 E0.01199

G1 X109.943 Y135.812 E0.07402

G1 X109.701 Y136.106 E0.01199

G1 X111.400 Y137.805 E0.07567

G1 X111.288 Y138.015 E0.00750

G1 X111.238 Y138.179 E0.00540

G1 X109.485 Y136.426 E0.07808

G1 X109.299 Y136.775 E0.01247

G1 X111.130 Y138.607 E0.08161

G1 X111.092 Y139.000 E0.01245

G1 X111.103 Y139.115 E0.00365

G1 X109.113 Y137.126 E0.08863

G1 X108.989 Y137.537 E0.01353

G1 X111.222 Y139.770 E0.09951

G1 X111.288 Y139.985 E0.00708

G1 X111.526 Y140.431 E0.01590

G1 X111.846 Y140.821 E0.01590

G1 X112.236 Y141.141 E0.01590

G1 X112.681 Y141.379 E0.01590

G1 X112.896 Y141.444 E0.00708

G1 X115.130 Y143.678 E0.09951

G1 X114.719 Y143.803 E0.01353

G1 X108.864 Y137.948 E0.26083

G1 X108.836 Y138.039 E0.00301

G1 X108.799 Y138.419 E0.01201

G1 X114.248 Y143.868 E0.24276

G1 X113.760 Y143.916 E0.01544

G1 X108.751 Y138.906 E0.22317

G1 X108.742 Y139.000 E0.00297

G1 X108.789 Y139.480 E0.01520

G1 X113.187 Y143.878 E0.19591

G1 X112.706 Y143.830 E0.01522

G1 X112.559 Y143.786 E0.00484

G1 X108.881 Y140.108 E0.16385

G1 X109.114 Y140.877 E0.02532

G1 X112.044 Y143.807 E0.13054

;WIPE_START

G1 F8640.000

G1 X109.717 Y141.480 E-0.76000

;WIPE_END

G1 E-0.04000 F2100.000

G1 Z0.800 F10800.000

G1 X115.668 Y143.680

G1 Z0.200

G1 E0.80000 F2100.000

G1 F1200.000

G1 X113.551 Y141.564 E0.09429

G1 X113.667 Y141.575 E0.00365

G1 X114.060 Y141.536 E0.01245

G1 X115.892 Y143.368 E0.08161

G1 X116.241 Y143.182 E0.01247

G1 X114.488 Y141.429 E0.07808

G1 X114.652 Y141.379 E0.00540

G1 X114.862 Y141.267 E0.00750

G1 X116.561 Y142.965 E0.07567

G1 X116.855 Y142.724 E0.01199

G1 X115.193 Y141.062 E0.07402

G1 X115.487 Y140.821 E0.01199

G1 X117.149 Y142.482 E0.07402

G1 X117.391 Y142.188 E0.01199

G1 X115.729 Y140.527 E0.07402

G1 X115.808 Y140.431 E0.00391

G1 X115.933 Y140.195 E0.00840

G1 X117.632 Y141.894 E0.07567

G1 X117.762 Y141.736 E0.00643

M73 P4 R15

G1 X117.848 Y141.574 E0.00578

G1 X116.095 Y139.822 E0.07808

G1 X116.192 Y139.502 E0.01051

G1 X116.203 Y139.393 E0.00345

G1 X118.035 Y141.225 E0.08161

G1 X118.220 Y140.874 E0.01249

G1 X116.230 Y138.885 E0.08863

G1 X116.192 Y138.498 E0.01226

G1 X116.111 Y138.230 E0.00882

G1 X118.481 Y140.599 E0.10556

;WIPE_START

G1 F8640.000

G1 X116.153 Y138.272 E-0.76000

;WIPE_END

G1 E-0.04000 F2100.000

G1 Z0.800 F10800.000

G1 X134.042 Y139.000

G1 Z0.200

G1 E0.80000 F2100.000

;TYPE:Perimeter

;WIDTH:0.42

G1 F1200.000

G1 X134.086 Y138.553 E0.01408

G1 X134.217 Y138.123 E0.01408

G1 X134.429 Y137.727 E0.01408

G1 X134.713 Y137.380 E0.01408

G1 X135.061 Y137.095 E0.01408

G1 X135.463 Y136.880 E0.01431

G1 X135.943 Y136.748 E0.01560

G1 X136.333 Y136.709 E0.01231

G1 X136.780 Y136.753 E0.01408

G1 X137.210 Y136.883 E0.01408

G1 X137.606 Y137.095 E0.01408

G1 X137.953 Y137.380 E0.01408

G1 X138.238 Y137.727 E0.01408

G1 X138.450 Y138.123 E0.01408

G1 X138.580 Y138.553 E0.01408

G1 X138.624 Y139.000 E0.01408

G1 X138.580 Y139.447 E0.01408

G1 X138.450 Y139.877 E0.01408

G1 X138.238 Y140.273 E0.01408

G1 X137.953 Y140.620 E0.01408

G1 X137.606 Y140.905 E0.01408

G1 X137.210 Y141.117 E0.01408

G1 X136.780 Y141.247 E0.01408

G1 X136.333 Y141.291 E0.01408

G1 X135.886 Y141.247 E0.01408

G1 X135.457 Y141.117 E0.01408

G1 X135.061 Y140.905 E0.01408

G1 X134.713 Y140.620 E0.01408

G1 X134.429 Y140.273 E0.01408

G1 X134.217 Y139.877 E0.01408

G1 X134.086 Y139.447 E0.01408

G1 X134.048 Y139.060 E0.01220

G1 X134.424 Y139.023 F10800.000

;TYPE:External perimeter

G1 F1200.000

G1 X134.458 Y138.627 E0.01246

G1 X134.567 Y138.268 E0.01175

G1 X134.744 Y137.938 E0.01175

G1 X134.981 Y137.648 E0.01175

G1 X135.271 Y137.410 E0.01175

G1 X135.604 Y137.232 E0.01184

G1 X136.012 Y137.120 E0.01327

G1 X136.333 Y137.088 E0.01013

G1 X136.706 Y137.125 E0.01175

G1 X137.065 Y137.234 E0.01175

G1 X137.396 Y137.410 E0.01175

G1 X137.685 Y137.648 E0.01175

G1 X137.923 Y137.938 E0.01175

G1 X138.100 Y138.268 E0.01175

G1 X138.209 Y138.627 E0.01175

G1 X138.245 Y139.000 E0.01175

G1 X138.209 Y139.373 E0.01175

G1 X138.100 Y139.732 E0.01175

G1 X137.923 Y140.062 E0.01175

G1 X137.685 Y140.352 E0.01175

G1 X137.396 Y140.590 E0.01175

G1 X137.065 Y140.766 E0.01175

G1 X136.706 Y140.875 E0.01175

G1 X136.333 Y140.912 E0.01175

G1 X135.960 Y140.875 E0.01175

G1 X135.602 Y140.766 E0.01175

G1 X135.271 Y140.590 E0.01175

G1 X134.981 Y140.352 E0.01175

G1 X134.744 Y140.062 E0.01175

G1 X134.567 Y139.732 E0.01175

G1 X134.458 Y139.373 E0.01175

G1 X134.429 Y139.082 E0.00915

G1 X134.078 Y138.827 F10800.000

;WIPE_START

G1 F8640.000

G1 X134.458 Y138.627 E-0.10538

G1 X134.567 Y138.268 E-0.08655

G1 X134.744 Y137.938 E-0.08655

G1 X134.981 Y137.648 E-0.08655

G1 X135.271 Y137.410 E-0.08655

G1 X135.604 Y137.232 E-0.08716

G1 X136.012 Y137.120 E-0.09769

G1 X136.333 Y137.088 E-0.07459

G1 X136.544 Y137.109 E-0.04899

;WIPE_END

G1 E-0.04000 F2100.000

G1 Z0.800 F10800.000

G1 X131.124 Y139.000

G1 Z0.200

G1 E0.80000 F2100.000

;TYPE:Perimeter

G1 F1200.000

G1 X131.224 Y137.984 E0.03202

G1 X131.521 Y137.007 E0.03202

G1 X132.002 Y136.106 E0.03202

G1 X132.650 Y135.317 E0.03202

G1 X133.439 Y134.669 E0.03202

G1 X134.340 Y134.187 E0.03202

G1 X135.317 Y133.891 E0.03202

G1 X136.333 Y133.791 E0.03202

G1 X137.350 Y133.891 E0.03202

G1 X138.327 Y134.187 E0.03202

G1 X139.227 Y134.669 E0.03202

G1 X140.017 Y135.317 E0.03202

G1 X140.665 Y136.106 E0.03202

G1 X141.146 Y137.007 E0.03202

G1 X141.442 Y137.984 E0.03202

G1 X141.542 Y139.000 E0.03202

G1 X141.442 Y140.016 E0.03202

G1 X141.146 Y140.993 E0.03202

G1 X140.665 Y141.894 E0.03202

G1 X140.017 Y142.683 E0.03202

G1 X139.227 Y143.331 E0.03202

G1 X138.327 Y143.813 E0.03202

G1 X137.350 Y144.109 E0.03202

G1 X136.333 Y144.209 E0.03202

G1 X135.317 Y144.109 E0.03202

G1 X134.340 Y143.813 E0.03202

G1 X133.439 Y143.331 E0.03202

G1 X132.650 Y142.683 E0.03202

G1 X132.002 Y141.894 E0.03202

G1 X131.521 Y140.993 E0.03202

G1 X131.224 Y140.016 E0.03202

G1 X131.130 Y139.060 E0.03014

G1 X130.755 Y139.097 F10800.000

;TYPE:External perimeter

G1 F1200.000

G1 X130.745 Y139.000 E0.00305

G1 X130.853 Y137.910 E0.03435

G1 X131.171 Y136.862 E0.03435

G1 X131.687 Y135.895 E0.03435

G1 X132.382 Y135.049 E0.03435

G1 X133.229 Y134.354 E0.03435

G1 X134.195 Y133.837 E0.03435

G1 X135.243 Y133.519 E0.03435

G1 X136.333 Y133.412 E0.03435

G1 X137.424 Y133.519 E0.03435

G1 X138.472 Y133.837 E0.03435

G1 X139.438 Y134.354 E0.03435

G1 X140.285 Y135.049 E0.03435

G1 X140.980 Y135.895 E0.03435

G1 X141.496 Y136.862 E0.03435

G1 X141.814 Y137.910 E0.03435

G1 X141.921 Y139.000 E0.03435

G1 X141.814 Y140.090 E0.03435

G1 X141.496 Y141.138 E0.03435

G1 X140.980 Y142.105 E0.03435

G1 X140.285 Y142.951 E0.03435

G1 X139.438 Y143.646 E0.03435

G1 X138.472 Y144.163 E0.03435

G1 X137.424 Y144.481 E0.03435

G1 X136.333 Y144.588 E0.03435

G1 X135.243 Y144.481 E0.03435

G1 X134.195 Y144.163 E0.03435

G1 X133.229 Y143.646 E0.03435

