; generated by PrusaSlicer 2.8.0 on 2024-09-21 at 14:29:07 UTC

; 

; external perimeters extrusion width = 0.45mm
; perimeters extrusion width = 0.45mm
; infill extrusion width = 0.45mm
; solid infill extrusion width = 0.45mm
; top infill extrusion width = 0.40mm
; first layer extrusion width = 0.42mm

M73 P0 R17
M201 X9000 Y9000 Z500 E10000 ; sets maximum accelerations, mm/sec^2
M203 X500 Y500 Z12 E120 ; sets maximum feedrates, mm / sec
M204 S2000 T1500 ; sets acceleration (S) and retract acceleration (R), mm/sec^2
M205 X10.00 Y10.00 Z0.20 E4.50 ; sets the jerk limits, mm/sec
M205 S0 T0 ; sets the minimum extruding and travel feed rate, mm/sec

; printing object arruela_fundo.stl id:0 copy 0
; stop printing object arruela_fundo.stl id:0 copy 0

;TYPE:Custom
M862.3 P "MK2.5" ; printer model check
M862.1 P0.4 ; nozzle diameter check
M115 U3.11.0 ; tell printer latest fw version
G90 ; use absolute coordinates
M83 ; extruder relative mode
M104 S215 ; set extruder temp
M140 S60 ; set bed temp
M190 S60 ; wait for bed temp
M109 S215 ; wait for extruder temp
G28 W ; home all without mesh bed level
G80 ; mesh bed leveling

G1 Z0.2 F720
G1 Y-3 F1000 ; go outside print area
G92 E0
G1 X60 E9 F1000 ; intro line
G1 X100 E12.5 F1000 ; intro line

G92 E0
G21 ; set units to millimeters
G90 ; use absolute coordinates
M83 ; use relative distances for extrusion
M900 K0.05 ; Filament gcode LA 1.5
M900 K30 ; Filament gcode LA 1.0
M107
;LAYER_CHANGE
;Z:0.2
;HEIGHT:0.2
G1 E-.8 F2100
G1 Z.6 F720
G1 X84.672 Y65.876 F10800
G1 Z.2 F720
G1 E.8 F2100
M204 S800
;TYPE:Skirt/Brim
;WIDTH:0.42
G1 F1200
G1 X85.066 Y65.369 E.02013
G1 X86.278 Y64.32 E.05026
G1 X87.673 Y63.527 E.05031
G1 X89.194 Y63.021 E.05026
G1 X91 Y62.812 E.057
G1 X159.215 Y62.822 E2.13883
G1 X160.805 Y63.021 E.05024
M73 P1 R17
G1 X162.328 Y63.527 E.05032
G1 X163.723 Y64.32 E.05031
G1 X164.632 Y65.066 E.03687
G1 X165.681 Y66.279 E.05028
G1 X166.473 Y67.673 E.05027
G1 X166.979 Y69.193 E.05023
G1 X167.178 Y70.786 E.05034
G1 X167.188 Y139 E2.1388
G1 X167.063 Y140.384 E.04357
M73 P1 R16
G1 X166.637 Y141.932 E.05034
G1 X165.919 Y143.365 E.05026
G1 X164.935 Y144.631 E.05027
G1 X163.722 Y145.681 E.0503
G1 X162.328 Y146.473 E.05027
G1 X160.806 Y146.979 E.05029
G1 X159 Y147.188 E.057
G1 X91 Y147.188 E2.13209
G1 X89.616 Y147.063 E.04357
G1 X88.068 Y146.637 E.05034
G1 X86.635 Y145.919 E.05026
G1 X85.369 Y144.935 E.05027
G1 X84.32 Y143.723 E.05026
G1 X83.527 Y142.328 E.05031
G1 X83.021 Y140.805 E.05032
G1 X82.812 Y139 E.05697
G1 X82.812 Y71 E2.13209
G1 X82.937 Y69.615 E.0436
M73 P2 R16
G1 X83.362 Y68.069 E.05027
G1 X84.081 Y66.635 E.0503
G1 X84.635 Y65.923 E.02829
M204 S1000
;WIPE_START
G1 F8640
G1 X84.672 Y65.876 E-.01381
G1 X85.066 Y65.369 E-.14826
G1 X86.278 Y64.32 E-.37012
G1 X87.286 Y63.747 E-.26781
;WIPE_END
G1 Z.6 F720
; printing object arruela_fundo.stl id:0 copy 0
G1 X93.237 Y138.555 F10800
G1 Z.2 F720
G1 E.8 F2100
M204 S800
;TYPE:Perimeter
;WIDTH:0.419999
G1 F1200
G1 X93.252 Y138.608 E.00173
G1 X93.285 Y139.056 E.01408
G1 X93.231 Y139.5 E.01402
G1 X93.09 Y139.926 E.01407
G1 X92.87 Y140.315 E.01401
G1 X92.577 Y140.656 E.0141
G1 X92.223 Y140.931 E.01405
G1 X91.824 Y141.132 E.01401
G1 X91.391 Y141.253 E.0141
G1 X90.945 Y141.285 E.01402
G1 X90.499 Y141.231 E.01409
G1 X90.075 Y141.09 E.01401
G1 X89.684 Y140.87 E.01407
G1 X89.345 Y140.577 E.01405
G1 X89.069 Y140.224 E.01405
G1 X88.867 Y139.823 E.01408
G1 X88.756 Y139.446 E.01232
G1 X88.715 Y138.944 E.01579
G1 X88.77 Y138.5 E.01403
G1 X88.91 Y138.075 E.01403
G1 X89.131 Y137.684 E.01408
G1 X89.423 Y137.345 E.01403
G1 X89.777 Y137.069 E.01407
G1 X90.191 Y136.863 E.0145
G1 X90.657 Y136.743 E.01509
G1 X91.056 Y136.715 E.01254
G1 X91.5 Y136.769 E.01402
G1 X91.926 Y136.91 E.01407
G1 X92.316 Y137.131 E.01405
G1 X92.656 Y137.423 E.01405
G1 X92.931 Y137.777 E.01405
G1 X93.133 Y138.177 E.01405
G1 X93.221 Y138.497 E.01041
M204 S1000
G1 X93.221 Y138.497 F10800
G1 X92.872 Y138.628
M204 S800
;TYPE:External perimeter
G1 F1200
G1 X92.877 Y138.645 E.00056
G1 X92.91 Y139.019 E.01177
G1 X92.87 Y139.391 E.01173
G1 X92.758 Y139.748 E.01173
G1 X92.578 Y140.076 E.01173
G1 X92.338 Y140.364 E.01175
G1 X92.046 Y140.599 E.01175
G1 X91.714 Y140.772 E.01174
G1 X91.354 Y140.877 E.01176
G1 X90.982 Y140.91 E.01171
G1 X90.609 Y140.87 E.01176
G1 X90.252 Y140.758 E.01173
G1 X89.923 Y140.578 E.01176
G1 X89.636 Y140.338 E.01173
G1 X89.401 Y140.046 E.01175
G1 X89.228 Y139.714 E.01174
G1 X89.126 Y139.373 E.01116
G1 X89.09 Y138.981 E.01234
G1 X89.13 Y138.609 E.01173
G1 X89.242 Y138.253 E.0117
G1 X89.422 Y137.923 E.01179
G1 X89.662 Y137.637 E.01171
G1 X89.954 Y137.401 E.01177
G1 X90.291 Y137.227 E.01189
G1 X90.695 Y137.118 E.01312
G1 X91.019 Y137.09 E.0102
G1 X91.391 Y137.13 E.01173
G1 X91.748 Y137.242 E.01173
G1 X92.077 Y137.422 E.01176
G1 X92.364 Y137.663 E.01175
G1 X92.599 Y137.954 E.01173
G1 X92.772 Y138.286 E.01174
G1 X92.855 Y138.57 E.00928
M204 S1000
;WIPE_START
G1 F8640
G1 X92.872 Y138.628 E-.01396
G1 X92.877 Y138.645 E-.00409
G1 X92.91 Y139.019 E-.08669
G1 X92.87 Y139.391 E-.08639
G1 X92.758 Y139.748 E-.08639
G1 X92.578 Y140.076 E-.08639
G1 X92.338 Y140.364 E-.08656
G1 X92.046 Y140.599 E-.08655
G1 X91.714 Y140.772 E-.08644
G1 X91.354 Y140.877 E-.08659
G1 X90.982 Y140.91 E-.08623
G1 X90.966 Y140.908 E-.00372
;WIPE_END
G1 Z.6 F720
G1 X94.732 Y135.376 F10800
G1 Z.2 F720
G1 E.8 F2100
M204 S800
;TYPE:Perimeter
G1 F1200
G1 X95.331 Y136.106 E.02961
G1 X95.745 Y136.88 E.02752
G1 X95.912 Y137.334 E.01517
G1 X96.123 Y138.127 E.02573
G1 X96.209 Y139 E.0275
G1 X96.109 Y140.016 E.03201
G1 X95.813 Y140.994 E.03204
G1 X95.331 Y141.894 E.03201
G1 X94.684 Y142.684 E.03202
G1 X93.894 Y143.331 E.03202
G1 X92.994 Y143.813 E.03201
G1 X92.016 Y144.109 E.03204
G1 X91 Y144.209 E.03201
G1 X89.984 Y144.109 E.03201
G1 X89.007 Y143.813 E.03201
G1 X88.106 Y143.331 E.03204
G1 X87.317 Y142.684 E.03199
G1 X86.669 Y141.894 E.03204
G1 X86.188 Y140.994 E.032
G1 X85.891 Y140.016 E.03205
G1 X85.791 Y139 E.03201
G1 X85.891 Y137.984 E.03201
G1 X86.188 Y137.007 E.03202
G1 X86.669 Y136.106 E.03202
G1 X87.317 Y135.317 E.03201
G1 X88.106 Y134.669 E.03201
G1 X89.007 Y134.187 E.03204
G1 X89.984 Y133.891 E.03201
G1 X91 Y133.791 E.03201
G1 X92.016 Y133.891 E.03201
G1 X92.994 Y134.187 E.03204
G1 X93.894 Y134.669 E.03201
G1 X94.684 Y135.317 E.03204
G1 X94.694 Y135.33 E.00051
M204 S1000
G1 X94.694 Y135.33 F10800
G1 X94.977 Y135.08
M204 S800
;TYPE:External perimeter
G1 F1200
G1 X95.646 Y135.896 E.03308
G1 X96.163 Y136.862 E.03435
G1 X96.371 Y137.547 E.02245
G1 X96.498 Y138.09 E.01748
G1 X96.588 Y139 E.02867
G1 X96.481 Y140.09 E.03434
G1 X96.163 Y141.139 E.03437
G1 X95.646 Y142.105 E.03435
G1 X94.952 Y142.952 E.03433
G1 X94.104 Y143.646 E.03436
G1 X93.139 Y144.163 E.03433
G1 X92.09 Y144.481 E.03437
G1 X91 Y144.588 E.03434
G1 X89.91 Y144.481 E.03434
G1 X88.862 Y144.163 E.03434
G1 X87.896 Y143.646 E.03435
G1 X87.049 Y142.952 E.03433
G1 X86.354 Y142.105 E.03435
G1 X85.837 Y141.139 E.03435
G1 X85.52 Y140.09 E.03436
G1 X85.412 Y139 E.03434
G1 X85.52 Y137.91 E.03434
G1 X85.837 Y136.862 E.03433
G1 X86.354 Y135.896 E.03435
G1 X87.049 Y135.049 E.03435
G1 X87.896 Y134.354 E.03435
G1 X88.862 Y133.837 E.03435
G1 X89.91 Y133.519 E.03434
G1 X91 Y133.412 E.03434
G1 X92.09 Y133.519 E.03434
G1 X93.139 Y133.837 E.03437
G1 X94.104 Y134.354 E.03433
G1 X94.936 Y135.036 E.03373
M204 S1000
;WIPE_START
G1 F8640
G1 X94.977 Y135.08 E-.01389
G1 X95.646 Y135.896 E-.24365
G1 X96.163 Y136.862 E-.25299
G1 X96.371 Y137.547 E-.1653
G1 X96.494 Y138.07 E-.12417
;WIPE_END
G1 Z.6 F720
G1 X95.355 Y136.39 F10800
G1 Z.2 F720
G1 E.8 F2100
M204 S800
;TYPE:Solid infill
;WIDTH:0.421761
G1 F1200
G1 X94.483 Y135.518 E.03885
G1 X93.736 Y134.905 E.03044
G1 X92.877 Y134.447 E.03067
G1 X95.552 Y137.123 E.11919
G1 X95.786 Y137.892 E.02532
G1 X92.108 Y134.214 E.16385
G1 X91.961 Y134.17 E.00483
G1 X91.48 Y134.122 E.01523
G1 X95.878 Y138.52 E.19593
G1 X95.925 Y139 E.01519
G1 X95.916 Y139.094 E.00297
G1 X90.906 Y134.084 E.22319
G1 X90.419 Y134.132 E.01542
G1 X95.868 Y139.581 E.24275
G1 X95.83 Y139.961 E.01203
M73 P3 R16
G1 X95.802 Y140.052 E.003
G1 X89.948 Y134.198 E.26079
G1 X89.537 Y134.322 E.01352
G1 X91.776 Y136.561 E.09974
G1 X91.984 Y136.624 E.00685
G1 X92.429 Y136.862 E.0159
G1 X92.819 Y137.182 E.01589
G1 X93.138 Y137.571 E.01585
G1 X93.376 Y138.016 E.0159
G1 X93.439 Y138.224 E.00685
G1 X95.678 Y140.463 E.09974
G1 X95.553 Y140.874 E.01353
G1 X93.56 Y138.881 E.08879
G1 X93.571 Y139 E.00376
G1 X93.533 Y139.39 E.01234
G1 X95.368 Y141.225 E.08175
G1 X95.182 Y141.574 E.01246
G1 X93.426 Y139.819 E.07821
G1 X93.376 Y139.984 E.00543
G1 X93.264 Y140.193 E.00747
G1 X94.966 Y141.894 E.0758
G1 X94.724 Y142.188 E.012
G1 X93.06 Y140.524 E.07413
G1 X92.819 Y140.819 E.012
G1 X94.483 Y142.483 E.07413
G1 X94.188 Y142.724 E.012
G1 X92.524 Y141.06 E.07413
G1 X92.429 Y141.138 E.00387
G1 X92.193 Y141.264 E.00843
G1 X93.894 Y142.965 E.07578
G1 X93.736 Y143.095 E.00645
G1 X93.574 Y143.181 E.00578
G1 X91.819 Y141.426 E.07818
G1 X91.502 Y141.522 E.01043
G1 X91.39 Y141.533 E.00355
G1 X93.225 Y143.368 E.08175
G1 X92.874 Y143.553 E.0125
G1 X90.692 Y141.371 E.09721
M204 S1000
;WIPE_START
G1 F8640
G1 X92.874 Y143.553 E-.71252
G1 X93.209 Y143.377 E-.08748
;WIPE_END
G1 Z.6 F720
G1 X91.312 Y136.633 F10800
G1 Z.2 F720
G1 E.8 F2100
M204 S800
G1 F1200
G1 X89.126 Y134.447 E.09738
G1 X88.775 Y134.632 E.0125
G1 X90.611 Y136.468 E.08179
G1 X90.184 Y136.576 E.01387
G1 X88.426 Y134.819 E.07829
G1 X88.264 Y134.905 E.00578
G1 X88.106 Y135.035 E.00645
G1 X89.807 Y136.736 E.07578
G1 X89.571 Y136.862 E.00843
G1 X89.476 Y136.94 E.00387
G1 X87.812 Y135.276 E.07413
G1 X87.518 Y135.518 E.012
G1 X89.182 Y137.182 E.07413
G1 X88.94 Y137.476 E.012
G1 X87.276 Y135.812 E.07413
G1 X87.035 Y136.106 E.01198
G1 X88.736 Y137.807 E.07578
G1 X88.625 Y138.016 E.00745
G1 X88.574 Y138.182 E.00547
G1 X86.819 Y136.426 E.07821
G1 X86.632 Y136.775 E.01247
G1 X88.467 Y138.61 E.08175
G1 X88.429 Y139 E.01234
G1 X88.44 Y139.119 E.00376
G1 X86.447 Y137.126 E.08879
G1 X86.322 Y137.537 E.01353
G1 X88.561 Y139.776 E.09974
G1 X88.625 Y139.984 E.00686
G1 X88.862 Y140.429 E.01588
G1 X89.182 Y140.818 E.01587
G1 X89.571 Y141.138 E.01587
G1 X90.016 Y141.375 E.01588
G1 X90.224 Y141.439 E.00686
G1 X92.463 Y143.678 E.09974
G1 X92.052 Y143.803 E.01353
G1 X86.198 Y137.948 E.26081
G1 X86.17 Y138.039 E.003
G1 X86.132 Y138.419 E.01203
G1 X91.582 Y143.868 E.24277
G1 X91.094 Y143.916 E.01545
G1 X86.084 Y138.906 E.22319
G1 X86.075 Y139 E.00297
G1 X86.122 Y139.48 E.01519
G1 X90.52 Y143.878 E.19593
G1 X90.039 Y143.831 E.01522
G1 X89.893 Y143.786 E.00481
G1 X86.214 Y140.108 E.16387
G1 X86.448 Y140.877 E.02532
G1 X89.378 Y143.807 E.13053
M204 S1000
;WIPE_START
G1 F8640
G1 X86.928 Y141.357 E-.8
;WIPE_END
G1 Z.6 F720
G1 X92.897 Y115.066 F10800
G1 Z.2 F720
G1 E.8 F2100
M204 S800
;TYPE:Perimeter
;WIDTH:0.419999
G1 F1200
G1 X92.931 Y115.11 E.00174
G1 X93.133 Y115.51 E.01405
G1 X93.252 Y115.942 E.01405
G1 X93.285 Y116.389 E.01405
G1 X93.231 Y116.833 E.01402
G1 X93.09 Y117.259 E.01407
G1 X92.87 Y117.648 E.01401
G1 X92.577 Y117.989 E.0141
G1 X92.223 Y118.265 E.01407
G1 X91.823 Y118.466 E.01404
G1 X91.392 Y118.585 E.01402
G1 X90.944 Y118.619 E.01409
G1 X90.5 Y118.564 E.01403
G1 X90.075 Y118.424 E.01403
G1 X89.684 Y118.203 E.01408
G1 X89.345 Y117.911 E.01403
G1 X89.069 Y117.557 E.01407
G1 X88.867 Y117.157 E.01405
G1 X88.756 Y116.78 E.01232
G1 X88.715 Y116.278 E.01579
G1 X88.77 Y115.833 E.01406
G1 X88.91 Y115.409 E.014
G1 X89.131 Y115.017 E.01411
G1 X89.423 Y114.679 E.014
G1 X89.777 Y114.402 E.01409
G1 X90.191 Y114.197 E.01448
G1 X90.657 Y114.076 E.0151
G1 X91.056 Y114.048 E.01254
G1 X91.5 Y114.103 E.01403
G1 X91.926 Y114.243 E.01406
G1 X92.316 Y114.464 E.01405
G1 X92.656 Y114.757 E.01407
G1 X92.86 Y115.019 E.01041
M204 S1000
G1 X92.86 Y115.019 F10800
G1 X92.587 Y115.273
M204 S800
;TYPE:External perimeter
G1 F1200
G1 X92.599 Y115.288 E.0006
G1 X92.772 Y115.62 E.01174
G1 X92.877 Y115.979 E.01173
G1 X92.91 Y116.352 E.01174
G1 X92.87 Y116.724 E.01173
G1 X92.758 Y117.081 E.01173
G1 X92.578 Y117.41 E.01176
G1 X92.338 Y117.698 E.01175
G1 X92.046 Y117.932 E.01173
G1 X91.714 Y118.105 E.01174
G1 X91.355 Y118.21 E.01173
G1 X90.981 Y118.243 E.01177
G1 X90.609 Y118.203 E.01173
G1 X90.253 Y118.091 E.0117
G1 X89.923 Y117.911 E.01179
G1 X89.636 Y117.671 E.01173
G1 X89.401 Y117.379 E.01175
G1 X89.228 Y117.047 E.01174
G1 X89.126 Y116.706 E.01116
G1 X89.09 Y116.315 E.01231
G1 X89.13 Y115.943 E.01173
G1 X89.242 Y115.586 E.01173
G1 X89.422 Y115.256 E.01179
G1 X89.662 Y114.97 E.01171
G1 X89.954 Y114.735 E.01175
G1 X90.291 Y114.56 E.01191
G1 X90.695 Y114.452 E.01311
G1 X91.019 Y114.423 E.0102
G1 X91.391 Y114.464 E.01173
G1 X91.748 Y114.576 E.01173
G1 X92.077 Y114.755 E.01174
G1 X92.364 Y114.996 E.01175
G1 X92.549 Y115.226 E.00925
M204 S1000
;WIPE_START
G1 F8640
G1 X92.587 Y115.273 E-.01396
G1 X92.599 Y115.288 E-.00444
G1 X92.772 Y115.62 E-.08644
G1 X92.877 Y115.979 E-.08637
G1 X92.91 Y116.352 E-.08646
G1 X92.87 Y116.724 E-.08639
G1 X92.758 Y117.081 E-.08639
G1 X92.578 Y117.41 E-.08659
G1 X92.338 Y117.698 E-.08656
G1 X92.046 Y117.932 E-.0864
G1 X91.714 Y118.105 E-.08644
G1 X91.699 Y118.109 E-.00356
;WIPE_END
G1 Z.6 F720
G1 X96.202 Y116.41 F10800
G1 Z.2 F720
G1 E.8 F2100
M204 S800
;TYPE:Perimeter
G1 F1200
G1 X96.109 Y117.35 E.02962
G1 X95.813 Y118.327 E.03201
G1 X95.331 Y119.228 E.03204
G1 X94.684 Y120.017 E.03199
G1 X93.894 Y120.665 E.03204
G1 X92.994 Y121.146 E.032
G1 X92.016 Y121.442 E.03204
G1 X91 Y121.542 E.03201
G1 X89.984 Y121.442 E.03201
G1 X89.007 Y121.146 E.03201
G1 X88.106 Y120.665 E.03202
G1 X87.317 Y120.017 E.03201
M73 P4 R16
G1 X86.669 Y119.228 E.03201
G1 X86.188 Y118.327 E.03202
G1 X85.891 Y117.35 E.03202
G1 X85.791 Y116.333 E.03204
G1 X85.891 Y115.317 E.03201
G1 X86.188 Y114.34 E.03202
G1 X86.669 Y113.44 E.032
G1 X87.317 Y112.65 E.03204
G1 X88.106 Y112.002 E.03201
G1 X89.007 Y111.521 E.03202
G1 X89.984 Y111.224 E.03202
G1 X91 Y111.124 E.03201
G1 X92.016 Y111.224 E.03201
G1 X92.994 Y111.521 E.03205
G1 X93.894 Y112.002 E.032
G1 X94.684 Y112.65 E.03204
G1 X95.331 Y113.439 E.03199
G1 X95.745 Y114.214 E.02755
G1 X95.912 Y114.667 E.01514
G1 X96.123 Y115.46 E.02573
G1 X96.209 Y116.333 E.0275
G1 X96.207 Y116.35 E.00054
M204 S1000
G1 X96.207 Y116.35 F10800
G1 X96.584 Y116.373
M204 S800
;TYPE:External perimeter
G1 F1200
G1 X96.481 Y117.423 E.03308
G1 X96.163 Y118.472 E.03437
G1 X95.646 Y119.438 E.03435
G1 X94.952 Y120.285 E.03433
G1 X94.104 Y120.98 E.03438
G1 X93.139 Y121.496 E.03431
G1 X92.09 Y121.814 E.03437
G1 X91 Y121.921 E.03434
G1 X89.91 Y121.814 E.03434
G1 X88.862 Y121.496 E.03434
G1 X87.896 Y120.98 E.03434
G1 X87.049 Y120.285 E.03435
G1 X86.354 Y119.438 E.03435
G1 X85.837 Y118.472 E.03435
G1 X85.52 Y117.423 E.03436
G1 X85.412 Y116.333 E.03434
G1 X85.52 Y115.243 E.03434
G1 X85.837 Y114.195 E.03433
G1 X86.354 Y113.229 E.03435
G1 X87.049 Y112.382 E.03435
G1 X87.896 Y111.687 E.03435
G1 X88.862 Y111.171 E.03434
G1 X89.91 Y110.853 E.03434
G1 X91 Y110.745 E.03434
G1 X92.09 Y110.853 E.03434
G1 X93.139 Y111.171 E.03437
G1 X94.104 Y111.687 E.03431
G1 X94.952 Y112.382 E.03438
G1 X95.646 Y113.229 E.03433
G1 X96.163 Y114.195 E.03435
G1 X96.371 Y114.881 E.02248
G1 X96.498 Y115.423 E.01745
G1 X96.586 Y116.313 E.02804
M204 S1000
;WIPE_START
G1 F8640
G1 X96.584 Y116.373 E-.01386
G1 X96.481 Y117.423 E-.24361
G1 X96.163 Y118.472 E-.2531
G1 X95.646 Y119.438 E-.25299
G1 X95.546 Y119.56 E-.03644
;WIPE_END
G1 Z.6 F720
G1 X95.355 Y113.723 F10800
G1 Z.2 F720
G1 E.8 F2100
M204 S800
;TYPE:Solid infill
;WIDTH:0.421761
G1 F1200
G1 X94.483 Y112.851 E.03885
G1 X93.736 Y112.238 E.03044
G1 X92.877 Y111.781 E.03065
G1 X95.552 Y114.457 E.11919
G1 X95.786 Y115.226 E.02532
G1 X92.108 Y111.548 E.16385
G1 X91.961 Y111.503 E.00484
G1 X91.48 Y111.456 E.01522
G1 X95.878 Y115.853 E.1959
G1 X95.925 Y116.333 E.01519
G1 X95.916 Y116.427 E.00297
G1 X90.906 Y111.418 E.22317
G1 X90.419 Y111.466 E.01542
G1 X95.868 Y116.915 E.24275
G1 X95.83 Y117.294 E.012
G1 X95.802 Y117.386 E.00303
G1 X89.948 Y111.531 E.26081
G1 X89.537 Y111.656 E.01353
G1 X91.776 Y113.895 E.09974
G1 X91.984 Y113.958 E.00685
