; generated by PrusaSlicer 2.5.0+linux-x64-GTK3 on 2022-09-09 at 20:31:14 UTC

; 

; external perimeters extrusion width = 0.45mm
; perimeters extrusion width = 0.45mm
; infill extrusion width = 0.45mm
; solid infill extrusion width = 0.45mm
; top infill extrusion width = 0.40mm
; first layer extrusion width = 0.42mm

M73 P0 R15
M201 X9000 Y9000 Z500 E10000 ; sets maximum accelerations, mm/sec^2
M203 X500 Y500 Z12 E120 ; sets maximum feedrates, mm / sec
M204 P2000 R1500 T2000 ; sets acceleration (P, T) and retract acceleration (R), mm/sec^2
M205 X10.00 Y10.00 Z0.20 E4.50 ; sets the jerk limits, mm/sec
M205 S0 T0 ; sets the minimum extruding and travel feed rate, mm/sec
M107
;TYPE:Custom
M862.3 P "MK2.5" ; printer model check
M862.1 P0.4 ; nozzle diameter check
M115 U3.11.0 ; tell printer latest fw version
G90 ; use absolute coordinates
M83 ; extruder relative mode
M104 S215 ; set extruder temp
M140 S60 ; set bed temp
M190 S60 ; wait for bed temp
M109 S215 ; wait for extruder temp
G28 W ; home all without mesh bed level
G80 ; mesh bed leveling

G1 Z0.2 F720
G1 Y-3 F1000 ; go outside print area
G92 E0
G1 X60 E9 F1000 ; intro line
G1 X100 E12.5 F1000 ; intro line

G92 E0
G21 ; set units to millimeters
G90 ; use absolute coordinates
M83 ; use relative distances for extrusion
M900 K0.05 ; Filament gcode LA 1.5
M900 K30 ; Filament gcode LA 1.0
M107
;LAYER_CHANGE
;Z:0.2
;HEIGHT:0.2
;BEFORE_LAYER_CHANGE
G92 E0.0
;0.2


G1 E-.8 F2100
G1 Z.4 F720
;AFTER_LAYER_CHANGE
;0.2
;CURRENT_Z: 0.2
G1 X84.642 Y65.607 F10800
G1 Z.2 F720
G1 E.8 F2100
M204 S800
;TYPE:Skirt/Brim
;WIDTH:0.42
G1 F1200
G1 X84.92 Y65.249 E.0142
G1 X86.159 Y64.174 E.05144
G1 X87.583 Y63.36 E.05144
G1 X89.139 Y62.841 E.05144
G1 X91 Y62.623 E.05873
G1 X159.233 Y62.634 E2.1394
G1 X160.861 Y62.841 E.05144
M73 P1 R15
G1 X162.417 Y63.36 E.05144
G1 X163.841 Y64.174 E.05144
G1 X164.751 Y64.92 E.03688
G1 X165.826 Y66.159 E.05144
G1 X166.64 Y67.583 E.05144
G1 X167.159 Y69.139 E.05144
G1 X167.366 Y70.767 E.05144
G1 X167.377 Y139 E2.1394
G1 X167.25 Y140.404 E.04419
G1 X166.818 Y141.986 E.05144
G1 X166.085 Y143.454 E.05144
G1 X165.08 Y144.751 E.05144
G1 X163.841 Y145.826 E.05144
G1 X162.417 Y146.64 E.05144
G1 X160.861 Y147.159 E.05144
G1 X159 Y147.377 E.05873
G1 X91 Y147.377 E2.13209
G1 X89.596 Y147.25 E.04419
G1 X88.014 Y146.818 E.05144
G1 X86.546 Y146.085 E.05144
G1 X85.249 Y145.08 E.05144
M73 P2 R15
G1 X84.174 Y143.841 E.05144
G1 X83.36 Y142.417 E.05144
G1 X82.841 Y140.861 E.05144
G1 X82.623 Y139 E.05873
G1 X82.623 Y71 E2.13209
G1 X82.75 Y69.596 E.04419
G1 X83.182 Y68.014 E.05144
G1 X83.915 Y66.546 E.05144
G1 X84.606 Y65.655 E.03536
M204 S1000
; printing object arruela_fundo.stl id:0 copy 0
;WIPE_START
G1 F8640
G1 X84.92 Y65.249 E-.11843
G1 X86.159 Y64.174 E-.37881
G1 X87.147 Y63.61 E-.26276
;WIPE_END
G1 E-.04 F2100
G1 Z.6 F720
G1 X154.669 Y141.894 F10800
G1 Z.2 F720
G1 E.8 F2100
M204 S800
;TYPE:Perimeter
;WIDTH:0.419999
G1 F1200
G1 X154.187 Y140.993 E.03202
G1 X153.891 Y140.016 E.03202
G1 X153.791 Y139 E.03202
G1 X153.891 Y137.984 E.03202
G1 X154.187 Y137.007 E.03202
G1 X154.669 Y136.106 E.03202
G1 X155.317 Y135.317 E.03202
G1 X156.106 Y134.669 E.03202
G1 X157.007 Y134.187 E.03202
G1 X157.984 Y133.891 E.03202
G1 X159 Y133.791 E.03202
G1 X160.016 Y133.891 E.03202
G1 X160.993 Y134.187 E.03202
G1 X161.894 Y134.669 E.03202
G1 X162.683 Y135.317 E.03202
G1 X163.331 Y136.106 E.03202
G1 X163.813 Y137.007 E.03202
G1 X164.109 Y137.984 E.03202
G1 X164.209 Y139 E.03202
G1 X164.109 Y140.016 E.03202
G1 X163.813 Y140.993 E.03202
G1 X163.331 Y141.894 E.03202
G1 X162.683 Y142.683 E.03202
G1 X161.894 Y143.331 E.03202
G1 X160.993 Y143.813 E.03202
G1 X160.016 Y144.109 E.03202
G1 X159 Y144.209 E.03202
G1 X157.984 Y144.109 E.03202
G1 X157.007 Y143.813 E.03202
G1 X156.106 Y143.331 E.03202
G1 X155.317 Y142.683 E.03202
G1 X154.707 Y141.94 E.03014
M204 S1000
G1 X154.354 Y142.105 F10800
M204 S800
;TYPE:External perimeter
G1 F1200
G1 X153.837 Y141.138 E.03435
G1 X153.519 Y140.09 E.03435
G1 X153.412 Y139 E.03435
G1 X153.519 Y137.91 E.03435
G1 X153.837 Y136.862 E.03435
G1 X154.354 Y135.895 E.03435
G1 X155.049 Y135.049 E.03435
G1 X155.895 Y134.354 E.03435
G1 X156.862 Y133.837 E.03435
G1 X157.91 Y133.519 E.03435
G1 X159 Y133.412 E.03435
G1 X160.09 Y133.519 E.03435
G1 X161.138 Y133.837 E.03435
G1 X162.105 Y134.354 E.03435
G1 X162.951 Y135.049 E.03435
G1 X163.646 Y135.895 E.03435
G1 X164.163 Y136.862 E.03435
G1 X164.481 Y137.91 E.03435
G1 X164.588 Y139 E.03435
G1 X164.481 Y140.09 E.03435
G1 X164.163 Y141.138 E.03435
G1 X163.646 Y142.105 E.03435
G1 X162.951 Y142.951 E.03435
G1 X162.105 Y143.646 E.03435
G1 X161.138 Y144.163 E.03435
G1 X160.09 Y144.481 E.03435
G1 X159 Y144.588 E.03435
G1 X157.91 Y144.481 E.03435
G1 X156.862 Y144.163 E.03435
G1 X155.895 Y143.646 E.03435
G1 X155.049 Y142.951 E.03435
G1 X154.392 Y142.151 E.03247
M204 S1000
G1 X154.531 Y141.746 F10800
;WIPE_START
G1 F8640
G1 X153.837 Y141.138 E-.26654
G1 X153.519 Y140.09 E-.25294
G1 X153.417 Y139.054 E-.24052
;WIPE_END
G1 E-.04 F2100
G1 Z.6 F720
G1 X159.869 Y136.891 F10800
G1 Z.2 F720
G1 E.8 F2100
M204 S800
;TYPE:Perimeter
G1 F1200
G1 X160.316 Y137.131 E.01591
G1 X160.655 Y137.423 E.01405
G1 X160.931 Y137.776 E.01405
G1 X161.133 Y138.177 E.01405
G1 X161.252 Y138.609 E.01405
G1 X161.285 Y139.055 E.01405
G1 X161.231 Y139.5 E.01405
G1 X161.09 Y139.926 E.01405
G1 X160.869 Y140.316 E.01405
G1 X160.577 Y140.655 E.01405
G1 X160.224 Y140.931 E.01405
G1 X159.823 Y141.133 E.01405
G1 X159.391 Y141.252 E.01405
G1 X158.945 Y141.285 E.01405
G1 X158.5 Y141.231 E.01405
G1 X158.074 Y141.09 E.01405
G1 X157.684 Y140.869 E.01405
G1 X157.345 Y140.577 E.01405
G1 X157.069 Y140.224 E.01405
G1 X156.867 Y139.823 E.01405
G1 X156.748 Y139.391 E.01405
G1 X156.715 Y139.055 E.01059
M73 P3 R15
G1 X156.756 Y138.554 E.01579
G1 X156.91 Y138.074 E.01579
G1 X157.131 Y137.684 E.01405
G1 X157.423 Y137.345 E.01405
G1 X157.776 Y137.069 E.01405
G1 X158.19 Y136.863 E.0145
G1 X158.658 Y136.743 E.01513
G1 X159.055 Y136.715 E.0125
G1 X159.5 Y136.769 E.01405
G1 X159.812 Y136.872 E.01028
M204 S1000
G1 X159.748 Y137.242 F10800
M204 S800
;TYPE:External perimeter
G1 F1200
G1 X160.077 Y137.422 E.01174
G1 X160.364 Y137.662 E.01174
G1 X160.599 Y137.954 E.01174
G1 X160.772 Y138.286 E.01174
G1 X160.877 Y138.645 E.01174
G1 X160.91 Y139.018 E.01174
G1 X160.87 Y139.391 E.01174
G1 X160.758 Y139.748 E.01174
G1 X160.578 Y140.077 E.01174
G1 X160.338 Y140.364 E.01174
G1 X160.046 Y140.599 E.01174
G1 X159.714 Y140.772 E.01174
G1 X159.355 Y140.877 E.01174
G1 X158.982 Y140.91 E.01174
G1 X158.609 Y140.87 E.01174
G1 X158.252 Y140.758 E.01174
G1 X157.923 Y140.578 E.01174
G1 X157.636 Y140.338 E.01174
G1 X157.401 Y140.046 E.01174
G1 X157.228 Y139.714 E.01174
G1 X157.123 Y139.355 E.01174
G1 X157.09 Y139.018 E.01059
G1 X157.13 Y138.609 E.01289
G1 X157.242 Y138.252 E.01174
G1 X157.422 Y137.923 E.01174
G1 X157.662 Y137.636 E.01174
G1 X157.954 Y137.401 E.01174
G1 X158.291 Y137.227 E.0119
G1 X158.695 Y137.118 E.01311
G1 X159.018 Y137.09 E.01019
G1 X159.391 Y137.13 E.01174
G1 X159.691 Y137.224 E.00986
M204 S1000
G1 X160.047 Y137.017 F10800
;WIPE_START
G1 F8640
G1 X160.077 Y137.422 E-.1001
G1 X160.364 Y137.662 E-.08646
G1 X160.599 Y137.954 E-.08647
G1 X160.772 Y138.286 E-.08647
G1 X160.877 Y138.645 E-.08647
G1 X160.91 Y139.018 E-.08647
G1 X160.87 Y139.391 E-.08646
G1 X160.758 Y139.748 E-.08647
G1 X160.644 Y139.956 E-.05463
;WIPE_END
G1 E-.04 F2100
G1 Z.6 F720
G1 X163.355 Y136.39 F10800
G1 Z.2 F720
G1 E.8 F2100
M204 S800
;TYPE:Solid infill
;WIDTH:0.421764
G1 F1200
G1 X162.482 Y135.517 E.03886
G1 X161.736 Y134.905 E.03041
G1 X160.877 Y134.447 E.03067
G1 X163.553 Y137.123 E.11921
G1 X163.786 Y137.892 E.02532
G1 X160.108 Y134.214 E.16386
G1 X159.961 Y134.17 E.00483
G1 X159.48 Y134.122 E.01522
G1 X163.878 Y138.52 E.19592
G1 X163.925 Y139 E.01519
G1 X163.916 Y139.094 E.00297
G1 X158.906 Y134.084 E.22317
G1 X158.418 Y134.132 E.01544
G1 X163.868 Y139.582 E.24276
G1 X163.83 Y139.961 E.012
G1 X163.803 Y140.052 E.00301
G1 X157.948 Y134.197 E.26083
G1 X157.537 Y134.322 E.01353
G1 X159.776 Y136.561 E.09975
G1 X159.984 Y136.624 E.00686
G1 X160.429 Y136.862 E.01588
G1 X160.818 Y137.182 E.01588
G1 X161.138 Y137.571 E.01588
G1 X161.376 Y138.016 E.01588
G1 X161.439 Y138.224 E.00686
G1 X163.678 Y140.463 E.09975
G1 X163.553 Y140.874 E.01353
G1 X161.56 Y138.881 E.08881
G1 X161.571 Y139 E.00377
G1 X161.533 Y139.39 E.01234
G1 X163.368 Y141.225 E.08175
G1 X163.181 Y141.574 E.01247
G1 X161.426 Y139.819 E.07821
G1 X161.376 Y139.984 E.00545
G1 X161.264 Y140.193 E.00745
G1 X162.965 Y141.894 E.07579
G1 X162.724 Y142.188 E.01199
G1 X161.06 Y140.524 E.07414
G1 X160.818 Y140.818 E.01199
G1 X162.482 Y142.482 E.07414
G1 X162.188 Y142.724 E.01199
G1 X160.524 Y141.06 E.07414
G1 X160.429 Y141.138 E.00389
G1 X160.193 Y141.264 E.00843
G1 X161.894 Y142.965 E.07579
G1 X161.736 Y143.095 E.00643
G1 X161.574 Y143.182 E.00579
G1 X159.819 Y141.426 E.07821
G1 X159.502 Y141.522 E.01043
G1 X159.39 Y141.533 E.00354
G1 X161.225 Y143.368 E.08175
G1 X160.874 Y143.553 E.01249
G1 X158.692 Y141.371 E.09724
M204 S1000
;WIPE_START
G1 F8640
G1 X160.874 Y143.553 E-.71275
G1 X161.055 Y143.458 E-.04725
;WIPE_END
G1 E-.04 F2100
G1 Z.6 F720
G1 X159.312 Y136.633 F10800
G1 Z.2 F720
G1 E.8 F2100
M204 S800
G1 F1200
G1 X157.126 Y134.447 E.09739
G1 X156.775 Y134.632 E.01249
G1 X158.611 Y136.468 E.08179
G1 X158.183 Y136.576 E.01389
G1 X156.426 Y134.819 E.0783
G1 X156.264 Y134.905 E.00578
G1 X156.106 Y135.035 E.00643
G1 X157.807 Y136.736 E.07579
G1 X157.571 Y136.862 E.00843
G1 X157.476 Y136.94 E.00389
G1 X155.812 Y135.276 E.07414
G1 X155.518 Y135.518 E.01199
G1 X157.182 Y137.182 E.07414
G1 X156.94 Y137.476 E.01199
G1 X155.276 Y135.812 E.07414
G1 X155.035 Y136.106 E.01199
G1 X156.736 Y137.807 E.07579
G1 X156.624 Y138.016 E.00745
G1 X156.574 Y138.181 E.00545
G1 X154.818 Y136.426 E.07821
G1 X154.632 Y136.775 E.01247
G1 X156.467 Y138.61 E.08175
G1 X156.429 Y139 E.01234
G1 X156.44 Y139.119 E.00377
G1 X154.447 Y137.126 E.08881
G1 X154.322 Y137.537 E.01353
G1 X156.561 Y139.776 E.09975
G1 X156.624 Y139.984 E.00685
G1 X156.862 Y140.429 E.01588
G1 X157.182 Y140.818 E.01588
G1 X157.571 Y141.138 E.01588
G1 X158.016 Y141.376 E.01588
G1 X158.224 Y141.439 E.00685
G1 X160.463 Y143.678 E.09975
G1 X160.052 Y143.803 E.01353
G1 X154.197 Y137.948 E.26083
G1 X154.17 Y138.039 E.00301
G1 X154.132 Y138.419 E.01201
G1 X159.581 Y143.868 E.24276
G1 X159.094 Y143.916 E.01544
G1 X154.084 Y138.906 E.22317
G1 X154.075 Y139 E.00297
M73 P4 R15
G1 X154.122 Y139.48 E.0152
G1 X158.52 Y143.878 E.19591
G1 X158.039 Y143.83 E.01522
G1 X157.892 Y143.786 E.00484
G1 X154.214 Y140.108 E.16385
G1 X154.448 Y140.877 E.02532
G1 X157.378 Y143.807 E.13054
M204 S1000
;WIPE_START
G1 F8640
G1 X155.05 Y141.48 E-.76
;WIPE_END
G1 E-.04 F2100
G1 Z.6 F720
G1 X138.327 Y134.187 F10800
G1 Z.2 F720
G1 E.8 F2100
M204 S800
;TYPE:Perimeter
;WIDTH:0.419999
G1 F1200
G1 X139.227 Y134.669 E.03202
G1 X140.017 Y135.317 E.03202
G1 X140.665 Y136.106 E.03202
G1 X141.146 Y137.007 E.03202
G1 X141.442 Y137.984 E.03202
G1 X141.542 Y139 E.03202
G1 X141.442 Y140.016 E.03202
G1 X141.146 Y140.993 E.03202
G1 X140.665 Y141.894 E.03202
G1 X140.017 Y142.683 E.03202
G1 X139.227 Y143.331 E.03202
G1 X138.327 Y143.813 E.03202
G1 X137.35 Y144.109 E.03202
G1 X136.333 Y144.209 E.03202
G1 X135.317 Y144.109 E.03202
G1 X134.34 Y143.813 E.03202
G1 X133.439 Y143.331 E.03202
G1 X132.65 Y142.683 E.03202
G1 X132.002 Y141.894 E.03202
G1 X131.521 Y140.993 E.03202
G1 X131.224 Y140.016 E.03202
G1 X131.124 Y139 E.03202
G1 X131.224 Y137.984 E.03202
G1 X131.521 Y137.007 E.03202
G1 X132.002 Y136.106 E.03202
G1 X132.65 Y135.317 E.03202
G1 X133.439 Y134.669 E.03202
G1 X134.34 Y134.187 E.03202
G1 X135.317 Y133.891 E.03202
G1 X136.333 Y133.791 E.03202
G1 X137.35 Y133.891 E.03202
G1 X138.269 Y134.17 E.03014
M204 S1000
G1 X138.472 Y133.837 F10800
M204 S800
;TYPE:External perimeter
G1 F1200
G1 X139.438 Y134.354 E.03435
G1 X140.285 Y135.049 E.03435
G1 X140.98 Y135.895 E.03435
G1 X141.496 Y136.862 E.03435
G1 X141.814 Y137.91 E.03435
G1 X141.921 Y139 E.03435
G1 X141.814 Y140.09 E.03435
G1 X141.496 Y141.138 E.03435
G1 X140.98 Y142.105 E.03435
G1 X140.285 Y142.951 E.03435
G1 X139.438 Y143.646 E.03435
G1 X138.472 Y144.163 E.03435
G1 X137.424 Y144.481 E.03435
G1 X136.333 Y144.588 E.03435
G1 X135.243 Y144.481 E.03435
G1 X134.195 Y144.163 E.03435
G1 X133.229 Y143.646 E.03435
G1 X132.382 Y142.951 E.03435
G1 X131.687 Y142.105 E.03435
G1 X131.171 Y141.138 E.03435
G1 X130.853 Y140.09 E.03435
G1 X130.745 Y139 E.03435
G1 X130.853 Y137.91 E.03435
G1 X131.171 Y136.862 E.03435
G1 X131.687 Y135.895 E.03435
G1 X132.382 Y135.049 E.03435
G1 X133.229 Y134.354 E.03435
G1 X134.195 Y133.837 E.03435
G1 X135.243 Y133.519 E.03435
G1 X136.333 Y133.412 E.03435
G1 X137.424 Y133.519 E.03435
G1 X138.414 Y133.82 E.03247
M204 S1000
G1 X138.524 Y134.234 F10800
;WIPE_START
G1 F8640
G1 X139.438 Y134.354 E-.26654
G1 X140.285 Y135.049 E-.25294
G1 X140.945 Y135.854 E-.24052
;WIPE_END
G1 E-.04 F2100
G1 Z.6 F720
G1 X138.57 Y138.551 F10800
G1 Z.2 F720
G1 E.8 F2100
M204 S800
;TYPE:Perimeter
G1 F1200
G1 X138.619 Y139.055 E.01591
G1 X138.564 Y139.5 E.01405
G1 X138.424 Y139.926 E.01405
G1 X138.203 Y140.316 E.01405
G1 X137.91 Y140.655 E.01405
G1 X137.557 Y140.931 E.01405
G1 X137.157 Y141.133 E.01405
G1 X136.725 Y141.252 E.01405
G1 X136.278 Y141.285 E.01405
G1 X135.833 Y141.231 E.01405
G1 X135.408 Y141.09 E.01405
G1 X135.018 Y140.869 E.01405
G1 X134.678 Y140.577 E.01405
G1 X134.402 Y140.224 E.01405
G1 X134.201 Y139.823 E.01405
G1 X134.081 Y139.391 E.01405
G1 X134.048 Y138.945 E.01405
G1 X134.103 Y138.5 E.01405
G1 X134.243 Y138.074 E.01405
G1 X134.464 Y137.684 E.01405
G1 X134.756 Y137.345 E.01405
G1 X135.11 Y137.069 E.01405
G1 X135.524 Y136.863 E.0145
G1 X135.991 Y136.743 E.01513
G1 X136.389 Y136.715 E.0125
G1 X136.834 Y136.769 E.01405
G1 X137.259 Y136.91 E.01405
G1 X137.649 Y137.131 E.01405
G1 X137.989 Y137.423 E.01405
G1 X138.264 Y137.776 E.01405
G1 X138.466 Y138.177 E.01405
G1 X138.554 Y138.493 E.01028
M204 S1000
G1 X138.21 Y138.645 F10800
M204 S800
;TYPE:External perimeter
G1 F1200
G1 X138.243 Y139.018 E.01174
G1 X138.203 Y139.391 E.01174
G1 X138.091 Y139.748 E.01174
G1 X137.911 Y140.077 E.01174
G1 X137.671 Y140.364 E.01174
G1 X137.379 Y140.599 E.01174
G1 X137.047 Y140.772 E.01174
G1 X136.688 Y140.877 E.01174
G1 X136.315 Y140.91 E.01174
G1 X135.943 Y140.87 E.01174
G1 X135.585 Y140.758 E.01174
G1 X135.257 Y140.578 E.01174
G1 X134.97 Y140.338 E.01174
G1 X134.735 Y140.046 E.01174
G1 X134.562 Y139.714 E.01174
G1 X134.456 Y139.355 E.01174
G1 X134.423 Y138.982 E.01174
G1 X134.463 Y138.609 E.01174
G1 X134.576 Y138.252 E.01174
G1 X134.755 Y137.923 E.01174
G1 X134.996 Y137.636 E.01174
G1 X135.287 Y137.401 E.01174
G1 X135.624 Y137.227 E.0119
G1 X136.028 Y137.118 E.01311
G1 X136.352 Y137.09 E.01019
G1 X136.724 Y137.13 E.01174
G1 X137.081 Y137.242 E.01174
G1 X137.41 Y137.422 E.01174
G1 X137.697 Y137.662 E.01174
G1 X137.932 Y137.954 E.01174
G1 X138.105 Y138.286 E.01174
G1 X138.194 Y138.588 E.00986
M204 S1000
G1 X138.564 Y138.769 F10800
;WIPE_START
G1 F8640
G1 X138.243 Y139.018 E-.10009
G1 X138.203 Y139.391 E-.08647
G1 X138.091 Y139.748 E-.08647
G1 X137.911 Y140.077 E-.08647
G1 X137.671 Y140.364 E-.08647
G1 X137.379 Y140.599 E-.08647
G1 X137.047 Y140.772 E-.08647
G1 X136.688 Y140.877 E-.08647
G1 X136.452 Y140.898 E-.05464
;WIPE_END
G1 E-.04 F2100
G1 Z.6 F720
G1 X140.688 Y136.39 F10800
G1 Z.2 F720
G1 E.8 F2100
M204 S800
;TYPE:Solid infill
;WIDTH:0.421764
G1 F1200
G1 X139.816 Y135.517 E.03886
G1 X139.069 Y134.905 E.03041
G1 X138.21 Y134.447 E.03067
G1 X140.886 Y137.123 E.11921
G1 X141.119 Y137.892 E.02532
G1 X137.441 Y134.214 E.16386
G1 X137.294 Y134.17 E.00483
G1 X136.813 Y134.122 E.01522
G1 X141.211 Y138.52 E.19592
G1 X141.258 Y139 E.01519
G1 X141.249 Y139.094 E.00297
G1 X136.239 Y134.084 E.22317
G1 X135.752 Y134.132 E.01544
G1 X141.201 Y139.582 E.24276
G1 X141.164 Y139.961 E.012
M73 P4 R14
G1 X141.136 Y140.052 E.00301
G1 X135.281 Y134.197 E.26083
G1 X134.87 Y134.322 E.01353
G1 X137.109 Y136.561 E.09975
G1 X137.317 Y136.624 E.00686
M73 P5 R14
