; generated by PrusaSlicer 2.6.0-alpha6+linux-x64-GTK3 on 2023-05-08 at 03:34:05 UTC

; 

; external perimeters extrusion width = 0.45mm
; perimeters extrusion width = 0.45mm
; infill extrusion width = 0.45mm
; solid infill extrusion width = 0.45mm
; top infill extrusion width = 0.40mm
; first layer extrusion width = 0.42mm

M73 P0 R18
M201 X9000 Y9000 Z500 E10000 ; sets maximum accelerations, mm/sec^2
M203 X500 Y500 Z12 E120 ; sets maximum feedrates, mm / sec
M204 S2000 T1500 ; sets acceleration (S) and retract acceleration (R), mm/sec^2
M205 X10.00 Y10.00 Z0.20 E4.50 ; sets the jerk limits, mm/sec
M205 S0 T0 ; sets the minimum extruding and travel feed rate, mm/sec
;TYPE:Custom
M862.3 P "MK2.5" ; printer model check
M862.1 P0.4 ; nozzle diameter check
M115 U3.11.0 ; tell printer latest fw version
G90 ; use absolute coordinates
M83 ; extruder relative mode
M104 S215 ; set extruder temp
M140 S60 ; set bed temp
M190 S60 ; wait for bed temp
M109 S215 ; wait for extruder temp
G28 W ; home all without mesh bed level
G80 ; mesh bed leveling

G1 Z0.2 F720
G1 Y-3 F1000 ; go outside print area
G92 E0
G1 X60 E9 F1000 ; intro line
G1 X100 E12.5 F1000 ; intro line

G92 E0
G21 ; set units to millimeters
G90 ; use absolute coordinates
M83 ; use relative distances for extrusion
M900 K0.05 ; Filament gcode LA 1.5
M900 K30 ; Filament gcode LA 1.0
M107
;LAYER_CHANGE
;Z:0.2
;HEIGHT:0.2
;BEFORE_LAYER_CHANGE
G92 E0.0
;0.2


G1 E-.8 F2100
G1 Z.4 F720
;AFTER_LAYER_CHANGE
;0.2
;CURRENT_Z: 0.2
G1 X115.707 Y89.143 F10800
G1 Z.2 F720
G1 E.8 F2100
M204 S800
;TYPE:Skirt/Brim
;WIDTH:0.42
G1 F1200
G1 X116.34 Y88.456 E.02929
G1 X117.436 Y87.724 E.04132
G1 X118.311 Y87.403 E.02922
G1 X119.5 Y87.246 E.0376
G1 X130.77 Y87.259 E.35336
G1 X132.064 Y87.517 E.04137
G1 X132.91 Y87.909 E.02923
G1 X133.66 Y88.456 E.02911
G1 X134.293 Y89.143 E.02929
G1 X134.776 Y89.936 E.02911
G1 X134.983 Y90.436 E.01697
G1 X135.202 Y91.34 E.02916
G1 X135.254 Y92 E.02076
G1 X135.254 Y118 E.81521
G1 X135.202 Y118.66 E.02076
G1 X134.983 Y119.564 E.02916
G1 X134.776 Y120.064 E.01697
G1 X134.293 Y120.857 E.02911
G1 X133.66 Y121.544 E.02929
G1 X132.564 Y122.276 E.04132
G1 X132.064 Y122.483 E.01697
G1 X131.16 Y122.702 E.02916
G1 X119.5 Y122.754 E.36559
G1 X118.84 Y122.702 E.02076
G1 X117.936 Y122.483 E.02916
G1 X117.436 Y122.276 E.01697
G1 X116.643 Y121.793 E.02911
G1 X115.707 Y120.857 E.0415
G1 X115.224 Y120.064 E.02911
G1 X115.017 Y119.564 E.01697
G1 X114.759 Y118.27 E.04137
G1 X114.746 Y92 E.82368
G1 X114.798 Y91.34 E.02076
M73 P1 R18
G1 X115.017 Y90.436 E.02916
G1 X115.224 Y89.936 E.01697
G1 X115.676 Y89.194 E.02724
M204 S1000
G1 X115.999 Y89.382 F10800
M204 S800
G1 F1200
G1 X116.579 Y88.748 E.02694
G1 X117.614 Y88.056 E.03904
G1 X118.877 Y87.673 E.04138
G1 X130.733 Y87.634 E.37174
G1 X131.955 Y87.877 E.03907
G1 X132.732 Y88.241 E.0269
G1 X133.421 Y88.747 E.0268
G1 X134.001 Y89.382 E.02697
G1 X134.444 Y90.114 E.02683
G1 X134.827 Y91.377 E.04138
G1 X134.877 Y118 E.83475
G1 X134.827 Y118.623 E.0196
G1 X134.623 Y119.455 E.02686
G1 X134.001 Y120.618 E.04135
G1 X133.421 Y121.253 E.02697
G1 X132.386 Y121.944 E.03902
G1 X131.123 Y122.327 E.04138
G1 X119.5 Y122.377 E.36443
G1 X118.877 Y122.327 E.0196
G1 X118.045 Y122.123 E.02686
G1 X116.882 Y121.501 E.04135
G1 X115.999 Y120.618 E.03915
G1 X115.377 Y119.455 E.04135
G1 X115.134 Y118.233 E.03907
G1 X115.123 Y92 E.82252
G1 X115.173 Y91.377 E.0196
G1 X115.377 Y90.545 E.02686
G1 X115.971 Y89.435 E.03947
M204 S1000
; printing object cable_holder_2.stl id:0 copy 0
;WIPE_START
G1 F8640
G1 X116.579 Y88.748 E-.21183
G1 X117.614 Y88.056 E-.28748
G1 X118.86 Y87.678 E-.30069
;WIPE_END
G1 Z.6 F720
G1 X118.319 Y91.871 F10800
G1 Z.2 F720
G1 E.8 F2100
M204 S800
;TYPE:Perimeter
;WIDTH:0.419999
G1 F1200
G1 X118.383 Y91.537 E.01066
G1 X118.645 Y91.145 E.01478
G1 X119.037 Y90.883 E.01478
G1 X119.539 Y90.787 E.01603
G1 X130.491 Y90.79 E.34339
G1 X130.963 Y90.883 E.01508
G1 X131.355 Y91.145 E.01478
G1 X131.617 Y91.537 E.01478
G1 X131.713 Y92.039 E.01603
G1 X131.713 Y117.961 E.81276
G1 X131.617 Y118.463 E.01603
G1 X131.355 Y118.855 E.01478
G1 X130.963 Y119.117 E.01478
G1 X130.461 Y119.213 E.01603
G1 X119.539 Y119.213 E.34245
G1 X119.037 Y119.117 E.01603
G1 X118.645 Y118.855 E.01478
G1 X118.383 Y118.463 E.01478
G1 X118.287 Y117.961 E.01603
G1 X118.287 Y92.039 E.81276
G1 X118.308 Y91.93 E.00348
M204 S1000
G1 X117.936 Y91.807 F10800
M204 S800
;TYPE:External perimeter
G1 F1200
G1 X118.033 Y91.392 E.01336
G1 X118.278 Y90.998 E.01455
G1 X118.618 Y90.68 E.0146
G1 X119.042 Y90.488 E.01459
G1 X119.52 Y90.41 E.01519
G1 X130.4 Y90.413 E.34113
G1 X130.655 Y90.427 E.00801
M73 P2 R18
G1 X131.108 Y90.533 E.01459
G1 X131.502 Y90.778 E.01455
G1 X131.82 Y91.118 E.0146
G1 X132.012 Y91.542 E.01459
G1 X132.09 Y92.02 E.01519
G1 X132.09 Y117.897 E.81135
G1 X132.073 Y118.155 E.00811
G1 X131.967 Y118.608 E.01459
G1 X131.722 Y119.002 E.01455
G1 X131.382 Y119.32 E.0146
G1 X130.958 Y119.512 E.01459
G1 X130.48 Y119.59 E.01519
G1 X119.603 Y119.59 E.34104
G1 X119.345 Y119.573 E.00811
G1 X118.892 Y119.467 E.01459
G1 X118.498 Y119.222 E.01455
G1 X118.18 Y118.882 E.0146
G1 X117.988 Y118.458 E.01459
G1 X117.91 Y117.98 E.01519
G1 X117.91 Y92.02 E.81396
G1 X117.925 Y91.866 E.00485
M204 S1000
G1 X118.309 Y91.662 F10800
;WIPE_START
G1 F8640
G1 X118.033 Y91.392 E-.11225
G1 X118.278 Y90.998 E-.10713
G1 X118.618 Y90.68 E-.10749
G1 X119.042 Y90.488 E-.10747
G1 X119.52 Y90.41 E-.11183
G1 X120.619 Y90.41 E-.25383
;WIPE_END
G1 Z.6 F720
G1 X131.6 Y92.327 F10800
G1 Z.2 F720
G1 E.8 F2100
M204 S800
;TYPE:Solid infill
;WIDTH:0.421477
G1 F1200
G1 X130.346 Y91.073 E.05582
G1 X129.81 Y91.073 E.01687
G1 X131.43 Y92.693 E.07211
G1 X131.43 Y93.228 E.01684
G1 X129.275 Y91.072 E.09595
G1 X128.739 Y91.072 E.01687
G1 X131.43 Y93.763 E.11979
G1 X131.43 Y94.299 E.01687
G1 X128.204 Y91.072 E.14363
G1 X127.668 Y91.072 E.01687
G1 X131.43 Y94.834 E.16747
G1 X131.43 Y95.369 E.01684
G1 X127.133 Y91.072 E.19128
G1 X126.597 Y91.072 E.01687
G1 X131.43 Y95.905 E.21514
G1 X131.43 Y96.44 E.01684
G1 X126.062 Y91.072 E.23896
G1 X125.526 Y91.071 E.01687
G1 X131.43 Y96.975 E.26282
G1 X131.43 Y97.511 E.01687
G1 X124.991 Y91.071 E.28666
G1 X124.455 Y91.071 E.01687
G1 X131.43 Y98.046 E.31049
G1 X131.43 Y98.581 E.01684
G1 X123.92 Y91.071 E.33431
G1 X123.384 Y91.071 E.01687
G1 X131.43 Y99.117 E.35817
G1 X131.43 Y99.652 E.01684
G1 X122.849 Y91.071 E.38199
G1 X122.313 Y91.071 E.01687
G1 X131.43 Y100.188 E.40585
G1 X131.43 Y100.723 E.01684
G1 X121.778 Y91.07 E.42968
G1 X121.242 Y91.07 E.01687
G1 X131.43 Y101.258 E.45352
G1 X131.43 Y101.794 E.01687
M73 P3 R18
G1 X120.707 Y91.07 E.47736
G1 X120.171 Y91.07 E.01687
G1 X131.43 Y102.329 E.5012
G1 X131.43 Y102.864 E.01684
G1 X119.636 Y91.07 E.52501
G1 X119.319 Y91.093 E.01
G1 X119.169 Y91.139 E.00494
G1 X131.43 Y103.4 E.5458
G1 X131.43 Y103.935 E.01684
G1 X118.844 Y91.349 E.56027
G1 X118.731 Y91.486 E.00559
G1 X118.645 Y91.646 E.00572
G1 X118.636 Y91.677 E.00102
G1 X131.43 Y104.47 E.56951
G1 X131.43 Y105.006 E.01687
G1 X118.57 Y92.146 E.57247
G1 X118.57 Y92.681 E.01684
M73 P3 R17
G1 X131.43 Y105.541 E.57247
G1 X131.43 Y106.077 E.01687
G1 X118.57 Y93.216 E.57249
G1 X118.57 Y93.752 E.01687
G1 X131.43 Y106.612 E.57247
G1 X131.43 Y107.147 E.01684
G1 X118.57 Y94.287 E.57247
G1 X118.57 Y94.822 E.01684
G1 X131.43 Y107.683 E.57249
G1 X131.43 Y108.218 E.01684
M73 P4 R17
G1 X118.57 Y95.358 E.57247
G1 X118.57 Y95.893 E.01684
G1 X131.43 Y108.753 E.57247
G1 X131.43 Y109.289 E.01687
G1 X118.57 Y96.428 E.57249
G1 X118.57 Y96.964 E.01687
G1 X131.43 Y109.824 E.57247
G1 X131.43 Y110.359 E.01684
G1 X118.57 Y97.499 E.57247
G1 X118.57 Y98.035 E.01687
G1 X131.43 Y110.895 E.57247
G1 X131.43 Y111.43 E.01684
G1 X118.57 Y98.57 E.57247
G1 X118.57 Y99.105 E.01684
G1 X131.43 Y111.966 E.57249
G1 X131.43 Y112.501 E.01684
G1 X118.57 Y99.641 E.57247
G1 X118.57 Y100.176 E.01684
G1 X131.43 Y113.036 E.57247
G1 X131.43 Y113.572 E.01687
G1 X118.57 Y100.711 E.57249
G1 X118.57 Y101.247 E.01687
G1 X131.43 Y114.107 E.57247
G1 X131.43 Y114.642 E.01684
M73 P5 R17
G1 X118.57 Y101.782 E.57247
G1 X118.57 Y102.317 E.01684
G1 X131.43 Y115.178 E.57249
G1 X131.43 Y115.713 E.01684
G1 X118.57 Y102.853 E.57247
G1 X118.57 Y103.388 E.01684
G1 X131.43 Y116.248 E.57247
G1 X131.43 Y116.784 E.01687
G1 X118.57 Y103.924 E.57247
G1 X118.57 Y104.459 E.01684
G1 X131.43 Y117.319 E.57247
G1 X131.43 Y117.854 E.01684
G1 X118.57 Y104.994 E.57247
G1 X118.57 Y105.53 E.01687
G1 X131.364 Y118.324 E.56953
G1 X131.269 Y118.514 E.00669
G1 X131.156 Y118.651 E.00559
G1 X118.57 Y106.065 E.56027
G1 X118.57 Y106.6 E.01684
G1 X130.831 Y118.861 E.5458
G1 X130.68 Y118.907 E.00497
G1 X130.364 Y118.93 E.00997
G1 X118.57 Y107.136 E.52501
G1 X118.57 Y107.671 E.01684
G1 X129.829 Y118.93 E.5012
G1 X129.294 Y118.93 E.01684
M73 P6 R17
G1 X118.57 Y108.206 E.47738
G1 X118.57 Y108.742 E.01687
G1 X128.758 Y118.93 E.45352
G1 X128.223 Y118.93 E.01684
G1 X118.57 Y109.277 E.42971
G1 X118.57 Y109.812 E.01684
G1 X127.688 Y118.93 E.40589
G1 X127.152 Y118.93 E.01687
G1 X118.57 Y110.348 E.38203
G1 X118.57 Y110.883 E.01684
G1 X126.617 Y118.93 E.35822
G1 X126.081 Y118.93 E.01687
G1 X118.57 Y111.419 E.33436
G1 X118.57 Y111.954 E.01684
G1 X125.546 Y118.93 E.31054
G1 X125.011 Y118.93 E.01684
G1 X118.57 Y112.489 E.28672
G1 X118.57 Y113.025 E.01687
G1 X124.475 Y118.93 E.26286
G1 X123.94 Y118.93 E.01684
G1 X118.57 Y113.56 E.23905
G1 X118.57 Y114.095 E.01684
G1 X123.405 Y118.93 E.21523
G1 X122.869 Y118.93 E.01687
G1 X118.57 Y114.631 E.19137
G1 X118.57 Y115.166 E.01684
G1 X122.334 Y118.93 E.16756
G1 X121.799 Y118.93 E.01684
G1 X118.57 Y115.701 E.14374
G1 X118.57 Y116.237 E.01687
G1 X121.263 Y118.93 E.11988
G1 X120.728 Y118.93 E.01684
G1 X118.57 Y116.772 E.09606
G1 X118.57 Y117.308 E.01687
G1 X120.192 Y118.93 E.0722
G1 X119.657 Y118.93 E.01684
G1 X118.4 Y117.673 E.05596
M204 S1000
; stop printing object cable_holder_2.stl id:0 copy 0
M106 S84.15
;LAYER_CHANGE
;Z:0.4
;HEIGHT:0.2
;BEFORE_LAYER_CHANGE
G92 E0.0
;0.4


;WIPE_START
G1 F8640
G1 X119.657 Y118.93 E-.41047
G1 X120.192 Y118.93 E-.12353
G1 X119.377 Y118.115 E-.266
;WIPE_END
G1 Z.6 F720
;AFTER_LAYER_CHANGE
;0.4
;CURRENT_Z: 0.4
M104 S210 ; set temperature
G1 X116.171 Y121.321 F10800
G1 Z.4 F720
G1 E.8 F2100
;TYPE:Skirt/Brim
;WIDTH:0.42
G1 F3000
G1 X115.707 Y120.857 E.02057
G1 X115.224 Y120.064 E.02911
G1 X115.017 Y119.564 E.01697
G1 X114.759 Y118.27 E.04137
G1 X114.746 Y92 E.82368
G1 X114.798 Y91.34 E.02076
G1 X115.017 Y90.436 E.02916
G1 X115.224 Y89.936 E.01697
G1 X115.707 Y89.143 E.02911
G1 X116.34 Y88.456 E.02929
G1 X117.436 Y87.724 E.04132
G1 X118.311 Y87.403 E.02922
G1 X119.5 Y87.246 E.0376
G1 X130.77 Y87.259 E.35336
G1 X132.064 Y87.517 E.04137
G1 X132.91 Y87.909 E.02923
G1 X133.66 Y88.456 E.02911
G1 X134.293 Y89.143 E.02929
G1 X134.776 Y89.936 E.02911
G1 X134.983 Y90.436 E.01697
G1 X135.202 Y91.34 E.02916
G1 X135.254 Y92 E.02076
G1 X135.254 Y118 E.81521
G1 X135.202 Y118.66 E.02076
G1 X134.983 Y119.564 E.02916
G1 X134.776 Y120.064 E.01697
G1 X134.293 Y120.857 E.02911
G1 X133.66 Y121.544 E.02929
G1 X132.564 Y122.276 E.04132
G1 X132.064 Y122.483 E.01697
G1 X131.16 Y122.702 E.02916
G1 X119.5 Y122.754 E.36559
G1 X118.84 Y122.702 E.02076
M73 P7 R17
G1 X117.936 Y122.483 E.02916
G1 X117.436 Y122.276 E.01697
G1 X116.643 Y121.793 E.02911
G1 X116.214 Y121.364 E.01902
G1 X116.479 Y121.098 F10800
G1 F3000
G1 X115.999 Y120.618 E.02128
G1 X115.377 Y119.455 E.04135
G1 X115.134 Y118.233 E.03907
G1 X115.123 Y92 E.82252
G1 X115.173 Y91.377 E.0196
G1 X115.377 Y90.545 E.02686
G1 X115.999 Y89.382 E.04135
G1 X116.579 Y88.748 E.02694
G1 X117.614 Y88.056 E.03904
G1 X118.877 Y87.673 E.04138
G1 X130.733 Y87.634 E.37174
G1 X131.955 Y87.877 E.03907
G1 X132.732 Y88.241 E.0269
G1 X133.421 Y88.747 E.0268
G1 X134.001 Y89.382 E.02697
G1 X134.444 Y90.114 E.02683
G1 X134.827 Y91.377 E.04138
G1 X134.877 Y118 E.83475
G1 X134.827 Y118.623 E.0196
G1 X134.623 Y119.455 E.02686
G1 X134.001 Y120.618 E.04135
G1 X133.421 Y121.253 E.02697
G1 X132.386 Y121.944 E.03902
G1 X131.123 Y122.327 E.04138
G1 X119.5 Y122.377 E.36443
G1 X118.877 Y122.327 E.0196
G1 X118.045 Y122.123 E.02686
G1 X116.882 Y121.501 E.04135
G1 X116.522 Y121.141 E.01596
; printing object cable_holder_2.stl id:0 copy 0
;WIPE_START
G1 F8640
G1 X115.999 Y120.618 E-.17078
G1 X115.377 Y119.455 E-.30453
G1 X115.134 Y118.233 E-.28769
G1 X115.134 Y118.073 E-.037
;WIPE_END
G1 Z.8 F720
G1 X118.145 Y91.93 F10800
G1 Z.4 F720
G1 E.8 F2100
M204 S800
;TYPE:Perimeter
;WIDTH:0.449999
G1 F3000
G1 X118.239 Y91.478 E.01563
G1 X118.45 Y91.139 E.01352
G1 X118.742 Y90.865 E.01355
G1 X119.106 Y90.7 E.01353
G1 X119.531 Y90.632 E.01457
G1 X130.586 Y90.644 E.3742
G1 X131.022 Y90.739 E.0151
G1 X131.361 Y90.949 E.0135
G1 X131.635 Y91.242 E.01358
G1 X131.8 Y91.606 E.01353
G1 X131.868 Y92.031 E.01457
G1 X131.868 Y117.897 E.87553
G1 X131.861 Y118.041 E.00488
G1 X131.761 Y118.522 E.01663
G1 X131.55 Y118.861 E.01352
G1 X131.258 Y119.135 E.01355
G1 X130.894 Y119.3 E.01353
G1 X130.469 Y119.368 E.01457
G1 X119.603 Y119.368 E.3678
G1 X119.459 Y119.361 E.00488
G1 X118.978 Y119.261 E.01663
G1 X118.639 Y119.05 E.01352
G1 X118.365 Y118.758 E.01355
G1 X118.2 Y118.394 E.01353
G1 X118.132 Y117.969 E.01457
G1 X118.136 Y91.99 E.87936
M204 S1000
G1 X117.741 Y91.847 F10800
M204 S800
;TYPE:External perimeter
G1 F2400
G1 X117.861 Y91.321 E.01826
G1 X118.135 Y90.881 E.01755
G1 X118.515 Y90.525 E.01763
G1 X118.988 Y90.311 E.01757
G1 X119.511 Y90.225 E.01794
G1 X130.685 Y90.244 E.37823
G1 X131.179 Y90.361 E.01718
G1 X131.62 Y90.635 E.01757
G1 X131.975 Y91.015 E.0176
G1 X132.189 Y91.488 E.01757
G1 X132.275 Y92.011 E.01794
G1 X132.275 Y117.897 E.87621
G1 X132.257 Y118.173 E.00936
G1 X132.139 Y118.679 E.01759
G1 X131.865 Y119.119 E.01755
G1 X131.485 Y119.475 E.01763
G1 X131.012 Y119.689 E.01757
G1 X130.489 Y119.775 E.01794
G1 X119.603 Y119.775 E.36848
G1 X119.327 Y119.757 E.00936
G1 X118.821 Y119.639 E.01759
G1 X118.381 Y119.365 E.01755
G1 X118.025 Y118.985 E.01763
G1 X117.811 Y118.512 E.01757
G1 X117.725 Y117.989 E.01794
G1 X117.735 Y91.907 E.88284
M204 S1000
G1 X118.113 Y91.7 F10800
;WIPE_START
G1 F8640
G1 X117.861 Y91.321 E-.1384
G1 X118.135 Y90.881 E-.11969
G1 X118.515 Y90.525 E-.12023
G1 X118.988 Y90.311 E-.11988
G1 X119.511 Y90.225 E-.12238
G1 X120.288 Y90.226 E-.17942
;WIPE_END
G1 Z.8 F720
G1 X130.793 Y119.203 F10800
G1 Z.4 F720
G1 E.8 F2100
M204 S2000
;TYPE:Solid infill
;WIDTH:0.452752
G1 F3000
G1 X131.251 Y118.745 E.02207
G1 X131.38 Y118.588 E.00692
G1 X131.478 Y118.405 E.00707
G1 X131.538 Y118.206 E.00708
G1 X131.563 Y117.854 E.01203
G1 X130.354 Y119.063 E.05827
G1 X129.774 Y119.063 E.01977
G1 X131.563 Y117.274 E.08622
G1 X131.563 Y116.694 E.01977
G1 X129.194 Y119.063 E.11417
G1 X128.615 Y119.063 E.01973
G1 X131.563 Y116.115 E.14207
G1 X131.563 Y115.535 E.01977
G1 X128.035 Y119.063 E.17003
G1 X127.456 Y119.063 E.01973
G1 X131.563 Y114.956 E.19793
G1 X131.563 Y114.376 E.01977
G1 X126.876 Y119.063 E.22588
G1 X126.296 Y119.063 E.01977
G1 X131.563 Y113.796 E.25383
G1 X131.563 Y113.217 E.01973
G1 X125.717 Y119.063 E.28174
G1 X125.137 Y119.063 E.01977
G1 X131.563 Y112.637 E.30969
G1 X131.563 Y112.058 E.01973
G1 X124.558 Y119.063 E.33759
G1 X123.978 Y119.063 E.01977
G1 X131.563 Y111.478 E.36554
G1 X131.563 Y110.899 E.01973
G1 X123.399 Y119.063 E.39345
G1 X122.819 Y119.063 E.01977
G1 X131.563 Y110.319 E.4214
G1 X131.563 Y109.739 E.01977
G1 X122.239 Y119.063 E.44935
G1 X121.66 Y119.063 E.01973
G1 X131.563 Y109.16 E.47726
G1 X131.563 Y108.58 E.01977
G1 X121.08 Y119.063 E.50521
G1 X120.501 Y119.063 E.01973
G1 X131.563 Y108.001 E.53311
G1 X131.563 Y107.421 E.01977
M73 P8 R17
G1 X119.921 Y119.063 E.56106
G1 X119.36 Y119.044 E.01913
G1 X131.563 Y106.841 E.5881
G1 X131.563 Y106.262 E.01973
G1 X118.933 Y118.891 E.60865
G1 X118.752 Y118.748 E.00786
G1 X118.637 Y118.608 E.00617
G1 X131.563 Y105.682 E.62294
G1 X131.563 Y105.103 E.01973
G1 X118.462 Y118.203 E.63135
G1 X118.437 Y117.954 E.00853
G1 X118.437 Y117.648 E.01043
G1 X131.563 Y104.523 E.63256
G1 X131.563 Y103.943 E.01977
G1 X118.437 Y117.069 E.63258
G1 X118.437 Y116.489 E.01977
G1 X131.563 Y103.364 E.63256
