; generated by PrusaSlicer 2.5.0+linux-x64-GTK3 on 2022-09-09 at 20:22:39 UTC

; 

; external perimeters extrusion width = 0.45mm
; perimeters extrusion width = 0.45mm
; infill extrusion width = 0.45mm
; solid infill extrusion width = 0.45mm
; top infill extrusion width = 0.40mm
; first layer extrusion width = 0.42mm

M73 P0 R18
M201 X9000 Y9000 Z500 E10000 ; sets maximum accelerations, mm/sec^2
M203 X500 Y500 Z12 E120 ; sets maximum feedrates, mm / sec
M204 P2000 R1500 T2000 ; sets acceleration (P, T) and retract acceleration (R), mm/sec^2
M205 X10.00 Y10.00 Z0.20 E4.50 ; sets the jerk limits, mm/sec
M205 S0 T0 ; sets the minimum extruding and travel feed rate, mm/sec
M107
;TYPE:Custom
M862.3 P "MK2.5" ; printer model check
M862.1 P0.4 ; nozzle diameter check
M115 U3.11.0 ; tell printer latest fw version
G90 ; use absolute coordinates
M83 ; extruder relative mode
M104 S215 ; set extruder temp
M140 S60 ; set bed temp
M190 S60 ; wait for bed temp
M109 S215 ; wait for extruder temp
G28 W ; home all without mesh bed level
G80 ; mesh bed leveling

G1 Z0.2 F720
G1 Y-3 F1000 ; go outside print area
G92 E0
G1 X60 E9 F1000 ; intro line
G1 X100 E12.5 F1000 ; intro line

G92 E0
G21 ; set units to millimeters
G90 ; use absolute coordinates
M83 ; use relative distances for extrusion
M900 K0.05 ; Filament gcode LA 1.5
M900 K30 ; Filament gcode LA 1.0
M107
;LAYER_CHANGE
;Z:0.2
;HEIGHT:0.2
;BEFORE_LAYER_CHANGE
G92 E0.0
;0.2


G1 E-.8 F2100
G1 Z.4 F720
;AFTER_LAYER_CHANGE
;0.2
;CURRENT_Z: 0.2
G1 X115.708 Y89.142 F10800
G1 Z.2 F720
G1 E.8 F2100
M204 S800
;TYPE:Skirt/Brim
;WIDTH:0.42
G1 F1200
G1 X116.339 Y88.457 E.02919
G1 X117.091 Y87.908 E.02919
G1 X118.31 Y87.403 E.0414
G1 X119.5 Y87.246 E.03762
G1 X130.77 Y87.259 E.35336
G1 X132.065 Y87.517 E.0414
G1 X132.909 Y87.908 E.02919
G1 X133.661 Y88.457 E.02919
G1 X134.292 Y89.142 E.02919
G1 X134.777 Y89.936 E.02919
G1 X135.097 Y90.81 E.02919
G1 X135.202 Y91.34 E.01693
G1 X135.254 Y92 E.02076
G1 X135.254 Y118 E.81521
G1 X135.202 Y118.66 E.02076
G1 X134.983 Y119.565 E.02919
G1 X134.777 Y120.064 E.01693
G1 X134.292 Y120.858 E.02919
G1 X133.661 Y121.543 E.02919
G1 X132.564 Y122.277 E.0414
G1 X131.952 Y122.517 E.0206
G1 X131.16 Y122.702 E.02551
G1 X119.5 Y122.754 E.3656
G1 X118.84 Y122.702 E.02076
G1 X117.935 Y122.483 E.02919
G1 X117.436 Y122.277 E.01693
G1 X116.642 Y121.792 E.02919
G1 X115.708 Y120.858 E.0414
G1 X115.316 Y120.237 E.02305
G1 X115.017 Y119.565 E.02305
G1 X114.759 Y118.27 E.0414
G1 X114.746 Y92 E.82368
G1 X114.798 Y91.34 E.02076
M73 P1 R18
G1 X115.017 Y90.435 E.02919
G1 X115.408 Y89.591 E.02919
G1 X115.675 Y89.192 E.01505
M204 S1000
G1 X116 Y89.381 F10800
M204 S800
G1 F1200
G1 X116.669 Y88.674 E.03053
G1 X117.614 Y88.056 E.03541
G1 X118.877 Y87.673 E.04137
G1 X130.733 Y87.634 E.37174
G1 X131.955 Y87.878 E.03908
G1 X132.732 Y88.241 E.02687
G1 X133.422 Y88.748 E.02687
G1 X134 Y89.381 E.02687
G1 X134.444 Y90.114 E.02687
G1 X134.827 Y91.377 E.04137
G1 X134.877 Y118 E.83475
G1 X134.827 Y118.623 E.0196
G1 X134.622 Y119.455 E.02687
G1 X134 Y120.619 E.04137
G1 X133.422 Y121.252 E.02687
G1 X132.386 Y121.944 E.03908
G1 X131.123 Y122.327 E.04137
G1 X119.5 Y122.377 E.36444
G1 X118.877 Y122.327 E.0196
G1 X118.045 Y122.122 E.02687
G1 X116.881 Y121.5 E.04137
G1 X116 Y120.619 E.03908
G1 X115.378 Y119.455 E.04137
G1 X115.134 Y118.233 E.03908
G1 X115.123 Y92 E.82252
G1 X115.173 Y91.377 E.0196
G1 X115.378 Y90.545 E.02687
G1 X115.971 Y89.434 E.03949
M204 S1000
; printing object cable_holder_2.stl id:0 copy 0
;WIPE_START
G1 F8640
G1 X116.669 Y88.674 E-.23819
G1 X117.614 Y88.056 E-.26078
G1 X118.696 Y87.728 E-.26103
;WIPE_END
G1 E-.04 F2100
G1 Z.6 F720
G1 X119.054 Y119.121 F10800
G1 Z.2 F720
G1 E.8 F2100
M204 S800
;TYPE:Perimeter
;WIDTH:0.419999
G1 F1200
G1 X118.645 Y118.855 E.01529
G1 X118.383 Y118.463 E.01479
G1 X118.287 Y117.961 E.01601
G1 X118.287 Y92.039 E.81279
G1 X118.383 Y91.537 E.01601
G1 X118.645 Y91.145 E.01479
G1 X119.037 Y90.883 E.01479
G1 X119.539 Y90.787 E.016
G1 X130.49 Y90.79 E.34339
G1 X130.963 Y90.883 E.01509
G1 X131.355 Y91.145 E.01479
G1 X131.617 Y91.537 E.01479
G1 X131.713 Y92.039 E.01601
G1 X131.713 Y117.961 E.81279
G1 X131.617 Y118.463 E.01601
G1 X131.355 Y118.855 E.01479
G1 X130.963 Y119.117 E.01479
G1 X130.461 Y119.213 E.01601
G1 X119.539 Y119.213 E.34247
G1 X119.113 Y119.132 E.01359
M204 S1000
G1 X118.994 Y119.491 F10800
M204 S800
;TYPE:External perimeter
G1 F1200
G1 X118.893 Y119.467 E.00323
G1 X118.493 Y119.218 E.01477
G1 X118.18 Y118.882 E.01441
G1 X117.988 Y118.46 E.01455
G1 X117.91 Y117.98 E.01524
G1 X117.91 Y92.02 E.81395
G1 X117.927 Y91.845 E.00552
M73 P2 R18
G1 X118.033 Y91.392 E.01458
G1 X118.278 Y90.997 E.01458
G1 X118.618 Y90.68 E.01458
G1 X119.041 Y90.488 E.01458
G1 X119.52 Y90.41 E.01521
G1 X130.4 Y90.413 E.34113
G1 X130.655 Y90.427 E.008
G1 X131.108 Y90.533 E.01458
G1 X131.503 Y90.778 E.01458
G1 X131.82 Y91.118 E.01458
G1 X132.012 Y91.541 E.01458
G1 X132.09 Y92.02 E.01521
G1 X132.09 Y117.897 E.81134
G1 X132.073 Y118.155 E.00811
G1 X131.967 Y118.608 E.01458
G1 X131.722 Y119.003 E.01458
G1 X131.382 Y119.32 E.01458
G1 X130.959 Y119.512 E.01458
G1 X130.48 Y119.59 E.01521
G1 X119.603 Y119.59 E.34102
G1 X119.352 Y119.573 E.00791
G1 X119.052 Y119.504 E.00964
M204 S1000
G1 X118.961 Y119.393 F10800
;WIPE_START
G1 F8640
G1 X118.893 Y119.467 E-.03762
G1 X118.493 Y119.218 E-.10881
G1 X118.18 Y118.882 E-.10616
G1 X117.988 Y118.46 E-.10716
G1 X117.91 Y117.98 E-.11222
G1 X117.91 Y116.732 E-.28803
;WIPE_END
G1 E-.04 F2100
G1 Z.6 F720
G1 X131.6 Y92.327 F10800
G1 Z.2 F720
G1 E.8 F2100
M204 S800
;TYPE:Solid infill
;WIDTH:0.421476
G1 F1200
G1 X130.346 Y91.073 E.05583
G1 X129.81 Y91.073 E.01686
G1 X131.43 Y92.693 E.07212
G1 X131.43 Y93.228 E.01685
G1 X129.275 Y91.072 E.09595
G1 X128.739 Y91.072 E.01686
G1 X131.43 Y93.763 E.11979
G1 X131.43 Y94.299 E.01685
G1 X128.204 Y91.072 E.14363
G1 X127.668 Y91.072 E.01686
G1 X131.43 Y94.834 E.16747
G1 X131.43 Y95.369 E.01685
G1 X127.133 Y91.072 E.19131
G1 X126.597 Y91.072 E.01686
G1 X131.43 Y95.905 E.21514
G1 X131.43 Y96.44 E.01685
G1 X126.062 Y91.072 E.23898
G1 X125.526 Y91.071 E.01686
G1 X131.43 Y96.975 E.26282
G1 X131.43 Y97.511 E.01685
G1 X124.991 Y91.071 E.28666
G1 X124.455 Y91.071 E.01686
G1 X131.43 Y98.046 E.3105
G1 X131.43 Y98.582 E.01685
G1 X123.92 Y91.071 E.33433
G1 X123.384 Y91.071 E.01686
G1 X131.43 Y99.117 E.35817
G1 X131.43 Y99.652 E.01685
G1 X122.849 Y91.071 E.38201
G1 X122.313 Y91.071 E.01686
G1 X131.43 Y100.188 E.40585
G1 X131.43 Y100.723 E.01685
G1 X121.778 Y91.07 E.42968
G1 X121.242 Y91.07 E.01686
M73 P3 R18
G1 X131.43 Y101.258 E.45352
G1 X131.43 Y101.794 E.01685
G1 X120.707 Y91.07 E.47736
G1 X120.171 Y91.07 E.01686
G1 X131.43 Y102.329 E.5012
G1 X131.43 Y102.864 E.01685
G1 X119.636 Y91.07 E.52504
G1 X119.319 Y91.093 E.01
G1 X119.169 Y91.139 E.00493
G1 X131.43 Y103.4 E.54581
G1 X131.43 Y103.935 E.01685
G1 X118.844 Y91.349 E.56029
G1 X118.731 Y91.486 E.0056
G1 X118.645 Y91.646 E.00571
G1 X118.636 Y91.677 E.001
G1 X131.43 Y104.471 E.56953
G1 X131.43 Y105.006 E.01685
G1 X118.57 Y92.146 E.57248
G1 X118.57 Y92.681 E.01685
G1 X131.43 Y105.541 E.57248
G1 X131.43 Y106.077 E.01685
M73 P3 R17
G1 X118.57 Y93.216 E.57248
G1 X118.57 Y93.752 E.01685
G1 X131.43 Y106.612 E.57248
G1 X131.43 Y107.147 E.01685
G1 X118.57 Y94.287 E.57248
G1 X118.57 Y94.822 E.01685
G1 X131.43 Y107.683 E.57248
G1 X131.43 Y108.218 E.01685
M73 P4 R17
G1 X118.57 Y95.358 E.57248
G1 X118.57 Y95.893 E.01685
G1 X131.43 Y108.753 E.57248
G1 X131.43 Y109.289 E.01685
G1 X118.57 Y96.428 E.57248
G1 X118.57 Y96.964 E.01685
G1 X131.43 Y109.824 E.57248
G1 X131.43 Y110.359 E.01685
G1 X118.57 Y97.499 E.57248
G1 X118.57 Y98.035 E.01685
G1 X131.43 Y110.895 E.57248
G1 X131.43 Y111.43 E.01685
G1 X118.57 Y98.57 E.57248
G1 X118.57 Y99.105 E.01685
G1 X131.43 Y111.966 E.57248
G1 X131.43 Y112.501 E.01685
G1 X118.57 Y99.641 E.57248
G1 X118.57 Y100.176 E.01685
G1 X131.43 Y113.036 E.57248
G1 X131.43 Y113.572 E.01685
G1 X118.57 Y100.711 E.57248
G1 X118.57 Y101.247 E.01685
G1 X131.43 Y114.107 E.57248
G1 X131.43 Y114.642 E.01685
M73 P5 R17
G1 X118.57 Y101.782 E.57248
G1 X118.57 Y102.317 E.01685
G1 X131.43 Y115.178 E.57248
G1 X131.43 Y115.713 E.01685
G1 X118.57 Y102.853 E.57248
G1 X118.57 Y103.388 E.01685
G1 X131.43 Y116.248 E.57248
G1 X131.43 Y116.784 E.01685
G1 X118.57 Y103.924 E.57248
G1 X118.57 Y104.459 E.01685
G1 X131.43 Y117.319 E.57248
G1 X131.43 Y117.854 E.01685
G1 X118.57 Y104.994 E.57248
G1 X118.57 Y105.53 E.01685
G1 X131.364 Y118.323 E.56952
G1 X131.269 Y118.514 E.00669
G1 X131.156 Y118.651 E.0056
G1 X118.57 Y106.065 E.56029
G1 X118.57 Y106.6 E.01685
G1 X130.831 Y118.861 E.54581
G1 X130.68 Y118.907 E.00495
G1 X130.364 Y118.93 E.00998
G1 X118.57 Y107.136 E.52503
G1 X118.57 Y107.671 E.01685
G1 X129.829 Y118.93 E.5012
G1 X129.294 Y118.93 E.01685
M73 P6 R17
G1 X118.57 Y108.206 E.47737
G1 X118.57 Y108.742 E.01685
G1 X128.758 Y118.93 E.45354
G1 X128.223 Y118.93 E.01685
G1 X118.57 Y109.277 E.42971
G1 X118.57 Y109.812 E.01685
G1 X127.688 Y118.93 E.40588
G1 X127.152 Y118.93 E.01685
G1 X118.57 Y110.348 E.38204
G1 X118.57 Y110.883 E.01685
G1 X126.617 Y118.93 E.35821
G1 X126.081 Y118.93 E.01685
G1 X118.57 Y111.419 E.33438
G1 X118.57 Y111.954 E.01685
G1 X125.546 Y118.93 E.31055
G1 X125.011 Y118.93 E.01685
G1 X118.57 Y112.489 E.28672
G1 X118.57 Y113.025 E.01685
G1 X124.475 Y118.93 E.26289
G1 X123.94 Y118.93 E.01685
G1 X118.57 Y113.56 E.23905
G1 X118.57 Y114.095 E.01685
G1 X123.405 Y118.93 E.21522
G1 X122.869 Y118.93 E.01685
G1 X118.57 Y114.631 E.19139
G1 X118.57 Y115.166 E.01685
G1 X122.334 Y118.93 E.16756
G1 X121.799 Y118.93 E.01685
G1 X118.57 Y115.701 E.14373
G1 X118.57 Y116.237 E.01685
G1 X121.263 Y118.93 E.1199
G1 X120.728 Y118.93 E.01685
G1 X118.57 Y116.772 E.09606
G1 X118.57 Y117.307 E.01685
G1 X120.193 Y118.93 E.07223
G1 X119.657 Y118.93 E.01685
G1 X118.4 Y117.673 E.05595
M204 S1000
; stop printing object cable_holder_2.stl id:0 copy 0
M106 S84.15
;LAYER_CHANGE
;Z:0.4
;HEIGHT:0.2
;BEFORE_LAYER_CHANGE
G92 E0.0
;0.4


;WIPE_START
G1 F8640
G1 X119.657 Y118.93 E-.41046
G1 X120.193 Y118.93 E-.12362
G1 X119.501 Y118.238 E-.22593
;WIPE_END
G1 E-.04 F2100
G1 Z.6 F720
;AFTER_LAYER_CHANGE
;0.4
;CURRENT_Z: 0.4
M104 S210 ; set temperature
G1 X118.443 Y122.606 F10800
G1 Z.4 F720
G1 E.8 F2100
;TYPE:Skirt/Brim
;WIDTH:0.42
G1 F3000
G1 X117.935 Y122.483 E.01637
G1 X117.436 Y122.277 E.01693
G1 X116.642 Y121.792 E.02919
G1 X115.708 Y120.858 E.0414
G1 X115.316 Y120.237 E.02305
G1 X115.017 Y119.565 E.02305
G1 X114.759 Y118.27 E.0414
G1 X114.746 Y92 E.82368
G1 X114.798 Y91.34 E.02076
G1 X115.017 Y90.435 E.02919
G1 X115.408 Y89.591 E.02919
G1 X115.708 Y89.142 E.01693
G1 X116.339 Y88.457 E.02919
G1 X117.091 Y87.908 E.02919
G1 X118.31 Y87.403 E.0414
G1 X119.5 Y87.246 E.03762
G1 X130.77 Y87.259 E.35336
G1 X132.065 Y87.517 E.0414
G1 X132.909 Y87.908 E.02919
G1 X133.661 Y88.457 E.02919
G1 X134.292 Y89.142 E.02919
G1 X134.777 Y89.936 E.02919
G1 X135.097 Y90.81 E.02919
G1 X135.202 Y91.34 E.01693
G1 X135.254 Y92 E.02076
G1 X135.254 Y118 E.81521
G1 X135.202 Y118.66 E.02076
M73 P7 R17
G1 X134.983 Y119.565 E.02919
G1 X134.777 Y120.064 E.01693
G1 X134.292 Y120.858 E.02919
G1 X133.661 Y121.543 E.02919
G1 X132.564 Y122.277 E.0414
G1 X131.952 Y122.517 E.0206
G1 X131.16 Y122.702 E.02551
G1 X119.5 Y122.754 E.3656
G1 X118.84 Y122.702 E.02076
G1 X118.501 Y122.62 E.01093
G1 X118.59 Y122.257 F10800
G1 F3000
G1 X118.045 Y122.122 E.01762
G1 X116.881 Y121.5 E.04137
G1 X116 Y120.619 E.03908
G1 X115.378 Y119.455 E.04137
G1 X115.134 Y118.233 E.03908
G1 X115.123 Y92 E.82252
G1 X115.173 Y91.377 E.0196
G1 X115.378 Y90.545 E.02687
G1 X116 Y89.381 E.04137
G1 X116.669 Y88.674 E.03053
G1 X117.614 Y88.056 E.03541
G1 X118.877 Y87.673 E.04137
G1 X130.733 Y87.634 E.37174
G1 X131.955 Y87.878 E.03908
G1 X132.732 Y88.241 E.02687
G1 X133.422 Y88.748 E.02687
G1 X134 Y89.381 E.02687
G1 X134.444 Y90.114 E.02687
G1 X134.827 Y91.377 E.04137
G1 X134.877 Y118 E.83475
G1 X134.827 Y118.623 E.0196
G1 X134.622 Y119.455 E.02687
G1 X134 Y120.619 E.04137
G1 X133.422 Y121.252 E.02687
G1 X132.386 Y121.944 E.03908
G1 X131.123 Y122.327 E.04137
G1 X119.5 Y122.377 E.36444
G1 X118.877 Y122.327 E.0196
G1 X118.649 Y122.271 E.00737
; printing object cable_holder_2.stl id:0 copy 0
;WIPE_START
G1 F8640
G1 X118.045 Y122.122 E-.14363
G1 X116.881 Y121.5 E-.30469
G1 X116 Y120.619 E-.28779
G1 X115.951 Y120.528 E-.02389
;WIPE_END
G1 E-.04 F2100
G1 Z.8 F720
G1 X119.007 Y119.267 F10800
G1 Z.4 F720
G1 E.8 F2100
M204 S800
;TYPE:Perimeter
;WIDTH:0.449999
G1 F3000
G1 X118.638 Y119.05 E.01447
G1 X118.365 Y118.758 E.01353
G1 X118.2 Y118.394 E.01353
G1 X118.132 Y117.969 E.01458
G1 X118.132 Y92.031 E.87797
G1 X118.199 Y91.608 E.01449
G1 X118.365 Y91.242 E.01362
G1 X118.623 Y90.963 E.01285
G1 X119.075 Y90.71 E.01754
G1 X119.531 Y90.632 E.01565
G1 X130.586 Y90.644 E.3742
G1 X131.022 Y90.739 E.01513
G1 X131.361 Y90.949 E.01349
G1 X131.635 Y91.242 E.01356
G1 X131.8 Y91.605 E.01352
G1 X131.868 Y92.031 E.01459
G1 X131.868 Y117.897 E.87552
G1 X131.861 Y118.041 E.00489
G1 X131.761 Y118.522 E.01664
G1 X131.55 Y118.862 E.01353
G1 X131.258 Y119.135 E.01353
G1 X130.894 Y119.3 E.01353
G1 X130.469 Y119.368 E.01458
G1 X119.603 Y119.368 E.36779
G1 X119.459 Y119.361 E.00489
G1 X119.065 Y119.279 E.01361
M204 S1000
G1 X118.925 Y119.663 F10800
M204 S800
;TYPE:External perimeter
G1 F2400
G1 X118.821 Y119.639 E.00362
G1 X118.38 Y119.365 E.01758
G1 X118.025 Y118.986 E.01758
G1 X117.811 Y118.512 E.01758
G1 X117.725 Y117.989 E.01796
G1 X117.725 Y92.011 E.87932
G1 X117.743 Y91.824 E.00635
G1 X117.861 Y91.321 E.01749
G1 X118.13 Y90.886 E.01732
G1 X118.511 Y90.528 E.01768
G1 X119.026 Y90.299 E.01908
G1 X119.511 Y90.225 E.01661
G1 X130.41 Y90.236 E.36894
G1 X130.685 Y90.244 E.0093
G1 X131.179 Y90.361 E.01717
G1 X131.62 Y90.636 E.0176
G1 X131.975 Y91.014 E.01756
G1 X132.189 Y91.488 E.01759
G1 X132.275 Y92.011 E.01795
G1 X132.275 Y117.897 E.8762
G1 X132.257 Y118.173 E.00937
G1 X132.139 Y118.679 E.01758
G1 X131.865 Y119.12 E.01758
G1 X131.486 Y119.475 E.01758
G1 X131.012 Y119.689 E.01758
G1 X130.489 Y119.775 E.01796
G1 X119.603 Y119.775 E.36846
G1 X119.327 Y119.757 E.00937
G1 X118.984 Y119.677 E.01193
M204 S1000
G1 X118.892 Y119.561 F10800
;WIPE_START
G1 F8640
G1 X118.821 Y119.639 E-.03857
G1 X118.38 Y119.365 E-.11993
G1 X118.025 Y118.986 E-.11993
G1 X117.811 Y118.512 E-.11993
G1 X117.725 Y117.989 E-.12249
G1 X117.725 Y116.953 E-.23916
;WIPE_END
G1 E-.04 F2100
G1 Z.8 F720
G1 X130.793 Y119.203 F10800
G1 Z.4 F720
G1 E.8 F2100
M204 S2000
;TYPE:Solid infill
;WIDTH:0.45275
G1 F3000
G1 X131.251 Y118.745 E.02209
G1 X131.38 Y118.588 E.00692
G1 X131.478 Y118.405 E.00707
G1 X131.538 Y118.206 E.00707
G1 X131.563 Y117.854 E.01206
G1 X130.354 Y119.063 E.05827
G1 X129.774 Y119.063 E.01975
G1 X131.563 Y117.274 E.0862
G1 X131.563 Y116.694 E.01975
G1 X129.194 Y119.063 E.11413
G1 X128.615 Y119.063 E.01975
G1 X131.563 Y116.115 E.14207
G1 X131.563 Y115.535 E.01975
G1 X128.035 Y119.063 E.17
G1 X127.456 Y119.063 E.01975
G1 X131.563 Y114.956 E.19793
G1 X131.563 Y114.376 E.01975
G1 X126.876 Y119.063 E.22586
G1 X126.296 Y119.063 E.01975
G1 X131.563 Y113.796 E.25379
G1 X131.563 Y113.217 E.01975
G1 X125.717 Y119.063 E.28173
G1 X125.137 Y119.063 E.01975
G1 X131.563 Y112.637 E.30966
G1 X131.563 Y112.058 E.01975
G1 X124.558 Y119.063 E.33759
G1 X123.978 Y119.063 E.01975
G1 X131.563 Y111.478 E.36552
G1 X131.563 Y110.898 E.01975
G1 X123.398 Y119.063 E.39345
G1 X122.819 Y119.063 E.01975
G1 X131.563 Y110.319 E.42139
G1 X131.563 Y109.739 E.01975
G1 X122.239 Y119.063 E.44932
G1 X121.66 Y119.063 E.01975
G1 X131.563 Y109.16 E.47725
G1 X131.563 Y108.58 E.01975
G1 X121.08 Y119.063 E.50518
G1 X120.501 Y119.063 E.01975
G1 X131.563 Y108.001 E.53311
G1 X131.563 Y107.421 E.01975
M73 P8 R17
G1 X119.921 Y119.063 E.56104
G1 X119.36 Y119.044 E.01914
G1 X131.563 Y106.841 E.58809
G1 X131.563 Y106.262 E.01975
G1 X118.933 Y118.891 E.60864
G1 X118.752 Y118.748 E.00787
G1 X118.637 Y118.608 E.00618
G1 X131.563 Y105.682 E.62293
G1 X131.563 Y105.103 E.01975
G1 X118.462 Y118.203 E.63136
G1 X118.437 Y117.954 E.00854
G1 X118.437 Y117.648 E.01042
