; generated by PrusaSlicer 2.8.0 on 2024-09-21 at 14:29:11 UTC

; 

; external perimeters extrusion width = 0.45mm
; perimeters extrusion width = 0.45mm
; infill extrusion width = 0.45mm
; solid infill extrusion width = 0.45mm
; top infill extrusion width = 0.40mm
; first layer extrusion width = 0.42mm

M73 P0 R18
M201 X9000 Y9000 Z500 E10000 ; sets maximum accelerations, mm/sec^2
M203 X500 Y500 Z12 E120 ; sets maximum feedrates, mm / sec
M204 S2000 T1500 ; sets acceleration (S) and retract acceleration (R), mm/sec^2
M205 X10.00 Y10.00 Z0.20 E4.50 ; sets the jerk limits, mm/sec
M205 S0 T0 ; sets the minimum extruding and travel feed rate, mm/sec

; printing object cable_holder_2.stl id:0 copy 0
; stop printing object cable_holder_2.stl id:0 copy 0

;TYPE:Custom
M862.3 P "MK2.5" ; printer model check
M862.1 P0.4 ; nozzle diameter check
M115 U3.11.0 ; tell printer latest fw version
G90 ; use absolute coordinates
M83 ; extruder relative mode
M104 S215 ; set extruder temp
M140 S60 ; set bed temp
M190 S60 ; wait for bed temp
M109 S215 ; wait for extruder temp
G28 W ; home all without mesh bed level
G80 ; mesh bed leveling

G1 Z0.2 F720
G1 Y-3 F1000 ; go outside print area
G92 E0
G1 X60 E9 F1000 ; intro line
G1 X100 E12.5 F1000 ; intro line

G92 E0
G21 ; set units to millimeters
G90 ; use absolute coordinates
M83 ; use relative distances for extrusion
M900 K0.05 ; Filament gcode LA 1.5
M900 K30 ; Filament gcode LA 1.0
M107
;LAYER_CHANGE
;Z:0.2
;HEIGHT:0.2
G1 E-.8 F2100
G1 Z.6 F720
G1 X115.853 Y89.262 F10800
G1 Z.2 F720
G1 E.8 F2100
M204 S800
;TYPE:Skirt/Brim
;WIDTH:0.42
G1 F1200
G1 X116.459 Y88.602 E.02809
G1 X117.525 Y87.89 E.04019
G1 X118.858 Y87.485 E.04368
G1 X130.752 Y87.447 E.37293
G1 X132.01 Y87.697 E.04022
G1 X132.821 Y88.075 E.02805
G1 X133.541 Y88.602 E.02798
G1 X134.147 Y89.262 E.02809
G1 X134.61 Y90.025 E.02798
G1 X135.015 Y91.358 E.04368
G1 X135.066 Y118 E.83534
G1 X135.015 Y118.642 E.02019
G1 X134.803 Y119.51 E.02802
G1 X134.147 Y120.738 E.04365
G1 X133.541 Y121.398 E.02809
G1 X132.475 Y122.11 E.04019
G1 X131.142 Y122.515 E.04368
G1 X119.5 Y122.566 E.36503
G1 X118.858 Y122.515 E.02019
G1 X117.99 Y122.303 E.02802
G1 X116.762 Y121.647 E.04365
G1 X115.853 Y120.738 E.04031
G1 X115.197 Y119.51 E.04365
G1 X114.947 Y118.252 E.04022
G1 X114.934 Y92 E.82311
G1 X114.985 Y91.358 E.02019
M73 P1 R18
G1 X115.197 Y90.49 E.02802
G1 X115.825 Y89.315 E.04177
M204 S1000
G1 X115.825 Y89.315 F10800
G1 X116.145 Y89.501
M204 S800
G1 F1200
G1 X116.698 Y88.893 E.02577
G1 X117.703 Y88.222 E.03789
G1 X118.895 Y87.86 E.03906
G1 X130.715 Y87.822 E.37061
G1 X131.9 Y88.058 E.03788
G1 X132.643 Y88.407 E.02574
G1 X133.302 Y88.893 E.02567
G1 X133.855 Y89.501 E.02577
G1 X134.278 Y90.203 E.0257
G1 X134.64 Y91.395 E.03906
G1 X134.689 Y118 E.83418
G1 X134.64 Y118.605 E.01903
G1 X134.442 Y119.4 E.02569
G1 X133.855 Y120.499 E.03907
G1 X133.302 Y121.107 E.02577
G1 X132.297 Y121.778 E.03789
G1 X131.105 Y122.14 E.03906
G1 X119.5 Y122.189 E.36387
G1 X118.895 Y122.14 E.01903
G1 X118.1 Y121.942 E.02569
G1 X117.001 Y121.355 E.03907
G1 X116.145 Y120.499 E.03796
G1 X115.558 Y119.4 E.03907
G1 X115.322 Y118.215 E.03788
G1 X115.311 Y92 E.82195
G1 X115.36 Y91.395 E.01903
G1 X115.558 Y90.6 E.02569
G1 X116.116 Y89.554 E.03717
M204 S1000
;WIPE_START
G1 F8640
G1 X116.145 Y89.501 E-.01395
G1 X116.698 Y88.893 E-.18977
G1 X117.703 Y88.222 E-.27903
G1 X118.895 Y87.86 E-.28765
G1 X119.023 Y87.86 E-.0296
;WIPE_END
G1 Z.6 F720
; printing object cable_holder_2.stl id:0 copy 0
G1 X131.709 Y92.078 F10800
G1 Z.2 F720
G1 E.8 F2100
M204 S800
;TYPE:Perimeter
;WIDTH:0.419999
G1 F1200
G1 X131.713 Y92.103 E.00079
G1 X131.713 Y117.961 E.81076
G1 X131.617 Y118.463 E.01603
G1 X131.355 Y118.855 E.01478
G1 X130.963 Y119.117 E.01478
G1 X130.461 Y119.213 E.01603
G1 X119.539 Y119.213 E.34245
G1 X119.037 Y119.117 E.01603
G1 X118.645 Y118.855 E.01478
G1 X118.383 Y118.463 E.01478
G1 X118.287 Y117.961 E.01603
G1 X118.287 Y92.039 E.81276
G1 X118.383 Y91.537 E.01603
G1 X118.645 Y91.145 E.01478
G1 X119.037 Y90.883 E.01478
G1 X119.539 Y90.787 E.01603
G1 X130.4 Y90.79 E.34054
G1 X130.736 Y90.814 E.01056
G1 X131.172 Y90.995 E.0148
G1 X131.505 Y91.328 E.01477
G1 X131.652 Y91.651 E.01113
G1 X131.701 Y92.018 E.01161
M204 S1000
G1 X131.701 Y92.018 F10800
G1 X132.085 Y92.041
M204 S800
;TYPE:External perimeter
G1 F1200
G1 X132.09 Y92.103 E.00195
G1 X132.09 Y117.897 E.80875
G1 X132.073 Y118.155 E.00811
M73 P2 R18
G1 X131.967 Y118.608 E.01459
G1 X131.722 Y119.002 E.01455
G1 X131.382 Y119.32 E.0146
G1 X130.958 Y119.512 E.01459
G1 X130.48 Y119.59 E.01519
G1 X119.603 Y119.59 E.34104
G1 X119.345 Y119.573 E.00811
G1 X118.892 Y119.467 E.01459
G1 X118.498 Y119.222 E.01455
G1 X118.18 Y118.882 E.0146
G1 X117.988 Y118.458 E.01459
G1 X117.91 Y117.98 E.01519
G1 X117.91 Y92.103 E.81135
G1 X117.927 Y91.845 E.00811
G1 X118.033 Y91.392 E.01459
G1 X118.278 Y90.998 E.01455
G1 X118.618 Y90.68 E.0146
G1 X119.042 Y90.488 E.01459
G1 X119.52 Y90.41 E.01519
G1 X130.4 Y90.413 E.34113
G1 X130.81 Y90.442 E.01289
G1 X131.245 Y90.606 E.01458
G1 X131.623 Y90.877 E.01458
G1 X131.893 Y91.254 E.01454
G1 X132.058 Y91.69 E.01462
G1 X132.08 Y91.981 E.00915
M204 S1000
G1 X132.08 Y91.981 F10800
G1 X131.6 Y92.327
M204 S800
;TYPE:Solid infill
;WIDTH:0.421477
G1 F1200
G1 X130.346 Y91.073 E.05582
G1 X129.81 Y91.073 E.01687
G1 X131.43 Y92.693 E.07211
G1 X131.43 Y93.228 E.01684
G1 X129.275 Y91.072 E.09595
G1 X128.739 Y91.072 E.01687
G1 X131.43 Y93.763 E.11979
G1 X131.43 Y94.299 E.01687
G1 X128.204 Y91.072 E.14363
G1 X127.668 Y91.072 E.01687
G1 X131.43 Y94.834 E.16747
G1 X131.43 Y95.369 E.01684
G1 X127.133 Y91.072 E.19128
G1 X126.597 Y91.072 E.01687
G1 X131.43 Y95.905 E.21514
G1 X131.43 Y96.44 E.01684
G1 X126.062 Y91.072 E.23896
G1 X125.526 Y91.071 E.01687
G1 X131.43 Y96.975 E.26282
G1 X131.43 Y97.511 E.01687
G1 X124.991 Y91.071 E.28666
G1 X124.455 Y91.071 E.01687
G1 X131.43 Y98.046 E.31049
G1 X131.43 Y98.581 E.01684
G1 X123.92 Y91.071 E.33431
G1 X123.384 Y91.071 E.01687
G1 X131.43 Y99.117 E.35817
G1 X131.43 Y99.652 E.01684
G1 X122.849 Y91.071 E.38199
G1 X122.313 Y91.071 E.01687
G1 X131.43 Y100.188 E.40585
G1 X131.43 Y100.723 E.01684
G1 X121.778 Y91.07 E.42968
G1 X121.242 Y91.07 E.01687
G1 X131.43 Y101.258 E.45352
G1 X131.43 Y101.794 E.01687
M73 P3 R18
G1 X120.707 Y91.07 E.47736
G1 X120.171 Y91.07 E.01687
G1 X131.43 Y102.329 E.5012
G1 X131.43 Y102.864 E.01684
G1 X119.636 Y91.07 E.52501
G1 X119.319 Y91.093 E.01
G1 X119.169 Y91.139 E.00494
G1 X131.43 Y103.4 E.5458
G1 X131.43 Y103.935 E.01684
G1 X118.844 Y91.349 E.56027
G1 X118.731 Y91.486 E.00559
G1 X118.645 Y91.646 E.00572
G1 X118.636 Y91.677 E.00102
G1 X131.43 Y104.47 E.56951
G1 X131.43 Y105.006 E.01687
G1 X118.57 Y92.146 E.57247
G1 X118.57 Y92.681 E.01684
G1 X131.43 Y105.541 E.57247
G1 X131.43 Y106.077 E.01687
G1 X118.57 Y93.216 E.57249
G1 X118.57 Y93.752 E.01687
G1 X131.43 Y106.612 E.57247
G1 X131.43 Y107.147 E.01684
G1 X118.57 Y94.287 E.57247
G1 X118.57 Y94.822 E.01684
M73 P3 R17
G1 X131.43 Y107.683 E.57249
G1 X131.43 Y108.218 E.01684
G1 X118.57 Y95.358 E.57247
G1 X118.57 Y95.893 E.01684
M73 P4 R17
G1 X131.43 Y108.753 E.57247
G1 X131.43 Y109.289 E.01687
G1 X118.57 Y96.428 E.57249
G1 X118.57 Y96.964 E.01687
G1 X131.43 Y109.824 E.57247
G1 X131.43 Y110.359 E.01684
G1 X118.57 Y97.499 E.57247
G1 X118.57 Y98.035 E.01687
G1 X131.43 Y110.895 E.57247
G1 X131.43 Y111.43 E.01684
G1 X118.57 Y98.57 E.57247
G1 X118.57 Y99.105 E.01684
G1 X131.43 Y111.966 E.57249
G1 X131.43 Y112.501 E.01684
G1 X118.57 Y99.641 E.57247
G1 X118.57 Y100.176 E.01684
G1 X131.43 Y113.036 E.57247
G1 X131.43 Y113.572 E.01687
G1 X118.57 Y100.711 E.57249
G1 X118.57 Y101.247 E.01687
G1 X131.43 Y114.107 E.57247
G1 X131.43 Y114.642 E.01684
G1 X118.57 Y101.782 E.57247
G1 X118.57 Y102.317 E.01684
M73 P5 R17
G1 X131.43 Y115.178 E.57249
G1 X131.43 Y115.713 E.01684
G1 X118.57 Y102.853 E.57247
G1 X118.57 Y103.388 E.01684
G1 X131.43 Y116.248 E.57247
G1 X131.43 Y116.784 E.01687
G1 X118.57 Y103.924 E.57247
G1 X118.57 Y104.459 E.01684
G1 X131.43 Y117.319 E.57247
G1 X131.43 Y117.854 E.01684
G1 X118.57 Y104.994 E.57247
G1 X118.57 Y105.53 E.01687
G1 X131.364 Y118.324 E.56953
G1 X131.269 Y118.514 E.00669
G1 X131.156 Y118.651 E.00559
G1 X118.57 Y106.065 E.56027
G1 X118.57 Y106.6 E.01684
G1 X130.831 Y118.861 E.5458
G1 X130.68 Y118.907 E.00497
G1 X130.364 Y118.93 E.00997
G1 X118.57 Y107.136 E.52501
G1 X118.57 Y107.671 E.01684
G1 X129.829 Y118.93 E.5012
G1 X129.294 Y118.93 E.01684
G1 X118.57 Y108.206 E.47738
G1 X118.57 Y108.742 E.01687
M73 P6 R17
G1 X128.758 Y118.93 E.45352
G1 X128.223 Y118.93 E.01684
G1 X118.57 Y109.277 E.42971
G1 X118.57 Y109.812 E.01684
G1 X127.688 Y118.93 E.40589
G1 X127.152 Y118.93 E.01687
G1 X118.57 Y110.348 E.38203
G1 X118.57 Y110.883 E.01684
G1 X126.617 Y118.93 E.35822
G1 X126.081 Y118.93 E.01687
G1 X118.57 Y111.419 E.33436
G1 X118.57 Y111.954 E.01684
G1 X125.546 Y118.93 E.31054
G1 X125.011 Y118.93 E.01684
G1 X118.57 Y112.489 E.28672
G1 X118.57 Y113.025 E.01687
G1 X124.475 Y118.93 E.26286
G1 X123.94 Y118.93 E.01684
G1 X118.57 Y113.56 E.23905
G1 X118.57 Y114.095 E.01684
G1 X123.405 Y118.93 E.21523
G1 X122.869 Y118.93 E.01687
G1 X118.57 Y114.631 E.19137
G1 X118.57 Y115.166 E.01684
G1 X122.334 Y118.93 E.16756
G1 X121.799 Y118.93 E.01684
G1 X118.57 Y115.701 E.14374
G1 X118.57 Y116.237 E.01687
G1 X121.263 Y118.93 E.11988
G1 X120.728 Y118.93 E.01684
G1 X118.57 Y116.772 E.09606
G1 X118.57 Y117.308 E.01687
G1 X120.192 Y118.93 E.0722
G1 X119.657 Y118.93 E.01684
G1 X118.4 Y117.673 E.05596
M204 S1000
M106 S84.15
;LAYER_CHANGE
;Z:0.4
;HEIGHT:0.2
;BEFORE_LAYER_CHANGE
G92 E0.0
;0.4


;WIPE_START
G1 F8640
G1 X119.657 Y118.93 E-.41047
G1 X120.192 Y118.93 E-.12353
G1 X119.377 Y118.115 E-.266
;WIPE_END
G1 Z.4 F720
;AFTER_LAYER_CHANGE
;0.4
;CURRENT_Z: 0.4
M104 S210 ; set temperature
; stop printing object cable_holder_2.stl id:0 copy 0
G1 Z.8
G1 X115.546 Y120.162 F10800
G1 Z.4 F720
G1 E.8 F2100
;TYPE:Skirt/Brim
;WIDTH:0.42
G1 F3000
G1 X115.197 Y119.51 E.02319
G1 X114.947 Y118.252 E.04022
G1 X114.934 Y92 E.82311
G1 X114.985 Y91.358 E.02019
G1 X115.197 Y90.49 E.02802
G1 X115.853 Y89.262 E.04365
G1 X116.459 Y88.602 E.02809
G1 X117.525 Y87.89 E.04019
G1 X118.858 Y87.485 E.04368
G1 X130.752 Y87.447 E.37293
G1 X132.01 Y87.697 E.04022
G1 X132.821 Y88.075 E.02805
G1 X133.541 Y88.602 E.02798
G1 X134.147 Y89.262 E.02809
G1 X134.61 Y90.025 E.02798
G1 X135.015 Y91.358 E.04368
G1 X135.066 Y118 E.83534
G1 X135.015 Y118.642 E.02019
G1 X134.803 Y119.51 E.02802
G1 X134.147 Y120.738 E.04365
G1 X133.541 Y121.398 E.02809
G1 X132.475 Y122.11 E.04019
G1 X131.142 Y122.515 E.04368
G1 X119.5 Y122.566 E.36503
G1 X118.858 Y122.515 E.02019
G1 X117.99 Y122.303 E.02802
G1 X116.762 Y121.647 E.04365
G1 X115.853 Y120.738 E.04031
G1 X115.574 Y120.215 E.01859
G1 X115.574 Y120.215 F10800
G1 X115.9 Y120.041
G1 F3000
G1 X115.558 Y119.4 E.02278
G1 X115.322 Y118.215 E.03788
G1 X115.311 Y92 E.82195
G1 X115.36 Y91.395 E.01903
M73 P7 R17
G1 X115.558 Y90.6 E.02569
G1 X116.145 Y89.501 E.03907
G1 X116.698 Y88.893 E.02577
G1 X117.703 Y88.222 E.03789
G1 X118.895 Y87.86 E.03906
G1 X130.715 Y87.822 E.37061
G1 X131.9 Y88.058 E.03788
G1 X132.643 Y88.407 E.02574
G1 X133.302 Y88.893 E.02567
G1 X133.855 Y89.501 E.02577
G1 X134.278 Y90.203 E.0257
G1 X134.64 Y91.395 E.03906
G1 X134.689 Y118 E.83418
G1 X134.64 Y118.605 E.01903
G1 X134.442 Y119.4 E.02569
G1 X133.855 Y120.499 E.03907
G1 X133.302 Y121.107 E.02577
G1 X132.297 Y121.778 E.03789
G1 X131.105 Y122.14 E.03906
G1 X119.5 Y122.189 E.36387
G1 X118.895 Y122.14 E.01903
G1 X118.1 Y121.942 E.02569
G1 X117.001 Y121.355 E.03907
G1 X116.145 Y120.499 E.03796
G1 X115.928 Y120.094 E.01441
;WIPE_START
G1 F8640
G1 X115.9 Y120.041 E-.01384
G1 X115.558 Y119.4 E-.16776
G1 X115.322 Y118.215 E-.27899
G1 X115.321 Y116.745 E-.33941
;WIPE_END
G1 Z.8 F720
; printing object cable_holder_2.stl id:0 copy 0
G1 X131.86 Y92 F10800
G1 Z.4 F720
G1 E.8 F2100
M204 S800
;TYPE:Perimeter
;WIDTH:0.449999
G1 F3000
G1 X131.868 Y92.103 E.0035
G1 X131.868 Y117.897 E.87309
G1 X131.861 Y118.041 E.00488
G1 X131.761 Y118.522 E.01663
G1 X131.55 Y118.861 E.01352
G1 X131.258 Y119.135 E.01355
G1 X130.894 Y119.3 E.01353
G1 X130.469 Y119.368 E.01457
G1 X119.603 Y119.368 E.3678
G1 X119.459 Y119.361 E.00488
G1 X118.978 Y119.261 E.01663
G1 X118.639 Y119.05 E.01352
G1 X118.365 Y118.758 E.01355
G1 X118.2 Y118.394 E.01353
G1 X118.132 Y117.969 E.01457
G1 X118.132 Y92.103 E.87553
G1 X118.139 Y91.959 E.00488
G1 X118.239 Y91.478 E.01663
G1 X118.45 Y91.139 E.01352
G1 X118.742 Y90.865 E.01355
G1 X119.106 Y90.7 E.01353
G1 X119.531 Y90.632 E.01457
G1 X130.41 Y90.643 E.36824
G1 X130.766 Y90.661 E.01207
G1 X131.138 Y90.801 E.01345
G1 X131.465 Y91.035 E.01361
G1 X131.697 Y91.359 E.01349
G1 X131.839 Y91.734 E.01357
G1 X131.855 Y91.94 E.00699
M204 S1000
G1 X131.855 Y91.94 F10800
G1 X132.267 Y92
M204 S800
;TYPE:External perimeter
G1 F2400
G1 X132.275 Y92.103 E.0035
G1 X132.275 Y117.897 E.87309
G1 X132.257 Y118.173 E.00936
G1 X132.139 Y118.679 E.01759
G1 X131.865 Y119.119 E.01755
G1 X131.485 Y119.475 E.01763
G1 X131.012 Y119.689 E.01757
G1 X130.489 Y119.775 E.01794
G1 X119.603 Y119.775 E.36848
G1 X119.327 Y119.757 E.00936
G1 X118.821 Y119.639 E.01759
G1 X118.381 Y119.365 E.01755
G1 X118.025 Y118.985 E.01763
G1 X117.811 Y118.512 E.01757
G1 X117.725 Y117.989 E.01794
G1 X117.725 Y92.103 E.87621
G1 X117.743 Y91.827 E.00936
G1 X117.861 Y91.321 E.01759
G1 X118.135 Y90.881 E.01755
G1 X118.515 Y90.525 E.01763
G1 X118.988 Y90.311 E.01757
G1 X119.511 Y90.225 E.01794
G1 X130.411 Y90.236 E.36895
G1 X130.846 Y90.26 E.01475
G1 X131.334 Y90.444 E.01765
G1 X131.754 Y90.746 E.01751
G1 X132.057 Y91.168 E.01758
G1 X132.24 Y91.654 E.01758
G1 X132.262 Y91.94 E.00971
M204 S1000
;WIPE_START
G1 F8640
G1 X132.267 Y92 E-.0139
G1 X132.275 Y92.103 E-.02385
G1 X132.275 Y95.404 E-.76225
;WIPE_END
G1 Z.8 F720
G1 X119.331 Y90.96 F10800
G1 Z.4 F720
G1 E.8 F2100
M204 S2000
;TYPE:Solid infill
G1 F3000
G1 X118.459 Y91.832 E.04174
G1 X118.437 Y92.428 E.02019
G1 X119.928 Y90.938 E.07135
G1 X120.503 Y90.938 E.01946
G1 X118.437 Y93.004 E.0989
G1 X118.437 Y93.58 E.0195
G1 X121.078 Y90.939 E.12642
G1 X121.653 Y90.94 E.01946
G1 X118.437 Y94.155 E.15392
G1 X118.437 Y94.731 E.0195
G1 X122.228 Y90.94 E.18147
G1 X122.803 Y90.941 E.01946
G1 X118.437 Y95.307 E.209
G1 X118.437 Y95.883 E.0195
G1 X123.378 Y90.941 E.23655
G1 X123.954 Y90.942 E.0195
G1 X118.437 Y96.458 E.26407
G1 X118.437 Y97.034 E.0195
G1 X124.529 Y90.943 E.2916
G1 X125.104 Y90.943 E.01946
G1 X118.437 Y97.61 E.31915
G1 X118.437 Y98.185 E.01946
G1 X125.679 Y90.944 E.34665
G1 X126.254 Y90.944 E.01946
G1 X118.437 Y98.761 E.37419
G1 X118.437 Y99.337 E.0195
G1 X126.829 Y90.945 E.40172
G1 X127.404 Y90.946 E.01946
G1 X118.437 Y99.912 E.42922
G1 X118.437 Y100.488 E.0195
G1 X127.979 Y90.946 E.45677
G1 X128.554 Y90.947 E.01946
G1 X118.437 Y101.064 E.48429
G1 X118.437 Y101.639 E.01946
G1 X129.129 Y90.947 E.51182
G1 X129.705 Y90.948 E.0195
G1 X118.437 Y102.215 E.53937
G1 X118.437 Y102.791 E.0195
G1 X130.28 Y90.949 E.56689
G1 X130.81 Y90.994 E.018
G1 X118.437 Y103.367 E.59229
G1 X118.437 Y103.942 E.01946
M73 P8 R17
G1 X131.182 Y91.198 E.61007
G1 X131.437 Y91.519 E.01388
G1 X118.437 Y104.518 E.62228
G1 X118.437 Y105.094 E.0195
G1 X131.556 Y91.975 E.628
G1 X131.563 Y92.544 E.01926
G1 X118.437 Y105.669 E.62831
G1 X118.437 Y106.245 E.0195
G1 X131.563 Y93.12 E.62831
G1 X131.563 Y93.696 E.0195
G1 X118.437 Y106.821 E.62831
G1 X118.437 Y107.396 E.01946
G1 X131.563 Y94.271 E.62831
G1 X131.563 Y94.847 E.0195
G1 X118.437 Y107.972 E.62831
G1 X118.437 Y108.548 E.0195
G1 X131.563 Y95.423 E.62831
G1 X131.563 Y95.998 E.01946
G1 X118.437 Y109.124 E.62833
G1 X118.437 Y109.699 E.01946
G1 X131.563 Y96.574 E.62831
G1 X131.563 Y97.15 E.0195
G1 X118.437 Y110.275 E.62831
G1 X118.437 Y110.851 E.0195
G1 X131.563 Y97.725 E.62833
G1 X131.563 Y98.301 E.0195
G1 X118.437 Y111.426 E.62831
G1 X118.437 Y112.002 E.0195
G1 X131.563 Y98.877 E.62831
G1 X131.563 Y99.452 E.01946
G1 X118.437 Y112.578 E.62833
G1 X118.437 Y113.153 E.01946
G1 X131.563 Y100.028 E.62831
G1 X131.563 Y100.604 E.0195
G1 X118.437 Y113.729 E.62831
